;FLAVOR:Marlin
;TIME:39038
;Filament used: 8.45238m
;Layer height: 0.1
;MINX:40.034
;MINY:69.474
;MINZ:0.1
;MAXX:177.85
;MAXY:150.526
;MAXZ:15.3
;Generated with Cura_SteamEngine master
M82 ;absolute extrusion mode
;Sliced at: Sat 05-03-2022 22:23:40
;Basic settings: Layer height: 0.1 Walls: 0.8 Fill: 20
G21 ;metric values
G90 ;absolute positioning
M82 ;set extruder to absolute mode
M107 ;start with the fan off
M117 Start heating ...
M104 S200
M117 Homing X/Y ...
G28 X0 Y0 ;move X/Y to min endstops
M117 Homing Z ...
G28 Z0 ;move Z to min endstops
G1 Z15.0 F50 ;move the platform down 15mm
M117 Heating ...
M109 S200
M117 Start cleaning ...
G92 E0 ;zero the extruded length
G1 F200 E10 ;extrude 10mm of feed stock
G92 E0 ;zero the extruded length again
M117 Intro line ...
G1 Z2.0 F3000 ; Move Z Axis up little to prevent scratching of Heat Bed
G1 X0.1 Y20 Z0.1 F5000.0 ; Move to start position
G1 X0.1 Y200.0 Z0.1 F1500.0 E15 ; Draw the first line
G1 X0.4 Y200.0 Z0.1 F5000.0 ; Move to side a little
G1 X0.4 Y20 Z0.3 F1500.0 E30 ; Draw the second line
G92 E0 ; Reset Extruder
G1 E-1 F500 ; Retract filiment by 1 mm
G1 Z2.0 F3000 ; Move Z Axis up little to prevent scratching of Heat Bed
G1 X5 Y20 Z0.3 F50 ; Move over to prevent blob squish
G1 F50
G92 E0 ; Reset Extruder
M117 Printing...

G92 E0
G92 E0
G1 F1800 E-7
;LAYER_COUNT:151
;LAYER:0
M107
G1 F300 Z0.3
G0 F1500 X44.016 Y70.106 Z0.3
;TYPE:SKIRT
G1 F300 Z0.1
G1 F1800 E0
G1 F900 X44.514 Y69.837 E0.00941
G1 X45.044 Y69.642 E0.0188
G1 X45.597 Y69.523 E0.02821
G1 X46.368 Y69.476 E0.04106
G1 X46.48 Y69.474 E0.04292
G1 X96.401 Y69.474 E0.87311
G1 X97.701 Y69.494 E0.89473
G1 X99.411 Y69.542 E0.92318
G1 X102.156 Y69.542 E0.96883
G1 X103.618 Y69.51 E0.99315
G1 X104.9 Y69.474 E1.01448
G1 X112.925 Y69.474 E1.14793
G1 X114.795 Y69.502 E1.17903
G1 X115.181 Y69.513 E1.18546
G1 X117.93 Y69.515 E1.23117
G1 X119.499 Y69.482 E1.25727
G1 X119.82 Y69.474 E1.26261
G1 X129.697 Y69.474 E1.42687
G1 X131.656 Y69.502 E1.45945
G1 X134.387 Y69.502 E1.50486
G1 X135.712 Y69.474 E1.5269
G1 X145.7 Y69.474 E1.693
G1 X146.404 Y69.484 E1.70471
G1 X146.967 Y69.532 E1.71411
G1 X147.518 Y69.659 E1.72351
G1 X148.046 Y69.863 E1.73293
G1 X148.539 Y70.138 E1.74231
G1 X148.989 Y70.481 E1.75172
G1 X149.389 Y70.887 E1.7612
G1 X149.704 Y71.256 E1.76927
G1 X151.55 Y73.35 E1.81569
G1 X153.393 Y75.327 E1.86064
G1 X155.273 Y77.23 E1.90513
G1 X157.26 Y79.13 E1.95085
G1 X159.289 Y80.964 E1.99633
G1 X161.352 Y82.726 E2.04145
G1 X163.439 Y84.41 E2.08605
G1 X165.6 Y86.053 E2.13119
G1 X167.812 Y87.639 E2.17646
G1 X170.088 Y89.175 E2.22212
G1 X172.357 Y90.614 E2.2668
G1 X174.684 Y92.001 E2.31185
G1 X175.842 Y92.67 E2.33409
G1 X176.31 Y92.987 E2.34349
G1 X176.729 Y93.367 E2.3529
G1 X177.091 Y93.802 E2.36231
G1 X177.387 Y94.283 E2.3717
G1 X177.612 Y94.801 E2.38109
G1 X177.763 Y95.346 E2.3905
G1 X177.839 Y96.022 E2.40181
G1 X177.85 Y96.456 E2.40903
G1 X177.85 Y145.84 E3.23029
G1 X177.841 Y146.567 E3.24238
G1 X177.794 Y147.13 E3.25178
G1 X177.668 Y147.681 E3.26118
G1 X177.466 Y148.209 E3.27058
G1 X177.191 Y148.703 E3.27998
G1 X176.849 Y149.153 E3.28938
G1 X176.447 Y149.551 E3.29879
G1 X175.994 Y149.888 E3.30818
G1 X175.497 Y150.158 E3.31758
G1 X174.967 Y150.355 E3.32699
G1 X174.415 Y150.476 E3.33638
G1 X173.632 Y150.524 E3.34943
G1 X173.52 Y150.526 E3.35129
G1 X46.805 Y150.526 E5.45857
G1 X46.107 Y150.517 E5.47018
G1 X45.544 Y150.469 E5.47958
G1 X44.993 Y150.343 E5.48898
G1 X44.465 Y150.141 E5.49838
G1 X43.971 Y149.866 E5.50778
G1 X43.521 Y149.524 E5.51718
G1 X43.123 Y149.122 E5.52659
G1 X42.787 Y148.668 E5.53598
G1 X42.517 Y148.171 E5.54539
G1 X42.32 Y147.641 E5.55479
G1 X42.2 Y147.089 E5.56418
G1 X42.151 Y146.292 E5.57746
G1 X42.15 Y119.002 E6.0313
G1 X42.11 Y116.202 E6.07787
G1 X41.997 Y113.532 E6.12231
G1 X41.803 Y110.792 E6.16799
G1 X41.539 Y108.135 E6.21239
G1 X41.187 Y105.383 E6.25853
G1 X40.774 Y102.754 E6.30279
G1 X40.114 Y99.271 E6.36174
G1 X40.046 Y98.663 E6.37192
G1 X40.034 Y98.02 E6.38261
G1 X40.034 Y96.055 E6.41529
G1 X40.045 Y95.349 E6.42703
G1 X40.112 Y94.68 E6.43821
G1 X40.251 Y93.935 E6.45081
G1 X40.535 Y92.521 E6.4748
G1 X40.997 Y89.821 E6.52035
G1 X41.378 Y87.139 E6.5654
G1 X41.682 Y84.455 E6.61032
G1 X41.911 Y81.749 E6.65549
G1 X42.064 Y79.039 E6.70062
G1 X42.15 Y74.95 E6.76864
G1 X42.15 Y74.088 E6.78297
G1 X42.16 Y73.423 E6.79404
G1 X42.209 Y72.86 E6.80343
G1 X42.336 Y72.309 E6.81284
G1 X42.54 Y71.781 E6.82225
G1 X42.816 Y71.288 E6.83165
G1 X43.159 Y70.839 E6.84104
G1 X43.562 Y70.442 E6.85045
G1 X44.016 Y70.106 E6.85984
G0 F1500 X44.396 Y70.345
G1 F900 X44.882 Y70.117 E6.86877
G1 X45.396 Y69.965 E6.87768
G1 X46.059 Y69.884 E6.88879
G1 X46.48 Y69.874 E6.89579
G1 X96.395 Y69.874 E7.72588
G1 X97.69 Y69.893 E7.74742
G1 X99.435 Y69.942 E7.77645
G1 X102.165 Y69.942 E7.82185
G1 X103.627 Y69.91 E7.84617
G1 X104.9 Y69.874 E7.86735
G1 X112.92 Y69.874 E8.00072
G1 X114.784 Y69.901 E8.03173
G1 X115.206 Y69.913 E8.03875
G1 X117.938 Y69.915 E8.08418
G1 X119.507 Y69.882 E8.11028
G1 X119.82 Y69.874 E8.11549
G1 X129.691 Y69.874 E8.27964
G1 X131.65 Y69.902 E8.31222
G1 X134.396 Y69.902 E8.35789
G1 X135.712 Y69.874 E8.37978
G1 X145.694 Y69.874 E8.54578
G1 X146.398 Y69.884 E8.55749
G1 X146.932 Y69.932 E8.56641
G1 X147.453 Y70.058 E8.57532
G1 X147.95 Y70.261 E8.58425
G1 X148.411 Y70.535 E8.59317
G1 X148.826 Y70.874 E8.60208
G1 X149.404 Y71.521 E8.61651
G1 X151.225 Y73.587 E8.6623
G1 X153.116 Y75.615 E8.70842
G1 X155.013 Y77.534 E8.75329
G1 X156.98 Y79.417 E8.79857
G1 X159.024 Y81.264 E8.84439
G1 X161.086 Y83.026 E8.88949
G1 X163.192 Y84.724 E8.93448
G1 X165.394 Y86.398 E8.98048
G1 X167.577 Y87.964 E9.02516
G1 X169.856 Y89.502 E9.07088
G1 X172.16 Y90.963 E9.11625
G1 X174.484 Y92.348 E9.16124
G1 X175.642 Y93.017 E9.18348
G1 X176.085 Y93.319 E9.1924
G1 X176.478 Y93.684 E9.20132
G1 X176.813 Y94.102 E9.21023
G1 X177.082 Y94.567 E9.21916
G1 X177.279 Y95.065 E9.22807
G1 X177.399 Y95.588 E9.23699
G1 X177.449 Y96.355 E9.24977
G1 X177.45 Y145.835 E10.07263
G1 X177.441 Y146.562 E10.08472
G1 X177.394 Y147.096 E10.09364
G1 X177.269 Y147.617 E10.10255
G1 X177.067 Y148.114 E10.11147
G1 X176.794 Y148.576 E10.12039
G1 X176.456 Y148.992 E10.12931
G1 X176.059 Y149.353 E10.13823
G1 X175.613 Y149.651 E10.14715
G1 X175.128 Y149.879 E10.15606
G1 X174.614 Y150.033 E10.16499
G1 X173.942 Y150.116 E10.17625
G1 X173.52 Y150.126 E10.18327
G1 X46.811 Y150.126 E12.29044
G1 X46.113 Y150.117 E12.30205
G1 X45.578 Y150.07 E12.31098
G1 X45.057 Y149.944 E12.3199
G1 X44.56 Y149.742 E12.32882
G1 X44.099 Y149.469 E12.33773
G1 X43.683 Y149.13 E12.34665
G1 X43.322 Y148.734 E12.35557
G1 X43.024 Y148.288 E12.36449
G1 X42.796 Y147.802 E12.37341
G1 X42.643 Y147.288 E12.38233
G1 X42.56 Y146.614 E12.39363
G1 X42.55 Y146.184 E12.40078
G1 X42.55 Y118.996 E12.85292
G1 X42.511 Y116.215 E12.89917
G1 X42.395 Y113.487 E12.94458
G1 X42.201 Y110.757 E12.99009
G1 X41.936 Y108.081 E13.03481
G1 X41.586 Y105.341 E13.08075
G1 X41.167 Y102.678 E13.12558
G1 X40.507 Y99.196 E13.18452
G1 X40.446 Y98.649 E13.19367
G1 X40.434 Y98.015 E13.20421
G1 X40.434 Y96.061 E13.23671
G1 X40.445 Y95.355 E13.24845
G1 X40.506 Y94.753 E13.25851
G1 X40.643 Y94.014 E13.27101
G1 X40.934 Y92.562 E13.29564
G1 X41.388 Y89.909 E13.3404
G1 X41.772 Y87.209 E13.38575
G1 X42.081 Y84.489 E13.43128
G1 X42.311 Y81.77 E13.47666
G1 X42.463 Y79.071 E13.52161
G1 X42.55 Y74.958 E13.59003
G1 X42.55 Y74.094 E13.6044
G1 X42.56 Y73.429 E13.61546
G1 X42.608 Y72.895 E13.62437
G1 X42.735 Y72.374 E13.63329
G1 X42.938 Y71.877 E13.64222
G1 X43.212 Y71.416 E13.65114
G1 X43.552 Y71.001 E13.66006
G1 X43.95 Y70.642 E13.66897
G1 X44.396 Y70.345 E13.67788
G0 F1500 X44.335 Y70.854
G1 F900 X44.772 Y70.6 E13.68629
G1 X45.243 Y70.417 E13.69469
G1 X45.738 Y70.311 E13.70311
G1 X46.39 Y70.275 E13.71397
G1 X96.389 Y70.274 E14.54546
G1 X97.679 Y70.293 E14.56691
G1 X99.424 Y70.342 E14.59594
G1 X102.174 Y70.342 E14.64168
G1 X103.612 Y70.31 E14.6656
G1 X104.806 Y70.275 E14.68546
G1 X112.914 Y70.274 E14.8203
G1 X114.772 Y70.301 E14.8512
G1 X115.193 Y70.313 E14.8582
G1 X117.946 Y70.315 E14.90399
G1 X119.489 Y70.282 E14.92965
G1 X119.82 Y70.274 E14.93516
G1 X129.686 Y70.274 E15.09923
G1 X131.645 Y70.302 E15.13181
G1 X134.404 Y70.302 E15.17769
G1 X135.712 Y70.274 E15.19945
G1 X145.688 Y70.274 E15.36535
G1 X146.392 Y70.284 E15.37706
G1 X146.896 Y70.331 E15.38548
G1 X147.385 Y70.457 E15.39388
G1 X147.849 Y70.659 E15.40229
G1 X148.275 Y70.93 E15.41069
G1 X148.781 Y71.406 E15.42224
G1 X149.122 Y71.805 E15.43097
G1 X150.948 Y73.878 E15.47691
G1 X152.822 Y75.886 E15.52259
G1 X154.734 Y77.822 E15.56784
G1 X156.701 Y79.704 E15.61311
G1 X158.76 Y81.564 E15.65926
G1 X160.821 Y83.325 E15.70434
G1 X162.966 Y85.055 E15.75017
G1 X165.141 Y86.709 E15.79561
G1 X167.366 Y88.305 E15.84114
G1 X169.624 Y89.828 E15.88644
G1 X171.936 Y91.295 E15.93197
G1 X174.284 Y92.694 E15.97743
G1 X175.442 Y93.363 E15.99967
G1 X175.858 Y93.65 E16.00807
G1 X176.224 Y93.999 E16.01648
G1 X176.531 Y94.401 E16.02489
G1 X176.77 Y94.846 E16.03329
G1 X176.937 Y95.323 E16.0417
G1 X177.04 Y96.045 E16.05383
G1 X177.05 Y96.456 E16.06066
G1 X177.05 Y145.83 E16.88176
G1 X177.041 Y146.557 E16.89385
G1 X176.995 Y147.06 E16.90225
G1 X176.87 Y147.55 E16.91066
G1 X176.669 Y148.014 E16.91907
G1 X176.398 Y148.441 E16.92748
G1 X176.063 Y148.82 E16.93589
G1 X175.673 Y149.141 E16.94429
G1 X175.237 Y149.397 E16.9527
G1 X174.766 Y149.58 E16.9611
G1 X174.272 Y149.688 E16.96951
G1 X173.61 Y149.725 E16.98053
G1 X46.816 Y149.726 E19.08913
G1 X46.118 Y149.717 E19.10074
G1 X45.614 Y149.67 E19.10915
G1 X45.124 Y149.545 E19.11756
G1 X44.66 Y149.344 E19.12597
G1 X44.234 Y149.073 E19.13437
G1 X43.855 Y148.738 E19.14278
G1 X43.534 Y148.347 E19.15119
G1 X43.279 Y147.911 E19.15959
G1 X43.095 Y147.44 E19.168
G1 X42.988 Y146.946 E19.17641
G1 X42.951 Y146.27 E19.18767
G1 X42.95 Y118.99 E19.64134
G1 X42.91 Y116.193 E19.68786
G1 X42.795 Y113.476 E19.73308
G1 X42.6 Y110.729 E19.77888
G1 X42.332 Y108.024 E19.82408
G1 X41.984 Y105.3 E19.86975
G1 X41.561 Y102.607 E19.91508
G1 X40.9 Y99.122 E19.97407
G1 X40.841 Y98.49 E19.98463
G1 X40.834 Y98.01 E19.99261
G1 X40.834 Y96.067 E20.02493
G1 X40.845 Y95.361 E20.03667
G1 X40.899 Y94.827 E20.04559
G1 X41.035 Y94.093 E20.05801
G1 X41.326 Y92.643 E20.0826
G1 X41.785 Y89.961 E20.12785
G1 X42.167 Y87.273 E20.173
G1 X42.478 Y84.532 E20.21888
G1 X42.71 Y81.793 E20.26459
G1 X42.863 Y79.072 E20.30991
G1 X42.95 Y74.987 E20.37786
G1 X42.95 Y74.1 E20.39261
G1 X42.96 Y73.435 E20.40367
G1 X43.008 Y72.932 E20.41208
G1 X43.134 Y72.442 E20.42049
G1 X43.336 Y71.978 E20.42891
G1 X43.608 Y71.552 E20.43731
G1 X43.944 Y71.175 E20.44571
G1 X44.335 Y70.854 E20.45412
G1 F1800 E13.45412
G1 F300 Z0.3
G0 F1500 X44.234 Y95.61 Z0.3
;TYPE:SUPPORT
G1 F300 Z0.1
G1 F1800 E20.45412
G1 F900 X45.369 Y95.61 E20.473
G1 X45.15 Y95.829 E20.47815
G1 X45.15 Y99.367 E20.53699
G1 X44.234 Y98.451 E20.55853
G1 X44.234 Y95.61 E20.60577
G0 F1500 X44.393 Y96.012
G1 F900 X44.989 Y96.012 E20.61569
G1 F1800 E13.61569
G1 F300 Z0.3
G0 F1500 X44.989 Y98.679 Z0.3
G1 F300 Z0.1
G1 F1800 E20.61569
G1 F900 X44.686 Y98.679 E20.62072
G1 F1800 E13.62072
G1 F300 Z0.3
G0 F1500 X72.389 Y140.922 Z0.3
G1 F300 Z0.1
G1 F1800 E20.62072
G1 F900 X72.808 Y140.703 E20.62859
G1 X73.265 Y140.591 E20.63641
G1 X73.735 Y140.591 E20.64423
G1 X74.19 Y140.703 E20.65202
G1 X74.605 Y140.92 E20.65981
G1 X74.953 Y141.227 E20.66753
G1 X75.227 Y141.623 E20.67553
G1 X75.393 Y142.057 E20.68326
G1 X75.449 Y142.526 E20.69112
G1 X75.393 Y142.995 E20.69897
G1 X75.227 Y143.433 E20.70676
G1 X74.959 Y143.822 E20.71462
G1 X74.61 Y144.129 E20.72235
G1 X74.19 Y144.349 E20.73023
G1 X73.735 Y144.461 E20.73802
G1 X73.265 Y144.461 E20.74584
G1 X72.81 Y144.349 E20.75363
G1 X72.395 Y144.132 E20.76142
G1 X72.046 Y143.824 E20.76916
G1 X71.776 Y143.434 E20.77705
G1 X71.607 Y142.993 E20.7849
G1 X71.551 Y142.526 E20.79273
G1 X71.607 Y142.057 E20.80058
G1 X71.773 Y141.623 E20.80831
G1 X72.045 Y141.228 E20.81628
G1 X72.389 Y140.922 E20.82394
G0 F1500 X72.154 Y141.351
G1 F900 X74.844 Y141.351 E20.86867
G0 F1500 X74.676 Y141.196
G1 F900 X74.676 Y143.859 E20.91296
G0 F1500 X74.476 Y144.018
G1 F900 X72.521 Y144.018 E20.94547
G0 F1500 X72.009 Y143.49
G1 F900 X72.009 Y141.561 E20.97755
G1 F1800 E13.97755
G1 F300 Z0.3
G0 F1500 X134.333 Y95.126 Z0.3
G1 F300 Z0.1
G1 F1800 E20.97755
G1 F900 X134.414 Y95.045 E20.97946
G1 X138.066 Y95.037 E21.04019
G1 X139.069 Y94.671 E21.05795
G1 X145.286 Y94.671 E21.16134
G1 X145.326 Y94.631 E21.16228
G1 X146.304 Y94.631 E21.17854
G1 X146.626 Y94.502 E21.18431
G1 X146.788 Y94.631 E21.18775
G1 X146.926 Y94.631 E21.19005
G1 X146.979 Y94.684 E21.19129
G1 X147.421 Y94.866 E21.19924
G1 X150.533 Y94.854 E21.251
G1 X150.888 Y94.671 E21.25764
G1 X159.092 Y94.671 E21.39407
G1 X159.523 Y94.381 E21.40271
G1 X159.571 Y94.264 E21.40481
G1 X159.93 Y94.264 E21.41078
G1 X159.958 Y94.235 E21.41145
G1 X160.434 Y94.264 E21.41938
G1 X161.64 Y94.264 E21.43944
G1 X162.047 Y94.804 E21.45069
G1 X162.258 Y95.126 E21.45709
G1 X134.333 Y95.126 E21.92148
G1 F1800 E14.92148
G1 F300 Z0.3
G0 F1500 X141.351 Y94.966 Z0.3
G1 F300 Z0.1
G1 F1800 E21.92148
G1 F900 X141.351 Y94.831 E21.92373
G1 F1800 E14.92373
G1 F300 Z0.3
G0 F1500 X144.018 Y94.831 Z0.3
G1 F300 Z0.1
G1 F1800 E21.92373
G1 F900 X144.018 Y94.966 E21.92597
G1 F1800 E14.92597
G1 F300 Z0.3
G0 F1500 X146.685 Y94.966 Z0.3
G1 F300 Z0.1
G1 F1800 E21.92597
G1 F900 X146.685 Y94.754 E21.9295
G1 F1800 E14.9295
G1 F300 Z0.3
G0 F1500 X152.019 Y94.831 Z0.3
G1 F300 Z0.1
G1 F1800 E21.9295
G1 F900 X152.019 Y94.966 E21.93174
G1 F1800 E14.93174
G1 F300 Z0.3
G0 F1500 X154.686 Y94.966 Z0.3
G1 F300 Z0.1
G1 F1800 E21.93174
G1 F900 X154.686 Y94.831 E21.93399
G1 F1800 E14.93399
G1 F300 Z0.3
G0 F1500 X157.353 Y94.831 Z0.3
G1 F300 Z0.1
G1 F1800 E21.93399
G1 F900 X157.353 Y94.966 E21.93623
G1 F1800 E14.93623
G1 F300 Z0.3
G0 F1500 X160.02 Y94.966 Z0.3
G1 F300 Z0.1
G1 F1800 E21.93623
G1 F900 X160.02 Y94.402 E21.94561
G1 F1800 E14.94561
G1 F300 Z0.3
;MESH:control.station.lamp.pump.stl
G0 F1500 X145.45 Y82.874 Z0.3
;TYPE:WALL-INNER
G1 F300 Z0.1
G1 F1800 E21.94561
G1 F900 X145.45 Y74.374 E22.08697
G1 X136.35 Y74.374 E22.2383
G1 X136.35 Y82.874 E22.37966
G1 X145.45 Y82.874 E22.53099
G0 F1500 X145.05 Y82.474
;TYPE:WALL-OUTER
G1 F900 X145.05 Y74.774 E22.65904
G1 X136.75 Y74.774 E22.79707
G1 X136.75 Y82.474 E22.92512
G1 X145.05 Y82.474 E23.06315
G0 F1500 X145.05 Y82.274
G0 X145.49 Y82.274
G0 X145.75 Y83.174
;TYPE:WALL-INNER
G1 F900 X136.05 Y83.174 E23.18568
G1 X136.05 Y74.074 E23.3007
G1 X145.75 Y74.074 E23.42323
G1 X145.75 Y83.174 E23.53825
G0 F1500 X146.15 Y83.574
;TYPE:WALL-OUTER
G1 F900 X135.65 Y83.574 E23.71286
G1 X135.65 Y73.674 E23.8775
G1 X146.15 Y73.674 E24.05212
G1 X146.15 Y83.574 E24.21675
G0 F1500 X145.95 Y83.574
G0 X145.71 Y83.134
G0 X145.55 Y82.974
G1 F1800 E17.21675
G1 F300 Z0.3
G0 F1500 X145.55 Y82.974 Z0.3
G0 X129.471 Y82.874
;TYPE:WALL-INNER
G1 F300 Z0.1
G1 F1800 E24.21675
G1 F900 X129.471 Y74.374 E24.35811
G1 X120.371 Y74.374 E24.50944
G1 X120.371 Y82.874 E24.6508
G1 X129.471 Y82.874 E24.80213
G0 F1500 X129.071 Y82.474
;TYPE:WALL-OUTER
G1 F900 X129.071 Y74.774 E24.93018
G1 X120.771 Y74.774 E25.06821
G1 X120.771 Y82.474 E25.19627
G1 X129.071 Y82.474 E25.3343
G0 F1500 X129.071 Y82.274
G0 X129.511 Y82.274
G0 X129.771 Y83.174
;TYPE:WALL-INNER
G1 F900 X120.071 Y83.174 E25.45682
G1 X120.071 Y74.074 E25.57184
G1 X129.771 Y74.074 E25.69437
G1 X129.771 Y83.174 E25.80939
G0 F1500 X130.171 Y83.574
;TYPE:WALL-OUTER
G1 F900 X119.671 Y83.574 E25.98401
G1 X119.671 Y73.674 E26.14864
G1 X130.171 Y73.674 E26.32326
G1 X130.171 Y83.574 E26.4879
G0 F1500 X129.971 Y83.574
G0 X129.731 Y83.134
G0 X129.571 Y82.974
G1 F1800 E19.4879
G1 F300 Z0.3
G0 F1500 X129.571 Y82.974 Z0.3
G0 X112.675 Y87.874
;TYPE:WALL-INNER
G1 F300 Z0.1
G1 F1800 E26.4879
G1 F900 X112.675 Y74.374 E26.7124
G1 X105.475 Y74.374 E26.83214
G1 X105.475 Y87.874 E27.05665
G1 X112.675 Y87.874 E27.17638
G0 F1500 X112.275 Y87.474
;TYPE:WALL-OUTER
G1 F900 X112.275 Y74.774 E27.38758
G1 X105.875 Y74.774 E27.49402
G1 X105.875 Y87.474 E27.70522
G1 X112.275 Y87.474 E27.81165
G0 F1500 X112.275 Y87.274
G0 X112.715 Y87.274
