;FLAVOR:Marlin
;TIME:33059
;Filament used: 20.1144m
;Layer height: 0.2
;MINX:66.633
;MINY:47.5
;MINZ:0.2
;MAXX:153.367
;MAXY:173.337
;MAXZ:52.8
;Generated with Cura_SteamEngine master
M82 ;absolute extrusion mode
;Sliced at: Sat 14-05-2022 01:23:58
;Basic settings: Layer height: 0.2 Walls: 0.8 Fill: 20
G21 ;metric values
G90 ;absolute positioning
M82 ;set extruder to absolute mode
M107 ;start with the fan off
M117 Start heating ...
M104 S200
M117 Homing X/Y ...
G28 X0 Y0 ;move X/Y to min endstops
M117 Homing Z ...
G28 Z0 ;move Z to min endstops
G1 Z15.0 F100 ;move the platform down 15mm
M117 Heating ...
M109 S200
M117 Start cleaning ...
G92 E0 ;zero the extruded length
G1 F200 E10 ;extrude 10mm of feed stock
G92 E0 ;zero the extruded length again
M117 Intro line ...
G1 Z2.0 F3000 ; Move Z Axis up little to prevent scratching of Heat Bed
G1 X0.1 Y20 Z0.2 F5000.0 ; Move to start position
G1 X0.1 Y200.0 Z0.2 F1500.0 E15 ; Draw the first line
G1 X0.4 Y200.0 Z0.2 F5000.0 ; Move to side a little
G1 X0.4 Y20 Z0.3 F1500.0 E30 ; Draw the second line
G92 E0 ; Reset Extruder
G1 E-1 F500 ; Retract filiment by 1 mm
G1 Z2.0 F3000 ; Move Z Axis up little to prevent scratching of Heat Bed
G1 X5 Y20 Z0.3 F100 ; Move over to prevent blob squish
G1 F100
G92 E0 ; Reset Extruder
M117 Printing...

G92 E0
G92 E0
G1 F1800 E-7
;LAYER_COUNT:263
;LAYER:0
M107
G1 F300 Z0.4
G0 F3000 X67.295 Y49.319 Z0.4
;TYPE:SKIRT
G1 F300 Z0.2
G1 F1800 E0
G1 F1200 X67.637 Y48.869 E0.0188
G1 X68.039 Y48.472 E0.03759
G1 X68.493 Y48.135 E0.0564
G1 X68.99 Y47.866 E0.07519
G1 X69.52 Y47.669 E0.094
G1 X70.073 Y47.55 E0.11281
G1 X70.851 Y47.502 E0.13874
G1 X70.963 Y47.5 E0.14246
G1 X148.717 Y47.5 E2.72857
G1 X149.415 Y47.51 E2.75179
G1 X149.979 Y47.558 E2.77062
G1 X150.529 Y47.685 E2.78939
G1 X151.057 Y47.889 E2.80822
G1 X151.551 Y48.164 E2.82702
G1 X152 Y48.507 E2.84582
G1 X152.397 Y48.909 E2.86461
G1 X152.734 Y49.364 E2.88344
G1 X153.002 Y49.861 E2.90222
G1 X153.198 Y50.391 E2.92101
G1 X153.318 Y50.944 E2.93984
G1 X153.365 Y51.718 E2.96563
G1 X153.367 Y51.83 E2.96935
G1 X153.367 Y167.814 E6.827
G1 X153.358 Y168.541 E6.85118
G1 X153.311 Y169.104 E6.86997
G1 X153.185 Y169.655 E6.88877
G1 X152.983 Y170.183 E6.90757
G1 X152.708 Y170.677 E6.92637
G1 X152.366 Y171.127 E6.94517
G1 X151.964 Y171.525 E6.96399
G1 X151.511 Y171.862 E6.98277
G1 X151.014 Y172.132 E7.00158
G1 X150.484 Y172.329 E7.02039
G1 X149.932 Y172.45 E7.03918
G1 X149.149 Y172.498 E7.06527
G1 X149.037 Y172.5 E7.069
G1 X127.703 Y172.5 E7.77857
G1 X124.903 Y172.54 E7.87171
G1 X122.233 Y172.653 E7.96059
G1 X119.526 Y172.845 E8.05085
G1 X116.786 Y173.116 E8.14243
G1 X116.547 Y173.147 E8.15045
G1 X115.192 Y173.302 E8.19581
G1 X114.531 Y173.335 E8.21782
G1 X114.418 Y173.337 E8.22158
G1 X109.443 Y173.337 E8.38705
G1 X108.725 Y173.326 E8.41093
G1 X108.14 Y173.276 E8.43046
G1 X105.481 Y172.974 E8.51947
G1 X102.743 Y172.741 E8.61086
G1 X100.005 Y172.586 E8.70208
G1 X97.329 Y172.51 E8.79112
G1 X95.932 Y172.5 E8.83758
G1 X71.283 Y172.5 E9.65741
G1 X70.585 Y172.49 E9.68063
G1 X70.021 Y172.442 E9.69945
G1 X69.471 Y172.315 E9.71823
G1 X68.943 Y172.111 E9.73706
G1 X68.449 Y171.836 E9.75586
G1 X68 Y171.493 E9.77465
G1 X67.603 Y171.091 E9.79344
G1 X67.266 Y170.636 E9.81228
G1 X66.998 Y170.139 E9.83106
G1 X66.802 Y169.609 E9.84985
G1 X66.682 Y169.056 E9.86867
G1 X66.634 Y168.266 E9.895
G1 X66.633 Y52.12 E13.75803
G1 X66.642 Y51.455 E13.78015
G1 X66.69 Y50.892 E13.79894
G1 X66.816 Y50.341 E13.81774
G1 X67.019 Y49.813 E13.83656
G1 X67.295 Y49.319 E13.85538
G0 F3000 X67.691 Y49.447
G1 F1200 X68.03 Y49.031 E13.87323
G1 X68.427 Y48.671 E13.89105
G1 X68.874 Y48.373 E13.90892
G1 X69.359 Y48.145 E13.92674
G1 X69.873 Y47.992 E13.94458
G1 X70.541 Y47.91 E13.96696
G1 X70.963 Y47.9 E13.981
G1 X148.712 Y47.9 E16.56695
G1 X149.41 Y47.91 E16.59016
G1 X149.944 Y47.958 E16.608
G1 X150.465 Y48.084 E16.62582
G1 X150.962 Y48.287 E16.64368
G1 X151.423 Y48.561 E16.66152
G1 X151.838 Y48.9 E16.67934
G1 X152.198 Y49.298 E16.69719
G1 X152.495 Y49.744 E16.71501
G1 X152.723 Y50.23 E16.73287
G1 X152.875 Y50.744 E16.75069
G1 X152.957 Y51.409 E16.77298
G1 X152.967 Y51.83 E16.78699
G1 X152.967 Y167.809 E20.64446
G1 X152.958 Y168.536 E20.66865
G1 X152.911 Y169.07 E20.68648
G1 X152.786 Y169.591 E20.7043
G1 X152.584 Y170.088 E20.72214
G1 X152.311 Y170.55 E20.73999
G1 X151.973 Y170.966 E20.75781
G1 X151.576 Y171.327 E20.77566
G1 X151.13 Y171.625 E20.7935
G1 X150.645 Y171.853 E20.81133
G1 X150.131 Y172.007 E20.82917
G1 X149.459 Y172.09 E20.85169
G1 X149.037 Y172.1 E20.86573
G1 X127.697 Y172.1 E21.57551
G1 X124.916 Y172.139 E21.66801
G1 X122.188 Y172.255 E21.75883
G1 X119.459 Y172.449 E21.84982
G1 X116.796 Y172.713 E21.93883
G1 X116.501 Y172.75 E21.94872
G1 X115.146 Y172.905 E21.99408
G1 X114.52 Y172.936 E22.01492
G1 X109.449 Y172.937 E22.18359
G1 X108.731 Y172.926 E22.20747
G1 X108.225 Y172.883 E22.22436
G1 X105.488 Y172.573 E22.31598
G1 X102.766 Y172.341 E22.40684
G1 X100.073 Y172.188 E22.49655
G1 X97.295 Y172.11 E22.58899
G1 X95.935 Y172.1 E22.63422
G1 X71.288 Y172.1 E23.45398
G1 X70.59 Y172.09 E23.4772
G1 X70.056 Y172.042 E23.49503
G1 X69.535 Y171.916 E23.51286
G1 X69.038 Y171.713 E23.53072
G1 X68.577 Y171.439 E23.54855
G1 X68.162 Y171.1 E23.56638
G1 X67.802 Y170.702 E23.58423
G1 X67.505 Y170.256 E23.60205
G1 X67.277 Y169.77 E23.6199
G1 X67.125 Y169.256 E23.63773
G1 X67.043 Y168.588 E23.66012
G1 X67.033 Y168.158 E23.67442
G1 X67.033 Y52.125 E27.53369
G1 X67.042 Y51.46 E27.55581
G1 X67.09 Y50.926 E27.57365
G1 X67.216 Y50.405 E27.59147
G1 X67.418 Y49.908 E27.60932
G1 X67.691 Y49.447 E27.62714
G0 F3000 X68.087 Y49.582
G1 F1200 X68.422 Y49.204 E27.64394
G1 X68.813 Y48.883 E27.66076
G1 X69.25 Y48.628 E27.67759
G1 X69.721 Y48.444 E27.69441
G1 X70.215 Y48.338 E27.71121
G1 X70.873 Y48.301 E27.73313
G1 X148.706 Y48.3 E30.32187
G1 X149.404 Y48.31 E30.34509
G1 X149.907 Y48.357 E30.36189
G1 X150.397 Y48.483 E30.37872
G1 X150.861 Y48.685 E30.39555
G1 X151.287 Y48.957 E30.41236
G1 X151.665 Y49.292 E30.42916
G1 X151.985 Y49.683 E30.44596
G1 X152.24 Y50.12 E30.46279
G1 X152.423 Y50.591 E30.4796
G1 X152.53 Y51.085 E30.49641
G1 X152.566 Y51.74 E30.51823
G1 X152.567 Y167.804 E34.37853
G1 X152.558 Y168.531 E34.40272
G1 X152.512 Y169.034 E34.41952
G1 X152.387 Y169.524 E34.43633
G1 X152.186 Y169.988 E34.45315
G1 X151.915 Y170.415 E34.46997
G1 X151.58 Y170.794 E34.4868
G1 X151.19 Y171.115 E34.5036
G1 X150.754 Y171.371 E34.52041
G1 X150.283 Y171.554 E34.53722
G1 X149.789 Y171.662 E34.55404
G1 X149.127 Y171.699 E34.57609
G1 X127.691 Y171.7 E35.28906
G1 X124.894 Y171.74 E35.38209
G1 X122.177 Y171.855 E35.47254
G1 X119.431 Y172.05 E35.56411
G1 X116.739 Y172.316 E35.65408
G1 X116.456 Y172.352 E35.66357
G1 X115.101 Y172.507 E35.70893
G1 X114.508 Y172.536 E35.72867
G1 X109.455 Y172.537 E35.89674
G1 X108.737 Y172.526 E35.92062
G1 X108.294 Y172.489 E35.93541
G1 X105.496 Y172.171 E36.02907
G1 X102.822 Y171.944 E36.11833
G1 X100.073 Y171.788 E36.2099
G1 X97.309 Y171.71 E36.30187
G1 X95.937 Y171.7 E36.34751
G1 X71.294 Y171.7 E37.16714
G1 X70.596 Y171.69 E37.19035
G1 X70.093 Y171.643 E37.20716
G1 X69.603 Y171.517 E37.22398
G1 X69.139 Y171.315 E37.24082
G1 X68.713 Y171.043 E37.25763
G1 X68.335 Y170.708 E37.27443
G1 X68.015 Y170.317 E37.29123
G1 X67.76 Y169.88 E37.30806
G1 X67.577 Y169.409 E37.32487
G1 X67.47 Y168.915 E37.34168
G1 X67.434 Y168.245 E37.36399
G1 X67.433 Y52.131 E41.22596
G1 X67.442 Y51.466 E41.24808
G1 X67.489 Y50.962 E41.26492
G1 X67.615 Y50.473 E41.28171
G1 X67.816 Y50.009 E41.29853
G1 X68.087 Y49.582 E41.31535
G1 F1800 E34.31535
G1 F300 Z0.4
;MESH:control.station.frame.50w.amf
G0 F3000 X76.736 Y65.789 Z0.4
;TYPE:WALL-INNER
G1 F300 Z0.2
G1 F1800 E41.31535
G1 F1200 X77.559 Y65.993 E41.34355
G1 X78.408 Y65.993 E41.37179
G1 X79.231 Y65.789 E41.39999
G1 X79.865 Y65.455 E41.42383
G1 X79.972 Y65.404 E41.42777
G1 X80.524 Y64.913 E41.45234
G1 X80.609 Y64.844 E41.45598
G1 X81.09 Y64.145 E41.4842
G1 X81.135 Y64.04 E41.488
G1 X81.398 Y63.341 E41.51284
G1 X81.5 Y62.5 E41.54102
G1 X81.399 Y61.659 E41.56919
G1 X81.098 Y60.864 E41.59747
G1 X80.685 Y60.268 E41.62158
G1 X80.622 Y60.172 E41.6254
G1 X80.071 Y59.687 E41.64982
G1 X79.992 Y59.611 E41.65346
G1 X79.231 Y59.211 E41.68206
G1 X78.408 Y59.008 E41.71025
G1 X77.559 Y59.008 E41.73849
G1 X76.735 Y59.211 E41.76671
G1 X76.093 Y59.55 E41.79086
G1 X75.994 Y59.597 E41.79451
G1 X75.35 Y60.167 E41.82311
G1 X74.934 Y60.771 E41.8475
G1 X74.872 Y60.852 E41.8509
G1 X74.567 Y61.659 E41.87959
G1 X74.465 Y62.5 E41.90777
G1 X74.567 Y63.344 E41.93604
G1 X74.819 Y64 E41.95942
G1 X74.86 Y64.125 E41.96379
G1 X75.277 Y64.726 E41.98812
G1 X75.346 Y64.829 E41.99224
G1 X75.894 Y65.313 E42.01656
G1 X75.974 Y65.39 E42.02026
G1 X76.736 Y65.789 E42.04886
G0 F3000 X76.879 Y65.412
;TYPE:WALL-OUTER
G1 F1200 X77.608 Y65.593 E42.07385
G1 X78.359 Y65.593 E42.09883
G1 X79.088 Y65.412 E42.12381
G1 X79.686 Y65.097 E42.14629
G1 X79.749 Y65.067 E42.14861
G1 X80.258 Y64.614 E42.17127
G1 X80.312 Y64.57 E42.17359
G1 X80.738 Y63.95 E42.19861
G1 X80.764 Y63.89 E42.20078
G1 X81.007 Y63.245 E42.22371
G1 X81.097 Y62.5 E42.24867
G1 X81.008 Y61.755 E42.27362
G1 X80.741 Y61.052 E42.29863
G1 X80.356 Y60.496 E42.32113
G1 X80.317 Y60.436 E42.32351
G1 X79.807 Y59.988 E42.34609
G1 X79.756 Y59.939 E42.34844
G1 X79.088 Y59.588 E42.37354
G1 X78.359 Y59.408 E42.39851
G1 X77.608 Y59.408 E42.42349
G1 X76.878 Y59.588 E42.4485
G1 X76.28 Y59.904 E42.47099
G1 X76.217 Y59.934 E42.47331
G1 X75.652 Y60.434 E42.49841
G1 X75.264 Y60.998 E42.52118
G1 X75.226 Y61.048 E42.52326
G1 X74.958 Y61.755 E42.54841
G1 X74.868 Y62.5 E42.57337
G1 X74.958 Y63.247 E42.5984
G1 X75.2 Y63.877 E42.62084
G1 X75.222 Y63.945 E42.62322
G1 X75.611 Y64.505 E42.6459
G1 X75.65 Y64.564 E42.64825
G1 X76.159 Y65.013 E42.67082
G1 X76.21 Y65.062 E42.67318
G1 X76.879 Y65.412 E42.69829
G0 F3000 X77.073 Y65.46
G0 X76.966 Y65.887
G1 F1800 E35.69829
G1 F300 Z0.4
G0 F3000 X76.928 Y66.041 Z0.4
G0 X88.436 Y65.789
;TYPE:WALL-INNER
G1 F300 Z0.2
G1 F1800 E42.69829
G1 F1200 X89.259 Y65.993 E42.72649
G1 X90.108 Y65.993 E42.75473
G1 X90.931 Y65.789 E42.78293
G1 X91.681 Y65.396 E42.81109
G1 X92.316 Y64.833 E42.83932
G1 X92.792 Y64.142 E42.86723
G1 X92.842 Y64.022 E42.87155
G1 X93.098 Y63.341 E42.89575
G1 X93.2 Y62.5 E42.92392
G1 X93.099 Y61.659 E42.9521
G1 X92.798 Y60.864 E42.98037
G1 X92.389 Y60.275 E43.00422
G1 X92.324 Y60.173 E43.00824
G1 X91.681 Y59.605 E43.03678
G1 X90.931 Y59.211 E43.06496
G1 X90.108 Y59.008 E43.09315
G1 X89.26 Y59.008 E43.12136
G1 X88.437 Y59.21 E43.14954
G1 X87.684 Y59.606 E43.17784
G1 X87.16 Y60.072 E43.20116
G1 X87.055 Y60.161 E43.20574
G1 X86.568 Y60.864 E43.23418
G1 X86.267 Y61.659 E43.26246
G1 X86.165 Y62.5 E43.29063
G1 X86.267 Y63.343 E43.31888
G1 X86.521 Y64.008 E43.34255
G1 X86.563 Y64.129 E43.34681
G1 X86.976 Y64.722 E43.37085
G1 X87.043 Y64.828 E43.37502
G1 X87.685 Y65.396 E43.40353
G1 X88.436 Y65.789 E43.43172
G0 F3000 X88.579 Y65.412
;TYPE:WALL-OUTER
G1 F1200 X89.308 Y65.593 E43.4567
G1 X90.059 Y65.593 E43.48168
G1 X90.788 Y65.412 E43.50667
G1 X91.452 Y65.064 E43.5316
G1 X92.014 Y64.566 E43.55657
G1 X92.439 Y63.95 E43.58147
G1 X92.47 Y63.875 E43.58417
G1 X92.707 Y63.245 E43.60655
G1 X92.797 Y62.5 E43.63151
G1 X92.708 Y61.755 E43.65647
G1 X92.441 Y61.052 E43.68148
G1 X92.06 Y60.503 E43.7037
G1 X92.017 Y60.436 E43.70635
G1 X91.452 Y59.937 E43.73142
G1 X90.788 Y59.588 E43.75637
G1 X90.059 Y59.408 E43.78135
G1 X89.308 Y59.408 E43.80633
G1 X88.58 Y59.587 E43.83126
G1 X87.913 Y59.937 E43.85631
G1 X87.418 Y60.378 E43.87836
G1 X87.354 Y60.432 E43.88115
G1 X86.925 Y61.052 E43.90623
G1 X86.658 Y61.755 E43.93124
G1 X86.568 Y62.5 E43.9562
G1 X86.658 Y63.246 E43.98119
G1 X86.895 Y63.865 E44.00323
G1 X86.923 Y63.946 E44.00608
G1 X87.304 Y64.493 E44.02826
G1 X87.35 Y64.565 E44.0311
G1 X87.914 Y65.064 E44.05614
G1 X88.579 Y65.412 E44.08111
G0 F3000 X88.773 Y65.46
G0 X88.666 Y65.887
G1 F1800 E37.08111
G1 F300 Z0.4
G0 F3000 X88.628 Y66.041 Z0.4
G0 X132.975 Y67.957
;TYPE:WALL-INNER
G1 F300 Z0.2
G1 F1800 E44.08111
G1 F1200 X133.461 Y68.075 E44.09774
G1 X133.961 Y68.075 E44.11437
G1 X134.454 Y67.954 E44.13126
G1 X134.905 Y67.714 E44.14825
G1 X135.275 Y67.384 E44.16474
G1 X135.562 Y66.968 E44.18155
G1 X135.741 Y66.494 E44.1984
G1 X135.799 Y65.995 E44.21511
G1 X135.739 Y65.5 E44.23169
G1 X135.553 Y65.016 E44.24894
G1 X135.269 Y64.609 E44.26544
G1 X134.89 Y64.277 E44.2822
G1 X134.446 Y64.045 E44.29886
G1 X133.955 Y63.926 E44.31567
G1 X133.455 Y63.926 E44.3323
G1 X132.975 Y64.045 E44.34875
G1 X132.527 Y64.278 E44.36554
G1 X132.151 Y64.609 E44.3822
G1 X131.859 Y65.028 E44.39919
G1 X131.68 Y65.504 E44.4161
G1 X131.62 Y66.007 E44.43295
G1 X131.688 Y66.524 E44.4503
G1 X131.86 Y66.973 E44.46629
G1 X132.147 Y67.388 E44.48307
G1 X132.527 Y67.723 E44.49992
G1 X132.975 Y67.957 E44.51673
G0 F3000 X133.117 Y67.58
;TYPE:WALL-OUTER
G1 F1200 X133.509 Y67.675 E44.53014
G1 X133.912 Y67.675 E44.54355
G1 X134.31 Y67.577 E44.55718
G1 X134.675 Y67.383 E44.57093
G1 X134.973 Y67.117 E44.58422
G1 X135.205 Y66.781 E44.5978
G1 X135.349 Y66.399 E44.61137
G1 X135.396 Y65.996 E44.62487
G1 X135.348 Y65.597 E44.63824
G1 X135.197 Y65.205 E44.65221
G1 X134.969 Y64.878 E44.66547
G1 X134.662 Y64.609 E44.67904
G1 X134.304 Y64.422 E44.69248
G1 X133.907 Y64.326 E44.70606
G1 X133.504 Y64.326 E44.71946
G1 X133.117 Y64.422 E44.73273
G1 X132.755 Y64.61 E44.74629
G1 X132.452 Y64.877 E44.75973
G1 X132.216 Y65.216 E44.77346
G1 X132.071 Y65.6 E44.78712
G1 X132.023 Y66.005 E44.80068
G1 X132.078 Y66.425 E44.81477
G1 X132.216 Y66.785 E44.82759
G1 X132.448 Y67.12 E44.84115
G1 X132.755 Y67.391 E44.85477
G1 X133.117 Y67.58 E44.86835
G0 F3000 X133.311 Y67.627
G0 X133.207 Y68.054
G1 F1800 E37.86835
G1 F300 Z0.4
G0 F3000 X133.169 Y68.21 Z0.4
G0 X137.433 Y120.9
;TYPE:WALL-INNER
G1 F300 Z0.2
G1 F1800 E44.86835
G1 F1200 X137.433 Y132.5 E45.25417
G1 X143.233 Y132.5 E45.44707
G1 X143.233 Y120.9 E45.83289
G1 X137.433 Y120.9 E46.0258
G0 F3000 X137.833 Y121.3
;TYPE:WALL-OUTER
G1 F1200 X137.833 Y132.1 E46.38501
G1 X142.833 Y132.1 E46.55131
G1 X142.833 Y121.3 E46.91052
G1 X137.833 Y121.3 E47.07682
G0 F3000 X137.833 Y121.5
G0 X137.393 Y121.5
G1 F1800 E40.07682
G1 F300 Z0.4
G0 F3000 X137.233 Y121.5 Z0.4
G0 X137.433 Y135.3
;TYPE:WALL-INNER
G1 F300 Z0.2
G1 F1800 E47.07682
G1 F1200 X137.433 Y146.9 E47.46264
G1 X143.233 Y146.9 E47.65555
G1 X143.233 Y135.3 E48.04136
G1 X137.433 Y135.3 E48.23427
G0 F3000 X137.833 Y135.7
;TYPE:WALL-OUTER
G1 F1200 X137.833 Y146.5 E48.59348
G1 X142.833 Y146.5 E48.75978
G1 X142.833 Y135.7 E49.11899
G1 X137.833 Y135.7 E49.28529
G0 F3000 X137.833 Y135.9
G0 X137.393 Y135.9
G1 F1800 E42.28529
G1 F300 Z0.4
G0 F3000 X137.233 Y135.9 Z0.4
G0 X102.718 Y164.819
;TYPE:WALL-INNER
G1 F300 Z0.2
G1 F1800 E49.28529
G1 F1200 X102.783 Y164.886 E49.2884
G1 X103.553 Y165.289 E49.3173
G1 X104.376 Y165.493 E49.34551
G1 X105.225 Y165.493 E49.37374
G1 X106.048 Y165.289 E49.40195
G1 X106.799 Y164.896 E49.43014
G1 X107.434 Y164.333 E49.45836
G1 X107.846 Y163.734 E49.48254
G1 X107.907 Y163.661 E49.48571
G1 X108.216 Y162.842 E49.51482
G1 X108.302 Y162.121 E49.53897
G1 X108.32 Y162.016 E49.54252
G1 X108.216 Y161.158 E49.57126
G1 X107.96 Y160.485 E49.59521
G1 X107.929 Y160.383 E49.59876
G1 X107.433 Y159.666 E49.62775
G1 X106.878 Y159.176 E49.65238
G1 X106.818 Y159.114 E49.65525
G1 X106.048 Y158.711 E49.68415
G1 X105.225 Y158.508 E49.71235
G1 X104.376 Y158.508 E49.74058
G1 X103.553 Y158.711 E49.76878
G1 X102.802 Y159.104 E49.79697
G1 X102.167 Y159.668 E49.82522
G1 X101.755 Y160.267 E49.8494
G1 X101.694 Y160.34 E49.85256
G1 X101.385 Y161.159 E49.88168
G1 X101.296 Y161.895 E49.90633
G1 X101.28 Y161.986 E49.90941
G1 X101.371 Y162.717 E49.93391
G1 X101.381 Y162.831 E49.93772
G1 X101.643 Y163.519 E49.9622
G1 X101.672 Y163.617 E49.9656
G1 X102.168 Y164.335 E49.99463
G1 X102.718 Y164.819 E50.01899
G0 F3000 X103.025 Y164.561
;TYPE:WALL-OUTER
G1 F1200 X103.696 Y164.912 E50.04418
G1 X104.425 Y165.093 E50.06916
G1 X105.176 Y165.093 E50.09414
G1 X105.905 Y164.912 E50.11912
G1 X106.57 Y164.564 E50.14409
G1 X107.132 Y164.066 E50.16906
G1 X107.525 Y163.494 E50.19214
G1 X107.557 Y163.456 E50.1938
