;FLAVOR:Marlin
;TIME:2177
;Filament used: 0.443067m
;Layer height: 0.1
;MINX:85.71
;MINY:93.464
;MINZ:0.1
;MAXX:134.273
;MAXY:126.498
;MAXZ:4.5
;Generated with Cura_SteamEngine master
M82 ;absolute extrusion mode
;Sliced at: Sat 14-05-2022 01:26:15
;Basic settings: Layer height: 0.1 Walls: 0.8 Fill: 100
G21 ;metric values
G90 ;absolute positioning
M82 ;set extruder to absolute mode
M107 ;start with the fan off
M117 Start heating ...
M104 S200
M117 Homing X/Y ...
G28 X0 Y0 ;move X/Y to min endstops
M117 Homing Z ...
G28 Z0 ;move Z to min endstops
G1 Z15.0 F50 ;move the platform down 15mm
M117 Heating ...
M109 S200
M117 Start cleaning ...
G92 E0 ;zero the extruded length
G1 F200 E10 ;extrude 10mm of feed stock
G92 E0 ;zero the extruded length again
M117 Intro line ...
G1 Z2.0 F3000 ; Move Z Axis up little to prevent scratching of Heat Bed
G1 X0.1 Y20 Z0.1 F5000.0 ; Move to start position
G1 X0.1 Y200.0 Z0.1 F1500.0 E15 ; Draw the first line
G1 X0.4 Y200.0 Z0.1 F5000.0 ; Move to side a little
G1 X0.4 Y20 Z0.3 F1500.0 E30 ; Draw the second line
G92 E0 ; Reset Extruder
G1 E-1 F500 ; Retract filiment by 1 mm
G1 Z2.0 F3000 ; Move Z Axis up little to prevent scratching of Heat Bed
G1 X5 Y20 Z0.3 F50 ; Move over to prevent blob squish
G1 F50
G92 E0 ; Reset Extruder
M117 Printing...

G92 E0
G92 E0
G1 F1800 E-7
;LAYER_COUNT:43
;LAYER:0
M107
G1 F300 Z0.3
G0 F1500 X87.116 Y94.436 Z0.3
;TYPE:SKIRT
G1 F300 Z0.1
G1 F1800 E0
G1 F900 X87.57 Y94.099 E0.0094
G1 X88.067 Y93.83 E0.0188
G1 X88.598 Y93.633 E0.02822
G1 X89.15 Y93.514 E0.03761
G1 X89.928 Y93.466 E0.05057
G1 X90.04 Y93.464 E0.05244
G1 X99.96 Y93.464 E0.21741
G1 X100.666 Y93.474 E0.22915
G1 X100.833 Y93.48 E0.23193
G1 X103.561 Y93.633 E0.27737
G1 X106.239 Y93.708 E0.32192
G1 X107.788 Y93.714 E0.34768
G1 X121.962 Y93.718 E0.58339
G1 X129.623 Y93.717 E0.7108
G1 X130.321 Y93.727 E0.7224
G1 X130.885 Y93.775 E0.73182
G1 X131.435 Y93.902 E0.74121
G1 X131.963 Y94.106 E0.75062
G1 X132.457 Y94.381 E0.76002
G1 X132.906 Y94.724 E0.76942
G1 X133.303 Y95.126 E0.77881
G1 X133.64 Y95.581 E0.78823
G1 X133.908 Y96.078 E0.79762
G1 X134.104 Y96.608 E0.80702
G1 X134.224 Y97.161 E0.81643
G1 X134.271 Y97.935 E0.82932
G1 X134.273 Y98.047 E0.83119
G1 X134.273 Y105.736 E0.95905
G1 X134.263 Y106.464 E0.97116
G1 X134.215 Y107.027 E0.98056
G1 X134.088 Y107.578 E0.98996
G1 X133.885 Y108.106 E0.99937
G1 X133.61 Y108.6 E1.00877
G1 X133.268 Y109.05 E1.01817
G1 X132.865 Y109.447 E1.02758
G1 X132.411 Y109.783 E1.03697
G1 X131.914 Y110.052 E1.04637
G1 X131.6 Y110.179 E1.052
G1 X130.395 Y110.606 E1.07326
G1 X127.837 Y111.554 E1.11863
G1 X125.312 Y112.57 E1.16389
G1 X122.812 Y113.659 E1.20924
G1 X120.386 Y114.799 E1.25382
G1 X117.934 Y116.037 E1.2995
G1 X115.54 Y117.332 E1.34476
G1 X113.212 Y118.678 E1.38948
G1 X110.893 Y120.107 E1.43478
G1 X108.614 Y121.604 E1.48013
G1 X106.387 Y123.158 E1.52529
G1 X104.248 Y124.74 E1.56953
G1 X104.138 Y124.826 E1.57185
G1 X103.032 Y125.669 E1.59498
G1 X102.559 Y125.979 E1.60438
G1 X102.047 Y126.22 E1.61379
G1 X101.507 Y126.385 E1.62318
G1 X100.729 Y126.486 E1.63623
G1 X100.28 Y126.498 E1.6437
G1 X90.365 Y126.498 E1.80859
G1 X89.667 Y126.489 E1.8202
G1 X89.104 Y126.441 E1.82959
G1 X88.553 Y126.315 E1.83899
G1 X88.025 Y126.113 E1.84839
G1 X87.531 Y125.838 E1.8578
G1 X87.081 Y125.496 E1.8672
G1 X86.683 Y125.094 E1.8766
G1 X86.347 Y124.64 E1.886
G1 X86.077 Y124.143 E1.8954
G1 X85.88 Y123.613 E1.90481
G1 X85.76 Y123.061 E1.9142
G1 X85.711 Y122.264 E1.92748
G1 X85.71 Y112.819 E2.08455
G1 X85.731 Y111.313 E2.1096
G1 X85.731 Y108.582 E2.15501
G1 X85.711 Y107.619 E2.17103
G1 X85.71 Y98.082 E2.32963
G1 X85.719 Y97.419 E2.34066
G1 X85.767 Y96.855 E2.35007
G1 X85.894 Y96.304 E2.35948
G1 X86.096 Y95.777 E2.36886
G1 X86.372 Y95.283 E2.37827
G1 X86.714 Y94.833 E2.38767
G1 X87.116 Y94.436 E2.39707
G0 F1500 X87.504 Y94.635
G1 F900 X87.951 Y94.337 E2.406
G1 X88.436 Y94.109 E2.41491
G1 X88.95 Y93.956 E2.42383
G1 X89.618 Y93.874 E2.43503
G1 X90.04 Y93.864 E2.44205
G1 X99.954 Y93.864 E2.60692
G1 X100.66 Y93.874 E2.61866
G1 X100.811 Y93.88 E2.62117
G1 X103.493 Y94.031 E2.66584
G1 X106.268 Y94.108 E2.71201
G1 X107.787 Y94.114 E2.73727
G1 X121.963 Y94.118 E2.97302
G1 X129.618 Y94.117 E3.10032
G1 X130.316 Y94.127 E3.11193
G1 X130.85 Y94.175 E3.12085
G1 X131.371 Y94.301 E3.12976
G1 X131.868 Y94.504 E3.13869
G1 X132.329 Y94.778 E3.14761
G1 X132.744 Y95.117 E3.15652
G1 X133.104 Y95.515 E3.16544
G1 X133.401 Y95.961 E3.17435
G1 X133.629 Y96.447 E3.18328
G1 X133.781 Y96.961 E3.1922
G1 X133.863 Y97.626 E3.20334
G1 X133.873 Y98.047 E3.21034
G1 X133.873 Y105.73 E3.33811
G1 X133.863 Y106.458 E3.35022
G1 X133.815 Y106.993 E3.35915
G1 X133.689 Y107.514 E3.36807
G1 X133.487 Y108.011 E3.37699
G1 X133.213 Y108.472 E3.38591
G1 X132.874 Y108.887 E3.39482
G1 X132.477 Y109.248 E3.40374
G1 X132.031 Y109.545 E3.41265
G1 X131.466 Y109.802 E3.42297
G1 X130.271 Y110.226 E3.44406
G1 X127.697 Y111.179 E3.48971
G1 X125.139 Y112.208 E3.53556
G1 X122.661 Y113.288 E3.58051
G1 X120.214 Y114.438 E3.62548
G1 X117.742 Y115.686 E3.67153
G1 X115.355 Y116.977 E3.71666
G1 X113.008 Y118.334 E3.76174
G1 X110.661 Y119.781 E3.80759
G1 X108.395 Y121.268 E3.85267
G1 X106.166 Y122.824 E3.89787
G1 X103.957 Y124.46 E3.94359
G1 X102.789 Y125.351 E3.96802
G1 X102.34 Y125.644 E3.97693
G1 X101.852 Y125.866 E3.98585
G1 X101.336 Y126.013 E3.99477
G1 X100.717 Y126.086 E4.00514
G1 X100.28 Y126.098 E4.01241
G1 X90.371 Y126.098 E4.1772
G1 X89.673 Y126.089 E4.1888
G1 X89.138 Y126.042 E4.19774
G1 X88.617 Y125.916 E4.20665
G1 X88.12 Y125.714 E4.21557
G1 X87.659 Y125.441 E4.22448
G1 X87.243 Y125.102 E4.23341
G1 X86.882 Y124.706 E4.24232
G1 X86.584 Y124.26 E4.25124
G1 X86.356 Y123.774 E4.26016
G1 X86.203 Y123.26 E4.26908
G1 X86.12 Y122.586 E4.28038
G1 X86.11 Y122.156 E4.28753
G1 X86.11 Y112.825 E4.4427
G1 X86.131 Y111.319 E4.46775
G1 X86.131 Y108.573 E4.51342
G1 X86.111 Y107.619 E4.52929
G1 X86.11 Y98.087 E4.6878
G1 X86.119 Y97.424 E4.69883
G1 X86.167 Y96.89 E4.70775
G1 X86.293 Y96.369 E4.71666
G1 X86.495 Y95.872 E4.72558
G1 X86.768 Y95.411 E4.73449
G1 X87.107 Y94.995 E4.74342
G1 X87.504 Y94.635 E4.75233
G0 F1500 X87.5 Y95.168
G1 F900 X87.89 Y94.847 E4.76073
G1 X88.327 Y94.592 E4.76914
G1 X88.798 Y94.408 E4.77755
G1 X89.292 Y94.302 E4.78596
G1 X89.95 Y94.265 E4.79691
G1 X99.948 Y94.264 E4.96318
G1 X100.654 Y94.274 E4.97492
G1 X100.788 Y94.279 E4.97715
G1 X103.494 Y94.431 E5.02223
G1 X106.255 Y94.508 E5.06816
G1 X107.785 Y94.514 E5.0936
G1 X121.962 Y94.518 E5.32937
G1 X129.612 Y94.517 E5.45659
G1 X130.31 Y94.527 E5.4682
G1 X130.813 Y94.574 E5.4766
G1 X131.303 Y94.7 E5.48501
G1 X131.767 Y94.902 E5.49343
G1 X132.193 Y95.174 E5.50183
G1 X132.571 Y95.509 E5.51023
G1 X132.891 Y95.9 E5.51864
G1 X133.146 Y96.337 E5.52705
G1 X133.329 Y96.808 E5.53545
G1 X133.436 Y97.302 E5.54386
G1 X133.472 Y97.957 E5.55477
G1 X133.473 Y105.725 E5.68395
G1 X133.463 Y106.453 E5.69606
G1 X133.416 Y106.956 E5.70446
G1 X133.29 Y107.446 E5.71287
G1 X133.089 Y107.91 E5.72128
G1 X132.818 Y108.336 E5.72968
G1 X132.482 Y108.715 E5.7381
G1 X132.091 Y109.035 E5.7465
G1 X131.655 Y109.29 E5.7549
G1 X131.333 Y109.425 E5.76071
G1 X130.112 Y109.858 E5.78226
G1 X127.557 Y110.804 E5.82756
G1 X124.996 Y111.835 E5.87348
G1 X122.48 Y112.931 E5.91911
G1 X120 Y114.097 E5.96469
G1 X117.593 Y115.312 E6.00953
G1 X115.156 Y116.63 E6.0556
G1 X112.792 Y117.997 E6.10101
G1 X110.462 Y119.433 E6.14653
G1 X108.168 Y120.939 E6.19217
G1 X105.921 Y122.507 E6.23773
G1 X103.748 Y124.115 E6.28269
G1 X103.653 Y124.19 E6.2847
G1 X102.547 Y125.033 E6.30783
G1 X102.122 Y125.307 E6.31624
G1 X101.659 Y125.51 E6.32464
G1 X101.17 Y125.638 E6.33305
G1 X100.378 Y125.697 E6.34626
G1 X90.376 Y125.698 E6.51259
G1 X89.678 Y125.689 E6.5242
G1 X89.174 Y125.642 E6.53262
G1 X88.684 Y125.517 E6.54103
G1 X88.22 Y125.316 E6.54944
G1 X87.794 Y125.045 E6.55783
G1 X87.415 Y124.71 E6.56625
G1 X87.094 Y124.319 E6.57466
G1 X86.839 Y123.883 E6.58306
G1 X86.655 Y123.412 E6.59147
G1 X86.548 Y122.918 E6.59987
G1 X86.511 Y122.242 E6.61113
G1 X86.51 Y112.83 E6.76765
G1 X86.531 Y111.324 E6.7927
G1 X86.531 Y108.541 E6.83898
G1 X86.511 Y107.619 E6.85432
G1 X86.51 Y98.093 E7.01274
G1 X86.519 Y97.43 E7.02376
G1 X86.566 Y96.926 E7.03218
G1 X86.692 Y96.436 E7.0406
G1 X86.893 Y95.973 E7.04899
G1 X87.164 Y95.546 E7.0574
G1 X87.5 Y95.168 E7.06581
G1 F1800 E0.06581
G1 F300 Z0.3
G0 F1500 X117.313 Y97.917 Z0.3
;TYPE:SUPPORT
G1 F300 Z0.1
G1 F1800 E7.06581
G1 F900 X120.732 Y97.917 E7.12267
G1 X120.732 Y106.217 E7.2607
G1 X117.313 Y106.217 E7.31756
G1 X117.313 Y97.917 E7.45559
G0 F1500 X117.513 Y98.679
G1 F900 X120.532 Y98.679 E7.50579
G0 F1500 X120.015 Y98.117
G1 F900 X120.015 Y106.017 E7.63717
G1 F1800 E0.63717
G1 F300 Z0.3
G0 F1500 X120.532 Y104.013 Z0.3
G1 F300 Z0.1
G1 F1800 E7.63717
G1 F900 X117.513 Y104.013 E7.68738
G1 F1800 E0.68738
G1 F300 Z0.3
G0 F1500 X117.513 Y101.346 Z0.3
G1 F300 Z0.1
G1 F1800 E7.68738
G1 F900 X120.532 Y101.346 E7.73758
G1 F1800 E0.73758
G1 F300 Z0.3
;MESH:control.station.clamp.amf 1
G0 F1500 X99.71 Y106.864 Z0.3
;TYPE:WALL-INNER
G1 F300 Z0.1
G1 F1800 E7.73758
G1 F900 X99.71 Y98.364 E7.87894
G1 X90.61 Y98.364 E8.03027
G1 X90.61 Y106.864 E8.17163
G1 X99.71 Y106.864 E8.32296
G0 F1500 X99.31 Y106.464
;TYPE:WALL-OUTER
G1 F900 X99.31 Y98.764 E8.45101
G1 X91.01 Y98.764 E8.58904
G1 X91.01 Y106.464 E8.71709
G1 X99.31 Y106.464 E8.85512
G0 F1500 X99.31 Y106.264
G0 X99.75 Y106.264
G0 X100.01 Y107.164
;TYPE:WALL-INNER
G1 F900 X90.31 Y107.164 E8.97765
G1 X90.31 Y98.064 E9.09267
G1 X100.01 Y98.064 E9.2152
G1 X100.01 Y107.164 E9.33022
G0 F1500 X100.41 Y107.564
;TYPE:WALL-OUTER
G1 F900 X89.91 Y107.564 E9.50483
G1 X89.91 Y97.664 E9.66947
G1 X100.41 Y97.664 E9.84409
G1 X100.41 Y107.564 E10.00872
G0 F1500 X100.21 Y107.564
G0 X99.97 Y107.124
G0 X99.81 Y106.964
G1 F1800 E3.00872
G1 F300 Z0.3
;MESH:control.station.clamp.amf 2
G0 F1500 X99.81 Y106.964 Z0.3
G0 X99.71 Y121.598
;TYPE:WALL-INNER
G1 F300 Z0.1
G1 F1800 E10.00872
G1 F900 X99.71 Y113.098 E10.15008
G1 X90.61 Y113.098 E10.30141
G1 X90.61 Y121.598 E10.44277
G1 X99.71 Y121.598 E10.5941
G0 F1500 X99.31 Y121.198
;TYPE:WALL-OUTER
G1 F900 X99.31 Y113.498 E10.72215
G1 X91.01 Y113.498 E10.86018
G1 X91.01 Y121.198 E10.98824
G1 X99.31 Y121.198 E11.12627
G0 F1500 X99.31 Y120.998
G0 X99.75 Y120.998
G0 X100.01 Y121.898
;TYPE:WALL-INNER
G1 F900 X90.31 Y121.898 E11.24879
G1 X90.31 Y112.798 E11.36381
G1 X100.01 Y112.798 E11.48634
G1 X100.01 Y121.898 E11.60136
G0 F1500 X100.41 Y122.298
;TYPE:WALL-OUTER
G1 F900 X89.91 Y122.298 E11.77598
G1 X89.91 Y112.398 E11.94061
G1 X100.41 Y112.398 E12.11523
G1 X100.41 Y122.298 E12.27987
G0 F1500 X100.21 Y122.298
G0 X99.97 Y121.858
G0 X99.81 Y121.698
G1 F1800 E5.27987
G1 F300 Z0.3
;MESH:control.station.clamp.amf
G0 F1500 X99.81 Y121.698 Z0.3
G0 X111.222 Y104.372
;TYPE:WALL-INNER
G1 F300 Z0.1
G1 F1800 E12.27987
G1 F900 X111.762 Y104.505 E12.28912
G1 X112.318 Y104.505 E12.29836
G1 X112.858 Y104.372 E12.30761
G1 X113.35 Y104.114 E12.31685
G1 X113.765 Y103.746 E12.32607
G1 X114.08 Y103.288 E12.33532
G1 X114.278 Y102.768 E12.34457
G1 X114.344 Y102.217 E12.3538
G1 X114.278 Y101.667 E12.36301
G1 X114.08 Y101.146 E12.37228
G1 X113.765 Y100.689 E12.38151
G1 X113.35 Y100.32 E12.39075
G1 X112.856 Y100.063 E12.40001
G1 X112.318 Y99.93 E12.40922
G1 X111.762 Y99.93 E12.41847
G1 X111.223 Y100.063 E12.4277
G1 X110.732 Y100.32 E12.43692
G1 X110.314 Y100.689 E12.44619
G1 X110 Y101.146 E12.45541
G1 X109.802 Y101.667 E12.46468
G1 X109.736 Y102.217 E12.47389
G1 X109.802 Y102.768 E12.48312
G1 X110 Y103.288 E12.49237
G1 X110.314 Y103.746 E12.50161
G1 X110.731 Y104.114 E12.51086
G1 X111.222 Y104.372 E12.52008
G0 F1500 X111.365 Y103.995
;TYPE:WALL-OUTER
G1 F900 X111.811 Y104.105 E12.52772
G1 X112.269 Y104.105 E12.53534
G1 X112.715 Y103.995 E12.54298
G1 X113.121 Y103.782 E12.5506
G1 X113.463 Y103.479 E12.5582
G1 X113.723 Y103.101 E12.56583
G1 X113.887 Y102.672 E12.57347
G1 X113.941 Y102.217 E12.58109
G1 X113.887 Y101.763 E12.58869
G1 X113.723 Y101.333 E12.59634
G1 X113.463 Y100.956 E12.60396
G1 X113.121 Y100.652 E12.61157
G1 X112.714 Y100.44 E12.6192
G1 X112.269 Y100.33 E12.62682
G1 X111.811 Y100.33 E12.63444
G1 X111.366 Y100.44 E12.64206
G1 X110.96 Y100.652 E12.64968
G1 X110.616 Y100.956 E12.65732
G1 X110.357 Y101.333 E12.66492
G1 X110.193 Y101.763 E12.67257
G1 X110.139 Y102.217 E12.68018
G1 X110.193 Y102.672 E12.6878
G1 X110.357 Y103.101 E12.69544
G1 X110.616 Y103.479 E12.70306
G1 X110.96 Y103.782 E12.71068
G1 X111.365 Y103.995 E12.71829
G0 F1500 X111.559 Y104.042
G0 X111.453 Y104.469
G1 F1800 E5.71829
G1 F300 Z0.3
G0 F1500 X111.414 Y104.624 Z0.3
G0 X115.713 Y105.817
;TYPE:WALL-INNER
G1 F300 Z0.1
G1 F1800 E12.71829
G1 F900 X108.373 Y105.817 E12.84035
G1 X108.373 Y98.317 E12.96508
G1 X115.713 Y98.317 E13.08714
G1 X115.713 Y105.817 E13.21187
G0 F1500 X116.113 Y106.217
;TYPE:WALL-OUTER
G1 F900 X107.973 Y106.217 E13.34724
G1 X107.973 Y97.917 E13.48527
G1 X116.113 Y97.917 E13.62064
G1 X116.113 Y106.217 E13.75867
G0 F1500 X115.913 Y106.217
G0 X115.673 Y105.777
G0 X115.323 Y105.427
;TYPE:SKIN
G1 F900 X108.763 Y105.427 E13.86776
G1 X108.763 Y98.707 E13.97951
G1 X115.323 Y98.707 E14.08861
G1 X115.323 Y105.427 E14.20036
G1 F1800 E7.20036
G1 F300 Z0.3
G0 F1500 X115.323 Y105.617 Z0.3
G0 X114.059 Y104.006
G1 F300 Z0.1
G1 F1800 E14.20036
G1 F900 X114.427 Y103.471 E14.21116
G1 X114.66 Y102.862 E14.222
G1 X114.736 Y102.217 E14.2328
G1 X114.66 Y101.573 E14.24359
G1 X114.427 Y100.963 E14.25445
G1 X114.059 Y100.429 E14.26523
G1 X113.573 Y99.996 E14.27606
G1 X112.995 Y99.696 E14.28689
G1 X112.365 Y99.54 E14.29768
G1 X111.715 Y99.54 E14.30849
G1 X111.084 Y99.696 E14.3193
G1 X110.51 Y99.996 E14.33007
G1 X110.02 Y100.428 E14.34093
G1 X109.653 Y100.964 E14.35174
G1 X109.42 Y101.573 E14.36258
G1 X109.344 Y102.217 E14.37336
G1 X109.42 Y102.862 E14.38416
G1 X109.653 Y103.47 E14.39499
G1 X110.02 Y104.007 E14.40581
G1 X110.509 Y104.438 E14.41665
G1 X111.083 Y104.739 E14.42743
G1 X111.715 Y104.895 E14.43825
G1 X112.365 Y104.895 E14.44906
G1 X112.997 Y104.739 E14.45989
G1 X113.573 Y104.438 E14.4707
G1 X114.059 Y104.006 E14.48151
G1 F1800 E7.48151
G1 F300 Z0.3
G0 F1500 X113.913 Y103.877 Z0.3
G0 X115.142 Y99.303
G1 F300 Z0.1
G1 F1800 E14.48151
G1 F900 X114.726 Y98.887 E14.49129
G0 F1500 X114.16 Y98.887
G1 F900 X115.142 Y99.868 E14.51438
G0 F1500 X115.142 Y100.434
G1 F900 X113.595 Y98.887 E14.55076
G0 F1500 X113.029 Y98.887
G1 F900 X115.142 Y101 E14.60045
G0 F1500 X114.667 Y101.09
G1 F900 X115.142 Y101.565 E14.61163
G0 F1500 X114.875 Y101.864
G1 F900 X115.142 Y102.131 E14.61791
G0 F1500 X114.889 Y102.444
G1 F900 X115.142 Y102.697 E14.62386
G0 F1500 X114.82 Y102.941
G1 F900 X115.142 Y103.263 E14.63143
G0 F1500 X114.664 Y103.35
G1 F900 X115.142 Y103.828 E14.64267
G0 F1500 X115.142 Y104.394
G1 F900 X114.471 Y103.723 E14.65845
G0 F1500 X114.24 Y104.058
G1 F900 X115.142 Y104.96 E14.67967
G0 F1500 X114.863 Y105.247
G1 F900 X113.955 Y104.339 E14.70102
G0 F1500 X113.651 Y104.6
G1 F900 X114.298 Y105.247 E14.71624
G0 F1500 X113.732 Y105.247
G1 F900 X113.279 Y104.793 E14.7269
G0 F1500 X112.874 Y104.955
G1 F900 X113.166 Y105.247 E14.73377
G0 F1500 X112.601 Y105.247
G1 F900 X112.42 Y105.066 E14.73803
G0 F1500 X112.035 Y105.247
G1 F900 X111.863 Y105.075 E14.74207
G0 F1500 X111.469 Y105.247
G1 F900 X111.169 Y104.946 E14.74914
G0 F1500 X110.904 Y105.247
G1 F900 X108.942 Y103.285 E14.79528
G0 F1500 X109.315 Y103.093
G1 F900 X108.942 Y102.719 E14.80407
G0 F1500 X109.183 Y102.395
G1 F900 X108.942 Y102.154 E14.80973
G0 F1500 X109.205 Y101.851
G1 F900 X108.942 Y101.588 E14.81592
G0 F1500 X109.3 Y101.38
G1 F900 X108.942 Y101.022 E14.82434
G0 F1500 X109.457 Y100.972
G1 F900 X108.942 Y100.457 E14.83645
G0 F1500 X108.942 Y99.891
G1 F900 X109.67 Y100.619 E14.85357
G0 F1500 X109.904 Y100.287
G1 F900 X108.942 Y99.325 E14.8762
G0 F1500 X109.069 Y98.887
G1 F900 X110.205 Y100.023 E14.90291
G0 F1500 X110.529 Y99.781
G1 F900 X109.635 Y98.887 E14.92394
G0 F1500 X110.201 Y98.887
G1 F900 X110.901 Y99.587 E14.9404
G0 F1500 X111.329 Y99.449
G1 F900 X110.766 Y98.887 E14.95363
G0 F1500 X111.332 Y98.887
G1 F900 X111.804 Y99.359 E14.96473
G0 F1500 X111.898 Y98.887
