;FLAVOR:Marlin
;TIME:4061
;Filament used: 2.48765m
;Layer height: 0.2
;MINX:41.024
;MINY:97
;MINZ:0.2
;MAXX:179
;MAXY:123
;MAXZ:32.2
;Generated with Cura_SteamEngine master
M82 ;absolute extrusion mode
;Sliced at: Sat 01-10-2022 14:30:42
;Basic settings: Layer height: 0.2 Walls: 0.8 Fill: 30.0
G21 ;metric values
G90 ;absolute positioning
M82 ;set extruder to absolute mode
M107 ;start with the fan off
M117 Start heating ...
M104 S200
M117 Homing X/Y ...
G28 X0 Y0 ;move X/Y to min endstops
M117 Homing Z ...
G28 Z0 ;move Z to min endstops
G1 Z15.0 F100 ;move the platform down 15mm
M117 Heating ...
M109 S200
M117 Start cleaning ...
G92 E0 ;zero the extruded length
G1 F200 E10 ;extrude 10mm of feed stock
G92 E0 ;zero the extruded length again
M117 Intro line ...
G1 Z2.0 F3000 ; Move Z Axis up little to prevent scratching of Heat Bed
G1 X0.1 Y20 Z0.2 F5000.0 ; Move to start position
G1 X0.1 Y200.0 Z0.2 F1500.0 E15 ; Draw the first line
G1 X0.4 Y200.0 Z0.2 F5000.0 ; Move to side a little
G1 X0.4 Y20 Z0.3 F1500.0 E30 ; Draw the second line
G92 E0 ; Reset Extruder
G1 E-1 F500 ; Retract filiment by 1 mm
G1 Z2.0 F3000 ; Move Z Axis up little to prevent scratching of Heat Bed
G1 X5 Y20 Z0.3 F100 ; Move over to prevent blob squish
G1 F100
G92 E0 ; Reset Extruder
M117 Printing...

G92 E0
G92 E0
G1 F1800 E-7
;LAYER_COUNT:161
;LAYER:0
M107
G1 F300 Z0.4
G0 F3000 X48.734 Y98.136 Z0.4
;TYPE:SKIRT
G1 F300 Z0.2
G1 F1800 E0
G1 F1200 X49.343 Y97.884 E0.02192
G1 X50.056 Y97.657 E0.04681
G1 X50.425 Y97.545 E0.05963
G1 X51.14 Y97.339 E0.08438
G1 X51.8 Y97.208 E0.10676
G1 X52.548 Y97.124 E0.1318
G1 X52.976 Y97.082 E0.1461
G1 X53.484 Y97.04 E0.16305
G1 X53.729 Y97.027 E0.17122
G1 X55.038 Y97 E0.21476
G1 X174.35 Y97 E4.1831
G1 X175.048 Y97.01 E4.20631
G1 X175.612 Y97.058 E4.22514
G1 X176.162 Y97.185 E4.24391
G1 X176.69 Y97.389 E4.26274
G1 X177.184 Y97.664 E4.28155
G1 X177.633 Y98.007 E4.30034
G1 X178.03 Y98.409 E4.31913
G1 X178.367 Y98.864 E4.33796
G1 X178.635 Y99.361 E4.35674
G1 X178.831 Y99.891 E4.37554
G1 X178.951 Y100.444 E4.39436
G1 X178.998 Y101.218 E4.42015
G1 X179 Y101.33 E4.42387
G1 X179 Y118.314 E4.98876
G1 X178.991 Y119.041 E5.01295
G1 X178.944 Y119.604 E5.03174
G1 X178.818 Y120.155 E5.05054
G1 X178.616 Y120.683 E5.06934
G1 X178.341 Y121.177 E5.08814
G1 X177.999 Y121.627 E5.10694
G1 X177.597 Y122.025 E5.12576
G1 X177.144 Y122.362 E5.14454
G1 X176.647 Y122.632 E5.16335
G1 X176.117 Y122.829 E5.18216
G1 X175.565 Y122.95 E5.20095
G1 X174.782 Y122.998 E5.22704
G1 X174.67 Y123 E5.23077
G1 X54.653 Y123 E9.22255
G1 X54.13 Y122.993 E9.23995
G1 X53.873 Y122.981 E9.2485
G1 X52.642 Y122.885 E9.28957
G1 X52.505 Y122.872 E9.29415
G1 X51.796 Y122.792 E9.31788
G1 X51.139 Y122.661 E9.34016
G1 X50.441 Y122.46 E9.36432
G1 X49.997 Y122.325 E9.37976
G1 X49.352 Y122.12 E9.40227
G1 X48.728 Y121.862 E9.42472
G1 X48.042 Y121.507 E9.45041
G1 X47.708 Y121.327 E9.46303
G1 X47.066 Y120.972 E9.48743
G1 X46.51 Y120.601 E9.50967
G1 X45.931 Y120.139 E9.5343
G1 X45.614 Y119.879 E9.54794
G1 X45.051 Y119.402 E9.57248
G1 X44.58 Y118.929 E9.59468
G1 X44.094 Y118.353 E9.61975
G1 X43.844 Y118.048 E9.63287
G1 X43.392 Y117.479 E9.65703
G1 X43.006 Y116.898 E9.68024
G1 X42.662 Y116.273 E9.70396
G1 X42.456 Y115.887 E9.71852
G1 X42.135 Y115.263 E9.74186
G1 X41.882 Y114.65 E9.76391
G1 X41.657 Y113.944 E9.78856
G1 X41.545 Y113.575 E9.80138
G1 X41.339 Y112.86 E9.82613
G1 X41.208 Y112.2 E9.84851
G1 X41.124 Y111.452 E9.87355
G1 X41.082 Y111.028 E9.88772
G1 X41.024 Y110.335 E9.91085
G1 X41.024 Y109.665 E9.93313
G1 X41.087 Y108.926 E9.9578
G1 X41.129 Y108.501 E9.972
G1 X41.21 Y107.788 E9.99587
G1 X41.34 Y107.134 E10.01805
G1 X41.54 Y106.441 E10.04204
G1 X41.674 Y105.999 E10.0574
G1 X41.878 Y105.356 E10.07984
G1 X42.137 Y104.73 E10.10237
G1 X42.493 Y104.042 E10.12814
G1 X42.677 Y103.701 E10.14102
G1 X43.035 Y103.057 E10.16553
G1 X43.306 Y102.633 E10.18227
G1 X43.429 Y102.471 E10.18903
G1 X43.861 Y101.931 E10.21203
G1 X44.122 Y101.614 E10.22569
G1 X44.6 Y101.05 E10.25028
G1 X45.073 Y100.577 E10.27253
G1 X45.673 Y100.072 E10.29861
G1 X45.945 Y99.85 E10.31029
G1 X46.51 Y99.399 E10.33433
G1 X47.073 Y99.023 E10.35685
G1 X47.719 Y98.666 E10.3814
G1 X48.115 Y98.454 E10.39634
G1 X48.734 Y98.136 E10.41948
G0 F3000 X48.917 Y98.492
G1 F1200 X49.465 Y98.265 E10.43921
G1 X50.172 Y98.04 E10.46389
G1 X50.535 Y97.93 E10.47651
G1 X51.25 Y97.724 E10.50125
G1 X51.844 Y97.606 E10.5214
G1 X52.588 Y97.522 E10.5463
G1 X53.009 Y97.48 E10.56037
G1 X53.517 Y97.438 E10.57733
G1 X53.738 Y97.427 E10.58469
G1 X55.038 Y97.4 E10.62793
G1 X174.345 Y97.4 E14.5961
G1 X175.043 Y97.41 E14.61932
G1 X175.577 Y97.458 E14.63715
G1 X176.098 Y97.584 E14.65498
G1 X176.595 Y97.787 E14.67283
G1 X177.056 Y98.061 E14.69067
G1 X177.471 Y98.4 E14.70849
G1 X177.831 Y98.798 E14.72634
G1 X178.128 Y99.244 E14.74417
G1 X178.356 Y99.73 E14.76202
G1 X178.508 Y100.244 E14.77985
G1 X178.59 Y100.909 E14.80213
G1 X178.6 Y101.33 E14.81614
G1 X178.6 Y118.309 E15.38086
G1 X178.591 Y119.036 E15.40505
G1 X178.544 Y119.57 E15.42287
G1 X178.419 Y120.091 E15.4407
G1 X178.217 Y120.588 E15.45854
G1 X177.944 Y121.05 E15.47639
G1 X177.606 Y121.466 E15.49421
G1 X177.209 Y121.827 E15.51206
G1 X176.763 Y122.125 E15.5299
G1 X176.278 Y122.353 E15.54773
G1 X175.764 Y122.507 E15.56557
G1 X175.092 Y122.59 E15.58809
G1 X174.67 Y122.6 E15.60213
G1 X54.659 Y122.6 E19.59372
G1 X54.136 Y122.593 E19.61111
G1 X53.904 Y122.582 E19.61884
G1 X52.673 Y122.486 E19.65991
G1 X52.549 Y122.474 E19.66405
G1 X51.84 Y122.394 E19.68778
G1 X51.249 Y122.277 E19.70782
G1 X50.558 Y122.078 E19.73173
G1 X50.119 Y121.944 E19.747
G1 X49.474 Y121.739 E19.76951
G1 X48.912 Y121.506 E19.78975
G1 X48.231 Y121.155 E19.81523
G1 X47.902 Y120.977 E19.82767
G1 X47.26 Y120.622 E19.85207
G1 X46.759 Y120.288 E19.8721
G1 X46.184 Y119.829 E19.89657
G1 X45.873 Y119.574 E19.90994
G1 X45.31 Y119.097 E19.93449
G1 X44.885 Y118.671 E19.9545
G1 X44.403 Y118.099 E19.97938
G1 X44.157 Y117.799 E19.99228
G1 X43.705 Y117.23 E20.01645
G1 X43.356 Y116.705 E20.03742
G1 X43.015 Y116.084 E20.06098
G1 X42.812 Y115.704 E20.07531
G1 X42.491 Y115.08 E20.09865
G1 X42.263 Y114.528 E20.11852
G1 X42.04 Y113.828 E20.14295
G1 X41.93 Y113.465 E20.15557
G1 X41.724 Y112.75 E20.18032
G1 X41.606 Y112.156 E20.20046
G1 X41.522 Y111.412 E20.22536
G1 X41.481 Y110.994 E20.23933
G1 X41.423 Y110.301 E20.26246
G1 X41.423 Y109.699 E20.28248
G1 X41.485 Y108.965 E20.30698
G1 X41.526 Y108.547 E20.32095
G1 X41.607 Y107.834 E20.34482
G1 X41.724 Y107.245 E20.36479
G1 X41.922 Y106.558 E20.38857
G1 X42.056 Y106.12 E20.40381
G1 X42.26 Y105.477 E20.42624
G1 X42.493 Y104.914 E20.44651
G1 X42.845 Y104.231 E20.47206
G1 X43.026 Y103.895 E20.48476
G1 X43.384 Y103.251 E20.50927
G1 X43.741 Y102.721 E20.53052
G1 X44.171 Y102.184 E20.5534
G1 X44.427 Y101.872 E20.56682
G1 X44.905 Y101.308 E20.59141
G1 X45.331 Y100.883 E20.61143
G1 X45.927 Y100.382 E20.63732
G1 X46.194 Y100.162 E20.64883
G1 X46.759 Y99.711 E20.67288
G1 X47.266 Y99.373 E20.69314
G1 X47.908 Y99.019 E20.71753
G1 X48.298 Y98.81 E20.73224
G1 X48.917 Y98.492 E20.75539
G0 F3000 X49.1 Y98.848
G1 F1200 X49.587 Y98.646 E20.77292
G1 X50.288 Y98.422 E20.7974
G1 X50.646 Y98.314 E20.80984
G1 X51.361 Y98.108 E20.83459
G1 X51.889 Y98.003 E20.85249
G1 X52.628 Y97.92 E20.87723
G1 X53.042 Y97.879 E20.89106
G1 X53.55 Y97.837 E20.90802
G1 X53.746 Y97.827 E20.91454
G1 X55.038 Y97.8 E20.95753
G1 X174.339 Y97.8 E24.92549
G1 X175.037 Y97.81 E24.94871
G1 X175.54 Y97.857 E24.96551
G1 X176.03 Y97.983 E24.98234
G1 X176.494 Y98.185 E24.99917
G1 X176.92 Y98.457 E25.01598
G1 X177.298 Y98.792 E25.03278
G1 X177.618 Y99.183 E25.04959
G1 X177.873 Y99.62 E25.06642
G1 X178.056 Y100.091 E25.08322
G1 X178.163 Y100.585 E25.10003
G1 X178.199 Y101.24 E25.12185
G1 X178.2 Y118.304 E25.6894
G1 X178.191 Y119.031 E25.71358
G1 X178.145 Y119.534 E25.73038
G1 X178.02 Y120.024 E25.7472
G1 X177.819 Y120.488 E25.76402
G1 X177.548 Y120.915 E25.78084
G1 X177.213 Y121.294 E25.79767
G1 X176.823 Y121.615 E25.81447
G1 X176.387 Y121.871 E25.83128
G1 X175.916 Y122.054 E25.84809
G1 X175.422 Y122.162 E25.86491
G1 X174.76 Y122.199 E25.88696
G1 X54.664 Y122.2 E29.88137
G1 X54.141 Y122.193 E29.89877
G1 X53.935 Y122.183 E29.90563
G1 X52.594 Y122.077 E29.95037
G1 X51.885 Y121.997 E29.9741
G1 X51.36 Y121.892 E29.99191
G1 X50.674 Y121.695 E30.01564
G1 X50.24 Y121.563 E30.03073
G1 X49.595 Y121.358 E30.05324
G1 X49.095 Y121.151 E30.07124
G1 X48.421 Y120.802 E30.09649
G1 X48.096 Y120.627 E30.10876
G1 X47.454 Y120.272 E30.13316
G1 X47.008 Y119.975 E30.15099
G1 X46.438 Y119.52 E30.17524
G1 X46.131 Y119.269 E30.18843
G1 X45.568 Y118.792 E30.21297
G1 X45.191 Y118.413 E30.23075
G1 X44.712 Y117.845 E30.25547
G1 X44.47 Y117.55 E30.26816
G1 X44.018 Y116.981 E30.29233
G1 X43.707 Y116.512 E30.31104
G1 X43.367 Y115.895 E30.33448
G1 X43.167 Y115.521 E30.34858
G1 X42.846 Y114.897 E30.37192
G1 X42.644 Y114.407 E30.38955
G1 X42.422 Y113.712 E30.41382
G1 X42.314 Y113.354 E30.42625
G1 X42.108 Y112.639 E30.451
G1 X42.003 Y112.111 E30.46891
G1 X41.92 Y111.372 E30.49364
G1 X41.879 Y110.961 E30.50738
G1 X41.821 Y110.268 E30.53051
G1 X41.821 Y109.732 E30.54834
G1 X41.883 Y109.003 E30.57267
G1 X41.923 Y108.592 E30.5864
G1 X42.004 Y107.879 E30.61027
G1 X42.109 Y107.355 E30.62805
G1 X42.305 Y106.674 E30.65162
G1 X42.437 Y106.241 E30.66667
G1 X42.641 Y105.598 E30.68911
G1 X42.848 Y105.097 E30.70714
G1 X43.198 Y104.421 E30.73246
G1 X43.376 Y104.089 E30.74499
G1 X43.734 Y103.445 E30.76949
G1 X44.054 Y102.971 E30.78851
G1 X44.48 Y102.438 E30.81121
G1 X44.732 Y102.131 E30.82442
G1 X45.21 Y101.567 E30.84901
G1 X45.589 Y101.189 E30.86681
G1 X46.181 Y100.691 E30.89254
G1 X46.444 Y100.475 E30.90386
G1 X47.009 Y100.024 E30.92791
G1 X47.459 Y99.723 E30.94591
G1 X48.098 Y99.371 E30.97018
G1 X48.481 Y99.166 E30.98463
G1 X49.1 Y98.848 E31.00777
G1 F1800 E24.00777
G1 F300 Z0.4
;MESH:camera.wroover.nested_console.middle.stl
G0 F3000 X52.868 Y112.998 Z0.4
;TYPE:WALL-INNER
G1 F300 Z0.2
G1 F1800 E31.00777
G1 F1200 X53.619 Y113.181 E31.03348
G1 X54.39 Y113.181 E31.05912
G1 X55.071 Y113.013 E31.08245
G1 X55.16 Y112.984 E31.08557
G1 X55.763 Y112.668 E31.10821
G1 X55.843 Y112.617 E31.11137
G1 X56.352 Y112.168 E31.13394
G1 X56.418 Y112.097 E31.13716
G1 X56.795 Y111.55 E31.15926
G1 X56.846 Y111.469 E31.16244
G1 X57.092 Y110.819 E31.18556
G1 X57.117 Y110.72 E31.18896
G1 X57.204 Y109.99 E31.21341
G1 X57.117 Y109.28 E31.2372
G1 X57.096 Y109.189 E31.24031
G1 X56.847 Y108.532 E31.26367
G1 X56.796 Y108.451 E31.26686
G1 X56.419 Y107.904 E31.28895
G1 X56.353 Y107.833 E31.29218
G1 X55.844 Y107.384 E31.31475
G1 X55.764 Y107.333 E31.31791
G1 X55.161 Y107.017 E31.34055
G1 X55.072 Y106.988 E31.34366
G1 X54.392 Y106.82 E31.36696
G1 X53.621 Y106.818 E31.3926
G1 X52.869 Y107.001 E31.41835
G1 X52.183 Y107.36 E31.4441
G1 X51.604 Y107.873 E31.46983
G1 X51.164 Y108.509 E31.49555
G1 X50.89 Y109.232 E31.52127
G1 X50.795 Y110 E31.547
G1 X50.889 Y110.767 E31.57271
G1 X51.163 Y111.49 E31.59842
G1 X51.603 Y112.126 E31.62414
G1 X52.182 Y112.639 E31.64987
G1 X52.868 Y112.998 E31.67562
G0 F3000 X53.01 Y112.621
;TYPE:WALL-OUTER
G1 F1200 X53.667 Y112.781 E31.69812
G1 X54.341 Y112.781 E31.72053
G1 X54.961 Y112.628 E31.74177
G1 X55.004 Y112.614 E31.74328
G1 X55.562 Y112.322 E31.76422
G1 X55.601 Y112.297 E31.76576
G1 X56.073 Y111.88 E31.78671
G1 X56.106 Y111.845 E31.78831
G1 X56.461 Y111.33 E31.80912
G1 X56.486 Y111.29 E31.81068
G1 X56.71 Y110.698 E31.83174
G1 X56.723 Y110.647 E31.83349
G1 X56.801 Y109.991 E31.85546
G1 X56.722 Y109.349 E31.87697
G1 X56.712 Y109.305 E31.87847
G1 X56.487 Y108.711 E31.8996
G1 X56.462 Y108.671 E31.90117
G1 X56.107 Y108.156 E31.92197
G1 X56.074 Y108.121 E31.92357
G1 X55.602 Y107.704 E31.94452
G1 X55.563 Y107.679 E31.94606
G1 X55.005 Y107.387 E31.96701
G1 X54.962 Y107.373 E31.96851
G1 X54.343 Y107.22 E31.98972
G1 X53.668 Y107.218 E32.01217
G1 X53.011 Y107.378 E32.03466
G1 X52.412 Y107.692 E32.05716
G1 X51.905 Y108.14 E32.07966
G1 X51.521 Y108.696 E32.10213
G1 X51.281 Y109.329 E32.12465
G1 X51.198 Y110 E32.14714
G1 X51.28 Y110.67 E32.16959
G1 X51.52 Y111.303 E32.1921
G1 X51.904 Y111.859 E32.21458
G1 X52.411 Y112.307 E32.23708
G1 X53.01 Y112.621 E32.25958
G0 F3000 X53.204 Y112.668
G0 X53.099 Y113.095
G1 F1800 E25.25958
G1 F300 Z0.4
G0 F3000 X53.061 Y113.25 Z0.4
G0 X174.4 Y118.4
;TYPE:WALL-INNER
G1 F300 Z0.2
G1 F1800 E32.25958
G1 F1200 X54.029 Y118.4 E36.26313
G1 X52.361 Y118.236 E36.31888
G1 X50.787 Y117.759 E36.37358
G1 X49.337 Y116.982 E36.42829
G1 X48.062 Y115.938 E36.4831
G1 X47.018 Y114.663 E36.53791
G1 X46.241 Y113.213 E36.59263
G1 X45.764 Y111.639 E36.64733
G1 X45.603 Y110 E36.70211
G1 X45.764 Y108.361 E36.75688
G1 X46.241 Y106.787 E36.81158
G1 X47.018 Y105.337 E36.8663
G1 X48.062 Y104.062 E36.92111
G1 X49.337 Y103.018 E36.97592
G1 X50.787 Y102.241 E37.03063
G1 X52.361 Y101.764 E37.08534
G1 X54.029 Y101.6 E37.14108
G1 X174.4 Y101.6 E41.14464
G1 X174.4 Y118.4 E41.70341
G0 F3000 X174.8 Y118.8
;TYPE:WALL-OUTER
G1 F1200 X54.01 Y118.8 E45.7209
G1 X52.281 Y118.63 E45.77868
G1 X50.632 Y118.13 E45.83599
G1 X49.115 Y117.318 E45.89322
G1 X47.778 Y116.222 E45.95072
G1 X46.682 Y114.885 E46.00822
G1 X45.87 Y113.368 E46.06545
G1 X45.37 Y111.719 E46.12277
G1 X45.201 Y110 E46.18022
G1 X45.37 Y108.281 E46.23767
G1 X45.87 Y106.632 E46.29498
G1 X46.682 Y105.115 E46.35221
G1 X47.778 Y103.778 E46.40971
G1 X49.115 Y102.682 E46.46721
G1 X50.632 Y101.87 E46.52444
G1 X52.281 Y101.37 E46.58175
G1 X54.01 Y101.2 E46.63953
G1 X174.8 Y101.2 E50.65702
G1 X174.8 Y118.8 E51.2424
G0 F3000 X174.6 Y118.8
G0 X174.36 Y118.36
G0 X174.01 Y118.01
;TYPE:SKIN
G1 F1200 X54.048 Y118.01 E55.23235
G1 X52.436 Y117.852 E55.28623
G1 X50.934 Y117.397 E55.33843
G1 X49.558 Y116.659 E55.39036
G1 X48.339 Y115.661 E55.44276
G1 X47.341 Y114.442 E55.49516
G1 X46.603 Y113.066 E55.54709
G1 X46.148 Y111.564 E55.59929
G1 X45.995 Y110 E55.65155
G1 X46.148 Y108.436 E55.70382
G1 X46.603 Y106.934 E55.75602
G1 X47.341 Y105.558 E55.80795
G1 X48.339 Y104.339 E55.86035
G1 X49.558 Y103.341 E55.91275
G1 X50.934 Y102.603 E55.96468
G1 X52.436 Y102.148 E56.01688
G1 X54.048 Y101.99 E56.07075
G1 X174.01 Y101.99 E60.06071
G1 X174.01 Y118.01 E60.59353
G1 F1800 E53.59353
G1 F300 Z0.4
G0 F3000 X174.01 Y118.2 Z0.4
G0 X57.596 Y109.99
G1 F300 Z0.2
G1 F1800 E60.59353
G1 F1200 X57.501 Y109.212 E60.6196
G1 X57.47 Y109.076 E60.62424
G1 X57.198 Y108.357 E60.64981
G1 X57.121 Y108.236 E60.65458
G1 X56.724 Y107.66 E60.67785
G1 X56.626 Y107.554 E60.68265
G1 X56.079 Y107.072 E60.7069
G1 X55.959 Y106.995 E60.71164
G1 X55.313 Y106.656 E60.73591
G1 X55.179 Y106.613 E60.74059
G1 X54.44 Y106.43 E60.76591
G1 X53.574 Y106.428 E60.79471
G1 X52.73 Y106.633 E60.8236
G1 X51.96 Y107.036 E60.8525
G1 X51.31 Y107.612 E60.88139
G1 X50.817 Y108.326 E60.91025
G1 X50.508 Y109.138 E60.93915
G1 X50.402 Y110 E60.96803
G1 X50.507 Y110.861 E60.99688
G1 X50.816 Y111.673 E61.02578
G1 X51.309 Y112.387 E61.05464
G1 X51.959 Y112.963 E61.08352
G1 X52.729 Y113.366 E61.11243
G1 X53.572 Y113.571 E61.14128
G1 X54.437 Y113.571 E61.17005
G1 X55.178 Y113.388 E61.19544
G1 X55.312 Y113.345 E61.20012
G1 X55.958 Y113.006 E61.22439
G1 X56.078 Y112.929 E61.22913
G1 X56.625 Y112.447 E61.25338
G1 X56.723 Y112.341 E61.25818
G1 X57.12 Y111.765 E61.28145
G1 X57.197 Y111.644 E61.28622
G1 X57.465 Y110.936 E61.31139
G1 X57.501 Y110.791 E61.31636
G1 X57.596 Y109.99 E61.34319
G1 F1800 E54.34319
G1 F300 Z0.4
G0 F3000 X57.402 Y109.991 Z0.4
G0 X49.872 Y116.623
G1 F300 Z0.2
G1 F1800 E61.34319
G1 F1200 X47.375 Y114.126 E61.46064
G1 X47.305 Y114.056
G0 F3000 X46.926 Y114.258
G0 X46.312 Y113.068
G0 X46.751 Y112.936
G1 F1200 X51.061 Y117.246 E61.66337
G1 X51.131 Y117.316
G0 F3000 X51.873 Y117.492
G1 F1200 X46.505 Y112.125 E61.91584
G0 F3000 X46.309 Y111.362
G1 F1200 X52.636 Y117.69 E62.21347
G0 F3000 X53.263 Y117.751
G1 F1200 X46.247 Y110.735 E62.54348
G0 F3000 X46.186 Y110.109
G1 F1200 X53.89 Y117.812 E62.90583
G0 F3000 X54.472 Y117.829
G1 F1200 X46.217 Y109.573 E63.29414
G0 F3000 X46.267 Y109.058
G1 F1200 X55.038 Y117.829 E63.7067
G0 F3000 X55.604 Y117.829
G1 F1200 X46.316 Y108.542 E64.14356
G0 F3000 X46.437 Y108.096
