;FLAVOR:Marlin
;TIME:22842
;Filament used: 13.3411m
;Layer height: 0.2
;MINX:54.179
;MINY:51.363
;MINZ:0.2
;MAXX:165.817
;MAXY:168.637
;MAXZ:32.8
;Generated with Cura_SteamEngine master
M82 ;absolute extrusion mode
;Sliced at: Thu 15-09-2022 00:22:23
;Basic settings: Layer height: 0.2 Walls: 0.8 Fill: 30.0
G21 ;metric values
G90 ;absolute positioning
M82 ;set extruder to absolute mode
M107 ;start with the fan off
M117 Start heating ...
M104 S200
M117 Homing X/Y ...
G28 X0 Y0 ;move X/Y to min endstops
M117 Homing Z ...
G28 Z0 ;move Z to min endstops
G1 Z15.0 F100 ;move the platform down 15mm
M117 Heating ...
M109 S200
M117 Start cleaning ...
G92 E0 ;zero the extruded length
G1 F200 E10 ;extrude 10mm of feed stock
G92 E0 ;zero the extruded length again
M117 Intro line ...
G1 Z2.0 F3000 ; Move Z Axis up little to prevent scratching of Heat Bed
G1 X0.1 Y20 Z0.2 F5000.0 ; Move to start position
G1 X0.1 Y200.0 Z0.2 F1500.0 E15 ; Draw the first line
G1 X0.4 Y200.0 Z0.2 F5000.0 ; Move to side a little
G1 X0.4 Y20 Z0.3 F1500.0 E30 ; Draw the second line
G92 E0 ; Reset Extruder
G1 E-1 F500 ; Retract filiment by 1 mm
G1 Z2.0 F3000 ; Move Z Axis up little to prevent scratching of Heat Bed
G1 X5 Y20 Z0.3 F100 ; Move over to prevent blob squish
G1 F100
G92 E0 ; Reset Extruder
M117 Printing...

G92 E0
G92 E0
G1 F1800 E-7
;LAYER_COUNT:164
;LAYER:0
M107
G1 F300 Z0.4
G0 F3000 X95.778 Y53.457 Z0.4
;TYPE:SKIRT
G1 F300 Z0.2
G1 F1800 E0
G1 F1200 X96.084 Y52.981 E0.01882
G1 X96.453 Y52.552 E0.03764
G1 X96.879 Y52.181 E0.05643
G1 X97.353 Y51.873 E0.07523
G1 X97.865 Y51.634 E0.09402
G1 X98.406 Y51.471 E0.11282
G1 X99.179 Y51.374 E0.13873
G1 X99.613 Y51.363 E0.15317
G1 X161.133 Y51.363 E2.19933
G1 X161.831 Y51.373 E2.22255
G1 X162.395 Y51.421 E2.24138
G1 X162.945 Y51.548 E2.26015
G1 X163.473 Y51.752 E2.27898
G1 X163.967 Y52.027 E2.29778
G1 X164.416 Y52.37 E2.31658
G1 X164.813 Y52.772 E2.33537
G1 X165.15 Y53.227 E2.3542
G1 X165.418 Y53.724 E2.37298
G1 X165.614 Y54.254 E2.39177
G1 X165.734 Y54.807 E2.4106
G1 X165.781 Y55.581 E2.43639
G1 X165.783 Y55.693 E2.44011
G1 X165.783 Y86.914 E3.47853
G1 X165.762 Y88.288 E3.52423
G1 X165.718 Y89.874 E3.577
G1 X165.718 Y92.62 E3.66833
G1 X165.749 Y94.026 E3.71511
G1 X165.783 Y95.237 E3.7554
G1 X165.783 Y126.43 E4.79289
G1 X165.764 Y127.789 E4.83809
G1 X165.764 Y130.524 E4.92906
G1 X165.795 Y131.989 E4.9778
G1 X165.817 Y132.785 E5.00428
G1 X165.817 Y163.956 E6.04103
G1 X165.807 Y164.683 E6.06521
G1 X165.759 Y165.246 E6.08401
G1 X165.632 Y165.797 E6.10281
G1 X165.429 Y166.325 E6.12163
G1 X165.154 Y166.819 E6.14043
G1 X164.812 Y167.269 E6.15923
G1 X164.409 Y167.666 E6.17805
G1 X163.955 Y168.002 E6.19683
G1 X163.458 Y168.271 E6.21563
G1 X162.928 Y168.468 E6.23444
G1 X162.375 Y168.587 E6.25325
G1 X161.599 Y168.635 E6.27911
G1 X161.487 Y168.637 E6.28284
G1 X108.967 Y168.637 E8.02966
G1 X108.155 Y168.624 E8.05667
G1 X107.511 Y168.585 E8.07813
G1 X106.13 Y168.477 E8.1242
G1 X105.431 Y168.412 E8.14755
G1 X104.688 Y168.282 E8.17264
G1 X104.581 Y168.258 E8.17628
G1 X103.046 Y167.891 E8.22878
G1 X102.352 Y167.714 E8.2526
G1 X101.6 Y167.456 E8.27904
G1 X101.492 Y167.413 E8.28291
G1 X100.097 Y166.834 E8.33314
G1 X99.421 Y166.542 E8.35763
G1 X98.673 Y166.141 E8.38586
G1 X97.356 Y165.335 E8.43722
G1 X96.736 Y164.945 E8.46158
G1 X96.016 Y164.398 E8.49165
G1 X94.798 Y163.358 E8.54492
G1 X94.29 Y162.91 E8.56745
G1 X93.743 Y162.343 E8.59366
G1 X92.664 Y161.082 E8.64886
G1 X92.226 Y160.554 E8.67167
G1 X90.268 Y157.977 E8.77932
G1 X88.541 Y155.837 E8.87078
G1 X86.804 Y153.803 E8.95974
G1 X84.974 Y151.779 E9.0505
G1 X83.088 Y149.808 E9.14123
G1 X81.139 Y147.884 E9.23232
G1 X79.193 Y146.069 E9.32083
G1 X77.118 Y144.241 E9.4128
G1 X75.051 Y142.52 E9.50226
G1 X72.939 Y140.861 E9.59159
G1 X70.722 Y139.217 E9.68339
G1 X68.502 Y137.669 E9.7734
G1 X66.235 Y136.18 E9.86361
G1 X63.944 Y134.766 E9.95316
G1 X61.578 Y133.397 E10.04407
G1 X59.197 Y132.108 E10.13413
G1 X56.388 Y130.689 E10.2388
G1 X55.903 Y130.399 E10.25759
G1 X55.463 Y130.043 E10.27642
G1 X55.078 Y129.63 E10.2952
G1 X54.755 Y129.166 E10.314
G1 X54.5 Y128.661 E10.33282
G1 X54.32 Y128.125 E10.35162
G1 X54.217 Y127.569 E10.37043
G1 X54.184 Y126.894 E10.39291
G1 X54.184 Y109.853 E10.95969
G1 X54.179 Y107.831 E11.02695
G1 X54.183 Y101.135 E11.24966
G1 X54.193 Y100.432 E11.27304
G1 X54.241 Y99.869 E11.29183
G1 X54.368 Y99.318 E11.31064
G1 X54.572 Y98.79 E11.32947
G1 X54.847 Y98.297 E11.34824
G1 X55.044 Y98.022 E11.35949
G1 X55.673 Y97.221 E11.39337
G1 X56.149 Y96.633 E11.41853
G1 X58.325 Y93.75 E11.53867
G1 X58.859 Y93.016 E11.56886
G1 X59.223 Y92.584 E11.58764
G1 X59.644 Y92.207 E11.60644
G1 X60.134 Y91.879 E11.62605
G1 X62.453 Y90.423 E11.71713
G1 X64.712 Y88.912 E11.80752
G1 X66.915 Y87.349 E11.89736
G1 X69.093 Y85.708 E11.98806
G1 X71.217 Y84.011 E12.07848
G1 X73.288 Y82.259 E12.16871
G1 X75.296 Y80.46 E12.25838
G1 X77.278 Y78.581 E12.34921
G1 X79.202 Y76.649 E12.4399
G1 X81.054 Y74.683 E12.52973
G1 X82.849 Y72.666 E12.61954
G1 X84.606 Y70.574 E12.7104
G1 X86.3 Y68.44 E12.80102
G1 X87.91 Y66.287 E12.89044
G1 X89.501 Y64.031 E12.98226
G1 X90.982 Y61.799 E13.07135
G1 X92.421 Y59.489 E13.16187
G1 X93.8 Y57.13 E13.25275
G1 X95.087 Y54.779 E13.3419
G1 X95.64 Y53.71 E13.38193
G1 X95.778 Y53.457 E13.39151
G0 F3000 X96.13 Y53.648
G1 F1200 X96.421 Y53.198 E13.40934
G1 X96.776 Y52.796 E13.42718
G1 X97.186 Y52.451 E13.445
G1 X97.643 Y52.171 E13.46282
G1 X98.137 Y51.962 E13.48066
G1 X98.657 Y51.828 E13.49852
G1 X99.19 Y51.773 E13.51635
G1 X99.613 Y51.763 E13.53042
G1 X161.128 Y51.763 E15.57642
G1 X161.826 Y51.773 E15.59963
G1 X162.36 Y51.821 E15.61747
G1 X162.881 Y51.947 E15.63529
G1 X163.378 Y52.15 E15.65315
G1 X163.839 Y52.424 E15.67099
G1 X164.254 Y52.763 E15.68881
G1 X164.614 Y53.161 E15.70666
G1 X164.911 Y53.607 E15.72448
G1 X165.139 Y54.093 E15.74234
G1 X165.291 Y54.607 E15.76016
G1 X165.373 Y55.272 E15.78245
G1 X165.383 Y55.693 E15.79646
G1 X165.383 Y86.908 E16.83467
G1 X165.363 Y88.277 E16.88021
G1 X165.318 Y89.899 E16.93418
G1 X165.318 Y92.629 E17.02498
G1 X165.349 Y94.038 E17.07185
G1 X165.383 Y95.237 E17.11175
G1 X165.383 Y126.424 E18.14903
G1 X165.364 Y127.783 E18.19424
G1 X165.364 Y130.532 E18.28567
G1 X165.395 Y132.001 E18.33454
G1 X165.417 Y132.785 E18.36063
G1 X165.417 Y163.951 E19.39721
G1 X165.407 Y164.678 E19.42139
G1 X165.359 Y165.212 E19.43923
G1 X165.233 Y165.733 E19.45705
G1 X165.031 Y166.23 E19.4749
G1 X164.757 Y166.691 E19.49273
G1 X164.418 Y167.106 E19.51056
G1 X164.021 Y167.467 E19.5284
G1 X163.575 Y167.764 E19.54623
G1 X163.089 Y167.992 E19.56408
G1 X162.575 Y168.145 E19.58192
G1 X161.908 Y168.227 E19.60427
G1 X161.487 Y168.237 E19.61828
G1 X108.973 Y168.237 E21.3649
G1 X108.268 Y168.227 E21.38835
G1 X107.538 Y168.186 E21.41267
G1 X106.167 Y168.079 E21.45841
G1 X105.468 Y168.014 E21.48175
G1 X104.77 Y167.891 E21.50533
G1 X103.145 Y167.503 E21.56089
G1 X102.451 Y167.326 E21.58472
G1 X101.743 Y167.082 E21.60962
G1 X100.305 Y166.488 E21.66137
G1 X99.579 Y166.175 E21.68767
G1 X98.874 Y165.795 E21.7143
G1 X97.531 Y164.972 E21.76669
G1 X96.949 Y164.606 E21.78956
G1 X96.269 Y164.088 E21.81799
G1 X95.063 Y163.058 E21.87074
G1 X94.555 Y162.61 E21.89327
G1 X94.04 Y162.075 E21.91797
G1 X92.972 Y160.826 E21.97263
G1 X92.534 Y160.298 E21.99544
G1 X90.583 Y157.73 E22.10271
G1 X88.873 Y155.61 E22.1933
G1 X87.073 Y153.503 E22.28547
G1 X85.277 Y151.517 E22.37453
G1 X83.375 Y149.529 E22.46604
G1 X81.429 Y147.607 E22.55701
G1 X79.446 Y145.758 E22.64719
G1 X77.395 Y143.952 E22.73808
G1 X75.308 Y142.214 E22.82841
G1 X73.14 Y140.51 E22.92013
G1 X70.983 Y138.912 E23.00941
G1 X68.745 Y137.351 E23.10017
G1 X66.443 Y135.839 E23.19177
G1 X64.133 Y134.414 E23.28204
G1 X61.777 Y133.05 E23.37259
G1 X59.388 Y131.756 E23.46296
G1 X56.568 Y130.332 E23.56803
G1 X56.109 Y130.055 E23.58586
G1 X55.696 Y129.713 E23.6037
G1 X55.338 Y129.313 E23.62155
G1 X55.043 Y128.865 E23.63939
G1 X54.819 Y128.378 E23.65722
G1 X54.669 Y127.863 E23.67506
G1 X54.592 Y127.207 E23.69703
G1 X54.583 Y126.795 E23.71073
G1 X54.584 Y109.853 E24.27423
G1 X54.579 Y107.831 E24.34148
G1 X54.583 Y101.141 E24.56399
G1 X54.593 Y100.438 E24.58737
G1 X54.641 Y99.904 E24.60521
G1 X54.767 Y99.382 E24.62307
G1 X54.97 Y98.886 E24.64089
G1 X55.359 Y98.269 E24.66515
G1 X55.984 Y97.472 E24.69884
G1 X56.478 Y96.861 E24.72497
G1 X58.674 Y93.953 E24.84617
G1 X59.183 Y93.252 E24.87499
G1 X59.53 Y92.842 E24.89285
G1 X59.933 Y92.489 E24.91067
G1 X60.349 Y92.216 E24.92722
G1 X62.683 Y90.751 E25.01887
G1 X64.903 Y89.266 E25.10771
G1 X67.181 Y87.65 E25.2006
G1 X69.338 Y86.024 E25.29045
G1 X71.44 Y84.345 E25.37992
G1 X73.567 Y82.546 E25.47258
G1 X75.574 Y80.748 E25.5622
G1 X77.554 Y78.872 E25.65292
G1 X79.476 Y76.941 E25.74354
G1 X81.343 Y74.959 E25.8341
G1 X83.173 Y72.903 E25.92565
G1 X84.925 Y70.817 E26.01625
G1 X86.601 Y68.705 E26.10593
G1 X88.241 Y66.512 E26.19701
G1 X89.818 Y64.277 E26.28799
G1 X91.321 Y62.01 E26.37846
G1 X92.762 Y59.697 E26.46909
G1 X94.137 Y57.345 E26.55971
G1 X95.474 Y54.904 E26.65228
G1 X95.992 Y53.901 E26.68982
G1 X96.13 Y53.648 E26.69941
G0 F3000 X96.481 Y53.84
G1 F1200 X96.757 Y53.416 E26.71624
G1 X97.097 Y53.042 E26.73305
G1 X97.491 Y52.725 E26.74987
G1 X97.93 Y52.475 E26.76667
G1 X98.404 Y52.297 E26.78351
G1 X98.899 Y52.196 E26.80031
G1 X99.524 Y52.164 E26.82113
G1 X161.122 Y52.163 E28.86989
G1 X161.82 Y52.173 E28.8931
G1 X162.323 Y52.22 E28.90991
G1 X162.813 Y52.346 E28.92673
G1 X163.277 Y52.548 E28.94357
G1 X163.703 Y52.82 E28.96038
G1 X164.081 Y53.155 E28.97718
G1 X164.401 Y53.546 E28.99398
G1 X164.656 Y53.983 E29.01081
G1 X164.839 Y54.454 E29.02761
G1 X164.946 Y54.948 E29.04443
G1 X164.982 Y55.603 E29.06624
G1 X164.983 Y86.902 E30.10725
G1 X164.963 Y88.266 E30.15263
G1 X164.918 Y89.888 E30.20659
G1 X164.918 Y92.633 E30.29789
G1 X164.95 Y94.049 E30.345
G1 X164.982 Y95.143 E30.3814
G1 X164.983 Y126.419 E31.42165
G1 X164.964 Y127.778 E31.46685
G1 X164.964 Y130.562 E31.55945
G1 X164.996 Y132.013 E31.60772
G1 X165.016 Y132.691 E31.63028
G1 X165.017 Y163.945 E32.66979
G1 X165.007 Y164.672 E32.69398
G1 X164.96 Y165.175 E32.71078
G1 X164.834 Y165.665 E32.72761
G1 X164.633 Y166.129 E32.74442
G1 X164.361 Y166.555 E32.76124
G1 X164.026 Y166.934 E32.77806
G1 X163.635 Y167.254 E32.79486
G1 X163.199 Y167.509 E32.81166
G1 X162.728 Y167.693 E32.82848
G1 X162.233 Y167.799 E32.84532
G1 X161.577 Y167.836 E32.86717
G1 X108.979 Y167.837 E34.61659
G1 X108.274 Y167.827 E34.64004
G1 X107.566 Y167.787 E34.66363
G1 X106.204 Y167.68 E34.70907
G1 X105.505 Y167.615 E34.73241
G1 X104.852 Y167.499 E34.75447
G1 X103.244 Y167.116 E34.80945
G1 X102.55 Y166.939 E34.83327
G1 X101.885 Y166.708 E34.85669
G1 X100.414 Y166.1 E34.90963
G1 X99.738 Y165.808 E34.93412
G1 X99.074 Y165.449 E34.95923
G1 X97.743 Y164.634 E35.01113
G1 X97.161 Y164.268 E35.034
G1 X96.522 Y163.777 E35.0608
G1 X96.463 Y163.729 E35.06333
G1 X95.327 Y162.758 E35.11304
G1 X94.819 Y162.31 E35.13557
G1 X94.337 Y161.806 E35.15876
G1 X94.278 Y161.74 E35.16171
G1 X93.28 Y160.571 E35.21283
G1 X92.842 Y160.043 E35.23565
G1 X90.896 Y157.482 E35.34263
G1 X89.172 Y155.345 E35.43395
G1 X87.39 Y153.259 E35.5252
G1 X85.562 Y151.237 E35.61586
G1 X83.645 Y149.233 E35.7081
G1 X81.7 Y147.312 E35.79902
G1 X79.719 Y145.466 E35.88908
G1 X77.671 Y143.661 E35.97988
G1 X75.545 Y141.89 E36.07191
G1 X73.402 Y140.207 E36.16254
G1 X71.221 Y138.591 E36.25282
G1 X68.954 Y137.01 E36.34475
G1 X66.642 Y135.491 E36.43676
G1 X64.338 Y134.069 E36.52681
G1 X61.989 Y132.709 E36.61709
G1 X59.538 Y131.383 E36.70977
G1 X56.749 Y129.974 E36.8137
G1 X56.317 Y129.712 E36.83051
G1 X55.932 Y129.384 E36.84733
G1 X55.603 Y129 E36.86415
G1 X55.339 Y128.569 E36.88096
G1 X55.146 Y128.102 E36.89777
G1 X55.029 Y127.61 E36.91459
G1 X54.984 Y126.874 E36.93911
G1 X54.984 Y109.853 E37.50523
G1 X54.979 Y107.831 E37.57248
G1 X54.983 Y101.146 E37.79483
G1 X54.993 Y100.443 E37.81821
G1 X55.04 Y99.94 E37.83501
G1 X55.166 Y99.45 E37.85184
G1 X55.368 Y98.987 E37.86864
G1 X55.674 Y98.515 E37.88735
G1 X56.295 Y97.724 E37.9208
G1 X56.784 Y97.119 E37.94667
G1 X58.971 Y94.224 E38.06735
G1 X59.506 Y93.487 E38.09764
G1 X59.835 Y93.102 E38.11448
G1 X60.22 Y92.775 E38.13128
G1 X60.569 Y92.551 E38.14508
G1 X62.872 Y91.105 E38.23552
G1 X65.152 Y89.581 E38.32674
G1 X67.391 Y87.991 E38.41807
G1 X69.582 Y86.34 E38.50932
G1 X71.724 Y84.629 E38.6005
G1 X73.827 Y82.851 E38.6921
G1 X75.833 Y81.053 E38.78169
G1 X77.83 Y79.161 E38.87319
G1 X79.785 Y77.197 E38.96536
G1 X81.634 Y75.235 E39.05503
G1 X83.477 Y73.164 E39.14723
G1 X85.214 Y71.095 E39.23709
G1 X86.918 Y68.947 E39.32828
G1 X88.585 Y66.719 E39.42083
G1 X90.134 Y64.523 E39.51021
G1 X91.667 Y62.212 E39.60245
G1 X93.114 Y59.889 E39.69347
G1 X94.476 Y57.56 E39.78321
G1 X95.81 Y55.124 E39.87559
G1 X96.343 Y54.093 E39.91419
G1 X96.481 Y53.84 E39.92377
G1 F1800 E32.92377
G1 F300 Z0.4
G0 F3000 X90.944 Y95.562 Z0.4
;TYPE:SUPPORT
G1 F300 Z0.2
G1 F1800 E39.92377
G1 F1200 X91.429 Y96.776 E39.96725
G1 X90.986 Y97.218 E39.98807
G1 X90.986 Y100.167 E40.08615
G1 X91.385 Y100.566 E40.10492
G1 X94.77 Y100.566 E40.21751
G1 X94.77 Y107.516 E40.44866
G1 X90.27 Y107.516 E40.59833
G1 X90.27 Y98.241 E40.90682
G1 X89.871 Y97.842 E40.92559
G1 X88.501 Y97.842 E40.97116
G1 X87.854 Y97.195 E41.00159
G1 X87.854 Y96.163 E41.03591
G1 X88.622 Y95.492 E41.06983
G1 X89.127 Y95.564 E41.0868
G1 X90.944 Y95.562 E41.14723
G0 F3000 X90.678 Y95.722
G1 F1200 X90.678 Y107.356 E41.53418
G0 F3000 X90.43 Y106.68
G1 F1200 X94.61 Y106.68 E41.67321
G0 F3000 X93.345 Y107.356
G1 F1200 X93.345 Y100.726 E41.89372
G0 F3000 X94.61 Y101.346
G1 F1200 X90.43 Y101.346 E42.03275
G1 F1800 E35.03275
G1 F300 Z0.4
G0 F3000 X90.43 Y98.679 Z0.4
G1 F300 Z0.2
G1 F1800 E42.03275
G1 F1200 X90.826 Y98.679 E42.04592
G1 F1800 E35.04592
G1 F300 Z0.4
G0 F3000 X90.951 Y96.012 Z0.4
G1 F300 Z0.2
G1 F1800 E42.04592
G1 F1200 X88.272 Y96.012 E42.13503
G1 F1800 E35.13503
G1 F300 Z0.4
G0 F3000 X90.43 Y104.013 Z0.4
G1 F300 Z0.2
G1 F1800 E42.13503
G1 F1200 X94.61 Y104.013 E42.27405
G1 F1800 E35.27405
G1 F300 Z0.4
G0 F3000 X65.299 Y97.195 Z0.4
G1 F300 Z0.2
G1 F1800 E42.27405
G1 F1200 X64.652 Y97.842 E42.30449
G1 X63.282 Y97.842 E42.35005
G1 X62.883 Y98.241 E42.36882
G1 X62.883 Y107.515 E42.67727
G1 X58.383 Y107.516 E42.82695
G1 X58.384 Y100.567 E43.05807
G1 X61.768 Y100.567 E43.17062
G1 X62.167 Y100.168 E43.18939
G1 X62.167 Y97.218 E43.28751
G1 X61.724 Y96.776 E43.30832
G1 X62.22 Y95.562 E43.35194
G1 X63.176 Y95.564 E43.38374
G1 X64.026 Y95.563 E43.41201
G1 X64.532 Y95.491 E43.42901
G1 X65.299 Y96.162 E43.4629
G1 X65.299 Y97.195 E43.49726
G0 F3000 X64.883 Y96.012
G1 F1200 X62.208 Y96.012 E43.58623
G1 F1800 E36.58623
G1 F300 Z0.4
G0 F3000 X64.008 Y95.723 Z0.4
G1 F300 Z0.2
G1 F1800 E43.58623
G1 F1200 X64.008 Y97.682 E43.65139
G1 F1800 E36.65139
G1 F300 Z0.4
G0 F3000 X62.722 Y98.679 Z0.4
G1 F300 Z0.2
G1 F1800 E43.65139
G1 F1200 X62.326 Y98.679 E43.66456
G1 F1800 E36.66456
G1 F300 Z0.4
G0 F3000 X61.341 Y100.727 Z0.4
G1 F300 Z0.2
G1 F1800 E43.66456
G1 F1200 X61.341 Y107.356 E43.88504
G1 F1800 E36.88504
G1 F300 Z0.4
G0 F3000 X62.722 Y106.68 Z0.4
G1 F300 Z0.2
G1 F1800 E43.88504
G1 F1200 X58.543 Y106.68 E44.02403
G0 F3000 X58.674 Y107.356
G1 F1200 X58.674 Y100.727 E44.24451
G0 F3000 X58.543 Y101.346
G1 F1200 X62.722 Y101.346 E44.38351
G1 F1800 E37.38351
G1 F300 Z0.4
G0 F3000 X62.722 Y104.013 Z0.4
G1 F300 Z0.2
G1 F1800 E44.38351
G1 F1200 X58.543 Y104.013 E44.5225
G1 F1800 E37.5225
G1 F300 Z0.4
;MESH:camera.wroover.all.reverse.stl
G0 F3000 X73.556 Y98.197 Z0.4
;TYPE:WALL-INNER
G1 F300 Z0.2
G1 F1800 E44.5225
G1 F1200 X73.099 Y98.197 E44.5377
G1 X72.647 Y98.101 E44.55307
G1 X72.23 Y97.915 E44.56826
G1 X71.859 Y97.645 E44.58352
G1 X71.548 Y97.301 E44.59894
G1 X71.321 Y96.906 E44.6141
G1 X71.18 Y96.472 E44.62927
G1 X71.131 Y96.012 E44.64466
G1 X71.18 Y95.552 E44.66005
G1 X71.321 Y95.118 E44.67522
G1 X71.548 Y94.723 E44.69038
G1 X71.859 Y94.379 E44.7058
G1 X72.23 Y94.109 E44.72106
G1 X72.648 Y93.923 E44.73628
G1 X73.098 Y93.828 E44.75158
G1 X73.557 Y93.828 E44.76684
G1 X74.004 Y93.923 E44.78204
G1 X74.428 Y94.111 E44.79747
G1 X74.795 Y94.378 E44.81256
G1 X75.107 Y94.723 E44.82803
