;FLAVOR:Marlin
;TIME:6499
;Filament used: 3.97484m
;Layer height: 0.2
;MINX:11.024
;MINY:97
;MINZ:0.2
;MAXX:209
;MAXY:123
;MAXZ:32.2
;Generated with Cura_SteamEngine master
M82 ;absolute extrusion mode
;Sliced at: Sat 01-10-2022 14:29:27
;Basic settings: Layer height: 0.2 Walls: 0.8 Fill: 30.0
G21 ;metric values
G90 ;absolute positioning
M82 ;set extruder to absolute mode
M107 ;start with the fan off
M117 Start heating ...
M104 S200
M117 Homing X/Y ...
G28 X0 Y0 ;move X/Y to min endstops
M117 Homing Z ...
G28 Z0 ;move Z to min endstops
G1 Z15.0 F100 ;move the platform down 15mm
M117 Heating ...
M109 S200
M117 Start cleaning ...
G92 E0 ;zero the extruded length
G1 F200 E10 ;extrude 10mm of feed stock
G92 E0 ;zero the extruded length again
M117 Intro line ...
G1 Z2.0 F3000 ; Move Z Axis up little to prevent scratching of Heat Bed
G1 X0.1 Y20 Z0.2 F5000.0 ; Move to start position
G1 X0.1 Y200.0 Z0.2 F1500.0 E15 ; Draw the first line
G1 X0.4 Y200.0 Z0.2 F5000.0 ; Move to side a little
G1 X0.4 Y20 Z0.3 F1500.0 E30 ; Draw the second line
G92 E0 ; Reset Extruder
G1 E-1 F500 ; Retract filiment by 1 mm
G1 Z2.0 F3000 ; Move Z Axis up little to prevent scratching of Heat Bed
G1 X5 Y20 Z0.3 F100 ; Move over to prevent blob squish
G1 F100
G92 E0 ; Reset Extruder
M117 Printing...

G92 E0
G92 E0
G1 F1800 E-7
;LAYER_COUNT:161
;LAYER:0
M107
G1 F300 Z0.4
G0 F3000 X21.14 Y97.339 Z0.4
;TYPE:SKIRT
G1 F300 Z0.2
G1 F1800 E0
G1 F1200 X21.8 Y97.208 E0.02238
G1 X22.548 Y97.124 E0.04741
G1 X22.976 Y97.082 E0.06172
G1 X23.484 Y97.04 E0.07867
G1 X23.729 Y97.027 E0.08683
G1 X25.038 Y97 E0.13038
G1 X204.35 Y97 E6.09432
G1 X205.048 Y97.01 E6.11754
G1 X205.612 Y97.058 E6.13637
G1 X206.162 Y97.185 E6.15514
G1 X206.69 Y97.389 E6.17397
G1 X207.184 Y97.664 E6.19277
G1 X207.633 Y98.007 E6.21156
G1 X208.03 Y98.409 E6.23036
G1 X208.367 Y98.864 E6.24919
G1 X208.635 Y99.361 E6.26797
G1 X208.831 Y99.891 E6.28676
G1 X208.951 Y100.444 E6.30558
G1 X208.998 Y101.218 E6.33137
G1 X209 Y101.33 E6.3351
G1 X209 Y118.314 E6.89999
G1 X208.991 Y119.041 E6.92417
G1 X208.944 Y119.604 E6.94296
G1 X208.818 Y120.155 E6.96176
G1 X208.616 Y120.683 E6.98056
G1 X208.341 Y121.177 E6.99937
G1 X207.999 Y121.627 E7.01817
G1 X207.597 Y122.025 E7.03698
G1 X207.144 Y122.362 E7.05576
G1 X206.647 Y122.632 E7.07457
G1 X206.117 Y122.829 E7.09338
G1 X205.565 Y122.95 E7.11218
G1 X204.782 Y122.998 E7.13827
G1 X204.67 Y123 E7.14199
G1 X24.653 Y123 E13.12938
G1 X24.13 Y122.993 E13.14678
G1 X23.873 Y122.981 E13.15534
G1 X22.642 Y122.885 E13.1964
G1 X22.505 Y122.872 E13.20098
G1 X21.796 Y122.792 E13.22471
G1 X21.139 Y122.661 E13.24699
G1 X20.441 Y122.46 E13.27115
G1 X19.997 Y122.325 E13.28659
G1 X19.352 Y122.12 E13.3091
G1 X18.728 Y121.862 E13.33156
G1 X18.042 Y121.507 E13.35725
G1 X17.708 Y121.327 E13.36987
G1 X17.066 Y120.972 E13.39427
G1 X16.51 Y120.601 E13.4165
G1 X15.931 Y120.139 E13.44114
G1 X15.614 Y119.879 E13.45477
G1 X15.051 Y119.402 E13.47931
G1 X14.58 Y118.929 E13.50152
G1 X14.094 Y118.353 E13.52658
G1 X13.844 Y118.048 E13.5397
G1 X13.392 Y117.479 E13.56387
G1 X13.006 Y116.898 E13.58707
G1 X12.662 Y116.273 E13.6108
G1 X12.456 Y115.887 E13.62535
G1 X12.135 Y115.263 E13.64869
G1 X11.882 Y114.65 E13.67075
G1 X11.657 Y113.944 E13.69539
G1 X11.545 Y113.575 E13.70822
G1 X11.339 Y112.86 E13.73296
G1 X11.208 Y112.2 E13.75534
G1 X11.124 Y111.452 E13.78038
G1 X11.082 Y111.028 E13.79455
G1 X11.024 Y110.335 E13.81768
G1 X11.024 Y109.665 E13.83997
G1 X11.087 Y108.926 E13.86463
G1 X11.129 Y108.501 E13.87884
G1 X11.21 Y107.788 E13.90271
G1 X11.34 Y107.134 E13.92488
G1 X11.54 Y106.441 E13.94887
G1 X11.674 Y105.999 E13.96423
G1 X11.878 Y105.356 E13.98667
G1 X12.137 Y104.73 E14.0092
G1 X12.493 Y104.042 E14.03497
G1 X12.677 Y103.701 E14.04786
G1 X13.035 Y103.057 E14.07236
G1 X13.306 Y102.633 E14.0891
G1 X13.429 Y102.471 E14.09586
G1 X13.861 Y101.931 E14.11887
G1 X14.122 Y101.614 E14.13252
G1 X14.6 Y101.05 E14.15711
G1 X15.073 Y100.577 E14.17936
G1 X15.673 Y100.072 E14.20544
G1 X15.945 Y99.85 E14.21712
G1 X16.51 Y99.399 E14.24117
G1 X17.073 Y99.023 E14.26368
G1 X17.719 Y98.666 E14.28823
G1 X18.115 Y98.454 E14.30317
G1 X18.734 Y98.136 E14.32632
G1 X19.343 Y97.884 E14.34824
G1 X20.056 Y97.657 E14.37313
G1 X20.425 Y97.545 E14.38595
G1 X21.14 Y97.339 E14.4107
G0 F3000 X21.25 Y97.724
G1 F1200 X21.844 Y97.606 E14.43084
G1 X22.588 Y97.522 E14.45575
G1 X23.009 Y97.48 E14.46982
G1 X23.517 Y97.438 E14.48677
G1 X23.738 Y97.427 E14.49413
G1 X25.038 Y97.4 E14.53738
G1 X204.345 Y97.4 E20.50115
G1 X205.043 Y97.41 E20.52437
G1 X205.577 Y97.458 E20.5422
G1 X206.098 Y97.584 E20.56003
G1 X206.595 Y97.787 E20.57789
G1 X207.056 Y98.061 E20.59573
G1 X207.471 Y98.4 E20.61355
G1 X207.831 Y98.798 E20.6314
G1 X208.128 Y99.244 E20.64922
G1 X208.356 Y99.73 E20.66707
G1 X208.508 Y100.244 E20.6849
G1 X208.59 Y100.909 E20.70719
G1 X208.6 Y101.33 E20.72119
G1 X208.6 Y118.309 E21.28592
G1 X208.591 Y119.036 E21.3101
G1 X208.544 Y119.57 E21.32793
G1 X208.419 Y120.091 E21.34575
G1 X208.217 Y120.588 E21.36359
G1 X207.944 Y121.05 E21.38144
G1 X207.606 Y121.466 E21.39927
G1 X207.209 Y121.827 E21.41712
G1 X206.763 Y122.125 E21.43496
G1 X206.278 Y122.353 E21.45278
G1 X205.764 Y122.507 E21.47063
G1 X205.092 Y122.59 E21.49315
G1 X204.67 Y122.6 E21.50719
G1 X24.659 Y122.6 E27.49438
G1 X24.136 Y122.593 E27.51178
G1 X23.904 Y122.582 E27.5195
G1 X22.673 Y122.486 E27.56057
G1 X22.549 Y122.474 E27.56471
G1 X21.84 Y122.394 E27.58844
G1 X21.249 Y122.277 E27.60848
G1 X20.558 Y122.078 E27.6324
G1 X20.119 Y121.944 E27.64766
G1 X19.474 Y121.739 E27.67017
G1 X18.912 Y121.506 E27.69041
G1 X18.231 Y121.155 E27.71589
G1 X17.902 Y120.977 E27.72833
G1 X17.26 Y120.622 E27.75273
G1 X16.759 Y120.288 E27.77276
G1 X16.184 Y119.829 E27.79723
G1 X15.873 Y119.574 E27.81061
G1 X15.31 Y119.097 E27.83515
G1 X14.885 Y118.671 E27.85516
G1 X14.403 Y118.099 E27.88004
G1 X14.157 Y117.799 E27.89295
G1 X13.705 Y117.23 E27.91712
G1 X13.356 Y116.705 E27.93808
G1 X13.015 Y116.084 E27.96165
G1 X12.812 Y115.704 E27.97598
G1 X12.491 Y115.08 E27.99932
G1 X12.263 Y114.528 E28.01918
G1 X12.04 Y113.828 E28.04361
G1 X11.93 Y113.465 E28.05623
G1 X11.724 Y112.75 E28.08098
G1 X11.606 Y112.156 E28.10112
G1 X11.522 Y111.412 E28.12602
G1 X11.481 Y110.994 E28.13999
G1 X11.423 Y110.301 E28.16312
G1 X11.423 Y109.699 E28.18315
G1 X11.485 Y108.965 E28.20765
G1 X11.526 Y108.547 E28.22162
G1 X11.607 Y107.834 E28.24548
G1 X11.724 Y107.245 E28.26546
G1 X11.922 Y106.558 E28.28923
G1 X12.056 Y106.12 E28.30447
G1 X12.26 Y105.477 E28.32691
G1 X12.493 Y104.914 E28.34717
G1 X12.845 Y104.231 E28.37273
G1 X13.026 Y103.895 E28.38542
G1 X13.384 Y103.251 E28.40993
G1 X13.741 Y102.721 E28.43118
G1 X14.171 Y102.184 E28.45406
G1 X14.427 Y101.872 E28.46749
G1 X14.905 Y101.308 E28.49208
G1 X15.331 Y100.883 E28.51209
G1 X15.927 Y100.382 E28.53799
G1 X16.194 Y100.162 E28.54949
G1 X16.759 Y99.711 E28.57354
G1 X17.266 Y99.373 E28.5938
G1 X17.908 Y99.019 E28.61819
G1 X18.298 Y98.81 E28.63291
G1 X18.917 Y98.492 E28.65605
G1 X19.465 Y98.265 E28.67578
G1 X20.172 Y98.04 E28.70046
G1 X20.535 Y97.93 E28.71307
G1 X21.25 Y97.724 E28.73782
G0 F3000 X21.361 Y98.108
G1 F1200 X21.889 Y98.003 E28.75573
G1 X22.628 Y97.92 E28.78046
G1 X23.042 Y97.879 E28.7943
G1 X23.55 Y97.837 E28.81125
G1 X23.746 Y97.827 E28.81778
G1 X25.038 Y97.8 E28.86076
G1 X204.339 Y97.8 E34.82434
G1 X205.037 Y97.81 E34.84755
G1 X205.54 Y97.857 E34.86436
G1 X206.03 Y97.983 E34.88118
G1 X206.494 Y98.185 E34.89802
G1 X206.92 Y98.457 E34.91483
G1 X207.298 Y98.792 E34.93163
G1 X207.618 Y99.183 E34.94843
G1 X207.873 Y99.62 E34.96526
G1 X208.056 Y100.091 E34.98206
G1 X208.163 Y100.585 E34.99888
G1 X208.199 Y101.24 E35.02069
G1 X208.2 Y118.304 E35.58825
G1 X208.191 Y119.031 E35.61243
G1 X208.145 Y119.534 E35.62923
G1 X208.02 Y120.024 E35.64605
G1 X207.819 Y120.488 E35.66286
G1 X207.548 Y120.915 E35.67969
G1 X207.213 Y121.294 E35.69651
G1 X206.823 Y121.615 E35.71331
G1 X206.387 Y121.871 E35.73013
G1 X205.916 Y122.054 E35.74693
G1 X205.422 Y122.162 E35.76375
G1 X204.76 Y122.199 E35.7858
G1 X24.664 Y122.2 E41.77582
G1 X24.141 Y122.193 E41.79322
G1 X23.935 Y122.183 E41.80008
G1 X22.594 Y122.077 E41.84482
G1 X21.885 Y121.997 E41.86855
G1 X21.36 Y121.892 E41.88636
G1 X20.674 Y121.695 E41.9101
G1 X20.24 Y121.563 E41.92518
G1 X19.595 Y121.358 E41.94769
G1 X19.095 Y121.151 E41.96569
G1 X18.421 Y120.802 E41.99094
G1 X18.096 Y120.627 E42.00321
G1 X17.454 Y120.272 E42.02761
G1 X17.008 Y119.975 E42.04544
G1 X16.438 Y119.52 E42.06969
G1 X16.131 Y119.269 E42.08288
G1 X15.568 Y118.792 E42.10743
G1 X15.191 Y118.413 E42.12521
G1 X14.712 Y117.845 E42.14992
G1 X14.47 Y117.55 E42.16261
G1 X14.018 Y116.981 E42.18678
G1 X13.707 Y116.512 E42.2055
G1 X13.367 Y115.895 E42.22893
G1 X13.167 Y115.521 E42.24303
G1 X12.846 Y114.897 E42.26637
G1 X12.644 Y114.407 E42.284
G1 X12.422 Y113.712 E42.30827
G1 X12.314 Y113.354 E42.3207
G1 X12.108 Y112.639 E42.34545
G1 X12.003 Y112.111 E42.36336
G1 X11.92 Y111.372 E42.38809
G1 X11.879 Y110.961 E42.40183
G1 X11.821 Y110.268 E42.42496
G1 X11.821 Y109.732 E42.44279
G1 X11.883 Y109.003 E42.46712
G1 X11.923 Y108.592 E42.48085
G1 X12.004 Y107.879 E42.50472
G1 X12.109 Y107.355 E42.5225
G1 X12.305 Y106.674 E42.54607
G1 X12.437 Y106.241 E42.56112
G1 X12.641 Y105.598 E42.58356
G1 X12.848 Y105.097 E42.60159
G1 X13.198 Y104.421 E42.62691
G1 X13.376 Y104.089 E42.63944
G1 X13.734 Y103.445 E42.66394
G1 X14.054 Y102.971 E42.68296
G1 X14.48 Y102.438 E42.70566
G1 X14.732 Y102.131 E42.71887
G1 X15.21 Y101.567 E42.74346
G1 X15.589 Y101.189 E42.76126
G1 X16.181 Y100.691 E42.78699
G1 X16.444 Y100.475 E42.79831
G1 X17.009 Y100.024 E42.82236
G1 X17.459 Y99.723 E42.84036
G1 X18.098 Y99.371 E42.86463
G1 X18.481 Y99.166 E42.87908
G1 X19.1 Y98.848 E42.90222
G1 X19.587 Y98.646 E42.91976
G1 X20.288 Y98.422 E42.94424
G1 X20.646 Y98.314 E42.95667
G1 X21.361 Y98.108 E42.98142
G1 F1800 E35.98142
G1 F300 Z0.4
;MESH:camera.wroover.nested_console.long.stl
G0 F3000 X22.868 Y112.998 Z0.4
;TYPE:WALL-INNER
G1 F300 Z0.2
G1 F1800 E42.98142
G1 F1200 X23.619 Y113.181 E43.00713
G1 X24.39 Y113.181 E43.03277
G1 X25.071 Y113.013 E43.0561
G1 X25.16 Y112.984 E43.05922
G1 X25.763 Y112.668 E43.08186
G1 X25.843 Y112.617 E43.08501
G1 X26.352 Y112.168 E43.10759
G1 X26.418 Y112.097 E43.11081
G1 X26.795 Y111.55 E43.13291
G1 X26.846 Y111.469 E43.13609
G1 X27.092 Y110.819 E43.15921
G1 X27.117 Y110.72 E43.1626
G1 X27.204 Y109.99 E43.18706
G1 X27.117 Y109.28 E43.21085
G1 X27.096 Y109.189 E43.21395
G1 X26.847 Y108.532 E43.23732
G1 X26.796 Y108.451 E43.24051
G1 X26.419 Y107.904 E43.2626
G1 X26.353 Y107.833 E43.26583
G1 X25.844 Y107.384 E43.2884
G1 X25.764 Y107.333 E43.29156
G1 X25.161 Y107.017 E43.3142
G1 X25.072 Y106.988 E43.31731
G1 X24.392 Y106.82 E43.34061
G1 X23.621 Y106.818 E43.36625
G1 X22.869 Y107.001 E43.39199
G1 X22.183 Y107.36 E43.41775
G1 X21.604 Y107.873 E43.44348
G1 X21.164 Y108.509 E43.4692
G1 X20.89 Y109.232 E43.49491
G1 X20.795 Y110 E43.52065
G1 X20.889 Y110.767 E43.54635
G1 X21.163 Y111.49 E43.57207
G1 X21.603 Y112.126 E43.59779
G1 X22.182 Y112.639 E43.62352
G1 X22.868 Y112.998 E43.64927
G0 F3000 X23.01 Y112.621
;TYPE:WALL-OUTER
G1 F1200 X23.667 Y112.781 E43.67176
G1 X24.341 Y112.781 E43.69418
G1 X24.961 Y112.628 E43.71542
G1 X25.004 Y112.614 E43.71692
G1 X25.562 Y112.322 E43.73787
G1 X25.601 Y112.297 E43.73941
G1 X26.073 Y111.88 E43.76036
G1 X26.106 Y111.845 E43.76196
G1 X26.461 Y111.33 E43.78276
G1 X26.486 Y111.29 E43.78433
G1 X26.71 Y110.698 E43.80539
G1 X26.723 Y110.647 E43.80714
G1 X26.801 Y109.991 E43.82911
G1 X26.722 Y109.349 E43.85062
G1 X26.712 Y109.305 E43.85212
G1 X26.487 Y108.711 E43.87325
G1 X26.462 Y108.671 E43.87482
G1 X26.107 Y108.156 E43.89562
G1 X26.074 Y108.121 E43.89722
G1 X25.602 Y107.704 E43.91817
G1 X25.563 Y107.679 E43.91971
G1 X25.005 Y107.387 E43.94066
G1 X24.962 Y107.373 E43.94216
G1 X24.343 Y107.22 E43.96337
G1 X23.668 Y107.218 E43.98582
G1 X23.011 Y107.378 E44.00831
G1 X22.412 Y107.692 E44.03081
G1 X21.905 Y108.14 E44.05331
G1 X21.521 Y108.696 E44.07578
G1 X21.281 Y109.329 E44.0983
G1 X21.198 Y110 E44.12079
G1 X21.28 Y110.67 E44.14324
G1 X21.52 Y111.303 E44.16575
G1 X21.904 Y111.859 E44.18823
G1 X22.411 Y112.307 E44.21073
G1 X23.01 Y112.621 E44.23322
G0 F3000 X23.204 Y112.668
G0 X23.099 Y113.095
G1 F1800 E37.23322
G1 F300 Z0.4
G0 F3000 X23.061 Y113.25 Z0.4
G0 X204.4 Y118.4
;TYPE:WALL-INNER
G1 F300 Z0.2
G1 F1800 E44.23322
G1 F1200 X24.029 Y118.4 E50.23239
G1 X22.361 Y118.236 E50.28813
G1 X20.787 Y117.759 E50.34284
G1 X19.337 Y116.982 E50.39755
G1 X18.062 Y115.938 E50.45236
G1 X17.018 Y114.663 E50.50717
G1 X16.241 Y113.213 E50.56189
G1 X15.764 Y111.639 E50.61659
G1 X15.603 Y110 E50.67136
G1 X15.764 Y108.361 E50.72614
G1 X16.241 Y106.787 E50.78084
G1 X17.018 Y105.337 E50.83556
G1 X18.062 Y104.062 E50.89037
G1 X19.337 Y103.018 E50.94518
G1 X20.787 Y102.241 E50.99989
G1 X22.361 Y101.764 E51.05459
G1 X24.029 Y101.6 E51.11034
G1 X204.4 Y101.6 E57.1095
G1 X204.4 Y118.4 E57.66827
G0 F3000 X204.8 Y118.8
;TYPE:WALL-OUTER
G1 F1200 X24.01 Y118.8 E63.68137
G1 X22.281 Y118.63 E63.73916
G1 X20.632 Y118.13 E63.79647
G1 X19.115 Y117.318 E63.8537
G1 X17.778 Y116.222 E63.9112
G1 X16.682 Y114.885 E63.9687
G1 X15.87 Y113.368 E64.02593
G1 X15.37 Y111.719 E64.08324
G1 X15.201 Y110 E64.14069
G1 X15.37 Y108.281 E64.19814
G1 X15.87 Y106.632 E64.25545
G1 X16.682 Y105.115 E64.31268
G1 X17.778 Y103.778 E64.37018
G1 X19.115 Y102.682 E64.42768
G1 X20.632 Y101.87 E64.48491
G1 X22.281 Y101.37 E64.54222
G1 X24.01 Y101.2 E64.6
G1 X204.8 Y101.2 E70.6131
G1 X204.8 Y118.8 E71.19848
G0 F3000 X204.6 Y118.8
G0 X204.36 Y118.36
G0 X204.01 Y118.01
;TYPE:SKIN
G1 F1200 X24.048 Y118.01 E77.18404
G1 X22.436 Y117.852 E77.23792
G1 X20.934 Y117.397 E77.29011
G1 X19.558 Y116.659 E77.34205
G1 X18.339 Y115.661 E77.39445
G1 X17.341 Y114.442 E77.44684
G1 X16.603 Y113.066 E77.49878
G1 X16.148 Y111.564 E77.55098
G1 X15.995 Y110 E77.60324
G1 X16.148 Y108.436 E77.65551
G1 X16.603 Y106.934 E77.70771
G1 X17.341 Y105.558 E77.75964
G1 X18.339 Y104.339 E77.81204
G1 X19.558 Y103.341 E77.86444
G1 X20.934 Y102.603 E77.91637
G1 X22.436 Y102.148 E77.96857
G1 X24.048 Y101.99 E78.02244
G1 X204.01 Y101.99 E84.008
G1 X204.01 Y118.01 E84.54083
G1 F1800 E77.54083
G1 F300 Z0.4
G0 F3000 X204.01 Y118.2 Z0.4
G0 X27.596 Y109.99
G1 F300 Z0.2
G1 F1800 E84.54083
G1 F1200 X27.501 Y109.212 E84.5669
G1 X27.47 Y109.076 E84.57154
G1 X27.198 Y108.357 E84.59711
G1 X27.121 Y108.236 E84.60188
G1 X26.724 Y107.66 E84.62515
G1 X26.626 Y107.554 E84.62995
G1 X26.079 Y107.072 E84.6542
G1 X25.959 Y106.995 E84.65894
G1 X25.313 Y106.656 E84.6832
G1 X25.179 Y106.613 E84.68788
G1 X24.44 Y106.43 E84.7132
G1 X23.574 Y106.428 E84.74201
G1 X22.73 Y106.633 E84.7709
G1 X21.96 Y107.036 E84.7998
G1 X21.31 Y107.612 E84.82869
G1 X20.817 Y108.326 E84.85755
G1 X20.508 Y109.138 E84.88644
G1 X20.402 Y110 E84.91533
G1 X20.507 Y110.861 E84.94418
G1 X20.816 Y111.673 E84.97308
G1 X21.309 Y112.387 E85.00193
G1 X21.959 Y112.963 E85.03082
G1 X22.729 Y113.366 E85.05973
G1 X23.572 Y113.571 E85.08858
G1 X24.437 Y113.571 E85.11735
G1 X25.178 Y113.388 E85.14274
G1 X25.312 Y113.345 E85.14742
G1 X25.958 Y113.006 E85.17168
G1 X26.078 Y112.929 E85.17643
G1 X26.625 Y112.447 E85.20067
G1 X26.723 Y112.341 E85.20548
G1 X27.12 Y111.765 E85.22874
G1 X27.197 Y111.644 E85.23351
G1 X27.465 Y110.936 E85.25869
G1 X27.501 Y110.791 E85.26366
G1 X27.596 Y109.99 E85.29049
G1 F1800 E78.29049
G1 F300 Z0.4
G0 F3000 X27.402 Y109.991 Z0.4
G0 X19.912 Y116.644
G1 F300 Z0.2
G1 F1800 E85.29049
G1 F1200 X17.353 Y114.086 E85.41083
G1 X17.283 Y114.016
G0 F3000 X16.904 Y114.218
G0 X16.304 Y113.041
G0 X16.742 Y112.909
G1 F1200 X21.089 Y117.255 E85.61528
G1 X21.159 Y117.325
G0 F3000 X21.9 Y117.501
G1 F1200 X16.496 Y112.097 E85.86947
G0 F3000 X16.306 Y111.341
G1 F1200 X22.657 Y117.692 E86.1682
G0 F3000 X23.283 Y117.753
G1 F1200 X16.245 Y110.714 E86.49927
G0 F3000 X16.184 Y110.088
G1 F1200 X23.91 Y117.814 E86.86268
G0 F3000 X24.491 Y117.829
G1 F1200 X16.218 Y109.556 E87.25181
G0 F3000 X16.269 Y109.041
G1 F1200 X25.057 Y117.829 E87.66517
G0 F3000 X25.622 Y117.829
G1 F1200 X16.319 Y108.526 E88.10276
G0 F3000 X16.441 Y108.082
