;FLAVOR:Marlin
;TIME:6138
;Filament used: 3.44103m
;Layer height: 0.2
;MINX:87.602
;MINY:90.532
;MINZ:0.2
;MAXX:132.395
;MAXY:130.298
;MAXZ:32.2
;Generated with Cura_SteamEngine master
M82 ;absolute extrusion mode
;Sliced at: Tue 27-09-2022 20:09:44
;Basic settings: Layer height: 0.2 Walls: 0.8 Fill: 30.0
G21 ;metric values
G90 ;absolute positioning
M82 ;set extruder to absolute mode
M107 ;start with the fan off
M117 Start heating ...
M104 S200
M117 Homing X/Y ...
G28 X0 Y0 ;move X/Y to min endstops
M117 Homing Z ...
G28 Z0 ;move Z to min endstops
G1 Z15.0 F100 ;move the platform down 15mm
M117 Heating ...
M109 S200
M117 Start cleaning ...
G92 E0 ;zero the extruded length
G1 F200 E10 ;extrude 10mm of feed stock
G92 E0 ;zero the extruded length again
M117 Intro line ...
G1 Z2.0 F3000 ; Move Z Axis up little to prevent scratching of Heat Bed
G1 X0.1 Y20 Z0.2 F5000.0 ; Move to start position
G1 X0.1 Y200.0 Z0.2 F1500.0 E15 ; Draw the first line
G1 X0.4 Y200.0 Z0.2 F5000.0 ; Move to side a little
G1 X0.4 Y20 Z0.3 F1500.0 E30 ; Draw the second line
G92 E0 ; Reset Extruder
G1 E-1 F500 ; Retract filiment by 1 mm
G1 Z2.0 F3000 ; Move Z Axis up little to prevent scratching of Heat Bed
G1 X5 Y20 Z0.3 F100 ; Move over to prevent blob squish
G1 F100
G92 E0 ; Reset Extruder
M117 Printing...

G92 E0
G92 E0
G1 F1800 E-7
;LAYER_COUNT:161
;LAYER:0
M107
G1 F300 Z0.4
G0 F3000 X92.653 Y91.746 Z0.4
;TYPE:SKIRT
G1 F300 Z0.2
G1 F1800 E0
G1 F1200 X93.076 Y91.371 E0.0188
G1 X93.547 Y91.059 E0.03759
G1 X94.058 Y90.816 E0.05641
G1 X94.597 Y90.648 E0.07519
G1 X95.362 Y90.544 E0.10087
G1 X96.103 Y90.532 E0.12552
G1 X97.567 Y90.536 E0.17421
G1 X98.216 Y90.545 E0.1958
G1 X98.551 Y90.564 E0.20696
G1 X99.333 Y90.641 E0.23309
G1 X100.639 Y90.788 E0.27681
G1 X103.336 Y91.015 E0.36683
G1 X106.041 Y91.165 E0.45693
G1 X108.78 Y91.239 E0.54806
G1 X111.489 Y91.236 E0.63817
G1 X114.195 Y91.157 E0.72821
G1 X116.906 Y91 E0.81853
G1 X119.584 Y90.77 E0.90792
G1 X121.389 Y90.571 E0.96832
G1 X121.907 Y90.541 E0.98558
G1 X122.348 Y90.535 E1.00025
G1 X123.879 Y90.533 E1.05117
G1 X124.546 Y90.541 E1.07336
G1 X125.109 Y90.588 E1.09215
G1 X125.661 Y90.714 E1.11098
G1 X126.189 Y90.916 E1.12978
G1 X126.683 Y91.19 E1.14857
G1 X127.133 Y91.532 E1.16737
G1 X127.531 Y91.933 E1.18616
G1 X127.744 Y92.204 E1.19763
G1 X128.201 Y92.839 E1.22365
G1 X129.845 Y95.049 E1.31526
G1 X131.143 Y96.687 E1.38477
G1 X131.554 Y97.221 E1.40718
G1 X131.866 Y97.693 E1.426
G1 X132.109 Y98.203 E1.44479
G1 X132.277 Y98.743 E1.4636
G1 X132.382 Y99.526 E1.48988
G1 X132.394 Y100.169 E1.51127
G1 X132.395 Y107.021 E1.73917
G1 X132.39 Y108.261 E1.78041
G1 X132.394 Y108.727 E1.79591
G1 X132.394 Y125.617 E2.35767
G1 X132.384 Y126.344 E2.38185
G1 X132.336 Y126.907 E2.40065
G1 X132.209 Y127.458 E2.41945
G1 X132.006 Y127.986 E2.43827
G1 X131.731 Y128.48 E2.45707
G1 X131.389 Y128.93 E2.47587
G1 X130.986 Y129.327 E2.49469
G1 X130.532 Y129.663 E2.51347
G1 X130.035 Y129.932 E2.53227
G1 X129.505 Y130.129 E2.55108
G1 X128.952 Y130.248 E2.56989
G1 X128.176 Y130.296 E2.59575
G1 X128.064 Y130.298 E2.59947
G1 X92.261 Y130.298 E3.79029
G1 X91.563 Y130.289 E3.81351
G1 X91 Y130.241 E3.8323
G1 X90.449 Y130.115 E3.8511
G1 X89.921 Y129.913 E3.8699
G1 X89.427 Y129.638 E3.88871
G1 X88.977 Y129.296 E3.9075
G1 X88.579 Y128.894 E3.92632
G1 X88.243 Y128.44 E3.94511
G1 X87.973 Y127.943 E3.96392
G1 X87.776 Y127.413 E3.98272
G1 X87.656 Y126.861 E4.00151
G1 X87.607 Y126.064 E4.02807
G1 X87.607 Y109.025 E4.59479
G1 X87.602 Y107.003 E4.66204
G1 X87.606 Y100.307 E4.88475
G1 X87.616 Y99.604 E4.90814
G1 X87.664 Y99.041 E4.92693
G1 X87.791 Y98.49 E4.94574
G1 X87.995 Y97.962 E4.96456
G1 X88.27 Y97.469 E4.98334
G1 X88.469 Y97.192 E4.99468
G1 X89.208 Y96.25 E5.0345
G1 X89.6 Y95.763 E5.0553
G1 X91.54 Y93.199 E5.16224
G1 X92.288 Y92.178 E5.20433
G1 X92.653 Y91.746 E5.22314
G0 F3000 X92.959 Y92.006
G1 F1200 X93.364 Y91.655 E5.24097
G1 X93.816 Y91.367 E5.25879
G1 X94.307 Y91.15 E5.27665
G1 X94.824 Y91.008 E5.29448
G1 X95.378 Y90.944 E5.31303
G1 X96.107 Y90.932 E5.33728
G1 X97.562 Y90.936 E5.38567
G1 X98.211 Y90.945 E5.40726
G1 X98.512 Y90.962 E5.41729
G1 X99.288 Y91.039 E5.44323
G1 X100.593 Y91.186 E5.4869
G1 X103.316 Y91.415 E5.57779
G1 X106.008 Y91.565 E5.66747
G1 X108.77 Y91.639 E5.75936
G1 X111.501 Y91.636 E5.8502
G1 X114.195 Y91.557 E5.93984
G1 X116.927 Y91.399 E6.03086
G1 X119.662 Y91.164 E6.12216
G1 X121.425 Y90.969 E6.18115
G1 X121.998 Y90.939 E6.20024
G1 X122.348 Y90.935 E6.21188
G1 X123.874 Y90.933 E6.26264
G1 X124.541 Y90.941 E6.28482
G1 X125.075 Y90.988 E6.30265
G1 X125.597 Y91.113 E6.3205
G1 X126.094 Y91.314 E6.33833
G1 X126.556 Y91.587 E6.35618
G1 X126.972 Y91.925 E6.37401
G1 X127.419 Y92.437 E6.39662
G1 X127.899 Y93.103 E6.42392
G1 X129.538 Y95.307 E6.51527
G1 X130.826 Y96.931 E6.58421
G1 X131.237 Y97.465 E6.60663
G1 X131.531 Y97.913 E6.62445
G1 X131.756 Y98.4 E6.64229
G1 X131.906 Y98.915 E6.66013
G1 X131.982 Y99.539 E6.68104
G1 X131.994 Y100.174 E6.70216
G1 X131.995 Y107.02 E6.92986
G1 X131.99 Y108.26 E6.97111
G1 X131.994 Y108.73 E6.98674
G1 X131.994 Y125.612 E7.54824
G1 X131.984 Y126.339 E7.57242
G1 X131.936 Y126.873 E7.59025
G1 X131.81 Y127.394 E7.60808
G1 X131.608 Y127.891 E7.62592
G1 X131.334 Y128.352 E7.64376
G1 X130.995 Y128.767 E7.66158
G1 X130.598 Y129.128 E7.67943
G1 X130.152 Y129.425 E7.69725
G1 X129.666 Y129.653 E7.71511
G1 X129.152 Y129.806 E7.73294
G1 X128.485 Y129.888 E7.7553
G1 X128.064 Y129.898 E7.7693
G1 X92.267 Y129.898 E8.95992
G1 X91.569 Y129.889 E8.98313
G1 X91.034 Y129.842 E9.001
G1 X90.513 Y129.716 E9.01882
G1 X90.016 Y129.514 E9.03667
G1 X89.555 Y129.241 E9.05449
G1 X89.139 Y128.902 E9.07234
G1 X88.778 Y128.506 E9.09016
G1 X88.48 Y128.06 E9.108
G1 X88.252 Y127.574 E9.12585
G1 X88.099 Y127.06 E9.14369
G1 X88.016 Y126.386 E9.16628
G1 X88.006 Y125.956 E9.18058
G1 X88.007 Y109.025 E9.74371
G1 X88.002 Y107.003 E9.81096
G1 X88.006 Y100.313 E10.03347
G1 X88.016 Y99.61 E10.05686
G1 X88.064 Y99.076 E10.07469
G1 X88.19 Y98.554 E10.09255
G1 X88.393 Y98.058 E10.11037
G1 X88.783 Y97.439 E10.13471
G1 X89.52 Y96.501 E10.17438
G1 X89.915 Y96.01 E10.19534
G1 X91.827 Y93.484 E10.30071
G1 X92.61 Y92.414 E10.34481
G1 X92.959 Y92.006 E10.36267
G0 F3000 X93.263 Y92.267
G1 F1200 X93.649 Y91.941 E10.37947
G1 X94.082 Y91.68 E10.39629
G1 X94.551 Y91.49 E10.41312
G1 X95.043 Y91.376 E10.42992
G1 X95.62 Y91.336 E10.44916
G1 X96.145 Y91.332 E10.46662
G1 X97.556 Y91.336 E10.51355
G1 X98.205 Y91.345 E10.53514
G1 X98.473 Y91.36 E10.54406
G1 X99.243 Y91.436 E10.5698
G1 X100.551 Y91.583 E10.61358
G1 X103.294 Y91.814 E10.70513
G1 X106.011 Y91.965 E10.79564
G1 X108.76 Y92.039 E10.8871
G1 X111.478 Y92.036 E10.9775
G1 X114.232 Y91.955 E11.06914
G1 X116.981 Y91.796 E11.16073
G1 X119.701 Y91.563 E11.25153
G1 X121.549 Y91.359 E11.31336
G1 X122.311 Y91.335 E11.33872
G1 X123.869 Y91.333 E11.39054
G1 X124.536 Y91.341 E11.41273
G1 X125.04 Y91.387 E11.42956
G1 X125.53 Y91.512 E11.44638
G1 X125.994 Y91.712 E11.46318
G1 X126.421 Y91.983 E11.48001
G1 X126.8 Y92.318 E11.49683
G1 X127.095 Y92.671 E11.51213
G1 X127.589 Y93.357 E11.54025
G1 X129.204 Y95.528 E11.63024
G1 X130.509 Y97.175 E11.70013
G1 X130.92 Y97.709 E11.72255
G1 X131.196 Y98.133 E11.73937
G1 X131.401 Y98.595 E11.75618
G1 X131.531 Y99.083 E11.77298
G1 X131.587 Y99.701 E11.79362
G1 X131.594 Y100.218 E11.81082
G1 X131.595 Y107.018 E12.03699
G1 X131.59 Y108.258 E12.07823
G1 X131.594 Y108.733 E12.09403
G1 X131.594 Y125.606 E12.65523
G1 X131.584 Y126.333 E12.67941
G1 X131.537 Y126.836 E12.69621
G1 X131.411 Y127.326 E12.71304
G1 X131.21 Y127.79 E12.72986
G1 X130.938 Y128.216 E12.74667
G1 X130.603 Y128.595 E12.76349
G1 X130.212 Y128.915 E12.7803
G1 X129.776 Y129.17 E12.7971
G1 X129.305 Y129.354 E12.81392
G1 X128.81 Y129.46 E12.83075
G1 X128.154 Y129.497 E12.85261
G1 X92.272 Y129.498 E14.04605
G1 X91.574 Y129.489 E14.06926
G1 X91.07 Y129.442 E14.0861
G1 X90.58 Y129.317 E14.10292
G1 X90.116 Y129.116 E14.11974
G1 X89.69 Y128.845 E14.13653
G1 X89.311 Y128.51 E14.15335
G1 X88.99 Y128.119 E14.17018
G1 X88.735 Y127.683 E14.18698
G1 X88.551 Y127.212 E14.2038
G1 X88.444 Y126.718 E14.22061
G1 X88.407 Y126.042 E14.24313
G1 X88.407 Y109.025 E14.80911
G1 X88.402 Y107.003 E14.87637
G1 X88.406 Y100.318 E15.09871
G1 X88.416 Y99.615 E15.1221
G1 X88.463 Y99.112 E15.1389
G1 X88.589 Y98.622 E15.15573
G1 X88.791 Y98.159 E15.17253
G1 X89.098 Y97.686 E15.19128
G1 X89.832 Y96.751 E15.23082
G1 X90.23 Y96.256 E15.25194
G1 X92.156 Y93.711 E15.3581
G1 X92.933 Y92.65 E15.40184
G1 X93.263 Y92.267 E15.41865
G1 F1800 E8.41865
G1 F300 Z0.4
G0 F3000 X95.643 Y94.731 Z0.4
;TYPE:SUPPORT
G1 F300 Z0.2
G1 F1800 E15.41865
G1 F1200 X97.144 Y94.736 E15.46858
G1 X98.074 Y94.735 E15.49951
G1 X98.722 Y95.384 E15.53001
G1 X98.722 Y96.367 E15.56271
G1 X98.075 Y97.014 E15.59314
G1 X96.705 Y97.014 E15.63871
G1 X96.306 Y97.413 E15.65747
G1 X96.306 Y106.687 E15.96593
G1 X91.806 Y106.688 E16.1156
G1 X91.807 Y99.739 E16.34672
G1 X95.191 Y99.739 E16.45928
G1 X95.59 Y99.34 E16.47804
G1 X95.59 Y96.384 E16.57636
G1 X95.147 Y95.934 E16.59736
G1 X95.643 Y94.731 E16.64064
G0 F3000 X96.012 Y94.892
G1 F1200 X96.012 Y106.528 E17.02766
G1 F1800 E10.02766
G1 F300 Z0.4
G0 F3000 X96.146 Y104.013 Z0.4
G1 F300 Z0.2
G1 F1800 E17.02766
G1 F1200 X91.967 Y104.013 E17.16665
G1 F1800 E10.16665
G1 F300 Z0.4
G0 F3000 X91.967 Y101.346 Z0.4
G1 F300 Z0.2
G1 F1800 E17.16665
G1 F1200 X96.146 Y101.346 E17.30565
G1 F1800 E10.30565
G1 F300 Z0.4
G0 F3000 X96.146 Y98.679 Z0.4
G1 F300 Z0.2
G1 F1800 E17.30565
G1 F1200 X95.75 Y98.679 E17.31882
G1 F1800 E10.31882
G1 F300 Z0.4
G0 F3000 X95.448 Y96.012 Z0.4
G1 F300 Z0.2
G1 F1800 E17.31882
G1 F1200 X98.562 Y96.012 E17.42239
G1 F1800 E10.42239
G1 F300 Z0.4
G0 F3000 X93.345 Y99.899 Z0.4
G1 F300 Z0.2
G1 F1800 E17.42239
G1 F1200 X93.345 Y106.528 E17.64287
G1 F1800 E10.64287
G1 F300 Z0.4
G0 F3000 X121.278 Y96.367 Z0.4
G1 F300 Z0.2
G1 F1800 E17.64287
G1 F1200 X121.278 Y95.39 E17.67536
G1 X121.932 Y94.736 E17.70613
G1 X124.366 Y94.731 E17.78708
G1 X124.849 Y95.94 E17.83038
G1 X124.41 Y96.384 E17.85115
G1 X124.41 Y99.34 E17.94947
G1 X124.809 Y99.739 E17.96824
G1 X128.194 Y99.739 E18.08082
G1 X128.194 Y106.688 E18.31195
G1 X123.694 Y106.688 E18.46162
G1 X123.694 Y97.413 E18.7701
G1 X123.295 Y97.014 E18.78887
G1 X121.925 Y97.014 E18.83444
G1 X121.278 Y96.367 E18.86487
G0 F3000 X121.438 Y96.012
G1 F1200 X124.552 Y96.012 E18.96844
G1 F1800 E11.96844
G1 F300 Z0.4
G0 F3000 X122.682 Y96.854 Z0.4
G1 F300 Z0.2
G1 F1800 E18.96844
G1 F1200 X122.682 Y94.894 E19.03363
G1 F1800 E12.03363
G1 F300 Z0.4
G0 F3000 X123.854 Y98.679 Z0.4
G1 F300 Z0.2
G1 F1800 E19.03363
G1 F1200 X124.25 Y98.679 E19.0468
G1 F1800 E12.0468
G1 F300 Z0.4
G0 F3000 X125.349 Y99.899 Z0.4
G1 F300 Z0.2
G1 F1800 E19.0468
G1 F1200 X125.349 Y106.528 E19.26729
G1 F1800 E12.26729
G1 F300 Z0.4
G0 F3000 X128.016 Y106.528 Z0.4
G1 F300 Z0.2
G1 F1800 E19.26729
G1 F1200 X128.016 Y99.899 E19.48777
G0 F3000 X128.034 Y101.346
G1 F1200 X123.854 Y101.346 E19.62679
G1 F1800 E12.62679
G1 F300 Z0.4
G0 F3000 X123.854 Y104.013 Z0.4
G1 F300 Z0.2
G1 F1800 E19.62679
G1 F1200 X128.034 Y104.013 E19.76582
G1 F1800 E12.76582
G1 F300 Z0.4
;MESH:camera.wroover_rail_.reverse.stl
G0 F3000 X100.714 Y121.198 Z0.4
;TYPE:WALL-INNER
G1 F300 Z0.2
G1 F1800 E19.76582
G1 F1200 X100.714 Y125.498 E19.90884
G1 X119.414 Y125.498 E20.53081
G1 X119.414 Y121.198 E20.67382
G1 X100.714 Y121.198 E21.29579
G0 F3000 X101.114 Y121.598
;TYPE:WALL-OUTER
G1 F1200 X101.114 Y125.098 E21.4122
G1 X119.014 Y125.098 E22.00756
G1 X119.014 Y121.598 E22.12397
G1 X101.114 Y121.598 E22.71932
G0 F3000 X101.114 Y121.798
G0 X100.674 Y121.798
G0 X119.242 Y121.37
G0 X119.886 Y125.326
G0 X122.982 Y125.326
G0 X122.99 Y123.935
G0 X124.094 Y123.698
;TYPE:WALL-INNER
G1 F1200 X124.094 Y108.964 E23.20938
G1 X127.794 Y108.964 E23.33244
G1 X127.794 Y125.698 E23.88901
G1 X123.154 Y125.698 E24.04334
G1 X119.714 Y125.698 E24.15776
G1 X100.414 Y125.698 E24.73791
G1 X96.846 Y125.698 E24.85658
G1 X92.206 Y125.698 E25.01091
G1 X92.206 Y108.964 E25.56748
G1 X95.906 Y108.963 E25.69054
G1 X95.906 Y123.698 E26.18063
G1 X96.846 Y123.698 E26.2119
G1 X96.846 Y125.498 E26.27177
G1 X100.414 Y125.498 E26.33125
G1 X100.414 Y121.098 E26.4446
G1 X119.714 Y121.098 E26.95506
G1 X119.714 Y125.498 E27.06841
G1 X123.154 Y125.498 E27.12576
G1 X123.154 Y123.698 E27.18563
G1 X124.094 Y123.698 E27.21689
G0 F3000 X123.694 Y123.298
;TYPE:WALL-OUTER
G1 F1200 X123.694 Y108.564 E27.70695
G1 X128.194 Y108.564 E27.85662
G1 X128.194 Y126.098 E28.4398
G1 X91.806 Y126.098 E29.65007
G1 X91.806 Y108.564 E30.23325
G1 X96.306 Y108.563 E30.38292
G1 X96.306 Y123.298 E30.87301
G1 X97.246 Y123.298 E30.90428
G1 X97.246 Y125.098 E30.96415
G1 X100.014 Y125.098 E31.05621
G1 X100.014 Y120.698 E31.20255
G1 X120.114 Y120.698 E31.87108
G1 X120.114 Y125.098 E32.01743
G1 X122.754 Y125.098 E32.10523
G1 X122.754 Y123.298 E32.1651
G1 X123.694 Y123.298 E32.19637
G0 F3000 X123.694 Y123.098
G0 X124.134 Y123.098
G0 X124.484 Y124.088
;TYPE:SKIN
G1 F1200 X124.484 Y109.354 E32.68642
G1 X127.404 Y109.354 E32.78354
G1 X127.404 Y125.308 E33.31417
G1 X123.544 Y125.308 E33.44256
G1 X123.544 Y124.088 E33.48313
G1 X124.484 Y124.088 E33.5144
G0 F3000 X124.234 Y123.838
G0 X123.336 Y123.88
G0 X123.336 Y125.516
G0 X123.995 Y125.126
G1 F1200 X123.723 Y124.855 E33.52717
G0 F3000 X123.723 Y124.289
G1 F1200 X124.561 Y125.126 E33.56656
G0 F3000 X125.126 Y125.126
G1 F1200 X124.267 Y124.267 E33.60697
G0 F3000 X124.662 Y124.097
G1 F1200 X125.692 Y125.126 E33.65539
G0 F3000 X126.258 Y125.126
G1 F1200 X124.662 Y123.531 E33.73044
G0 F3000 X124.662 Y122.965
G1 F1200 X126.823 Y125.126 E33.83209
G0 F3000 X127.223 Y124.96
G1 F1200 X124.662 Y122.4 E33.95252
G0 F3000 X124.662 Y121.834
G1 F1200 X127.223 Y124.394 E34.07296
G0 F3000 X127.223 Y123.829
G1 F1200 X124.662 Y121.268 E34.19342
G0 F3000 X124.662 Y120.703
G1 F1200 X127.223 Y123.263 E34.31386
G0 F3000 X127.223 Y122.697
G1 F1200 X124.662 Y120.137 E34.4343
G0 F3000 X124.662 Y119.571
G1 F1200 X127.223 Y122.132 E34.55476
G0 F3000 X127.223 Y121.566
G1 F1200 X124.662 Y119.006 E34.6752
G0 F3000 X124.662 Y118.44
G1 F1200 X127.223 Y121 E34.79564
G0 F3000 X127.223 Y120.435
G1 F1200 X124.662 Y117.874 E34.9161
G0 F3000 X124.662 Y117.309
G1 F1200 X127.223 Y119.869 E35.03654
G0 F3000 X127.223 Y119.303
G1 F1200 X124.662 Y116.743 E35.15698
G0 F3000 X124.662 Y116.177
G1 F1200 X127.223 Y118.738 E35.27744
G0 F3000 X127.223 Y118.172
G1 F1200 X124.662 Y115.611 E35.3979
G0 F3000 X124.662 Y115.046
G1 F1200 X127.223 Y117.606 E35.51834
G0 F3000 X127.223 Y117.041
G1 F1200 X124.662 Y114.48 E35.6388
G0 F3000 X124.662 Y113.914
G1 F1200 X127.223 Y116.475 E35.75926
G0 F3000 X127.223 Y115.909
G1 F1200 X124.662 Y113.349 E35.8797
G0 F3000 X124.662 Y112.783
G1 F1200 X127.223 Y115.343 E36.00014
G0 F3000 X127.223 Y114.778
G1 F1200 X124.662 Y112.217 E36.1206
G0 F3000 X124.662 Y111.652
G1 F1200 X127.223 Y114.212 E36.24104
G0 F3000 X127.223 Y113.646
G1 F1200 X124.662 Y111.086 E36.36147
G0 F3000 X124.662 Y110.52
G1 F1200 X127.223 Y113.081 E36.48194
G0 F3000 X127.223 Y112.515
G1 F1200 X124.662 Y109.955 E36.60237
G0 F3000 X124.807 Y109.534
G1 F1200 X127.223 Y111.949 E36.71599
G0 F3000 X127.223 Y111.384
G1 F1200 X125.373 Y109.534 E36.80301
G0 F3000 X125.939 Y109.534
G1 F1200 X127.223 Y110.818 E36.86341
G0 F3000 X127.223 Y110.252
G1 F1200 X126.504 Y109.534 E36.8972
G0 F3000 X127.07 Y109.534
G1 F1200 X127.223 Y109.687 E36.9044
G1 F1800 E29.9044
G0 F3000 X127.684 Y109.687
G0 X124.276 Y109.146
G0 X123.922 Y123.526
G0 X122.982 Y123.526
G0 X122.982 Y125.326
G0 X97.018 Y125.326
G0 X97.018 Y123.526
G0 X96.078 Y123.526
G0 X96.065 Y109.083
G1 F1800 E36.9044
G0 F3000 X95.516 Y109.353
G1 F1200 X95.516 Y124.088 E37.39449
G1 X96.456 Y124.088 E37.42575
G1 X96.456 Y125.308 E37.46633
G1 X92.596 Y125.308 E37.59471
G1 X92.596 Y109.354 E38.12534
G1 X95.516 Y109.353 E38.22246
G0 F3000 X95.336 Y110.044
G1 F1200 X94.825 Y109.532 E38.24652
G0 F3000 X94.259 Y109.532
G1 F1200 X95.336 Y110.609 E38.29718
G0 F3000 X95.336 Y111.175
G1 F1200 X93.693 Y109.532 E38.37446
G0 F3000 X93.128 Y109.532
G1 F1200 X95.336 Y111.741 E38.47835
G0 F3000 X95.336 Y112.306
