;FLAVOR:Marlin
;TIME:12697
;Filament used: 7.45915m
;Layer height: 0.2
;MINX:65.674
;MINY:69.803
;MINZ:0.2
;MAXX:154.304
;MAXY:150.187
;MAXZ:49.2
;Generated with Cura_SteamEngine master
M82 ;absolute extrusion mode
;Sliced at: Thu 05-05-2022 23:59:49
;Basic settings: Layer height: 0.2 Walls: 0.8 Fill: 20
G21 ;metric values
G90 ;absolute positioning
M82 ;set extruder to absolute mode
M107 ;start with the fan off
M117 Start heating ...
M104 S200
M117 Homing X/Y ...
G28 X0 Y0 ;move X/Y to min endstops
M117 Homing Z ...
G28 Z0 ;move Z to min endstops
G1 Z15.0 F100 ;move the platform down 15mm
M117 Heating ...
M109 S200
M117 Start cleaning ...
G92 E0 ;zero the extruded length
G1 F200 E10 ;extrude 10mm of feed stock
G92 E0 ;zero the extruded length again
M117 Intro line ...
G1 Z2.0 F3000 ; Move Z Axis up little to prevent scratching of Heat Bed
G1 X0.1 Y20 Z0.2 F5000.0 ; Move to start position
G1 X0.1 Y200.0 Z0.2 F1500.0 E15 ; Draw the first line
G1 X0.4 Y200.0 Z0.2 F5000.0 ; Move to side a little
G1 X0.4 Y20 Z0.3 F1500.0 E30 ; Draw the second line
G92 E0 ; Reset Extruder
G1 E-1 F500 ; Retract filiment by 1 mm
G1 Z2.0 F3000 ; Move Z Axis up little to prevent scratching of Heat Bed
G1 X5 Y20 Z0.3 F100 ; Move over to prevent blob squish
G1 F100
G92 E0 ; Reset Extruder
M117 Printing...

G92 E0
G92 E0
G1 F1800 E-7
;LAYER_COUNT:246
;LAYER:0
M107
G1 F300 Z0.4
G0 F3000 X67.086 Y70.771 Z0.4
;TYPE:SKIRT
G1 F300 Z0.2
G1 F1800 E0
G1 F1200 X67.54 Y70.435 E0.01879
G1 X68.038 Y70.166 E0.03761
G1 X68.568 Y69.971 E0.05639
G1 X69.121 Y69.852 E0.07521
G1 X69.892 Y69.805 E0.1009
G1 X70.004 Y69.803 E0.10463
G1 X70.529 Y69.803 E0.12209
G1 X71.238 Y69.814 E0.14567
G1 X71.683 Y69.846 E0.16051
G1 X72.465 Y69.946 E0.18673
G1 X75.162 Y70.253 E0.27701
G1 X77.842 Y70.482 E0.36648
G1 X80.609 Y70.638 E0.45865
G1 X83.283 Y70.715 E0.54763
G1 X86.026 Y70.715 E0.63886
G1 X88.696 Y70.64 E0.7277
G1 X91.438 Y70.485 E0.81904
G1 X94.139 Y70.256 E0.9092
G1 X96.884 Y69.945 E1.00108
G1 X97.493 Y69.863 E1.02152
G1 X98.059 Y69.814 E1.04042
G1 X98.491 Y69.803 E1.05479
G1 X99.011 Y69.803 E1.07209
G1 X99.714 Y69.813 E1.09547
G1 X100.277 Y69.861 E1.11426
G1 X100.828 Y69.988 E1.13307
G1 X101.356 Y70.192 E1.1519
G1 X101.849 Y70.467 E1.17067
G1 X102.124 Y70.665 E1.18194
G1 X103.377 Y71.648 E1.23491
G1 X105.525 Y73.282 E1.32468
G1 X107.748 Y74.874 E1.41562
G1 X109.973 Y76.374 E1.50487
G1 X112.294 Y77.846 E1.59628
G1 X114.597 Y79.216 E1.68541
G1 X116.979 Y80.543 E1.7761
G1 X119.387 Y81.799 E1.86643
G1 X121.826 Y82.983 E1.95661
G1 X124.325 Y84.109 E2.04777
G1 X126.836 Y85.159 E2.13829
G1 X128.308 Y85.732 E2.19083
G1 X129.426 Y86.159 E2.23064
G1 X130.111 Y86.481 E2.25581
G1 X130.45 Y86.668 E2.26869
G1 X130.984 Y87.023 E2.29002
G1 X131.498 Y87.442 E2.31207
G1 X131.989 Y87.932 E2.33514
G1 X132.41 Y88.445 E2.35722
G1 X132.849 Y89.08 E2.38289
G1 X134.38 Y91.313 E2.47294
G1 X135.997 Y93.531 E2.56424
G1 X137.656 Y95.679 E2.65451
G1 X139.369 Y97.772 E2.74446
G1 X141.165 Y99.841 E2.83559
G1 X142.983 Y101.823 E2.92504
G1 X144.87 Y103.767 E3.01515
G1 X146.82 Y105.662 E3.10559
G1 X148.838 Y107.518 E3.19678
G1 X150.868 Y109.279 E3.28616
G1 X151.768 Y110.013 E3.32479
G1 X152.85 Y110.915 E3.37164
G1 X153.122 Y111.164 E3.38391
G1 X153.493 Y111.591 E3.40272
G1 X153.8 Y112.066 E3.42153
G1 X154.036 Y112.579 E3.44031
G1 X154.198 Y113.121 E3.45913
G1 X154.292 Y113.869 E3.4842
G1 X154.304 Y114.317 E3.49911
G1 X154.304 Y145.501 E4.53629
G1 X154.295 Y146.228 E4.56047
G1 X154.248 Y146.791 E4.57926
G1 X154.122 Y147.342 E4.59806
G1 X153.92 Y147.87 E4.61687
G1 X153.645 Y148.364 E4.63567
G1 X153.303 Y148.814 E4.65447
G1 X152.901 Y149.212 E4.67328
G1 X152.448 Y149.549 E4.69206
G1 X151.951 Y149.819 E4.71088
G1 X151.421 Y150.016 E4.72968
G1 X150.869 Y150.137 E4.74848
G1 X150.086 Y150.185 E4.77457
G1 X149.974 Y150.187 E4.77829
G1 X109.066 Y150.187 E6.1389
G1 X108.367 Y150.177 E6.16215
G1 X107.694 Y150.11 E6.18465
G1 X106.392 Y149.868 E6.22869
G1 X106.045 Y149.799 E6.24046
G1 X103.34 Y149.336 E6.33174
G1 X100.709 Y148.963 E6.42012
G1 X97.978 Y148.654 E6.51153
G1 X95.276 Y148.425 E6.60172
G1 X92.566 Y148.272 E6.692
G1 X88.496 Y148.187 E6.8274
G1 X87.65 Y148.187 E6.85554
G1 X86.989 Y148.177 E6.87753
G1 X86.426 Y148.128 E6.89632
G1 X85.875 Y148.001 E6.91513
G1 X85.348 Y147.797 E6.93392
G1 X84.725 Y147.432 E6.95794
G1 X84.669 Y147.392 E6.96023
G1 X84.233 Y147.032 E6.97903
G1 X83.853 Y146.614 E6.99782
G1 X83.535 Y146.146 E7.01664
G1 X83.305 Y145.684 E7.03381
G1 X83.04 Y145.052 E7.0566
G1 X81.957 Y142.563 E7.14688
G1 X80.804 Y140.11 E7.23703
G1 X79.577 Y137.679 E7.3276
G1 X78.274 Y135.272 E7.41864
G1 X76.941 Y132.963 E7.50731
G1 X75.503 Y130.629 E7.59849
G1 X74.007 Y128.347 E7.68925
G1 X72.463 Y126.134 E7.779
G1 X70.843 Y123.944 E7.8696
G1 X69.177 Y121.822 E7.95933
G1 X66.985 Y119.205 E8.07287
G1 X66.657 Y118.825 E8.08957
G1 X66.319 Y118.372 E8.10837
G1 X66.047 Y117.876 E8.12718
G1 X65.849 Y117.347 E8.14597
G1 X65.727 Y116.795 E8.16477
G1 X65.681 Y116.197 E8.18472
G1 X65.674 Y115.702 E8.20119
G1 X65.674 Y109.879 E8.39486
G1 X65.679 Y108.444 E8.44259
G1 X65.674 Y107.751 E8.46564
G1 X65.674 Y74.416 E9.57436
G1 X65.684 Y73.752 E9.59645
G1 X65.733 Y73.189 E9.61525
G1 X65.86 Y72.638 E9.63406
G1 X66.064 Y72.11 E9.65288
G1 X66.34 Y71.617 E9.67167
G1 X66.683 Y71.168 E9.69047
G1 X67.086 Y70.771 E9.70928
G0 F3000 X67.474 Y70.97
G1 F1200 X67.92 Y70.674 E9.72709
G1 X68.406 Y70.446 E9.74494
G1 X68.92 Y70.294 E9.76277
G1 X69.583 Y70.213 E9.78498
G1 X70.004 Y70.203 E9.79899
G1 X70.523 Y70.203 E9.81625
G1 X71.232 Y70.214 E9.83984
G1 X71.633 Y70.243 E9.85321
G1 X72.4 Y70.341 E9.87893
G1 X75.119 Y70.65 E9.96994
G1 X77.854 Y70.884 E10.06124
G1 X80.541 Y71.036 E10.15075
G1 X83.306 Y71.115 E10.24276
G1 X86.001 Y71.115 E10.33239
G1 X88.764 Y71.038 E10.42433
G1 X91.46 Y70.885 E10.51414
G1 X94.182 Y70.654 E10.605
G1 X96.895 Y70.347 E10.69581
G1 X97.537 Y70.261 E10.71735
G1 X98.07 Y70.213 E10.73515
G1 X98.491 Y70.203 E10.74916
G1 X99.005 Y70.203 E10.76625
G1 X99.708 Y70.213 E10.78964
G1 X100.242 Y70.261 E10.80747
G1 X100.764 Y70.387 E10.82533
G1 X101.26 Y70.59 E10.84316
G1 X101.878 Y70.98 E10.86746
G1 X103.036 Y71.888 E10.91641
G1 X103.108 Y71.946 E10.91948
G1 X105.296 Y73.609 E11.01089
G1 X107.498 Y75.186 E11.10097
G1 X109.782 Y76.727 E11.19261
G1 X112.056 Y78.169 E11.28217
G1 X114.419 Y79.575 E11.37362
G1 X116.806 Y80.904 E11.46449
G1 X119.193 Y82.149 E11.55403
G1 X121.68 Y83.356 E11.64598
G1 X124.154 Y84.471 E11.73624
G1 X126.685 Y85.53 E11.82749
G1 X128.14 Y86.096 E11.87941
G1 X129.283 Y86.532 E11.9201
G1 X129.927 Y86.836 E11.94379
G1 X130.256 Y87.017 E11.95628
G1 X130.737 Y87.337 E11.97549
G1 X131.242 Y87.749 E11.99717
G1 X131.683 Y88.189 E12.01789
G1 X132.095 Y88.692 E12.03952
G1 X132.495 Y89.272 E12.06295
G1 X134.071 Y91.569 E12.1556
G1 X135.659 Y93.748 E12.24528
G1 X137.328 Y95.909 E12.33609
G1 X139.074 Y98.041 E12.42775
G1 X140.869 Y100.11 E12.51885
G1 X142.684 Y102.089 E12.60817
G1 X144.605 Y104.067 E12.69987
G1 X146.534 Y105.942 E12.78935
G1 X148.571 Y107.816 E12.88141
G1 X150.618 Y109.592 E12.97154
G1 X151.512 Y110.32 E13.00989
G1 X152.594 Y111.222 E13.05674
G1 X152.84 Y111.446 E13.06781
G1 X153.189 Y111.853 E13.08564
G1 X153.475 Y112.307 E13.10349
G1 X153.69 Y112.798 E13.12132
G1 X153.83 Y113.316 E13.13916
G1 X153.892 Y113.881 E13.15807
G1 X153.904 Y114.317 E13.17257
G1 X153.904 Y145.496 E14.20959
G1 X153.895 Y146.223 E14.23377
G1 X153.848 Y146.757 E14.2516
G1 X153.723 Y147.278 E14.26942
G1 X153.521 Y147.775 E14.28727
G1 X153.248 Y148.237 E14.30512
G1 X152.91 Y148.653 E14.32294
G1 X152.513 Y149.014 E14.34079
G1 X152.067 Y149.312 E14.35863
G1 X151.582 Y149.54 E14.37646
G1 X151.068 Y149.694 E14.3943
G1 X150.396 Y149.777 E14.41682
G1 X149.974 Y149.787 E14.43086
G1 X109.072 Y149.787 E15.79127
G1 X108.373 Y149.777 E15.81452
G1 X107.767 Y149.716 E15.83478
G1 X106.471 Y149.475 E15.87862
G1 X106.119 Y149.405 E15.89056
G1 X103.432 Y148.945 E15.98123
G1 X100.739 Y148.563 E16.07169
G1 X98.021 Y148.256 E16.16267
G1 X95.297 Y148.025 E16.2536
G1 X92.597 Y147.873 E16.34354
G1 X88.505 Y147.787 E16.47967
G1 X87.657 Y147.787 E16.50788
G1 X86.996 Y147.777 E16.52986
G1 X86.461 Y147.729 E16.54773
G1 X85.94 Y147.602 E16.56556
G1 X85.444 Y147.399 E16.58339
G1 X84.958 Y147.106 E16.60226
G1 X84.902 Y147.066 E16.60455
G1 X84.49 Y146.723 E16.62238
G1 X84.133 Y146.322 E16.64024
G1 X83.84 Y145.873 E16.65807
G1 X83.674 Y145.529 E16.67078
G1 X83.428 Y144.942 E16.69195
G1 X82.314 Y142.383 E16.78477
G1 X81.165 Y139.938 E16.87463
G1 X79.921 Y137.473 E16.96646
G1 X78.638 Y135.102 E17.05613
G1 X77.269 Y132.732 E17.14716
G1 X75.846 Y130.422 E17.2374
G1 X74.342 Y128.129 E17.32861
G1 X72.797 Y125.913 E17.41846
G1 X71.146 Y123.682 E17.51077
G1 X69.499 Y121.584 E17.59948
G1 X67.273 Y118.926 E17.71479
G1 X66.96 Y118.563 E17.73074
G1 X66.64 Y118.133 E17.74856
G1 X66.389 Y117.659 E17.7664
G1 X66.21 Y117.153 E17.78425
G1 X66.108 Y116.627 E17.80207
G1 X66.079 Y116.106 E17.81943
G1 X66.074 Y115.697 E17.83303
G1 X66.074 Y109.88 E18.02651
G1 X66.079 Y108.445 E18.07424
G1 X66.074 Y107.749 E18.09739
G1 X66.074 Y74.422 E19.20585
G1 X66.084 Y73.758 E19.22793
G1 X66.132 Y73.224 E19.24577
G1 X66.259 Y72.703 E19.2636
G1 X66.462 Y72.206 E19.28146
G1 X66.736 Y71.745 E19.2993
G1 X67.076 Y71.33 E19.31714
G1 X67.474 Y70.97 E19.33499
G0 F3000 X67.468 Y71.503
G1 F1200 X67.859 Y71.183 E19.35179
G1 X68.296 Y70.929 E19.3686
G1 X68.767 Y70.746 E19.38541
G1 X69.262 Y70.64 E19.40225
G1 X69.914 Y70.604 E19.42397
G1 X70.517 Y70.603 E19.44402
G1 X71.226 Y70.614 E19.46761
G1 X71.582 Y70.64 E19.47948
G1 X72.319 Y70.734 E19.50419
G1 X75.112 Y71.051 E19.59768
G1 X77.798 Y71.281 E19.68735
G1 X80.541 Y71.436 E19.77872
G1 X83.295 Y71.515 E19.87036
G1 X86.013 Y71.515 E19.96076
G1 X88.763 Y71.438 E20.05226
G1 X91.481 Y71.284 E20.14281
G1 X94.224 Y71.052 E20.23437
G1 X96.95 Y70.743 E20.32561
G1 X97.582 Y70.658 E20.34682
G1 X98.081 Y70.613 E20.36349
G1 X98.491 Y70.603 E20.37713
G1 X99 Y70.603 E20.39406
G1 X99.703 Y70.613 E20.41744
G1 X100.206 Y70.66 E20.43425
G1 X100.696 Y70.786 E20.45107
G1 X101.159 Y70.988 E20.46787
G1 X101.631 Y71.294 E20.48658
G1 X102.785 Y72.199 E20.53536
G1 X102.882 Y72.277 E20.5395
G1 X105.066 Y73.938 E20.63076
G1 X107.263 Y75.511 E20.72063
G1 X109.549 Y77.053 E20.81235
G1 X111.858 Y78.517 E20.90328
G1 X114.225 Y79.925 E20.99488
G1 X116.577 Y81.236 E21.08444
G1 X119.039 Y82.52 E21.1768
G1 X121.506 Y83.716 E21.26798
G1 X123.985 Y84.834 E21.35843
G1 X126.548 Y85.906 E21.45083
G1 X127.997 Y86.47 E21.50255
G1 X129.14 Y86.906 E21.54324
G1 X129.743 Y87.192 E21.56543
G1 X130.062 Y87.367 E21.57754
G1 X130.489 Y87.651 E21.59459
G1 X130.985 Y88.056 E21.61589
G1 X131.377 Y88.447 E21.63431
G1 X131.781 Y88.94 E21.65551
G1 X132.19 Y89.533 E21.67946
G1 X133.739 Y91.792 E21.77057
G1 X135.365 Y94.023 E21.86239
G1 X137.017 Y96.162 E21.95228
G1 X138.746 Y98.274 E22.04306
G1 X140.573 Y100.379 E22.13577
G1 X142.402 Y102.372 E22.22574
G1 X144.304 Y104.332 E22.31657
G1 X146.286 Y106.259 E22.40852
G1 X148.284 Y108.096 E22.49879
G1 X150.342 Y109.882 E22.58942
G1 X151.256 Y110.627 E22.62864
G1 X152.338 Y111.529 E22.67549
G1 X152.557 Y111.729 E22.68536
G1 X152.885 Y112.114 E22.70218
G1 X153.148 Y112.545 E22.71897
G1 X153.341 Y113.013 E22.73581
G1 X153.457 Y113.505 E22.75262
G1 X153.502 Y114.219 E22.77642
G1 X153.504 Y114.317 E22.77968
G1 X153.504 Y145.491 E23.81653
G1 X153.495 Y146.218 E23.84071
G1 X153.449 Y146.721 E23.85751
G1 X153.324 Y147.211 E23.87433
G1 X153.123 Y147.675 E23.89115
G1 X152.852 Y148.102 E23.90797
G1 X152.517 Y148.481 E23.92479
G1 X152.127 Y148.802 E23.94159
G1 X151.691 Y149.058 E23.95841
G1 X151.22 Y149.241 E23.97522
G1 X150.726 Y149.349 E23.99203
G1 X150.064 Y149.386 E24.01409
G1 X109.077 Y149.387 E25.37732
G1 X108.378 Y149.377 E25.40057
G1 X107.84 Y149.323 E25.41856
G1 X106.549 Y149.083 E25.46223
G1 X106.193 Y149.012 E25.4743
G1 X103.484 Y148.548 E25.56572
G1 X100.803 Y148.169 E25.65577
G1 X98.063 Y147.858 E25.74749
G1 X95.32 Y147.626 E25.83905
G1 X92.599 Y147.473 E25.92969
G1 X88.513 Y147.387 E26.06563
G1 X87.663 Y147.387 E26.0939
G1 X87.002 Y147.377 E26.11588
G1 X86.498 Y147.329 E26.13272
G1 X86.009 Y147.203 E26.14952
G1 X85.545 Y147.001 E26.16635
G1 X85.134 Y146.741 E26.18253
G1 X84.747 Y146.416 E26.19933
G1 X84.416 Y146.033 E26.21617
G1 X84.043 Y145.374 E26.24136
G1 X83.778 Y144.742 E26.26415
G1 X82.685 Y142.232 E26.3552
G1 X81.52 Y139.752 E26.44634
G1 X80.28 Y137.296 E26.53785
G1 X78.994 Y134.918 E26.62776
G1 X77.613 Y132.528 E26.71957
G1 X76.177 Y130.198 E26.8106
G1 X74.672 Y127.902 E26.90191
G1 X73.114 Y125.668 E26.9925
G1 X71.467 Y123.443 E27.08457
G1 X69.809 Y121.33 E27.1739
G1 X67.611 Y118.706 E27.28775
G1 X67.262 Y118.302 E27.30551
G1 X66.963 Y117.894 E27.32233
G1 X66.732 Y117.445 E27.33913
G1 X66.574 Y116.964 E27.35597
G1 X66.486 Y116.318 E27.37765
G1 X66.474 Y115.692 E27.39847
G1 X66.474 Y109.882 E27.59172
G1 X66.479 Y108.447 E27.63944
G1 X66.474 Y107.746 E27.66276
G1 X66.474 Y74.428 E28.77092
G1 X66.484 Y73.764 E28.79301
G1 X66.532 Y73.26 E28.80985
G1 X66.658 Y72.771 E28.82664
G1 X66.86 Y72.307 E28.84348
G1 X67.132 Y71.881 E28.86029
G1 X67.468 Y71.503 E28.87711
G1 F1800 E21.87711
G1 F300 Z0.4
G0 F3000 X69.874 Y109.983 Z0.4
;TYPE:SUPPORT
G1 F300 Z0.2
G1 F1800 E28.87711
G1 F1200 X74.374 Y109.983 E29.02678
G1 X74.374 Y116.132 E29.23129
G1 X69.874 Y116.132 E29.38096
G1 X69.874 Y109.983 E29.58548
G1 F1800 E22.58548
G1 F300 Z0.4
G0 F3000 X70.034 Y112.014 Z0.4
G1 F300 Z0.2
G1 F1800 E29.58548
G1 F1200 X74.214 Y112.014 E29.72451
G1 F1800 E22.72451
G1 F300 Z0.4
G0 F3000 X74.214 Y114.681 Z0.4
G1 F300 Z0.2
G1 F1800 E29.72451
G1 F1200 X70.034 Y114.681 E29.86354
G1 F1800 E22.86354
G1 F300 Z0.4
G0 F3000 X72.009 Y115.972 Z0.4
G1 F300 Z0.2
G1 F1800 E29.86354
G1 F1200 X72.009 Y110.143 E30.05741
G1 F1800 E23.05741
G1 F300 Z0.4
;MESH:camera.attached.to.lamp_esp32_wrover.amf
G0 F3000 X73.974 Y102.602 Z0.4
;TYPE:WALL-INNER
G1 F300 Z0.2
G1 F1800 E30.05741
G1 F1200 X73.974 Y107.511 E30.22068
G1 X70.274 Y107.511 E30.34375
G1 X70.274 Y102.403 E30.51364
G1 X70.274 Y74.403 E31.44492
G1 X70.574 Y74.403 E31.4549
G1 X70.574 Y102.403 E32.15511
G1 X72.761 Y102.403 E32.22785
G1 X72.761 Y100.403 E32.29437
G1 X74.111 Y100.403 E32.33928
G1 X74.111 Y95.803 E32.49227
G1 X72.761 Y95.803 E32.53717
G1 X72.761 Y95.003 E32.56378
G1 X76.561 Y95.003 E32.69017
G1 X76.561 Y100.803 E32.88308
G1 X92.761 Y100.803 E33.42189
G1 X92.761 Y95.003 E33.6148
G1 X96.561 Y95.003 E33.74119
G1 X96.561 Y95.803 E33.7678
G1 X95.211 Y95.803 E33.8127
G1 X95.211 Y100.403 E33.9657
G1 X96.561 Y100.403 E34.0106
G1 X96.561 Y102.403 E34.07712
G1 X98.761 Y102.403 E34.15029
G1 X98.761 Y74.403 E35.08157
G1 X99.061 Y74.403 E35.09155
G1 X99.061 Y102.602 E35.86783
G1 X96.561 Y102.602 E35.92757
G1 X73.974 Y102.602 E36.67882
G0 F3000 X74.374 Y103.002
;TYPE:WALL-OUTER
G1 F1200 X74.374 Y107.911 E36.84209
G1 X69.874 Y107.911 E36.99177
G1 X69.874 Y74.003 E38.11955
G1 X70.974 Y74.003 E38.15614
G1 X70.974 Y102.003 E39.08742
G1 X72.361 Y102.003 E39.13355
G1 X72.361 Y100.003 E39.20007
G1 X73.711 Y100.003 E39.24497
G1 X73.711 Y96.203 E39.37136
G1 X72.361 Y96.203 E39.41626
G1 X72.361 Y94.603 E39.46948
G1 X76.961 Y94.603 E39.62248
G1 X76.961 Y100.403 E39.81538
G1 X92.361 Y100.403 E40.32759
G1 X92.361 Y94.603 E40.5205
G1 X96.961 Y94.603 E40.6735
G1 X96.961 Y96.203 E40.72671
G1 X95.611 Y96.203 E40.77161
G1 X95.611 Y100.003 E40.898
G1 X96.961 Y100.003 E40.9429
G1 X96.961 Y102.003 E41.00942
G1 X98.361 Y102.003 E41.05599
G1 X98.361 Y74.003 E41.98727
G1 X99.461 Y74.003 E42.02386
G1 X99.461 Y103.002 E42.98837
G1 X74.374 Y103.002 E43.82276
G0 F3000 X74.374 Y103.202
G0 X73.934 Y103.202
G0 X73.151 Y102.793
;TYPE:SKIN
G1 F1200 X73.151 Y100.793 E43.88929
G1 X74.501 Y100.793 E43.93419
G1 X74.501 Y95.413 E44.11313
G1 X73.151 Y95.413 E44.15803
G1 X73.151 Y95.393 E44.15869
G1 X76.171 Y95.393 E44.25914
G1 X76.171 Y101.193 E44.45205
G1 X93.151 Y101.193 E45.0168
G1 X93.151 Y95.393 E45.20971
G1 X96.171 Y95.393 E45.31016
G1 X96.171 Y95.413 E45.31082
G1 X94.821 Y95.413 E45.35572
G1 X94.821 Y100.793 E45.53466
G1 X96.171 Y100.793 E45.57957
