;FLAVOR:Marlin
;TIME:9961
;Filament used: 6.25257m
;Layer height: 0.2
;MINX:74.897
;MINY:83.46
;MINZ:0.2
;MAXX:145.2
;MAXY:140.74
;MAXZ:32.2
;Generated with Cura_SteamEngine master
M82 ;absolute extrusion mode
;Sliced at: Sat 21-05-2022 12:18:53
;Basic settings: Layer height: 0.2 Walls: 0.8 Fill: 20
G21 ;metric values
G90 ;absolute positioning
M82 ;set extruder to absolute mode
M107 ;start with the fan off
M117 Start heating ...
M104 S200
M117 Homing X/Y ...
G28 X0 Y0 ;move X/Y to min endstops
M117 Homing Z ...
G28 Z0 ;move Z to min endstops
G1 Z15.0 F100 ;move the platform down 15mm
M117 Heating ...
M109 S200
M117 Start cleaning ...
G92 E0 ;zero the extruded length
G1 F200 E10 ;extrude 10mm of feed stock
G92 E0 ;zero the extruded length again
M117 Intro line ...
G1 Z2.0 F3000 ; Move Z Axis up little to prevent scratching of Heat Bed
G1 X0.1 Y20 Z0.2 F5000.0 ; Move to start position
G1 X0.1 Y200.0 Z0.2 F1500.0 E15 ; Draw the first line
G1 X0.4 Y200.0 Z0.2 F5000.0 ; Move to side a little
G1 X0.4 Y20 Z0.3 F1500.0 E30 ; Draw the second line
G92 E0 ; Reset Extruder
G1 E-1 F500 ; Retract filiment by 1 mm
G1 Z2.0 F3000 ; Move Z Axis up little to prevent scratching of Heat Bed
G1 X5 Y20 Z0.3 F100 ; Move over to prevent blob squish
G1 F100
G92 E0 ; Reset Extruder
M117 Printing...

G92 E0
G92 E0
G1 F1800 E-7
;LAYER_COUNT:161
;LAYER:0
M107
G1 F300 Z0.4
G0 F3000 X76.208 Y87.05 Z0.4
;TYPE:SKIRT
G1 F300 Z0.2
G1 F1800 E0
G1 F1200 X76.635 Y86.679 E0.01881
G1 X77.11 Y86.372 E0.03762
G1 X77.623 Y86.136 E0.05641
G1 X78.165 Y85.974 E0.07522
G1 X78.901 Y85.88 E0.0999
G1 X79.552 Y85.868 E0.12156
G1 X82.974 Y85.867 E0.23537
G1 X83.616 Y85.876 E0.25673
G1 X84.179 Y85.924 E0.27552
G1 X84.905 Y86.109 E0.30044
G1 X84.933 Y86.119 E0.30143
G1 X85.451 Y86.346 E0.32024
G1 X85.931 Y86.644 E0.33903
G1 X86.638 Y87.259 E0.3702
G1 X88.701 Y89.124 E0.46269
G1 X90.747 Y90.87 E0.55215
G1 X92.883 Y92.592 E0.64341
G1 X95.022 Y94.219 E0.7328
G1 X97.25 Y95.816 E0.82397
G1 X99.479 Y97.32 E0.9134
G1 X101.803 Y98.795 E1.00495
G1 X104.111 Y100.167 E1.09426
G1 X106.488 Y101.494 E1.1848
G1 X108.892 Y102.747 E1.27497
G1 X111.358 Y103.945 E1.36616
G1 X113.793 Y105.043 E1.455
G1 X116.324 Y106.1 E1.54622
G1 X118.884 Y107.086 E1.63747
G1 X121.423 Y107.979 E1.72699
G1 X123.968 Y108.796 E1.81589
G1 X126.615 Y109.564 E1.90756
G1 X129.265 Y110.253 E1.99863
G1 X131.856 Y110.848 E2.08705
G1 X134.577 Y111.394 E2.17935
G1 X137.225 Y111.845 E2.26869
G1 X139.879 Y112.221 E2.35785
G1 X140.739 Y112.319 E2.38664
G1 X141.699 Y112.442 E2.41883
G1 X142.254 Y112.554 E2.43766
G1 X142.787 Y112.742 E2.45646
G1 X143.288 Y113.004 E2.47526
G1 X143.747 Y113.333 E2.49404
G1 X144.155 Y113.724 E2.51284
G1 X144.504 Y114.169 E2.53165
G1 X144.787 Y114.659 E2.55047
G1 X144.998 Y115.183 E2.56926
G1 X145.133 Y115.732 E2.58806
G1 X145.189 Y116.298 E2.60698
G1 X145.2 Y116.731 E2.62139
G1 X145.2 Y136.054 E3.26407
G1 X145.191 Y136.781 E3.28825
G1 X145.144 Y137.344 E3.30704
G1 X145.018 Y137.895 E3.32584
G1 X144.816 Y138.423 E3.34465
G1 X144.541 Y138.917 E3.36345
G1 X144.199 Y139.367 E3.38225
G1 X143.797 Y139.765 E3.40106
G1 X143.344 Y140.102 E3.41984
G1 X142.847 Y140.372 E3.43866
G1 X142.317 Y140.569 E3.45746
G1 X141.765 Y140.69 E3.47626
G1 X140.982 Y140.738 E3.50235
G1 X140.87 Y140.74 E3.50607
G1 X101.462 Y140.74 E4.81679
G1 X100.765 Y140.73 E4.83997
G1 X100.239 Y140.699 E4.8575
G1 X97.909 Y140.5 E4.93528
G1 X95.177 Y140.347 E5.02629
G1 X92.503 Y140.271 E5.11526
G1 X89.759 Y140.271 E5.20653
G1 X87.088 Y140.347 E5.2954
G1 X84.33 Y140.503 E5.38728
G1 X82.852 Y140.619 E5.43659
G1 X81.726 Y140.716 E5.47418
G1 X81.185 Y140.738 E5.49219
G1 X81.07 Y140.74 E5.49601
G1 X79.55 Y140.74 E5.54657
G1 X78.852 Y140.73 E5.56978
G1 X78.288 Y140.682 E5.58861
G1 X77.738 Y140.555 E5.60739
G1 X77.21 Y140.351 E5.62621
G1 X76.716 Y140.076 E5.64502
G1 X76.267 Y139.733 E5.66381
G1 X75.87 Y139.331 E5.6826
G1 X75.533 Y138.876 E5.70143
G1 X75.265 Y138.379 E5.72021
G1 X75.069 Y137.849 E5.73901
G1 X74.949 Y137.296 E5.75783
G1 X74.901 Y136.506 E5.78415
G1 X74.9 Y98.738 E7.04032
G1 X74.903 Y98.518 E7.04764
G1 X74.897 Y96.532 E7.1137
G1 X74.9 Y90.612 E7.3106
G1 X74.91 Y89.944 E7.33282
G1 X74.959 Y89.381 E7.35161
G1 X75.086 Y88.83 E7.37042
G1 X75.29 Y88.303 E7.38921
G1 X75.566 Y87.809 E7.40804
G1 X76.082 Y87.176 E7.4352
G1 X76.208 Y87.05 E7.44112
G0 F3000 X76.49 Y87.332
G1 F1200 X76.897 Y86.983 E7.45896
G1 X77.351 Y86.697 E7.4768
G1 X77.842 Y86.482 E7.49463
G1 X78.36 Y86.342 E7.51248
G1 X78.914 Y86.28 E7.53102
G1 X79.557 Y86.268 E7.55241
G1 X82.968 Y86.267 E7.66586
G1 X83.61 Y86.276 E7.68721
G1 X84.145 Y86.324 E7.70508
G1 X84.771 Y86.486 E7.72659
G1 X84.799 Y86.496 E7.72758
G1 X85.289 Y86.713 E7.7454
G1 X85.741 Y87.001 E7.76323
G1 X86.035 Y87.245 E7.77593
G1 X86.402 Y87.585 E7.79257
G1 X88.419 Y89.409 E7.88302
G1 X90.503 Y91.188 E7.97416
G1 X92.614 Y92.89 E8.06435
G1 X94.816 Y94.564 E8.15635
G1 X97.015 Y96.141 E8.24635
G1 X99.247 Y97.647 E8.3359
G1 X101.591 Y99.134 E8.42823
G1 X103.906 Y100.51 E8.5178
G1 X106.314 Y101.854 E8.60952
G1 X108.711 Y103.104 E8.69944
G1 X111.156 Y104.291 E8.78983
G1 X113.654 Y105.418 E8.88098
G1 X116.163 Y106.466 E8.97142
G1 X118.756 Y107.465 E9.06384
G1 X121.273 Y108.35 E9.15258
G1 X123.914 Y109.198 E9.24484
G1 X126.499 Y109.948 E9.33436
G1 X129.115 Y110.627 E9.42425
G1 X131.801 Y111.244 E9.51592
G1 X134.497 Y111.785 E9.60737
G1 X137.178 Y112.242 E9.69783
G1 X139.845 Y112.62 E9.78742
G1 X140.689 Y112.716 E9.81567
G1 X141.649 Y112.839 E9.84786
G1 X142.174 Y112.947 E9.86569
G1 X142.677 Y113.131 E9.88351
G1 X143.148 Y113.388 E9.90135
G1 X143.575 Y113.713 E9.9192
G1 X143.949 Y114.097 E9.93703
G1 X144.262 Y114.532 E9.95485
G1 X144.507 Y115.009 E9.97269
G1 X144.679 Y115.518 E9.99056
G1 X144.79 Y116.309 E10.01712
G1 X144.8 Y116.731 E10.03116
G1 X144.8 Y136.049 E10.67368
G1 X144.791 Y136.776 E10.69786
G1 X144.744 Y137.31 E10.71569
G1 X144.619 Y137.831 E10.73351
G1 X144.417 Y138.328 E10.75136
G1 X144.144 Y138.79 E10.76921
G1 X143.806 Y139.206 E10.78703
G1 X143.409 Y139.567 E10.80488
G1 X142.963 Y139.865 E10.82272
G1 X142.478 Y140.093 E10.84055
G1 X141.964 Y140.247 E10.85839
G1 X141.292 Y140.33 E10.88091
G1 X140.87 Y140.34 E10.89495
G1 X101.467 Y140.34 E12.2055
G1 X100.77 Y140.33 E12.22869
G1 X100.273 Y140.3 E12.24525
G1 X97.93 Y140.1 E12.32346
G1 X95.247 Y139.949 E12.41284
G1 X92.478 Y139.871 E12.50497
G1 X89.784 Y139.871 E12.59457
G1 X87.019 Y139.949 E12.68657
G1 X84.322 Y140.102 E12.77642
G1 X82.849 Y140.218 E12.82557
G1 X81.692 Y140.318 E12.86419
G1 X81.174 Y140.339 E12.88143
G1 X79.555 Y140.34 E12.93528
G1 X78.857 Y140.33 E12.9585
G1 X78.323 Y140.282 E12.97633
G1 X77.802 Y140.156 E12.99416
G1 X77.305 Y139.953 E13.01202
G1 X76.844 Y139.679 E13.02985
G1 X76.429 Y139.34 E13.04768
G1 X76.069 Y138.942 E13.06553
G1 X75.772 Y138.496 E13.08335
G1 X75.544 Y138.01 E13.1012
G1 X75.392 Y137.496 E13.11903
G1 X75.31 Y136.828 E13.14141
G1 X75.3 Y136.398 E13.15572
G1 X75.3 Y98.744 E14.4081
G1 X75.303 Y98.524 E14.41542
G1 X75.297 Y96.532 E14.48167
G1 X75.3 Y90.618 E14.67837
G1 X75.31 Y89.95 E14.70059
G1 X75.358 Y89.416 E14.71842
G1 X75.485 Y88.895 E14.73626
G1 X75.688 Y88.398 E14.75412
G1 X75.962 Y87.938 E14.77192
G1 X76.364 Y87.458 E14.79275
G1 X76.49 Y87.332 E14.79867
G0 F3000 X76.773 Y87.615
G1 F1200 X77.158 Y87.287 E14.8155
G1 X77.589 Y87.024 E14.83229
G1 X78.057 Y86.831 E14.84913
G1 X78.549 Y86.715 E14.86594
G1 X79.076 Y86.675 E14.88352
G1 X79.599 Y86.668 E14.90091
G1 X82.963 Y86.667 E15.0128
G1 X83.605 Y86.676 E15.03416
G1 X84.108 Y86.723 E15.05096
G1 X84.636 Y86.862 E15.06912
G1 X84.664 Y86.872 E15.07011
G1 X85.125 Y87.08 E15.08693
G1 X85.548 Y87.357 E15.10375
G1 X86.101 Y87.852 E15.12843
G1 X88.177 Y89.729 E15.22152
G1 X90.235 Y91.485 E15.3115
G1 X92.388 Y93.221 E15.40349
G1 X94.563 Y94.875 E15.49437
G1 X96.764 Y96.453 E15.58444
G1 X99.072 Y98.01 E15.67704
G1 X101.352 Y99.457 E15.76686
G1 X103.725 Y100.867 E15.85867
G1 X106.096 Y102.191 E15.94899
G1 X108.559 Y103.474 E16.04136
G1 X110.995 Y104.658 E16.13144
G1 X113.471 Y105.775 E16.22179
G1 X116.044 Y106.85 E16.31453
G1 X118.586 Y107.828 E16.40512
G1 X121.166 Y108.736 E16.49609
G1 X123.775 Y109.574 E16.58723
G1 X126.401 Y110.336 E16.67818
G1 X129.029 Y111.019 E16.76849
G1 X131.731 Y111.639 E16.86069
G1 X134.396 Y112.174 E16.9511
G1 X137.121 Y112.638 E17.04304
G1 X139.78 Y113.015 E17.13236
G1 X140.638 Y113.113 E17.16108
G1 X141.598 Y113.236 E17.19328
G1 X142.093 Y113.34 E17.2101
G1 X142.565 Y113.52 E17.2269
G1 X143.003 Y113.772 E17.24371
G1 X143.396 Y114.091 E17.26054
G1 X143.733 Y114.467 E17.27734
G1 X144.008 Y114.891 E17.29415
G1 X144.212 Y115.354 E17.31097
G1 X144.34 Y115.843 E17.32779
G1 X144.399 Y116.641 E17.3544
G1 X144.4 Y136.044 E17.99975
G1 X144.391 Y136.771 E18.02393
G1 X144.345 Y137.274 E18.04073
G1 X144.22 Y137.764 E18.05755
G1 X144.019 Y138.228 E18.07437
G1 X143.748 Y138.655 E18.09119
G1 X143.413 Y139.034 E18.10801
G1 X143.023 Y139.355 E18.12481
G1 X142.587 Y139.611 E18.14163
G1 X142.116 Y139.794 E18.15843
G1 X141.622 Y139.902 E18.17525
G1 X140.96 Y139.939 E18.1973
G1 X101.473 Y139.94 E19.51065
G1 X100.776 Y139.93 E19.53383
G1 X100.307 Y139.901 E19.54946
G1 X97.987 Y139.703 E19.6269
G1 X95.245 Y139.549 E19.71825
G1 X92.489 Y139.471 E19.80995
G1 X89.773 Y139.471 E19.90028
G1 X87.02 Y139.549 E19.99189
G1 X84.27 Y139.705 E20.0835
G1 X82.815 Y139.819 E20.13204
G1 X81.658 Y139.919 E20.17067
G1 X81.07 Y139.94 E20.19024
G1 X79.561 Y139.94 E20.24042
G1 X78.863 Y139.93 E20.26364
G1 X78.36 Y139.883 E20.28045
G1 X77.87 Y139.757 E20.29727
G1 X77.406 Y139.555 E20.3141
G1 X76.98 Y139.283 E20.33092
G1 X76.602 Y138.948 E20.34771
G1 X76.282 Y138.557 E20.36452
G1 X76.027 Y138.12 E20.38135
G1 X75.844 Y137.649 E20.39815
G1 X75.737 Y137.155 E20.41497
G1 X75.701 Y136.485 E20.43728
G1 X75.7 Y98.749 E21.69239
G1 X75.703 Y98.529 E21.6997
G1 X75.697 Y96.532 E21.76613
G1 X75.7 Y90.624 E21.96263
G1 X75.71 Y89.956 E21.98485
G1 X75.758 Y89.453 E22.00165
G1 X75.884 Y88.963 E22.01848
G1 X76.086 Y88.5 E22.03528
G1 X76.358 Y88.074 E22.05209
G1 X76.773 Y87.615 E22.07267
G1 F1800 E15.07267
G1 F300 Z0.4
G0 F3000 X79.113 Y90.068 Z0.4
;TYPE:SUPPORT
G1 F300 Z0.2
G1 F1800 E22.07267
G1 F1200 X83.5 Y90.067 E22.21859
G1 X83.5 Y96.216 E22.4231
G1 X79.1 Y96.217 E22.56945
G1 X79.1 Y90.081 E22.77353
G1 X79.113 Y90.068 E22.77414
G0 F3000 X79.26 Y90.678
G1 F1200 X83.34 Y90.678 E22.90984
G0 F3000 X82.677 Y90.227
G1 F1200 X82.677 Y96.057 E23.10375
G0 F3000 X83.34 Y96.012
G1 F1200 X79.26 Y96.012 E23.23945
G0 F3000 X80.01 Y96.057
G1 F1200 X80.01 Y90.227 E23.43336
G1 F1800 E16.43336
G1 F300 Z0.4
G0 F3000 X79.26 Y93.345 Z0.4
G1 F300 Z0.2
G1 F1800 E23.43336
G1 F1200 X83.34 Y93.345 E23.56906
G1 F1800 E16.56906
G1 F300 Z0.4
G0 F3000 X90.6 Y121.401 Z0.4
G1 F300 Z0.2
G1 F1800 E23.56906
G1 F1200 X93.2 Y121.401 E23.65554
G1 X93.2 Y123.201 E23.7154
G1 X90.6 Y123.201 E23.80188
G1 X90.6 Y121.401 E23.86175
G0 F3000 X90.759 Y122.682
G1 F1200 X93.039 Y122.682 E23.93758
G1 F1800 E16.93758
G1 F300 Z0.4
G0 F3000 X83.758 Y125.369 Z0.4
G1 F300 Z0.2
G1 F1800 E23.93758
G1 F1200 X82.4 Y130.792 E24.12352
G1 X82.4 Y124.578 E24.3302
G1 X83.152 Y124.578 E24.35521
G1 X83.758 Y125.369 E24.38835
G0 F3000 X83.54 Y125.349
G1 F1200 X82.559 Y125.349 E24.42098
G0 F3000 X82.677 Y124.738
G1 F1200 X82.677 Y129.027 E24.56363
G0 F3000 X82.559 Y128.016
G1 F1200 X82.928 Y128.016 E24.57591
G1 F1800 E17.57591
G1 F300 Z0.4
;MESH:camera.attached.to.lamp_reverse_camera.frame_esp32.wroover.amf
G0 F3000 X101.412 Y119.801 Z0.4
;TYPE:WALL-INNER
G1 F300 Z0.2
G1 F1800 E24.57591
G1 F1200 X82.667 Y119.801 E25.19937
G1 X82.277 Y119.843 E25.21241
G1 X81.872 Y119.986 E25.2267
G1 X81.513 Y120.213 E25.24083
G1 X81.211 Y120.515 E25.25503
G1 X80.985 Y120.877 E25.26923
G1 X80.845 Y121.277 E25.28332
G1 X80.8 Y121.667 E25.29638
G1 X80.8 Y136.14 E25.77775
G1 X79.5 Y136.14 E25.82099
G1 X79.5 Y98.689 E27.06662
G1 X83.1 Y98.688 E27.18635
G1 X83.101 Y117.001 E27.79545
G1 X140.6 Y117.001 E29.70787
G1 X140.6 Y136.14 E30.34444
G1 X101.412 Y136.14 E31.64783
G1 X101.412 Y119.801 E32.19127
G0 F3000 X101.012 Y120.201
;TYPE:WALL-OUTER
G1 F1200 X82.689 Y120.201 E32.8007
G1 X82.366 Y120.236 E32.8115
G1 X82.047 Y120.348 E32.82275
G1 X81.764 Y120.527 E32.83388
G1 X81.526 Y120.765 E32.84508
G1 X81.348 Y121.051 E32.85628
G1 X81.237 Y121.367 E32.86742
G1 X81.2 Y121.69 E32.87824
G1 X81.2 Y136.54 E33.37215
G1 X79.1 Y136.54 E33.442
G1 X79.1 Y98.289 E34.71423
G1 X83.5 Y98.288 E34.86057
G1 X83.501 Y116.601 E35.46967
G1 X141 Y116.601 E37.38209
G1 X141 Y136.54 E38.04527
G1 X101.012 Y136.54 E39.37527
G1 X101.012 Y120.201 E39.91871
G0 F3000 X100.812 Y120.201
G0 X100.812 Y119.761
G0 X101.802 Y119.411
;TYPE:SKIN
G1 F1200 X82.646 Y119.411 E40.55584
G1 X82.19 Y119.46 E40.57109
G1 X81.701 Y119.633 E40.58835
G1 X81.268 Y119.907 E40.60539
G1 X80.903 Y120.271 E40.62253
G1 X80.632 Y120.707 E40.63961
G1 X80.463 Y121.189 E40.6566
G1 X80.41 Y121.644 E40.67183
G1 X80.41 Y135.75 E41.141
G1 X79.89 Y135.75 E41.1583
G1 X79.89 Y99.079 E42.37798
G1 X82.71 Y99.078 E42.47177
G1 X82.711 Y117.391 E43.08086
G1 X140.21 Y117.391 E44.99329
G1 X140.21 Y135.75 E45.60391
G1 X101.802 Y135.75 E46.88137
G1 X101.802 Y119.411 E47.4248
G1 F1800 E40.4248
G0 F3000 X101.552 Y119.661
G0 X82.314 Y120.001
G0 X81.337 Y120.616
G0 X80.618 Y135.958
G1 F1800 E47.4248
G0 F3000 X80.132 Y135.569
G1 F1200 X80.069 Y135.507 E47.42774
G0 F3000 X80.229 Y135.101
G1 F1200 X80.069 Y134.941 E47.43527
G0 F3000 X80.229 Y134.535
G1 F1200 X80.069 Y134.375 E47.4428
G0 F3000 X80.229 Y133.969
G1 F1200 X80.069 Y133.81 E47.4503
G0 F3000 X80.229 Y133.404
G1 F1200 X80.069 Y133.244 E47.45782
G0 F3000 X80.229 Y132.838
G1 F1200 X80.069 Y132.678 E47.46535
G0 F3000 X80.229 Y132.272
G1 F1200 X80.069 Y132.113 E47.47285
G0 F3000 X80.229 Y131.707
G1 F1200 X80.069 Y131.547 E47.48038
G0 F3000 X80.229 Y131.141
G1 F1200 X80.069 Y130.981 E47.4879
G0 F3000 X80.229 Y130.575
G1 F1200 X80.069 Y130.415 E47.49543
G0 F3000 X80.229 Y130.01
G1 F1200 X80.069 Y129.85 E47.50296
G0 F3000 X80.229 Y129.444
G1 F1200 X80.069 Y129.284 E47.51048
G0 F3000 X80.229 Y128.878
G1 F1200 X80.069 Y128.718 E47.51801
G0 F3000 X80.229 Y128.313
G1 F1200 X80.069 Y128.153 E47.52553
G0 F3000 X80.229 Y127.747
G1 F1200 X80.069 Y127.587 E47.53306
G0 F3000 X80.229 Y127.181
G1 F1200 X80.069 Y127.021 E47.54059
G0 F3000 X80.229 Y126.615
G1 F1200 X80.069 Y126.456 E47.54809
G0 F3000 X80.229 Y126.05
G1 F1200 X80.069 Y125.89 E47.55561
G0 F3000 X80.229 Y125.484
G1 F1200 X80.069 Y125.324 E47.56314
G0 F3000 X80.229 Y124.918
G1 F1200 X80.069 Y124.759 E47.57064
G0 F3000 X80.229 Y124.353
G1 F1200 X80.069 Y124.193 E47.57817
G0 F3000 X80.229 Y123.787
G1 F1200 X80.069 Y123.627 E47.58569
G0 F3000 X80.229 Y123.221
G1 F1200 X80.069 Y123.062 E47.5932
G0 F3000 X80.229 Y122.656
G1 F1200 X80.069 Y122.496 E47.60072
G0 F3000 X80.229 Y122.09
G1 F1200 X80.069 Y121.93 E47.60825
G0 F3000 X80.241 Y121.536
G1 F1200 X80.069 Y121.364 E47.61634
G0 F3000 X80.321 Y121.051
G1 F1200 X80.069 Y120.799 E47.62819
G0 F3000 X80.468 Y120.632
G1 F1200 X80.069 Y120.233 E47.64696
G0 F3000 X80.069 Y119.667
G1 F1200 X80.684 Y120.282 E47.67589
G0 F3000 X80.943 Y119.975
G1 F1200 X80.069 Y119.102 E47.71697
G0 F3000 X80.069 Y118.536
G1 F1200 X81.242 Y119.708 E47.77212
G0 F3000 X81.588 Y119.489
G1 F1200 X80.069 Y117.97 E47.84357
G0 F3000 X80.069 Y117.405
G1 F1200 X82 Y119.335 E47.93438
G0 F3000 X82.477 Y119.247
G1 F1200 X80.069 Y116.839 E48.04764
G0 F3000 X80.069 Y116.273
G1 F1200 X83.026 Y119.23 E48.18673
G0 F3000 X83.592 Y119.23
G1 F1200 X80.069 Y115.708 E48.35242
G0 F3000 X80.069 Y115.142
G1 F1200 X84.157 Y119.23 E48.54471
G0 F3000 X84.723 Y119.23
G1 F1200 X83.064 Y117.571 E48.62274
G0 F3000 X83.63 Y117.571
G1 F1200 X85.289 Y119.23 E48.70078
G0 F3000 X85.854 Y119.23
G1 F1200 X84.195 Y117.571 E48.77881
G0 F3000 X84.761 Y117.571
G1 F1200 X86.42 Y119.23 E48.85684
G0 F3000 X86.986 Y119.23
G1 F1200 X85.327 Y117.571 E48.93488
G0 F3000 X85.892 Y117.571
G1 F1200 X87.551 Y119.23 E49.01291
G0 F3000 X88.117 Y119.23
G1 F1200 X86.458 Y117.571 E49.09095
G0 F3000 X87.024 Y117.571
G1 F1200 X88.683 Y119.23 E49.16898
G0 F3000 X89.248 Y119.23
