;FLAVOR:Marlin
;TIME:22908
;Filament used: 13.1895m
;Layer height: 0.2
;MINX:54.18
;MINY:51.363
;MINZ:0.2
;MAXX:165.817
;MAXY:168.637
;MAXZ:32.8
;Generated with Cura_SteamEngine master
M82 ;absolute extrusion mode
;Sliced at: Fri 23-09-2022 13:57:04
;Basic settings: Layer height: 0.2 Walls: 0.8 Fill: 30.0
G21 ;metric values
G90 ;absolute positioning
M82 ;set extruder to absolute mode
M107 ;start with the fan off
M117 Start heating ...
M104 S200
M117 Homing X/Y ...
G28 X0 Y0 ;move X/Y to min endstops
M117 Homing Z ...
G28 Z0 ;move Z to min endstops
G1 Z15.0 F100 ;move the platform down 15mm
M117 Heating ...
M109 S200
M117 Start cleaning ...
G92 E0 ;zero the extruded length
G1 F200 E10 ;extrude 10mm of feed stock
G92 E0 ;zero the extruded length again
M117 Intro line ...
G1 Z2.0 F3000 ; Move Z Axis up little to prevent scratching of Heat Bed
G1 X0.1 Y20 Z0.2 F5000.0 ; Move to start position
G1 X0.1 Y200.0 Z0.2 F1500.0 E15 ; Draw the first line
G1 X0.4 Y200.0 Z0.2 F5000.0 ; Move to side a little
G1 X0.4 Y20 Z0.3 F1500.0 E30 ; Draw the second line
G92 E0 ; Reset Extruder
G1 E-1 F500 ; Retract filiment by 1 mm
G1 Z2.0 F3000 ; Move Z Axis up little to prevent scratching of Heat Bed
G1 X5 Y20 Z0.3 F100 ; Move over to prevent blob squish
G1 F100
G92 E0 ; Reset Extruder
M117 Printing...

G92 E0
G92 E0
G1 F1800 E-7
;LAYER_COUNT:164
;LAYER:0
M107
G1 F300 Z0.4
G0 F3000 X55.463 Y62.077 Z0.4
;TYPE:SKIRT
G1 F300 Z0.2
G1 F1800 E0
G1 F1200 X55.888 Y61.705 E0.01879
G1 X56.362 Y61.396 E0.03761
G1 X56.874 Y61.157 E0.0564
G1 X57.415 Y60.993 E0.0752
G1 X58.16 Y60.896 E0.10019
G1 X58.661 Y60.878 E0.11686
G1 X61.423 Y60.74 E0.20884
G1 X64.147 Y60.528 E0.29972
G1 X66.818 Y60.242 E0.38906
G1 X69.533 Y59.874 E0.48019
G1 X72.21 Y59.433 E0.57043
G1 X74.867 Y58.92 E0.66043
G1 X77.524 Y58.327 E0.75098
G1 X80.137 Y57.666 E0.84062
G1 X82.756 Y56.924 E0.93116
G1 X85.359 Y56.106 E1.02191
G1 X87.932 Y55.217 E1.11245
G1 X90.45 Y54.266 E1.20198
G1 X92.974 Y53.231 E1.29271
G1 X95.09 Y52.294 E1.36968
G1 X96.335 Y51.73 E1.41514
G1 X96.865 Y51.534 E1.43393
G1 X97.211 Y51.45 E1.44578
G1 X97.882 Y51.374 E1.46824
G1 X98.313 Y51.363 E1.48258
G1 X161.133 Y51.363 E3.57198
G1 X161.831 Y51.373 E3.59519
G1 X162.395 Y51.421 E3.61402
G1 X162.945 Y51.548 E3.6328
G1 X163.473 Y51.752 E3.65162
G1 X163.967 Y52.027 E3.67043
G1 X164.416 Y52.37 E3.68922
G1 X164.813 Y52.772 E3.70801
G1 X165.15 Y53.227 E3.72684
G1 X165.418 Y53.724 E3.74562
G1 X165.614 Y54.254 E3.76442
G1 X165.734 Y54.807 E3.78324
G1 X165.781 Y55.581 E3.80903
G1 X165.783 Y55.693 E3.81276
G1 X165.783 Y86.914 E4.85117
G1 X165.762 Y88.276 E4.89648
G1 X165.718 Y89.868 E4.94945
G1 X165.718 Y92.613 E5.04075
G1 X165.749 Y94.025 E5.08772
G1 X165.783 Y95.235 E5.12798
G1 X165.783 Y126.457 E6.16643
G1 X165.764 Y127.79 E6.21077
G1 X165.764 Y130.524 E6.3017
G1 X165.795 Y131.989 E6.35044
G1 X165.817 Y132.785 E6.37692
G1 X165.817 Y163.951 E7.41351
G1 X165.808 Y164.678 E7.43769
G1 X165.761 Y165.241 E7.45648
G1 X165.635 Y165.792 E7.47528
G1 X165.433 Y166.32 E7.49408
G1 X165.158 Y166.814 E7.51289
G1 X164.816 Y167.264 E7.53169
G1 X164.414 Y167.662 E7.5505
G1 X163.961 Y167.999 E7.56928
G1 X163.464 Y168.269 E7.58809
G1 X162.934 Y168.466 E7.6069
G1 X162.382 Y168.587 E7.6257
G1 X161.599 Y168.635 E7.65179
G1 X161.487 Y168.637 E7.65551
G1 X108.967 Y168.637 E9.40234
G1 X108.155 Y168.624 E9.42935
G1 X107.511 Y168.585 E9.45081
G1 X106.13 Y168.477 E9.49688
G1 X105.431 Y168.412 E9.52023
G1 X104.688 Y168.282 E9.54531
G1 X104.581 Y168.258 E9.54896
G1 X103.046 Y167.891 E9.60146
G1 X102.352 Y167.714 E9.62528
G1 X101.6 Y167.456 E9.65172
G1 X101.492 Y167.413 E9.65559
G1 X100.097 Y166.834 E9.70582
G1 X99.421 Y166.542 E9.73031
G1 X98.673 Y166.141 E9.75854
G1 X97.356 Y165.335 E9.8099
G1 X96.736 Y164.945 E9.83426
G1 X96.016 Y164.398 E9.86433
G1 X94.798 Y163.358 E9.9176
G1 X94.29 Y162.91 E9.94013
G1 X93.743 Y162.343 E9.96633
G1 X92.664 Y161.081 E10.02156
G1 X92.218 Y160.543 E10.0448
G1 X91.772 Y159.908 E10.07061
G1 X91.708 Y159.807 E10.07459
G1 X90.874 Y158.446 E10.12768
G1 X90.531 Y157.865 E10.15012
G1 X90.198 Y157.183 E10.17536
G1 X90.15 Y157.073 E10.17935
G1 X89.557 Y155.639 E10.23097
G1 X89.309 Y155.018 E10.25321
G1 X89.056 Y154.192 E10.28194
G1 X89.028 Y154.083 E10.28568
G1 X88.684 Y152.647 E10.33479
G1 X88.522 Y151.922 E10.3595
G1 X88.463 Y151.593 E10.37062
G1 X88.346 Y150.738 E10.39932
G1 X87.926 Y147.97 E10.49244
G1 X87.454 Y145.353 E10.58089
G1 X86.89 Y142.666 E10.6722
G1 X86.266 Y140.049 E10.76169
G1 X85.544 Y137.378 E10.85371
G1 X84.779 Y134.825 E10.94236
G1 X83.911 Y132.209 E11.03403
G1 X82.997 Y129.69 E11.12316
G1 X81.99 Y127.144 E11.21422
G1 X80.92 Y124.647 E11.30457
G1 X79.783 Y122.186 E11.39474
G1 X78.583 Y119.772 E11.4844
G1 X77.292 Y117.351 E11.57566
G1 X75.945 Y114.988 E11.66613
G1 X74.562 Y112.712 E11.7547
G1 X73.069 Y110.403 E11.84616
G1 X71.521 Y108.157 E11.93688
G1 X69.922 Y105.968 E12.02705
G1 X68.263 Y103.828 E12.11711
G1 X66.534 Y101.722 E12.20774
G1 X64.761 Y99.684 E12.29758
G1 X62.929 Y97.693 E12.38757
G1 X61.011 Y95.727 E12.47892
G1 X59.076 Y93.852 E12.56854
G1 X57.065 Y92.008 E12.65929
G1 X56.638 Y91.639 E12.67806
G1 X56.557 Y91.558 E12.68187
G1 X55.551 Y90.673 E12.72643
G1 X55.154 Y90.27 E12.74525
G1 X54.817 Y89.816 E12.76405
G1 X54.549 Y89.319 E12.78283
G1 X54.353 Y88.788 E12.80166
G1 X54.233 Y88.236 E12.82045
G1 X54.185 Y87.468 E12.84604
G1 X54.183 Y87.345 E12.85013
G1 X54.183 Y73.753 E13.3022
G1 X54.186 Y73.533 E13.30952
G1 X54.18 Y71.548 E13.37554
G1 X54.183 Y65.628 E13.57244
G1 X54.193 Y64.946 E13.59513
G1 X54.242 Y64.383 E13.61393
G1 X54.369 Y63.832 E13.63273
G1 X54.572 Y63.305 E13.65152
G1 X54.848 Y62.811 E13.67034
G1 X55.352 Y62.189 E13.69696
G1 X55.463 Y62.077 E13.70221
G0 F3000 X55.747 Y62.359
G1 F1200 X56.152 Y62.007 E13.72006
G1 X56.604 Y61.719 E13.73788
G1 X57.095 Y61.502 E13.75574
G1 X57.612 Y61.36 E13.77357
G1 X58.174 Y61.295 E13.79239
G1 X58.697 Y61.276 E13.80979
G1 X61.474 Y61.138 E13.90227
G1 X64.153 Y60.928 E13.99165
G1 X66.909 Y60.634 E14.08383
G1 X69.585 Y60.271 E14.17365
G1 X72.28 Y59.828 E14.26449
G1 X74.924 Y59.316 E14.35406
G1 X77.637 Y58.711 E14.44651
G1 X80.207 Y58.061 E14.53468
G1 X82.912 Y57.294 E14.6282
G1 X85.473 Y56.49 E14.71748
G1 X88.056 Y55.597 E14.80838
G1 X90.607 Y54.634 E14.89907
G1 X93.139 Y53.595 E14.9901
G1 X95.252 Y52.66 E15.06695
G1 X96.5 Y52.095 E15.11251
G1 X97.003 Y51.91 E15.13034
G1 X97.289 Y51.842 E15.14012
G1 X97.893 Y51.773 E15.16034
G1 X98.313 Y51.763 E15.17431
G1 X161.128 Y51.763 E17.26355
G1 X161.826 Y51.773 E17.28676
G1 X162.36 Y51.821 E17.3046
G1 X162.881 Y51.947 E17.32242
G1 X163.378 Y52.15 E17.34028
G1 X163.839 Y52.424 E17.35812
G1 X164.254 Y52.763 E17.37594
G1 X164.614 Y53.161 E17.39379
G1 X164.911 Y53.607 E17.41161
G1 X165.139 Y54.093 E17.42947
G1 X165.291 Y54.607 E17.44729
G1 X165.373 Y55.272 E17.46958
G1 X165.383 Y55.693 E17.48359
G1 X165.383 Y86.908 E18.5218
G1 X165.363 Y88.264 E18.56691
G1 X165.318 Y89.892 E18.62108
G1 X165.318 Y92.622 E18.71188
G1 X165.349 Y94.037 E18.75895
G1 X165.383 Y95.235 E18.79881
G1 X165.383 Y126.451 E19.83706
G1 X165.364 Y127.784 E19.8814
G1 X165.364 Y130.532 E19.9728
G1 X165.395 Y132.001 E20.02167
G1 X165.417 Y132.785 E20.04775
G1 X165.417 Y163.946 E21.08417
G1 X165.408 Y164.673 E21.10836
G1 X165.361 Y165.207 E21.12619
G1 X165.236 Y165.728 E21.14401
G1 X165.034 Y166.225 E21.16185
G1 X164.761 Y166.687 E21.1797
G1 X164.423 Y167.103 E21.19753
G1 X164.026 Y167.464 E21.21537
G1 X163.58 Y167.762 E21.23321
G1 X163.095 Y167.99 E21.25104
G1 X162.581 Y168.144 E21.26888
G1 X161.909 Y168.227 E21.2914
G1 X161.487 Y168.237 E21.30544
G1 X108.973 Y168.237 E23.05207
G1 X108.268 Y168.227 E23.07552
G1 X107.538 Y168.186 E23.09984
G1 X106.167 Y168.079 E23.14557
G1 X105.468 Y168.014 E23.16892
G1 X104.77 Y167.891 E23.1925
G1 X103.145 Y167.503 E23.24806
G1 X102.451 Y167.326 E23.27189
G1 X101.743 Y167.082 E23.29679
G1 X100.305 Y166.488 E23.34854
G1 X99.579 Y166.175 E23.37484
G1 X98.874 Y165.795 E23.40147
G1 X97.531 Y164.972 E23.45386
G1 X96.949 Y164.606 E23.47673
G1 X96.269 Y164.088 E23.50516
G1 X95.063 Y163.058 E23.55791
G1 X94.555 Y162.61 E23.58044
G1 X94.04 Y162.075 E23.60514
G1 X92.972 Y160.826 E23.6598
G1 X92.526 Y160.288 E23.68304
G1 X92.107 Y159.689 E23.70735
G1 X92.049 Y159.598 E23.71094
G1 X91.219 Y158.242 E23.76382
G1 X90.876 Y157.661 E23.78626
G1 X90.563 Y157.019 E23.81002
G1 X89.946 Y155.533 E23.86353
G1 X89.681 Y154.87 E23.88728
G1 X89.442 Y154.088 E23.91448
G1 X89.087 Y152.615 E23.96487
G1 X88.913 Y151.835 E23.99145
G1 X88.859 Y151.539 E24.00146
G1 X88.734 Y150.627 E24.03208
G1 X88.328 Y147.946 E24.12226
G1 X87.839 Y145.238 E24.21379
G1 X87.285 Y142.597 E24.30354
G1 X86.647 Y139.925 E24.39491
G1 X85.938 Y137.297 E24.48544
G1 X85.155 Y134.69 E24.57598
G1 X84.295 Y132.095 E24.6669
G1 X83.369 Y129.543 E24.7572
G1 X82.353 Y126.975 E24.84905
G1 X81.293 Y124.501 E24.93857
G1 X80.146 Y122.019 E25.02951
G1 X78.936 Y119.585 E25.11992
G1 X77.649 Y117.171 E25.21091
G1 X76.291 Y114.788 E25.30213
G1 X74.88 Y112.467 E25.39248
G1 X73.402 Y110.181 E25.48302
G1 X71.858 Y107.94 E25.57353
G1 X70.229 Y105.71 E25.66538
G1 X68.59 Y103.596 E25.75435
G1 X66.828 Y101.451 E25.84668
G1 X65.074 Y99.433 E25.93561
G1 X63.209 Y97.408 E26.02717
G1 X61.294 Y95.443 E26.11843
G1 X59.36 Y93.569 E26.208
G1 X57.333 Y91.711 E26.29946
G1 X56.9 Y91.337 E26.31849
G1 X56.824 Y91.261 E26.32206
G1 X55.815 Y90.373 E26.36677
G1 X55.44 Y89.989 E26.38462
G1 X55.126 Y89.555 E26.40243
G1 X54.88 Y89.078 E26.42028
G1 X54.707 Y88.57 E26.43813
G1 X54.595 Y87.781 E26.46464
G1 X54.583 Y87.345 E26.47915
G1 X54.583 Y73.759 E26.93102
G1 X54.586 Y73.539 E26.93834
G1 X54.58 Y71.548 E27.00456
G1 X54.583 Y65.634 E27.20126
G1 X54.593 Y64.952 E27.22394
G1 X54.641 Y64.418 E27.24178
G1 X54.768 Y63.897 E27.25961
G1 X54.97 Y63.4 E27.27746
G1 X55.245 Y62.939 E27.29531
G1 X55.636 Y62.471 E27.31559
G1 X55.747 Y62.359 E27.32084
G0 F3000 X56.031 Y62.64
G1 F1200 X56.414 Y62.311 E27.33763
G1 X56.845 Y62.045 E27.35448
G1 X57.311 Y61.851 E27.37126
G1 X57.803 Y61.732 E27.3881
G1 X58.189 Y61.695 E27.401
G1 X58.726 Y61.676 E27.41887
G1 X61.49 Y61.538 E27.51092
G1 X64.194 Y61.327 E27.60112
G1 X66.934 Y61.033 E27.69278
G1 X69.632 Y60.668 E27.78333
G1 X72.349 Y60.221 E27.87492
G1 X75.049 Y59.699 E27.96638
G1 X77.717 Y59.103 E28.05731
G1 X80.308 Y58.448 E28.14619
G1 X83.004 Y57.684 E28.23939
G1 X85.607 Y56.866 E28.33015
G1 X88.191 Y55.974 E28.42107
G1 X90.751 Y55.007 E28.51208
G1 X93.317 Y53.954 E28.60434
G1 X95.389 Y53.037 E28.6797
G1 X96.665 Y52.459 E28.72629
G1 X97.367 Y52.234 E28.75081
G1 X97.904 Y52.173 E28.76878
G1 X98.313 Y52.163 E28.78239
G1 X161.122 Y52.163 E30.87143
G1 X161.82 Y52.173 E30.89464
G1 X162.323 Y52.22 E30.91145
G1 X162.813 Y52.346 E30.92828
G1 X163.277 Y52.548 E30.94511
G1 X163.703 Y52.82 E30.96192
G1 X164.081 Y53.155 E30.97872
G1 X164.401 Y53.546 E30.99552
G1 X164.656 Y53.983 E31.01235
G1 X164.839 Y54.454 E31.02916
G1 X164.946 Y54.948 E31.04597
G1 X164.982 Y55.603 E31.06779
G1 X164.983 Y86.902 E32.10879
G1 X164.963 Y88.253 E32.15373
G1 X164.918 Y89.881 E32.2079
G1 X164.918 Y92.631 E32.29937
G1 X164.95 Y94.048 E32.34651
G1 X164.982 Y95.141 E32.38288
G1 X164.983 Y126.446 E33.42409
G1 X164.964 Y127.779 E33.46843
G1 X164.964 Y130.562 E33.56099
G1 X164.996 Y132.013 E33.60926
G1 X165.016 Y132.691 E33.63182
G1 X165.017 Y163.941 E34.6712
G1 X165.008 Y164.668 E34.69538
G1 X164.962 Y165.171 E34.71218
G1 X164.837 Y165.661 E34.729
G1 X164.636 Y166.125 E34.74582
G1 X164.365 Y166.552 E34.76264
G1 X164.03 Y166.931 E34.77947
G1 X163.64 Y167.252 E34.79627
G1 X163.204 Y167.508 E34.81308
G1 X162.733 Y167.691 E34.82989
G1 X162.239 Y167.799 E34.84671
G1 X161.577 Y167.836 E34.86876
G1 X108.979 Y167.837 E36.61818
G1 X108.274 Y167.827 E36.64163
G1 X107.566 Y167.787 E36.66521
G1 X106.204 Y167.68 E36.71065
G1 X105.505 Y167.615 E36.734
G1 X104.852 Y167.499 E36.75606
G1 X103.244 Y167.116 E36.81104
G1 X102.55 Y166.939 E36.83486
G1 X101.885 Y166.708 E36.85828
G1 X100.414 Y166.1 E36.91122
G1 X99.738 Y165.808 E36.93571
G1 X99.074 Y165.449 E36.96081
G1 X97.743 Y164.634 E37.01272
G1 X97.161 Y164.268 E37.03559
G1 X96.522 Y163.777 E37.06239
G1 X96.463 Y163.729 E37.06492
G1 X95.327 Y162.758 E37.11463
G1 X94.819 Y162.31 E37.13715
G1 X94.337 Y161.806 E37.16035
G1 X94.278 Y161.74 E37.16329
G1 X93.279 Y160.57 E37.21446
G1 X92.833 Y160.032 E37.23771
G1 X92.441 Y159.47 E37.2605
G1 X92.39 Y159.39 E37.26365
G1 X91.563 Y158.039 E37.31634
G1 X91.22 Y157.458 E37.33878
G1 X90.928 Y156.855 E37.36106
G1 X90.3 Y155.343 E37.41552
G1 X90.052 Y154.722 E37.43776
G1 X89.829 Y153.984 E37.4634
G1 X89.806 Y153.897 E37.46639
G1 X89.465 Y152.473 E37.51509
G1 X89.303 Y151.748 E37.5398
G1 X89.256 Y151.485 E37.54869
G1 X89.137 Y150.618 E37.57779
G1 X88.718 Y147.851 E37.67087
G1 X88.236 Y145.183 E37.76105
G1 X87.673 Y142.5 E37.85223
G1 X87.034 Y139.824 E37.94374
G1 X86.326 Y137.202 E38.03407
G1 X85.532 Y134.556 E38.12595
G1 X84.671 Y131.959 E38.21695
G1 X83.745 Y129.408 E38.30721
G1 X82.734 Y126.85 E38.3987
G1 X81.652 Y124.325 E38.49007
G1 X80.503 Y121.838 E38.58118
G1 X79.29 Y119.398 E38.67181
G1 X77.992 Y116.964 E38.76356
G1 X76.647 Y114.604 E38.85391
G1 X75.215 Y112.248 E38.94561
G1 X73.739 Y109.966 E39.036
G1 X72.178 Y107.699 E39.12755
G1 X70.552 Y105.474 E39.21921
G1 X68.9 Y103.342 E39.30891
G1 X67.155 Y101.219 E39.40032
G1 X65.352 Y99.146 E39.49169
G1 X63.49 Y97.122 E39.58317
G1 X61.593 Y95.177 E39.67353
G1 X59.608 Y93.253 E39.76548
G1 X57.616 Y91.427 E39.85535
G1 X57.161 Y91.034 E39.87535
G1 X57.087 Y90.959 E39.87886
G1 X56.079 Y90.072 E39.92351
G1 X55.727 Y89.709 E39.94033
G1 X55.437 Y89.296 E39.95712
G1 X55.215 Y88.841 E39.97396
G1 X55.068 Y88.358 E39.99075
G1 X54.995 Y87.768 E40.01052
G1 X54.983 Y87.345 E40.0246
G1 X54.983 Y73.764 E40.4763
G1 X54.986 Y73.544 E40.48362
G1 X54.98 Y71.548 E40.55001
G1 X54.983 Y65.64 E40.74651
G1 X54.993 Y64.958 E40.76919
G1 X55.041 Y64.455 E40.786
G1 X55.167 Y63.965 E40.80283
G1 X55.368 Y63.501 E40.81965
G1 X55.64 Y63.075 E40.83646
G1 X56.031 Y62.64 E40.85591
G1 F1800 E33.85591
G1 F300 Z0.4
G0 F3000 X58.383 Y65.083 Z0.4
;TYPE:SUPPORT
G1 F300 Z0.2
G1 F1800 E40.85591
G1 F1200 X62.883 Y65.083 E41.00558
G1 X62.883 Y71.233 E41.21013
G1 X58.383 Y71.233 E41.3598
G1 X58.383 Y65.083 E41.56435
G0 F3000 X58.674 Y65.243
G1 F1200 X58.674 Y71.073 E41.75826
G1 F1800 E34.75826
G1 F300 Z0.4
G0 F3000 X58.542 Y69.342 Z0.4
G1 F300 Z0.2
G1 F1800 E41.75826
G1 F1200 X62.722 Y69.342 E41.89728
G1 F1800 E34.89728
G1 F300 Z0.4
G0 F3000 X61.341 Y71.073 Z0.4
G1 F300 Z0.2
G1 F1800 E41.89728
G1 F1200 X61.341 Y65.243 E42.09119
G1 F1800 E35.09119
G1 F300 Z0.4
G0 F3000 X62.722 Y66.675 Z0.4
G1 F300 Z0.2
G1 F1800 E42.09119
G1 F1200 X58.542 Y66.675 E42.23022
G1 F1800 E35.23022
G1 F300 Z0.4
G0 F3000 X90.27 Y65.083 Z0.4
G1 F300 Z0.2
G1 F1800 E42.23022
G1 F1200 X94.771 Y65.083 E42.37992
G1 X95.924 Y66.238 E42.4342
G1 X96.433 Y66.34 E42.45147
G1 X96.983 Y66.113 E42.47126
G1 X96.983 Y66.638 E42.48872
G1 X95.058 Y67.436 E42.55803
G1 X94.77 Y67.868 E42.5753
G1 X94.77 Y71.233 E42.68722
G1 X90.27 Y71.233 E42.83689
G1 X90.27 Y65.083 E43.04144
G0 F3000 X90.678 Y65.243
G1 F1200 X90.678 Y71.073 E43.23535
G1 F1800 E36.23535
G1 F300 Z0.4
G0 F3000 X90.43 Y69.342 Z0.4
G1 F300 Z0.2
G1 F1800 E43.23535
G1 F1200 X94.61 Y69.342 E43.37437
G1 F1800 E36.37437
G1 F300 Z0.4
G0 F3000 X93.345 Y71.073 Z0.4
G1 F300 Z0.2
G1 F1800 E43.37437
G1 F1200 X93.345 Y65.243 E43.56828
G1 F1800 E36.56828
G1 F300 Z0.4
G0 F3000 X96.012 Y66.419 Z0.4
G1 F300 Z0.2
G1 F1800 E43.56828
G1 F1200 X96.012 Y66.868 E43.58321
G0 F3000 X96.475 Y66.675
G1 F1200 X90.43 Y66.675 E43.78427
G1 F1800 E36.78427
G1 F300 Z0.4
;MESH:camera.wroover.all.straight.stl
G0 F3000 X90.67 Y86.876 Z0.4
;TYPE:WALL-INNER
G1 F300 Z0.2
G1 F1800 E43.78427
G1 F1200 X90.67 Y73.704 E44.22237
G1 X94.37 Y73.704 E44.34544
G1 X94.37 Y87.075 E44.79016
G1 X90.67 Y87.075 E44.91322
G1 X88.47 Y87.075 E44.98639
G1 X64.67 Y87.075 E45.77798
G1 X62.483 Y87.075 E45.85072
G1 X58.783 Y87.075 E45.97379
G1 X58.783 Y73.704 E46.41851
G1 X62.483 Y73.704 E46.54157
G1 X62.483 Y86.876 E46.97967
G1 X64.67 Y86.876 E47.01595
G1 X64.67 Y84.876 E47.08247
