;FLAVOR:Marlin
;TIME:7221
;Filament used: 3.589m
;Layer height: 0.2
;MINX:86.202
;MINY:95.5
;MINZ:0.2
;MAXX:133.795
;MAXY:128.7
;MAXZ:32.2
;Generated with Cura_SteamEngine master
M82 ;absolute extrusion mode
;Sliced at: Fri 30-09-2022 13:07:27
;Basic settings: Layer height: 0.2 Walls: 0.8 Fill: 30.0
G21 ;metric values
G90 ;absolute positioning
M82 ;set extruder to absolute mode
M107 ;start with the fan off
M117 Start heating ...
M104 S200
M117 Homing X/Y ...
G28 X0 Y0 ;move X/Y to min endstops
M117 Homing Z ...
G28 Z0 ;move Z to min endstops
G1 Z15.0 F100 ;move the platform down 15mm
M117 Heating ...
M109 S200
M117 Start cleaning ...
G92 E0 ;zero the extruded length
G1 F200 E10 ;extrude 10mm of feed stock
G92 E0 ;zero the extruded length again
M117 Intro line ...
G1 Z2.0 F3000 ; Move Z Axis up little to prevent scratching of Heat Bed
G1 X0.1 Y20 Z0.2 F5000.0 ; Move to start position
G1 X0.1 Y200.0 Z0.2 F1500.0 E15 ; Draw the first line
G1 X0.4 Y200.0 Z0.2 F5000.0 ; Move to side a little
G1 X0.4 Y20 Z0.3 F1500.0 E30 ; Draw the second line
G92 E0 ; Reset Extruder
G1 E-1 F500 ; Retract filiment by 1 mm
G1 Z2.0 F3000 ; Move Z Axis up little to prevent scratching of Heat Bed
G1 X5 Y20 Z0.3 F100 ; Move over to prevent blob squish
G1 F100
G92 E0 ; Reset Extruder
M117 Printing...

G92 E0
G92 E0
G1 F1800 E-7
;LAYER_COUNT:161
;LAYER:0
M107
G1 F300 Z0.4
G0 F3000 X87.513 Y99.09 Z0.4
;TYPE:SKIRT
G1 F300 Z0.2
G1 F1800 E0
G1 F1200 X87.94 Y98.719 E0.01881
G1 X88.415 Y98.412 E0.03762
G1 X88.928 Y98.176 E0.05641
G1 X89.47 Y98.014 E0.07522
G1 X90.206 Y97.92 E0.0999
G1 X90.866 Y97.908 E0.12185
G1 X91.641 Y97.907 E0.14763
G1 X92.402 Y97.918 E0.17295
G1 X94.824 Y97.922 E0.2535
G1 X96.067 Y97.908 E0.29485
G1 X99.045 Y97.908 E0.3939
G1 X99.761 Y97.919 E0.41771
G1 X100.208 Y97.951 E0.43262
G1 X101.106 Y98.066 E0.46273
G1 X103.775 Y98.369 E0.55207
G1 X106.506 Y98.601 E0.64323
G1 X109.248 Y98.756 E0.73458
G1 X111.919 Y98.832 E0.82345
G1 X114.664 Y98.832 E0.91475
G1 X117.335 Y98.756 E1.00362
G1 X120.074 Y98.601 E1.09487
G1 X122.811 Y98.368 E1.18623
G1 X125.478 Y98.065 E1.27551
G1 X125.685 Y98.037 E1.28245
G1 X126.433 Y97.946 E1.30752
G1 X127.014 Y97.912 E1.32687
G1 X127.468 Y97.907 E1.34197
G1 X129.052 Y97.908 E1.39466
G1 X129.719 Y97.918 E1.41684
G1 X130.282 Y97.967 E1.43564
G1 X130.833 Y98.094 E1.45445
G1 X131.36 Y98.298 E1.47324
G1 X131.854 Y98.574 E1.49206
G1 X132.487 Y99.09 E1.51923
G1 X132.613 Y99.216 E1.52515
G1 X132.984 Y99.643 E1.54397
G1 X133.291 Y100.118 E1.56278
G1 X133.527 Y100.631 E1.58156
G1 X133.689 Y101.173 E1.60037
G1 X133.782 Y101.88 E1.62409
G1 X133.795 Y102.528 E1.64565
G1 X133.795 Y108.361 E1.83966
G1 X133.79 Y109.796 E1.88738
G1 X133.795 Y110.489 E1.91043
G1 X133.795 Y124.019 E2.36044
G1 X133.785 Y124.746 E2.38463
G1 X133.737 Y125.309 E2.40342
G1 X133.61 Y125.86 E2.42223
G1 X133.407 Y126.388 E2.44104
G1 X133.132 Y126.882 E2.45985
G1 X132.79 Y127.332 E2.47864
G1 X132.387 Y127.729 E2.49746
G1 X131.933 Y128.065 E2.51625
G1 X131.436 Y128.334 E2.53504
G1 X130.906 Y128.531 E2.55385
G1 X130.353 Y128.65 E2.57266
G1 X129.577 Y128.698 E2.59852
G1 X129.465 Y128.7 E2.60225
G1 X90.86 Y128.7 E3.88625
G1 X90.162 Y128.691 E3.90947
G1 X89.599 Y128.643 E3.92826
G1 X89.048 Y128.517 E3.94706
G1 X88.52 Y128.315 E3.96587
G1 X88.026 Y128.04 E3.98467
G1 X87.576 Y127.698 E4.00347
G1 X87.178 Y127.296 E4.02229
G1 X86.842 Y126.842 E4.04107
G1 X86.572 Y126.345 E4.05988
G1 X86.375 Y125.815 E4.07869
G1 X86.255 Y125.263 E4.09748
G1 X86.206 Y124.466 E4.12404
G1 X86.205 Y110.749 E4.58027
G1 X86.208 Y110.552 E4.58682
G1 X86.202 Y108.572 E4.65267
G1 X86.205 Y102.652 E4.84957
G1 X86.215 Y101.984 E4.87179
G1 X86.264 Y101.421 E4.89059
G1 X86.391 Y100.87 E4.9094
G1 X86.595 Y100.343 E4.92819
G1 X86.871 Y99.849 E4.94701
G1 X87.387 Y99.216 E4.97418
G1 X87.513 Y99.09 E4.9801
G0 F3000 X87.795 Y99.372
G1 F1200 X88.202 Y99.023 E4.99794
G1 X88.656 Y98.737 E5.01578
G1 X89.147 Y98.522 E5.03361
G1 X89.665 Y98.382 E5.05146
G1 X90.219 Y98.32 E5.07
G1 X90.871 Y98.308 E5.09169
G1 X91.635 Y98.307 E5.1171
G1 X92.396 Y98.318 E5.14241
G1 X94.829 Y98.322 E5.22333
G1 X96.072 Y98.308 E5.26468
G1 X99.039 Y98.308 E5.36336
G1 X99.755 Y98.319 E5.38718
G1 X100.157 Y98.348 E5.40058
G1 X101.041 Y98.461 E5.43022
G1 X103.767 Y98.771 E5.52148
G1 X106.484 Y99.001 E5.61217
G1 X109.18 Y99.154 E5.70198
G1 X111.944 Y99.232 E5.79395
G1 X114.639 Y99.232 E5.88358
G1 X117.404 Y99.154 E5.97559
G1 X120.097 Y99.001 E6.0653
G1 X122.818 Y98.769 E6.15613
G1 X125.533 Y98.461 E6.24701
G1 X125.733 Y98.434 E6.25372
G1 X126.481 Y98.343 E6.27878
G1 X127.019 Y98.312 E6.29671
G1 X127.467 Y98.307 E6.31161
G1 X129.046 Y98.308 E6.36413
G1 X129.713 Y98.318 E6.38631
G1 X130.247 Y98.366 E6.40415
G1 X130.768 Y98.493 E6.42198
G1 X131.265 Y98.696 E6.43984
G1 X131.725 Y98.97 E6.45765
G1 X132.205 Y99.372 E6.47847
G1 X132.331 Y99.498 E6.4844
G1 X132.68 Y99.905 E6.50223
G1 X132.966 Y100.359 E6.52008
G1 X133.181 Y100.85 E6.5379
G1 X133.321 Y101.368 E6.55575
G1 X133.382 Y101.897 E6.57346
G1 X133.395 Y102.533 E6.59462
G1 X133.395 Y108.36 E6.78843
G1 X133.39 Y109.795 E6.83615
G1 X133.395 Y110.491 E6.8593
G1 X133.395 Y124.014 E7.30908
G1 X133.385 Y124.741 E7.33326
G1 X133.337 Y125.275 E7.3511
G1 X133.211 Y125.796 E7.36892
G1 X133.009 Y126.293 E7.38677
G1 X132.735 Y126.754 E7.4046
G1 X132.396 Y127.169 E7.42243
G1 X131.999 Y127.53 E7.44027
G1 X131.553 Y127.827 E7.4581
G1 X131.067 Y128.055 E7.47595
G1 X130.553 Y128.208 E7.49379
G1 X129.886 Y128.29 E7.51614
G1 X129.465 Y128.3 E7.53015
G1 X90.866 Y128.3 E8.81395
G1 X90.168 Y128.291 E8.83717
G1 X89.633 Y128.244 E8.85503
G1 X89.112 Y128.118 E8.87286
G1 X88.615 Y127.916 E8.89071
G1 X88.154 Y127.643 E8.90853
G1 X87.738 Y127.304 E8.92637
G1 X87.377 Y126.908 E8.9442
G1 X87.079 Y126.462 E8.96204
G1 X86.851 Y125.976 E8.97989
G1 X86.698 Y125.462 E8.99773
G1 X86.615 Y124.788 E9.02032
G1 X86.605 Y124.358 E9.03462
G1 X86.605 Y110.755 E9.48706
G1 X86.608 Y110.558 E9.49361
G1 X86.602 Y108.572 E9.55967
G1 X86.605 Y102.658 E9.75637
G1 X86.615 Y101.99 E9.77859
G1 X86.663 Y101.456 E9.79642
G1 X86.79 Y100.935 E9.81426
G1 X86.993 Y100.438 E9.83211
G1 X87.267 Y99.978 E9.84992
G1 X87.669 Y99.498 E9.87074
G1 X87.795 Y99.372 E9.87667
G0 F3000 X88.078 Y99.655
G1 F1200 X88.463 Y99.327 E9.89349
G1 X88.894 Y99.064 E9.91029
G1 X89.362 Y98.871 E9.92712
G1 X89.854 Y98.755 E9.94394
G1 X90.381 Y98.715 E9.96152
G1 X90.908 Y98.708 E9.97905
G1 X91.629 Y98.707 E10.00303
G1 X92.39 Y98.718 E10.02834
G1 X94.832 Y98.722 E10.10956
G1 X96.076 Y98.708 E10.15094
G1 X99.033 Y98.708 E10.24929
G1 X99.749 Y98.719 E10.27311
G1 X100.106 Y98.745 E10.28501
G1 X100.959 Y98.854 E10.31361
G1 X103.724 Y99.168 E10.40617
G1 X106.463 Y99.4 E10.49759
G1 X109.18 Y99.554 E10.58811
G1 X111.933 Y99.632 E10.67971
G1 X114.65 Y99.632 E10.77008
G1 X117.403 Y99.554 E10.86168
G1 X120.15 Y99.398 E10.95319
G1 X122.829 Y99.17 E11.04262
G1 X125.588 Y98.857 E11.13497
G1 X125.782 Y98.831 E11.14148
G1 X126.53 Y98.74 E11.16654
G1 X127.425 Y98.707 E11.19633
G1 X129.04 Y98.708 E11.25005
G1 X129.707 Y98.718 E11.27223
G1 X130.21 Y98.766 E11.28904
G1 X130.7 Y98.892 E11.30587
G1 X131.163 Y99.094 E11.32267
G1 X131.59 Y99.366 E11.33951
G1 X132.048 Y99.781 E11.36006
G1 X132.376 Y100.166 E11.37689
G1 X132.639 Y100.597 E11.39368
G1 X132.832 Y101.065 E11.41052
G1 X132.948 Y101.557 E11.42733
G1 X132.99 Y102.127 E11.44634
G1 X132.995 Y102.538 E11.46001
G1 X132.995 Y108.358 E11.65358
G1 X132.99 Y109.793 E11.70131
G1 X132.995 Y110.494 E11.72463
G1 X132.995 Y124.008 E12.17411
G1 X132.985 Y124.735 E12.19829
G1 X132.938 Y125.238 E12.21509
G1 X132.812 Y125.728 E12.23192
G1 X132.611 Y126.192 E12.24874
G1 X132.339 Y126.618 E12.26555
G1 X132.004 Y126.997 E12.28237
G1 X131.613 Y127.317 E12.29918
G1 X131.177 Y127.572 E12.31598
G1 X130.706 Y127.756 E12.33279
G1 X130.211 Y127.862 E12.34963
G1 X129.555 Y127.899 E12.37148
G1 X90.871 Y127.9 E13.65812
G1 X90.173 Y127.891 E13.68134
G1 X89.669 Y127.844 E13.69817
G1 X89.179 Y127.719 E13.71499
G1 X88.715 Y127.518 E13.73181
G1 X88.289 Y127.247 E13.7486
G1 X87.91 Y126.912 E13.76543
G1 X87.589 Y126.521 E13.78225
G1 X87.334 Y126.085 E13.79905
G1 X87.15 Y125.614 E13.81587
G1 X87.043 Y125.12 E13.83268
G1 X87.006 Y124.444 E13.8552
G1 X87.005 Y110.761 E14.3103
G1 X87.008 Y110.564 E14.31685
G1 X87.002 Y108.572 E14.38311
G1 X87.005 Y102.664 E14.57961
G1 X87.015 Y101.996 E14.60183
G1 X87.063 Y101.493 E14.61863
G1 X87.189 Y101.003 E14.63546
G1 X87.391 Y100.54 E14.65226
G1 X87.663 Y100.114 E14.66907
G1 X88.078 Y99.655 E14.68965
G1 F1800 E7.68965
G1 F300 Z0.4
G0 F3000 X90.418 Y102.108 Z0.4
;TYPE:SUPPORT
G1 F300 Z0.2
G1 F1800 E14.68965
G1 F1200 X92.209 Y102.107 E14.74922
G1 X93.627 Y103.526 E14.81594
G1 X94.191 Y103.526 E14.8347
G1 X95.608 Y102.108 E14.90138
G1 X99.608 Y102.108 E15.03442
G1 X99.608 Y108.257 E15.23894
G1 X95.442 Y108.257 E15.3775
G1 X95.208 Y108.491 E15.3885
G1 X95.208 Y109.129 E15.40972
G1 X95.111 Y109.129 E15.41295
G1 X94.408 Y109.832 E15.44602
G1 X94.408 Y113.018 E15.55198
G1 X93.408 Y113.018 E15.58524
G1 X93.408 Y109.832 E15.69121
G1 X92.705 Y109.129 E15.72428
G1 X92.608 Y109.129 E15.7275
G1 X92.608 Y108.49 E15.74876
G1 X92.374 Y108.256 E15.75976
G1 X90.405 Y108.257 E15.82525
G1 X90.405 Y102.121 E16.02934
G1 X90.418 Y102.108 E16.02995
G0 F3000 X90.678 Y102.267
G1 F1200 X90.678 Y108.097 E16.22386
G0 F3000 X90.565 Y106.68
G1 F1200 X99.448 Y106.68 E16.51931
G1 F1800 E9.51931
G1 F300 Z0.4
G0 F3000 X98.679 Y108.097 Z0.4
G1 F300 Z0.2
G1 F1800 E16.51931
G1 F1200 X98.679 Y102.268 E16.71318
G1 F1800 E9.71318
G1 F300 Z0.4
G0 F3000 X99.448 Y104.013 Z0.4
G1 F300 Z0.2
G1 F1800 E16.71318
G1 F1200 X90.565 Y104.013 E17.00863
G1 F1800 E10.00863
G1 F300 Z0.4
G0 F3000 X93.345 Y103.471 Z0.4
G1 F300 Z0.2
G1 F1800 E17.00863
G1 F1200 X93.345 Y109.542 E17.21055
G0 F3000 X93.149 Y109.347
G1 F1200 X94.666 Y109.347 E17.26101
G1 F1800 E10.26101
G1 F300 Z0.4
G0 F3000 X96.012 Y108.097 Z0.4
G1 F300 Z0.2
G1 F1800 E17.26101
G1 F1200 X96.012 Y102.268 E17.45488
G1 F1800 E10.45488
G1 F300 Z0.4
G0 F3000 X94.248 Y112.014 Z0.4
G1 F300 Z0.2
G1 F1800 E17.45488
G1 F1200 X93.568 Y112.014 E17.4775
G1 F1800 E10.4775
G1 F300 Z0.4
G0 F3000 X126.995 Y108.256 Z0.4
G1 F300 Z0.2
G1 F1800 E17.4775
G1 F1200 X126.995 Y102.107 E17.68201
G1 X129.582 Y102.108 E17.76806
G1 X129.595 Y102.121 E17.76867
G1 X129.595 Y108.257 E17.97275
G1 X126.995 Y108.256 E18.05923
G0 F3000 X128.016 Y108.096
G1 F1200 X128.016 Y102.268 E18.25307
G1 F1800 E11.25307
G1 F300 Z0.4
G0 F3000 X127.155 Y104.013 Z0.4
G1 F300 Z0.2
G1 F1800 E18.25307
G1 F1200 X129.435 Y104.013 E18.3289
G1 F1800 E11.3289
G1 F300 Z0.4
G0 F3000 X129.435 Y106.68 Z0.4
G1 F300 Z0.2
G1 F1800 E18.3289
G1 F1200 X127.155 Y106.68 E18.40474
G1 F1800 E11.40474
G1 F300 Z0.4
;MESH:camera.wroover.nested.rail_straight.stl
G0 F3000 X127.395 Y123.9 Z0.4
;TYPE:WALL-INNER
G1 F300 Z0.2
G1 F1800 E18.40474
G1 F1200 X127.395 Y110.729 E18.8428
G1 X129.195 Y110.729 E18.90267
G1 X129.195 Y124.1 E19.34739
G1 X127.395 Y124.1 E19.40726
G1 X125.195 Y124.1 E19.48043
G1 X101.395 Y124.1 E20.27203
G1 X99.208 Y124.1 E20.34477
G1 X90.805 Y124.1 E20.62425
G1 X90.805 Y110.729 E21.06897
G1 X91.808 Y110.729 E21.10233
G1 X91.808 Y121.9 E21.47388
G1 X96.008 Y121.9 E21.61357
G1 X96.008 Y110.729 E21.98512
G1 X99.208 Y110.729 E22.09155
G1 X99.208 Y123.9 E22.52962
G1 X101.395 Y123.9 E22.56609
G1 X101.395 Y121.9 E22.63261
G1 X102.745 Y121.9 E22.67751
G1 X102.745 Y117.3 E22.8305
G1 X101.395 Y117.3 E22.8754
G1 X101.395 Y116.5 E22.90201
G1 X105.195 Y116.5 E23.0284
G1 X105.195 Y122.3 E23.22131
G1 X121.395 Y122.3 E23.76012
G1 X121.395 Y116.5 E23.95303
G1 X125.195 Y116.5 E24.07942
G1 X125.195 Y117.3 E24.10603
G1 X123.845 Y117.3 E24.15093
G1 X123.845 Y121.9 E24.30393
G1 X125.195 Y121.9 E24.34883
G1 X125.195 Y123.9 E24.41535
G1 X127.395 Y123.9 E24.45203
G0 F3000 X126.995 Y123.5
;TYPE:WALL-OUTER
G1 F1200 X126.995 Y110.329 E24.8901
G1 X129.595 Y110.329 E24.97657
G1 X129.595 Y124.5 E25.4479
G1 X90.405 Y124.5 E26.75137
G1 X90.405 Y110.329 E27.2227
G1 X92.208 Y110.329 E27.28266
G1 X92.208 Y121.5 E27.65421
G1 X95.608 Y121.5 E27.7673
G1 X95.608 Y110.329 E28.13885
G1 X99.608 Y110.329 E28.27189
G1 X99.608 Y123.5 E28.70996
G1 X100.995 Y123.5 E28.75609
G1 X100.995 Y121.5 E28.82261
G1 X102.345 Y121.5 E28.86751
G1 X102.345 Y117.7 E28.9939
G1 X100.995 Y117.7 E29.0388
G1 X100.995 Y116.1 E29.09201
G1 X105.595 Y116.1 E29.24501
G1 X105.595 Y121.9 E29.43792
G1 X120.995 Y121.9 E29.95013
G1 X120.995 Y116.1 E30.14304
G1 X125.595 Y116.1 E30.29603
G1 X125.595 Y117.7 E30.34925
G1 X124.245 Y117.7 E30.39415
G1 X124.245 Y121.5 E30.52054
G1 X125.595 Y121.5 E30.56544
G1 X125.595 Y123.5 E30.63196
G1 X126.995 Y123.5 E30.67852
G0 F3000 X126.995 Y123.3
G0 X127.435 Y123.3
G0 X127.785 Y123.71
;TYPE:SKIN
G1 F1200 X127.785 Y111.119 E31.0973
G1 X128.805 Y111.119 E31.13123
G1 X128.805 Y123.71 E31.55001
G1 X127.785 Y123.71 E31.58393
G0 F3000 X128.054 Y123.529
G1 F1200 X127.964 Y123.438 E31.58819
G0 F3000 X127.964 Y122.873
G1 F1200 X128.62 Y123.529 E31.61904
G0 F3000 X128.624 Y122.967
G1 F1200 X127.964 Y122.307 E31.65009
G0 F3000 X127.964 Y121.741
G1 F1200 X128.624 Y122.401 E31.68113
G0 F3000 X128.624 Y121.835
G1 F1200 X127.964 Y121.176 E31.71215
G0 F3000 X127.964 Y120.61
G1 F1200 X128.624 Y121.27 E31.7432
G0 F3000 X128.624 Y120.704
G1 F1200 X127.964 Y120.044 E31.77424
G0 F3000 X127.964 Y119.479
G1 F1200 X128.624 Y120.138 E31.80526
G0 F3000 X128.624 Y119.573
G1 F1200 X127.964 Y118.913 E31.83631
G0 F3000 X127.964 Y118.347
G1 F1200 X128.624 Y119.007 E31.86735
G0 F3000 X128.624 Y118.441
G1 F1200 X127.964 Y117.782 E31.89837
G0 F3000 X127.964 Y117.216
G1 F1200 X128.624 Y117.876 E31.92942
G0 F3000 X128.624 Y117.31
G1 F1200 X127.964 Y116.65 E31.96046
G0 F3000 X127.964 Y116.085
G1 F1200 X128.624 Y116.744 E31.99148
G0 F3000 X128.624 Y116.179
G1 F1200 X127.964 Y115.519 E32.02253
G0 F3000 X127.964 Y114.953
G1 F1200 X128.624 Y115.613 E32.05357
G0 F3000 X128.624 Y115.047
G1 F1200 X127.964 Y114.387 E32.08462
G0 F3000 X127.964 Y113.822
G1 F1200 X128.624 Y114.482 E32.11566
G0 F3000 X128.624 Y113.916
G1 F1200 X127.964 Y113.256 E32.1467
G0 F3000 X127.964 Y112.69
G1 F1200 X128.624 Y113.35 E32.17775
G0 F3000 X128.624 Y112.784
G1 F1200 X127.964 Y112.125 E32.20877
G0 F3000 X127.964 Y111.559
G1 F1200 X128.624 Y112.219 E32.23981
G0 F3000 X128.624 Y111.653
G1 F1200 X128.269 Y111.299 E32.25649
G0 F3000 X128.269 Y110.839
G0 X127.223 Y123.728
G0 X125.367 Y123.728
G0 X125.367 Y121.728
G0 X124.017 Y121.728
G0 X124.017 Y117.472
G0 X125.367 Y117.472
G0 X125.046 Y116.551
G0 X124.805 Y116.89
G1 F1200 X124.805 Y116.91 E32.25715
G1 X123.455 Y116.91 E32.30205
G1 X123.455 Y122.29 E32.48099
G1 X124.805 Y122.29 E32.5259
G1 X124.805 Y123.71 E32.57312
G1 X101.785 Y123.71 E33.33877
G1 X101.785 Y122.29 E33.386
G1 X103.135 Y122.29 E33.4309
G1 X103.135 Y116.91 E33.60984
G1 X101.785 Y116.91 E33.65474
G1 X101.785 Y116.89 E33.65541
G1 X104.805 Y116.89 E33.75586
G1 X104.805 Y122.69 E33.94876
G1 X121.785 Y122.69 E34.51352
G1 X121.785 Y116.89 E34.70643
G1 X124.805 Y116.89 E34.80688
G0 F3000 X124.805 Y116.61
G0 X123.735 Y117.617
G0 X123.274 Y117.617
G1 F1200 X122.726 Y117.07 E34.83263
G0 F3000 X122.161 Y117.07
G1 F1200 X123.274 Y118.182 E34.88496
G0 F3000 X123.274 Y118.748
G1 F1200 X121.964 Y117.439 E34.94655
G0 F3000 X121.964 Y118.004
G1 F1200 X123.274 Y119.314 E35.00817
G0 F3000 X123.274 Y119.88
G1 F1200 X121.964 Y118.57 E35.06979
G0 F3000 X121.964 Y119.136
G1 F1200 X123.274 Y120.445 E35.13138
G0 F3000 X123.274 Y121.011
G1 F1200 X121.964 Y119.701 E35.193
G0 F3000 X121.964 Y120.267
G1 F1200 X123.274 Y121.577 E35.25462
G0 F3000 X123.274 Y122.142
G1 F1200 X121.964 Y120.833 E35.31621
G0 F3000 X121.964 Y121.398
G1 F1200 X124.095 Y123.529 E35.41645
G0 F3000 X124.624 Y123.493
G1 F1200 X123.601 Y122.47 E35.46457
G0 F3000 X124.167 Y122.47
G1 F1200 X124.624 Y122.927 E35.48607
G0 F3000 X125.085 Y122.927
G0 X125.013 Y123.918
G0 X123.529 Y123.99
G0 X123.529 Y123.529
G1 F1200 X121.964 Y121.964 E35.55968
G0 F3000 X121.964 Y122.53
G1 F1200 X122.963 Y123.529 E35.60667
G0 F3000 X122.398 Y123.529
G1 F1200 X121.738 Y122.869 E35.63771
G0 F3000 X121.172 Y122.869
