;FLAVOR:Marlin
;TIME:13100
;Filament used: 8.34548m
;Layer height: 0.2
;MINX:56.024
;MINY:20.965
;MINZ:0.2
;MAXX:164.044
;MAXY:198.997
;MAXZ:38.6
;Generated with Cura_SteamEngine master
M82 ;absolute extrusion mode
;Sliced at: Tue 03-05-2022 21:12:48
;Basic settings: Layer height: 0.2 Walls: 0.8 Fill: 20
G21 ;metric values
G90 ;absolute positioning
M82 ;set extruder to absolute mode
M107 ;start with the fan off
M117 Start heating ...
M104 S200
M117 Homing X/Y ...
G28 X0 Y0 ;move X/Y to min endstops
M117 Homing Z ...
G28 Z0 ;move Z to min endstops
G1 Z15.0 F100 ;move the platform down 15mm
M117 Heating ...
M109 S200
M117 Start cleaning ...
G92 E0 ;zero the extruded length
G1 F200 E10 ;extrude 10mm of feed stock
G92 E0 ;zero the extruded length again
M117 Intro line ...
G1 Z2.0 F3000 ; Move Z Axis up little to prevent scratching of Heat Bed
G1 X0.1 Y20 Z0.2 F5000.0 ; Move to start position
G1 X0.1 Y200.0 Z0.2 F1500.0 E15 ; Draw the first line
G1 X0.4 Y200.0 Z0.2 F5000.0 ; Move to side a little
G1 X0.4 Y20 Z0.3 F1500.0 E30 ; Draw the second line
G92 E0 ; Reset Extruder
G1 E-1 F500 ; Retract filiment by 1 mm
G1 Z2.0 F3000 ; Move Z Axis up little to prevent scratching of Heat Bed
G1 X5 Y20 Z0.3 F100 ; Move over to prevent blob squish
G1 F100
G92 E0 ; Reset Extruder
M117 Printing...

G92 E0
G92 E0
G1 F1800 E-7
;LAYER_COUNT:194
;LAYER:0
M107
G1 F300 Z0.4
G0 F3000 X61.298 Y63.101 Z0.4
;TYPE:SKIRT
G1 F300 Z0.2
G1 F1800 E0
G1 F1200 X61.912 Y62.574 E0.02691
G1 X62.481 Y62.18 E0.04993
G1 X63.169 Y61.814 E0.07585
G1 X63.808 Y61.552 E0.09882
G1 X64.556 Y61.344 E0.12464
G1 X64.89 Y61.271 E0.13602
G1 X65.892 Y61.097 E0.16984
G1 X68.588 Y60.59 E0.26108
G1 X71.234 Y60.014 E0.35115
G1 X73.869 Y59.362 E0.44143
G1 X76.477 Y58.637 E0.53146
G1 X79.106 Y57.827 E0.62296
G1 X81.632 Y56.969 E0.71169
G1 X84.21 Y56.011 E0.80316
G1 X86.73 Y54.994 E0.89355
G1 X89.194 Y53.915 E0.98301
G1 X91.679 Y52.744 E1.07438
G1 X94.072 Y51.532 E1.1636
G1 X96.457 Y50.238 E1.25385
G1 X98.817 Y48.869 E1.34459
G1 X101.148 Y47.429 E1.43572
G1 X103.401 Y45.946 E1.52544
G1 X105.626 Y44.389 E1.61576
G1 X107.791 Y42.783 E1.70542
G1 X109.95 Y41.084 E1.79679
G1 X112.004 Y39.37 E1.88577
G1 X114.046 Y37.566 E1.9764
G1 X116.044 Y35.7 E2.06732
G1 X117.972 Y33.791 E2.15757
G1 X119.829 Y31.85 E2.24691
G1 X121.675 Y29.804 E2.33857
G1 X123.428 Y27.748 E2.42843
G1 X125.113 Y25.654 E2.51783
G1 X126.734 Y23.522 E2.6069
G1 X127.418 Y22.597 E2.64517
G1 X127.785 Y22.167 E2.66397
G1 X128.209 Y21.793 E2.68278
G1 X128.682 Y21.483 E2.70159
G1 X129.194 Y21.243 E2.72039
G1 X129.734 Y21.077 E2.73918
G1 X130.524 Y20.976 E2.76567
G1 X130.959 Y20.965 E2.78014
G1 X159.389 Y20.965 E3.72573
G1 X160.087 Y20.974 E3.74895
G1 X160.65 Y21.022 E3.76774
G1 X161.201 Y21.148 E3.78654
G1 X161.729 Y21.35 E3.80534
G1 X162.223 Y21.625 E3.82415
G1 X162.673 Y21.967 E3.84295
G1 X163.071 Y22.369 E3.86176
G1 X163.407 Y22.823 E3.88055
G1 X163.677 Y23.32 E3.89936
G1 X163.874 Y23.85 E3.91817
G1 X163.994 Y24.402 E3.93695
G1 X164.042 Y25.183 E3.96298
G1 X164.044 Y25.295 E3.96671
G1 X164.044 Y179.657 E9.10081
G1 X164.034 Y180.362 E9.12426
G1 X163.992 Y181.122 E9.14957
G1 X163.902 Y182.261 E9.18757
G1 X163.836 Y182.972 E9.21132
G1 X163.704 Y183.728 E9.23685
G1 X163.678 Y183.846 E9.24087
G1 X163.375 Y185.111 E9.28413
G1 X163.19 Y185.837 E9.30905
G1 X162.919 Y186.622 E9.33667
G1 X162.877 Y186.729 E9.3405
G1 X162.421 Y187.83 E9.38013
G1 X162.103 Y188.565 E9.40677
G1 X161.706 Y189.309 E9.43482
G1 X161.646 Y189.411 E9.43875
G1 X160.991 Y190.477 E9.48036
G1 X160.609 Y191.082 E9.50416
G1 X160.13 Y191.719 E9.53067
G1 X159.221 Y192.787 E9.57732
G1 X158.719 Y193.356 E9.60255
G1 X158.199 Y193.862 E9.62669
G1 X158.097 Y193.952 E9.63121
G1 X157.078 Y194.821 E9.67575
G1 X156.521 Y195.282 E9.6998
G1 X155.915 Y195.709 E9.72446
G1 X155.818 Y195.771 E9.72829
G1 X154.677 Y196.471 E9.77281
G1 X154.054 Y196.841 E9.79691
G1 X153.319 Y197.199 E9.8241
G1 X153.213 Y197.245 E9.82795
G1 X151.991 Y197.751 E9.87194
G1 X151.354 Y198.004 E9.89473
G1 X150.638 Y198.224 E9.91965
G1 X150.523 Y198.254 E9.9236
G1 X149.191 Y198.574 E9.96916
G1 X148.525 Y198.724 E9.99187
G1 X148.031 Y198.805 E10.00852
G1 X147.536 Y198.855 E10.02506
G1 X146.306 Y198.951 E10.0661
G1 X145.59 Y198.997 E10.08996
G1 X144.778 Y198.982 E10.11697
G1 X144.668 Y198.975 E10.12064
G1 X143.382 Y198.873 E10.16355
G1 X142.672 Y198.807 E10.18726
G1 X141.916 Y198.675 E10.21279
G1 X141.798 Y198.649 E10.21681
G1 X140.532 Y198.346 E10.2601
G1 X139.803 Y198.16 E10.28513
G1 X139.02 Y197.889 E10.31269
G1 X138.916 Y197.848 E10.3164
G1 X137.733 Y197.358 E10.35899
G1 X137.084 Y197.079 E10.38249
G1 X136.381 Y196.704 E10.40899
G1 X135.165 Y195.961 E10.45639
G1 X134.561 Y195.579 E10.48016
G1 X133.885 Y195.067 E10.50836
G1 X132.862 Y194.194 E10.55309
G1 X132.302 Y193.702 E10.57788
G1 X131.721 Y193.098 E10.60576
G1 X131.645 Y193.012 E10.60958
G1 X130.817 Y192.041 E10.65202
G1 X130.363 Y191.493 E10.67569
G1 X129.935 Y190.885 E10.70042
G1 X129.873 Y190.788 E10.70425
G1 X129.169 Y189.64 E10.74904
G1 X128.803 Y189.024 E10.77287
G1 X128.445 Y188.289 E10.80006
G1 X128.399 Y188.183 E10.8039
G1 X127.895 Y186.964 E10.84778
G1 X127.641 Y186.326 E10.87062
G1 X127.496 Y185.89 E10.8859
G1 X127.299 Y185.162 E10.91098
G1 X126.745 Y183.059 E10.98332
G1 X125.979 Y180.452 E11.07369
G1 X125.139 Y177.861 E11.16428
G1 X124.222 Y175.294 E11.25495
G1 X123.263 Y172.828 E11.34295
G1 X122.183 Y170.261 E11.43558
G1 X121.061 Y167.799 E11.52557
G1 X119.868 Y165.362 E11.61581
G1 X118.62 Y162.989 E11.70499
G1 X117.285 Y160.612 E11.79566
G1 X115.867 Y158.251 E11.88726
G1 X114.411 Y155.972 E11.97721
G1 X112.906 Y153.757 E12.06628
G1 X111.301 Y151.534 E12.15748
G1 X109.654 Y149.384 E12.24755
G1 X107.921 Y147.248 E12.33904
G1 X106.196 Y145.239 E12.42711
G1 X104.339 Y143.201 E12.51881
G1 X102.445 Y141.234 E12.60964
G1 X100.516 Y139.341 E12.69953
G1 X98.54 Y137.508 E12.78917
G1 X96.481 Y135.707 E12.88016
G1 X94.401 Y133.986 E12.96995
G1 X92.256 Y132.312 E13.06045
G1 X90.068 Y130.702 E13.1508
G1 X87.846 Y129.161 E13.24073
G1 X85.564 Y127.673 E13.33134
G1 X83.234 Y126.246 E13.42222
G1 X80.896 Y124.904 E13.51188
G1 X78.486 Y123.609 E13.60288
G1 X76.106 Y122.415 E13.69144
G1 X73.605 Y121.249 E13.78322
G1 X71.107 Y120.169 E13.87374
G1 X68.586 Y119.162 E13.96403
G1 X66.064 Y118.237 E14.05337
G1 X63.476 Y117.37 E14.14415
G1 X59.702 Y116.249 E14.2751
G1 X58.968 Y116.046 E14.30043
G1 X58.435 Y115.858 E14.31922
G1 X57.934 Y115.596 E14.33803
G1 X57.475 Y115.266 E14.35683
G1 X57.068 Y114.874 E14.37562
G1 X56.719 Y114.429 E14.39443
G1 X56.436 Y113.94 E14.41323
G1 X56.226 Y113.415 E14.43203
G1 X56.091 Y112.866 E14.45084
G1 X56.036 Y112.315 E14.46925
G1 X56.024 Y111.869 E14.48409
G1 X56.024 Y84.644 E15.3896
G1 X56.035 Y83.937 E15.41312
G1 X56.092 Y83.323 E15.43363
G1 X56.182 Y82.919 E15.44739
G1 X56.415 Y82.072 E15.47661
G1 X57.116 Y79.373 E15.56936
G1 X57.724 Y76.728 E15.65963
G1 X58.252 Y74.081 E15.7494
G1 X58.713 Y71.384 E15.8404
G1 X59.093 Y68.712 E15.93017
G1 X59.139 Y68.3 E15.94396
G1 X59.283 Y67.175 E15.98168
G1 X59.398 Y66.547 E16.00292
G1 X59.495 Y66.14 E16.01683
G1 X59.708 Y65.494 E16.03946
G1 X60.035 Y64.788 E16.06533
G1 X60.389 Y64.191 E16.08842
G1 X60.855 Y63.578 E16.11403
G1 X61.298 Y63.101 E16.13568
G0 F3000 X61.568 Y63.395
G1 F1200 X62.167 Y62.882 E16.16191
G1 X62.679 Y62.528 E16.18261
G1 X63.352 Y62.17 E16.20797
G1 X63.927 Y61.934 E16.22864
G1 X64.657 Y61.731 E16.25384
G1 X64.959 Y61.665 E16.26412
G1 X65.957 Y61.492 E16.29781
G1 X68.682 Y60.979 E16.39004
G1 X71.302 Y60.409 E16.47922
G1 X73.966 Y59.749 E16.5705
G1 X76.63 Y59.009 E16.66246
G1 X79.205 Y58.216 E16.75208
G1 X81.774 Y57.343 E16.84232
G1 X84.351 Y56.386 E16.93375
G1 X86.874 Y55.367 E17.02425
G1 X89.376 Y54.272 E17.11509
G1 X91.837 Y53.112 E17.20558
G1 X94.278 Y51.875 E17.2966
G1 X96.654 Y50.587 E17.38649
G1 X99.022 Y49.214 E17.47753
G1 X101.347 Y47.777 E17.56844
G1 X103.605 Y46.291 E17.65834
G1 X105.871 Y44.705 E17.75034
G1 X108.031 Y43.103 E17.83978
G1 X110.208 Y41.389 E17.93194
G1 X112.279 Y39.661 E18.02165
G1 X114.32 Y37.858 E18.11223
G1 X116.316 Y35.994 E18.20306
G1 X118.241 Y34.088 E18.29316
G1 X120.132 Y32.111 E18.38415
G1 X121.978 Y30.065 E18.47581
G1 X123.743 Y27.996 E18.56626
G1 X125.442 Y25.885 E18.65639
G1 X127.053 Y23.765 E18.74495
G1 X127.74 Y22.835 E18.7834
G1 X128.09 Y22.428 E18.80126
G1 X128.496 Y22.078 E18.81909
G1 X128.95 Y21.793 E18.83692
G1 X129.441 Y21.578 E18.85474
G1 X129.959 Y21.438 E18.87259
G1 X130.535 Y21.375 E18.89186
G1 X130.959 Y21.365 E18.90597
G1 X159.383 Y21.365 E19.85135
G1 X160.081 Y21.374 E19.87457
G1 X160.616 Y21.421 E19.89243
G1 X161.137 Y21.547 E19.91026
G1 X161.634 Y21.749 E19.92811
G1 X162.095 Y22.022 E19.94593
G1 X162.511 Y22.361 E19.96377
G1 X162.872 Y22.757 E19.9816
G1 X163.17 Y23.203 E19.99944
G1 X163.398 Y23.689 E20.01729
G1 X163.551 Y24.203 E20.03513
G1 X163.634 Y24.873 E20.05758
G1 X163.644 Y25.295 E20.07162
G1 X163.644 Y179.651 E25.20553
G1 X163.631 Y180.462 E25.2325
G1 X163.593 Y181.096 E25.25363
G1 X163.504 Y182.224 E25.29126
G1 X163.438 Y182.935 E25.31501
G1 X163.313 Y183.647 E25.33905
G1 X162.988 Y185.012 E25.38572
G1 X162.803 Y185.738 E25.41064
G1 X162.545 Y186.48 E25.43677
G1 X162.507 Y186.576 E25.4402
G1 X162.03 Y187.726 E25.48161
G1 X161.736 Y188.407 E25.50628
G1 X161.359 Y189.11 E25.53282
G1 X161.305 Y189.201 E25.53634
G1 X160.653 Y190.263 E25.57778
G1 X160.271 Y190.868 E25.60158
G1 X159.818 Y191.469 E25.62661
G1 X158.876 Y192.575 E25.67493
G1 X158.42 Y193.091 E25.69784
G1 X157.929 Y193.567 E25.72058
G1 X157.838 Y193.648 E25.72463
G1 X156.823 Y194.513 E25.76899
G1 X156.266 Y194.974 E25.79304
G1 X155.696 Y195.374 E25.8162
G1 X155.609 Y195.43 E25.81964
G1 X154.472 Y196.127 E25.864
G1 X153.849 Y196.497 E25.8881
G1 X153.155 Y196.834 E25.91376
G1 X153.06 Y196.875 E25.9172
G1 X151.843 Y197.379 E25.96101
G1 X151.206 Y197.632 E25.9838
G1 X150.533 Y197.838 E26.00721
G1 X150.43 Y197.865 E26.01076
G1 X149.103 Y198.184 E26.05615
G1 X148.437 Y198.334 E26.07886
G1 X147.589 Y198.448 E26.10731
G1 X146.281 Y198.552 E26.15096
G1 X145.565 Y198.598 E26.17482
G1 X144.798 Y198.582 E26.20033
G1 X144.699 Y198.576 E26.20363
G1 X143.419 Y198.475 E26.24634
G1 X142.709 Y198.409 E26.27006
G1 X141.997 Y198.284 E26.2941
G1 X140.683 Y197.971 E26.33903
G1 X139.902 Y197.772 E26.36583
G1 X139.163 Y197.516 E26.39184
G1 X137.891 Y196.99 E26.43763
G1 X137.242 Y196.711 E26.46112
G1 X136.581 Y196.358 E26.48604
G1 X135.379 Y195.623 E26.53291
G1 X134.775 Y195.241 E26.55667
G1 X134.137 Y194.756 E26.58333
G1 X133.163 Y193.925 E26.62591
G1 X132.566 Y193.401 E26.65233
G1 X132.017 Y192.83 E26.67868
G1 X131.949 Y192.753 E26.6821
G1 X131.125 Y191.786 E26.72435
G1 X130.671 Y191.238 E26.74802
G1 X130.27 Y190.666 E26.77126
G1 X130.214 Y190.578 E26.77472
G1 X129.513 Y189.436 E26.81929
G1 X129.147 Y188.82 E26.84312
G1 X128.81 Y188.125 E26.86881
G1 X128.769 Y188.03 E26.87226
G1 X128.266 Y186.816 E26.91596
G1 X128.012 Y186.178 E26.9388
G1 X127.882 Y185.785 E26.95257
G1 X127.686 Y185.06 E26.97755
G1 X127.126 Y182.935 E27.05064
G1 X126.361 Y180.331 E27.14091
G1 X125.517 Y177.73 E27.23186
G1 X124.6 Y175.162 E27.32255
G1 X123.634 Y172.677 E27.41123
G1 X122.551 Y170.106 E27.50402
G1 X121.427 Y167.636 E27.59428
G1 X120.224 Y165.179 E27.68527
G1 X118.965 Y162.786 E27.7752
G1 X117.634 Y160.416 E27.86561
G1 X116.214 Y158.052 E27.95733
G1 X114.752 Y155.762 E28.0477
G1 X113.212 Y153.496 E28.13882
G1 X111.628 Y151.302 E28.22882
G1 X109.967 Y149.134 E28.31966
G1 X108.252 Y147.02 E28.4102
G1 X106.479 Y144.956 E28.5007
G1 X104.624 Y142.919 E28.59234
G1 X102.748 Y140.972 E28.68226
G1 X100.785 Y139.045 E28.77375
G1 X98.81 Y137.213 E28.86335
G1 X96.736 Y135.399 E28.95499
G1 X94.656 Y133.679 E29.04477
G1 X92.493 Y131.99 E29.13604
G1 X90.287 Y130.367 E29.22713
G1 X88.071 Y128.83 E29.31683
G1 X85.761 Y127.323 E29.40856
G1 X83.462 Y125.916 E29.49821
G1 X81.091 Y124.555 E29.58914
G1 X78.691 Y123.265 E29.67977
G1 X76.248 Y122.039 E29.77068
G1 X73.766 Y120.883 E29.86174
G1 X71.283 Y119.809 E29.95172
G1 X68.736 Y118.791 E30.04295
G1 X66.192 Y117.858 E30.13308
G1 X63.599 Y116.99 E30.22403
G1 X59.812 Y115.865 E30.35542
G1 X59.075 Y115.661 E30.38086
G1 X58.57 Y115.48 E30.3987
G1 X58.098 Y115.226 E30.41653
G1 X57.668 Y114.905 E30.43437
G1 X57.292 Y114.523 E30.4522
G1 X56.975 Y114.09 E30.47005
G1 X56.727 Y113.614 E30.4879
G1 X56.553 Y113.107 E30.50573
G1 X56.455 Y112.58 E30.52356
G1 X56.426 Y111.981 E30.5435
G1 X56.424 Y111.869 E30.54723
G1 X56.424 Y84.65 E31.45254
G1 X56.435 Y83.943 E31.47606
G1 X56.487 Y83.389 E31.49456
G1 X56.567 Y83.025 E31.50696
G1 X56.816 Y82.121 E31.53815
G1 X57.501 Y79.483 E31.6288
G1 X58.112 Y76.831 E31.71931
G1 X58.655 Y74.105 E31.81176
G1 X59.105 Y71.47 E31.90067
G1 X59.487 Y68.777 E31.99114
G1 X59.536 Y68.351 E32.0054
G1 X59.68 Y67.226 E32.04312
G1 X59.787 Y66.639 E32.06297
G1 X59.884 Y66.232 E32.07688
G1 X60.076 Y65.652 E32.0972
G1 X60.396 Y64.962 E32.1225
G1 X60.714 Y64.424 E32.14329
G1 X61.17 Y63.825 E32.16833
G1 X61.568 Y63.395 E32.18781
G0 F3000 X61.838 Y63.69
G1 F1200 X62.422 Y63.19 E32.21338
G1 X62.877 Y62.876 E32.23177
G1 X63.534 Y62.525 E32.25655
G1 X64.046 Y62.316 E32.27494
G1 X64.759 Y62.117 E32.29956
G1 X65.027 Y62.059 E32.30868
G1 X66.034 Y61.884 E32.34267
G1 X68.736 Y61.376 E32.43412
G1 X71.445 Y60.786 E32.52633
G1 X74.064 Y60.138 E32.61607
G1 X76.717 Y59.401 E32.70765
G1 X79.315 Y58.601 E32.79806
G1 X81.926 Y57.713 E32.88979
G1 X84.504 Y56.756 E32.98125
G1 X87.006 Y55.745 E33.071
G1 X89.557 Y54.629 E33.16362
G1 X91.995 Y53.479 E33.25327
G1 X94.456 Y52.233 E33.34502
G1 X96.881 Y50.918 E33.43677
G1 X99.228 Y49.557 E33.52701
G1 X101.556 Y48.118 E33.61803
G1 X103.832 Y46.62 E33.70866
G1 X106.092 Y45.039 E33.80039
G1 X108.31 Y43.393 E33.89226
G1 X110.428 Y41.726 E33.98191
G1 X112.536 Y39.967 E34.07322
G1 X114.592 Y38.151 E34.16446
G1 X116.588 Y36.288 E34.25527
G1 X118.547 Y34.347 E34.347
G1 X120.419 Y32.391 E34.43705
G1 X122.278 Y30.33 E34.52936
G1 X124.042 Y28.261 E34.61979
G1 X125.756 Y26.132 E34.7107
G1 X127.345 Y24.041 E34.79805
G1 X128.061 Y23.072 E34.83812
G1 X128.393 Y22.691 E34.85493
G1 X128.781 Y22.366 E34.87176
G1 X129.214 Y22.107 E34.88854
G1 X129.684 Y21.919 E34.90538
G1 X130.177 Y21.807 E34.9222
G1 X130.87 Y21.766 E34.94529
G1 X159.378 Y21.765 E35.89347
G1 X160.076 Y21.774 E35.91668
G1 X160.58 Y21.821 E35.93352
G1 X161.07 Y21.946 E35.95034
G1 X161.534 Y22.147 E35.96716
G1 X161.96 Y22.418 E35.98395
G1 X162.339 Y22.753 E36.00077
G1 X162.66 Y23.144 E36.0176
G1 X162.915 Y23.58 E36.0344
G1 X163.099 Y24.051 E36.05122
G1 X163.206 Y24.545 E36.06803
G1 X163.243 Y25.205 E36.09002
G1 X163.244 Y179.645 E41.22671
G1 X163.234 Y180.35 E41.25016
G1 X163.194 Y181.069 E41.27411
G1 X163.105 Y182.187 E41.31141
G1 X163.039 Y182.898 E41.33516
G1 X162.921 Y183.566 E41.35773
G1 X162.611 Y184.868 E41.40224
G1 X162.415 Y185.639 E41.4287
G1 X162.171 Y186.338 E41.45333
G1 X161.663 Y187.567 E41.49756
G1 X161.369 Y188.248 E41.52223
G1 X161.012 Y188.911 E41.54727
G1 X160.336 Y190.015 E41.59033
G1 X159.933 Y190.654 E41.61545
G1 X159.506 Y191.218 E41.63898
G1 X159.448 Y191.289 E41.64203
G1 X158.576 Y192.31 E41.68669
G1 X158.12 Y192.826 E41.70959
G1 X157.659 Y193.272 E41.73093
G1 X157.578 Y193.344 E41.73453
G1 X156.568 Y194.205 E41.77868
G1 X156.011 Y194.666 E41.80272
G1 X155.477 Y195.04 E41.82441
G1 X154.309 Y195.759 E41.87003
G1 X153.645 Y196.153 E41.89571
G1 X152.992 Y196.469 E41.91983
G1 X152.907 Y196.506 E41.92292
G1 X151.695 Y197.007 E41.96654
G1 X151.058 Y197.26 E41.98933
G1 X150.428 Y197.452 E42.01124
G1 X150.336 Y197.476 E42.0144
G1 X149.015 Y197.794 E42.05959
G1 X148.349 Y197.944 E42.0823
G1 X147.548 Y198.05 E42.10917
G1 X146.3 Y198.149 E42.15081
G1 X145.539 Y198.198 E42.17617
G1 X144.819 Y198.183 E42.20013
G1 X143.5 Y198.08 E42.24413
G1 X142.746 Y198.01 E42.26932
G1 X142.078 Y197.892 E42.29188
G1 X140.73 Y197.571 E42.33797
G1 X140.001 Y197.385 E42.36299
G1 X139.305 Y197.142 E42.38751
G1 X138.089 Y196.64 E42.43127
G1 X137.4 Y196.344 E42.45621
G1 X136.781 Y196.012 E42.47957
G1 X135.632 Y195.309 E42.52437
G1 X134.989 Y194.902 E42.54968
