;FLAVOR:Marlin
;TIME:7042
;Filament used: 4.32477m
;Layer height: 0.2
;MINX:41.218
;MINY:89.9
;MINZ:0.2
;MAXX:178.8
;MAXY:130.1
;MAXZ:32.8
;Generated with Cura_SteamEngine master
M82 ;absolute extrusion mode
;Sliced at: Tue 27-09-2022 20:05:04
;Basic settings: Layer height: 0.2 Walls: 0.8 Fill: 30.0
G21 ;metric values
G90 ;absolute positioning
M82 ;set extruder to absolute mode
M107 ;start with the fan off
M117 Start heating ...
M104 S200
M117 Homing X/Y ...
G28 X0 Y0 ;move X/Y to min endstops
M117 Homing Z ...
G28 Z0 ;move Z to min endstops
G1 Z15.0 F100 ;move the platform down 15mm
M117 Heating ...
M109 S200
M117 Start cleaning ...
G92 E0 ;zero the extruded length
G1 F200 E10 ;extrude 10mm of feed stock
G92 E0 ;zero the extruded length again
M117 Intro line ...
G1 Z2.0 F3000 ; Move Z Axis up little to prevent scratching of Heat Bed
G1 X0.1 Y20 Z0.2 F5000.0 ; Move to start position
G1 X0.1 Y200.0 Z0.2 F1500.0 E15 ; Draw the first line
G1 X0.4 Y200.0 Z0.2 F5000.0 ; Move to side a little
G1 X0.4 Y20 Z0.3 F1500.0 E30 ; Draw the second line
G92 E0 ; Reset Extruder
G1 E-1 F500 ; Retract filiment by 1 mm
G1 Z2.0 F3000 ; Move Z Axis up little to prevent scratching of Heat Bed
G1 X5 Y20 Z0.3 F100 ; Move over to prevent blob squish
G1 F100
G92 E0 ; Reset Extruder
M117 Printing...

G92 E0
G92 E0
G1 F1800 E-7
;LAYER_COUNT:164
;LAYER:0
M107
G1 F300 Z0.4
G0 F3000 X51.966 Y92.218 Z0.4
;TYPE:SKIRT
G1 F300 Z0.2
G1 F1800 E0
G1 F1200 X52.653 Y91.881 E0.02545
G1 X52.764 Y91.833 E0.02947
G1 X54.199 Y91.24 E0.08112
G1 X54.818 Y90.993 E0.10328
G1 X55.591 Y90.753 E0.1302
G1 X55.707 Y90.723 E0.13419
G1 X57.237 Y90.355 E0.18653
G1 X57.901 Y90.206 E0.20916
G1 X58.656 Y90.099 E0.23452
G1 X58.772 Y90.088 E0.2384
G1 X60.359 Y89.962 E0.29135
G1 X61.131 Y89.914 E0.31708
G1 X61.808 Y89.9 E0.3396
G1 X174.15 Y89.9 E4.07611
G1 X174.848 Y89.91 E4.09933
G1 X175.412 Y89.958 E4.11815
G1 X175.962 Y90.085 E4.13693
G1 X176.49 Y90.289 E4.15575
G1 X176.984 Y90.564 E4.17456
G1 X177.433 Y90.907 E4.19335
G1 X177.83 Y91.309 E4.21214
G1 X178.167 Y91.764 E4.23097
G1 X178.435 Y92.261 E4.24976
G1 X178.631 Y92.791 E4.26855
G1 X178.751 Y93.344 E4.28737
G1 X178.798 Y94.118 E4.31316
G1 X178.8 Y94.23 E4.31689
G1 X178.8 Y125.414 E5.35407
G1 X178.791 Y126.141 E5.37825
G1 X178.744 Y126.704 E5.39704
G1 X178.618 Y127.255 E5.41584
G1 X178.416 Y127.783 E5.43465
G1 X178.141 Y128.277 E5.45345
G1 X177.799 Y128.727 E5.47225
G1 X177.397 Y129.125 E5.49106
G1 X176.944 Y129.462 E5.50984
G1 X176.447 Y129.732 E5.52866
G1 X175.917 Y129.929 E5.54746
G1 X175.365 Y130.05 E5.56626
G1 X174.582 Y130.098 E5.59235
G1 X174.47 Y130.1 E5.59607
G1 X61.95 Y130.1 E9.33851
G1 X61.245 Y130.09 E9.36196
G1 X60.497 Y130.049 E9.38687
G1 X59.088 Y129.938 E9.43388
G1 X58.402 Y129.873 E9.4568
G1 X57.675 Y129.747 E9.48134
G1 X56.051 Y129.36 E9.53687
G1 X55.333 Y129.176 E9.56152
G1 X54.512 Y128.889 E9.59045
G1 X54.413 Y128.85 E9.59399
G1 X53.078 Y128.296 E9.64206
G1 X52.404 Y128.005 E9.66648
G1 X51.656 Y127.604 E9.6947
G1 X50.339 Y126.798 E9.74606
G1 X49.719 Y126.408 E9.77042
G1 X48.999 Y125.861 E9.8005
G1 X47.781 Y124.821 E9.85377
G1 X47.273 Y124.373 E9.87629
G1 X46.726 Y123.806 E9.9025
G1 X45.647 Y122.544 E9.95772
G1 X45.201 Y122.006 E9.98097
G1 X44.755 Y121.371 E10.00677
G1 X44.691 Y121.27 E10.01075
G1 X43.857 Y119.909 E10.06384
G1 X43.514 Y119.328 E10.08628
G1 X43.181 Y118.646 E10.11152
G1 X43.133 Y118.536 E10.11552
G1 X42.54 Y117.102 E10.16713
G1 X42.292 Y116.481 E10.18937
G1 X42.053 Y115.709 E10.21625
G1 X42.023 Y115.593 E10.22023
G1 X41.654 Y114.059 E10.27271
G1 X41.503 Y113.383 E10.29575
G1 X41.387 Y112.527 E10.32448
G1 X41.266 Y111.002 E10.37536
G1 X41.218 Y110.249 E10.40046
G1 X41.231 Y109.474 E10.42624
G1 X41.238 Y109.356 E10.43017
G1 X41.361 Y107.792 E10.48235
G1 X41.425 Y107.106 E10.50526
G1 X41.586 Y106.228 E10.53495
G1 X41.94 Y104.749 E10.58553
G1 X42.125 Y104.029 E10.61026
G1 X42.371 Y103.31 E10.63553
G1 X42.98 Y101.835 E10.68861
G1 X43.295 Y101.104 E10.71508
G1 X43.697 Y100.355 E10.74336
G1 X44.546 Y98.967 E10.79747
G1 X44.895 Y98.414 E10.81922
G1 X45.435 Y97.704 E10.84889
G1 X46.497 Y96.461 E10.90327
G1 X46.929 Y95.972 E10.92497
G1 X47.488 Y95.432 E10.95082
G1 X47.578 Y95.353 E10.9548
G1 X48.753 Y94.349 E11.00621
G1 X49.278 Y93.913 E11.02891
G1 X49.916 Y93.463 E11.05487
G1 X50.031 Y93.39 E11.0594
G1 X51.387 Y92.561 E11.11227
G1 X51.966 Y92.218 E11.13465
G0 F3000 X52.17 Y92.562
G1 F1200 X52.817 Y92.246 E11.1586
G1 X54.347 Y91.611 E11.21369
G1 X54.966 Y91.364 E11.23586
G1 X55.696 Y91.139 E11.26127
G1 X55.8 Y91.112 E11.26484
G1 X57.325 Y90.745 E11.31701
G1 X57.989 Y90.596 E11.33964
G1 X58.699 Y90.496 E11.36349
G1 X58.804 Y90.486 E11.367
G1 X60.384 Y90.361 E11.41972
G1 X61.147 Y90.314 E11.44514
G1 X61.813 Y90.3 E11.4673
G1 X174.145 Y90.3 E15.20348
G1 X174.843 Y90.31 E15.22669
G1 X175.377 Y90.358 E15.24453
G1 X175.898 Y90.484 E15.26235
G1 X176.395 Y90.687 E15.28021
G1 X176.856 Y90.961 E15.29805
G1 X177.271 Y91.3 E15.31587
G1 X177.631 Y91.698 E15.33372
G1 X177.928 Y92.144 E15.35154
G1 X178.156 Y92.63 E15.3694
G1 X178.308 Y93.144 E15.38722
G1 X178.39 Y93.809 E15.40951
G1 X178.4 Y94.23 E15.42352
G1 X178.4 Y125.409 E16.46053
G1 X178.391 Y126.136 E16.48471
G1 X178.344 Y126.67 E16.50254
G1 X178.219 Y127.191 E16.52036
G1 X178.017 Y127.688 E16.53821
G1 X177.744 Y128.15 E16.55606
G1 X177.406 Y128.566 E16.57388
G1 X177.009 Y128.927 E16.59173
G1 X176.563 Y129.225 E16.60957
G1 X176.078 Y129.453 E16.6274
G1 X175.564 Y129.607 E16.64524
G1 X174.892 Y129.69 E16.66776
G1 X174.47 Y129.7 E16.6818
G1 X61.956 Y129.7 E20.42403
G1 X61.15 Y129.687 E20.45085
G1 X60.525 Y129.65 E20.47167
G1 X59.125 Y129.54 E20.51838
G1 X58.439 Y129.475 E20.5413
G1 X57.757 Y129.355 E20.56433
G1 X57.653 Y129.332 E20.56787
G1 X56.086 Y128.957 E20.62146
G1 X55.432 Y128.789 E20.64392
G1 X54.655 Y128.516 E20.67131
G1 X54.566 Y128.481 E20.67449
G1 X53.237 Y127.929 E20.72236
G1 X52.563 Y127.638 E20.74677
G1 X51.857 Y127.258 E20.77344
G1 X50.514 Y126.435 E20.82583
G1 X49.932 Y126.069 E20.8487
G1 X49.252 Y125.551 E20.87713
G1 X48.046 Y124.521 E20.92988
G1 X47.538 Y124.073 E20.9524
G1 X47.023 Y123.538 E20.9771
G1 X45.955 Y122.289 E21.03176
G1 X45.509 Y121.751 E21.05501
G1 X45.09 Y121.152 E21.07932
G1 X45.032 Y121.061 E21.08291
G1 X44.202 Y119.705 E21.13579
G1 X43.859 Y119.124 E21.15823
G1 X43.546 Y118.482 E21.18198
G1 X42.929 Y116.996 E21.2355
G1 X42.664 Y116.333 E21.25925
G1 X42.439 Y115.604 E21.28462
G1 X42.412 Y115.5 E21.28819
G1 X42.045 Y113.972 E21.34046
G1 X41.894 Y113.296 E21.3635
G1 X41.785 Y112.486 E21.39068
G1 X41.661 Y110.917 E21.44303
G1 X41.617 Y110.224 E21.46613
G1 X41.63 Y109.493 E21.49044
G1 X41.755 Y107.883 E21.54415
G1 X41.824 Y107.144 E21.56884
G1 X41.977 Y106.313 E21.59694
G1 X42.343 Y104.785 E21.6492
G1 X42.512 Y104.128 E21.67177
G1 X42.745 Y103.452 E21.69555
G1 X43.37 Y101.939 E21.74999
G1 X43.662 Y101.262 E21.77452
G1 X44.043 Y100.556 E21.8012
G1 X44.885 Y99.181 E21.85483
G1 X45.234 Y98.628 E21.87658
G1 X45.746 Y97.956 E21.90467
G1 X46.797 Y96.726 E21.95848
G1 X47.229 Y96.237 E21.98019
G1 X47.757 Y95.728 E22.00458
G1 X48.971 Y94.689 E22.05773
G1 X49.534 Y94.221 E22.08208
G1 X50.137 Y93.797 E22.10659
G1 X50.24 Y93.732 E22.11064
G1 X51.591 Y92.905 E22.16333
G1 X52.17 Y92.562 E22.18571
G0 F3000 X52.374 Y92.906
G1 F1200 X52.981 Y92.611 E22.20816
G1 X53.07 Y92.572 E22.21139
G1 X54.495 Y91.983 E22.26268
G1 X55.114 Y91.736 E22.28484
G1 X55.801 Y91.525 E22.30875
G1 X55.894 Y91.501 E22.31194
G1 X57.412 Y91.136 E22.36387
G1 X58.076 Y90.987 E22.3865
G1 X58.742 Y90.894 E22.40887
G1 X58.835 Y90.885 E22.41198
G1 X60.41 Y90.76 E22.46453
G1 X61.164 Y90.714 E22.48965
G1 X61.817 Y90.7 E22.51137
G1 X174.139 Y90.7 E26.24722
G1 X174.837 Y90.71 E26.27044
G1 X175.34 Y90.757 E26.28724
G1 X175.83 Y90.883 E26.30407
G1 X176.294 Y91.085 E26.3209
G1 X176.72 Y91.357 E26.33771
G1 X177.098 Y91.692 E26.35451
G1 X177.418 Y92.083 E26.37131
G1 X177.673 Y92.52 E26.38814
G1 X177.856 Y92.991 E26.40495
G1 X177.963 Y93.485 E26.42176
G1 X177.999 Y94.14 E26.44358
G1 X178 Y125.404 E27.48342
G1 X177.991 Y126.131 E27.50761
G1 X177.945 Y126.634 E27.5244
G1 X177.82 Y127.124 E27.54122
G1 X177.619 Y127.588 E27.55804
G1 X177.348 Y128.015 E27.57486
G1 X177.013 Y128.394 E27.59169
G1 X176.623 Y128.715 E27.60849
G1 X176.187 Y128.971 E27.6253
G1 X175.716 Y129.154 E27.64211
G1 X175.222 Y129.262 E27.65893
G1 X174.56 Y129.299 E27.68098
G1 X61.962 Y129.3 E31.42601
G1 X61.257 Y129.29 E31.44946
G1 X60.552 Y129.251 E31.47294
G1 X59.163 Y129.142 E31.51928
G1 X58.477 Y129.077 E31.5422
G1 X57.838 Y128.964 E31.56378
G1 X56.237 Y128.582 E31.61853
G1 X55.532 Y128.401 E31.64274
G1 X54.798 Y128.143 E31.66861
G1 X53.396 Y127.562 E31.71909
G1 X52.722 Y127.271 E31.74351
G1 X52.057 Y126.912 E31.76864
G1 X50.726 Y126.097 E31.82055
G1 X50.144 Y125.731 E31.84342
G1 X49.505 Y125.24 E31.87022
G1 X49.446 Y125.192 E31.87275
G1 X48.31 Y124.221 E31.92246
G1 X47.802 Y123.773 E31.94498
G1 X47.32 Y123.269 E31.96818
G1 X47.261 Y123.203 E31.97112
G1 X46.262 Y122.033 E32.02229
G1 X45.816 Y121.495 E32.04554
G1 X45.424 Y120.933 E32.06833
G1 X45.373 Y120.853 E32.07148
G1 X44.546 Y119.502 E32.12417
G1 X44.203 Y118.921 E32.14661
G1 X43.911 Y118.318 E32.16889
G1 X43.283 Y116.806 E32.22335
G1 X43.035 Y116.185 E32.24559
G1 X42.825 Y115.499 E32.26945
G1 X42.801 Y115.406 E32.27264
G1 X42.435 Y113.885 E32.32467
G1 X42.284 Y113.209 E32.34771
G1 X42.183 Y112.445 E32.37334
G1 X42.06 Y110.892 E32.42516
G1 X42.016 Y110.199 E32.44826
G1 X42.03 Y109.513 E32.47108
G1 X42.154 Y107.914 E32.52442
G1 X42.222 Y107.181 E32.5489
G1 X42.368 Y106.398 E32.57539
G1 X42.718 Y104.935 E32.62543
G1 X42.9 Y104.228 E32.64971
G1 X43.119 Y103.594 E32.67202
G1 X43.719 Y102.141 E32.7243
G1 X44.03 Y101.421 E32.75039
G1 X44.389 Y100.756 E32.77552
G1 X45.223 Y99.394 E32.82864
G1 X45.572 Y98.841 E32.85039
G1 X46.056 Y98.208 E32.8769
G1 X47.097 Y96.99 E32.93019
G1 X47.529 Y96.501 E32.95189
G1 X48.025 Y96.024 E32.97478
G1 X49.23 Y94.993 E33.02752
G1 X49.79 Y94.528 E33.05173
G1 X50.357 Y94.131 E33.07475
G1 X50.448 Y94.073 E33.07834
G1 X51.795 Y93.249 E33.13086
G1 X52.374 Y92.906 E33.15325
G1 F1800 E26.15325
G1 F300 Z0.4
;MESH:camera.wroover.console.long.stl
G0 F3000 X60.744 Y113.153 Z0.4
;TYPE:WALL-INNER
G1 F300 Z0.2
G1 F1800 E33.15325
G1 F1200 X60.855 Y113.166 E33.15696
G1 X61.51 Y113.193 E33.17877
G1 X61.622 Y113.184 E33.1825
G1 X62.263 Y113.048 E33.2043
G1 X62.369 Y113.018 E33.20796
G1 X63.052 Y112.683 E33.23326
G1 X63.629 Y112.196 E33.25838
G1 X63.702 Y112.111 E33.2621
G1 X64.089 Y111.568 E33.28428
G1 X64.142 Y111.469 E33.28802
G1 X64.408 Y110.777 E33.31267
G1 X64.504 Y110.004 E33.33858
G1 X64.426 Y109.295 E33.36231
G1 X64.197 Y108.636 E33.38551
G1 X64.146 Y108.544 E33.38901
G1 X63.828 Y108.035 E33.40897
G1 X63.759 Y107.955 E33.41248
G1 X63.346 Y107.542 E33.43191
G1 X63.266 Y107.473 E33.43542
G1 X62.754 Y107.153 E33.45551
G1 X62.663 Y107.104 E33.45894
G1 X62.099 Y106.906 E33.47882
G1 X61.998 Y106.874 E33.48235
G1 X61.297 Y106.796 E33.50581
G1 X60.545 Y106.888 E33.53101
G1 X60.439 Y106.921 E33.5347
G1 X59.83 Y107.158 E33.55643
G1 X59.733 Y107.211 E33.56011
G1 X59.197 Y107.592 E33.58198
G1 X59.11 Y107.664 E33.58574
G1 X58.618 Y108.246 E33.61109
G1 X58.288 Y108.919 E33.63602
G1 X58.254 Y109.025 E33.63972
G1 X58.119 Y109.67 E33.66164
G1 X58.108 Y109.78 E33.66531
G1 X58.133 Y110.441 E33.68731
G1 X58.146 Y110.553 E33.69106
G1 X58.359 Y111.269 E33.71591
G1 X58.412 Y111.367 E33.71961
G1 X58.746 Y111.93 E33.74139
G1 X58.817 Y112.016 E33.7451
G1 X59.28 Y112.48 E33.7669
G1 X59.368 Y112.552 E33.77068
G1 X60.015 Y112.936 E33.7957
G1 X60.744 Y113.153 E33.821
G0 F3000 X60.825 Y112.76
;TYPE:WALL-OUTER
G1 F1200 X60.886 Y112.767 E33.82304
G1 X61.502 Y112.792 E33.84355
G1 X61.564 Y112.787 E33.84562
G1 X62.166 Y112.66 E33.86608
G1 X62.225 Y112.643 E33.86812
G1 X62.832 Y112.346 E33.8906
G1 X63.347 Y111.91 E33.91304
G1 X63.388 Y111.863 E33.91512
G1 X63.748 Y111.358 E33.93574
G1 X63.777 Y111.303 E33.93781
G1 X64.017 Y110.679 E33.96005
G1 X64.101 Y110.001 E33.98277
G1 X64.033 Y109.383 E34.00345
G1 X63.831 Y108.8 E34.02397
G1 X63.802 Y108.748 E34.02595
G1 X63.505 Y108.273 E34.04458
G1 X63.466 Y108.228 E34.04657
G1 X63.073 Y107.835 E34.06505
G1 X63.028 Y107.796 E34.06703
G1 X62.553 Y107.499 E34.08566
G1 X62.501 Y107.471 E34.08763
G1 X61.972 Y107.285 E34.10628
G1 X61.915 Y107.267 E34.10827
G1 X61.299 Y107.199 E34.12888
G1 X60.629 Y107.281 E34.15133
G1 X60.571 Y107.299 E34.15335
G1 X59.998 Y107.522 E34.1738
G1 X59.944 Y107.551 E34.17584
G1 X59.441 Y107.909 E34.19637
G1 X59.393 Y107.949 E34.19845
G1 X58.955 Y108.466 E34.22099
G1 X58.66 Y109.07 E34.24335
G1 X58.641 Y109.128 E34.24538
G1 X58.515 Y109.731 E34.26587
G1 X58.509 Y109.792 E34.2679
G1 X58.532 Y110.411 E34.28851
G1 X58.539 Y110.473 E34.29058
G1 X58.731 Y111.116 E34.3129
G1 X58.76 Y111.17 E34.31494
G1 X59.075 Y111.7 E34.33545
G1 X59.114 Y111.748 E34.3375
G1 X59.549 Y112.183 E34.35796
G1 X59.598 Y112.223 E34.36007
G1 X60.177 Y112.567 E34.38247
G1 X60.825 Y112.76 E34.40496
G0 F3000 X60.886 Y112.767
G0 X61.025 Y112.772
G0 X61.007 Y113.212
G1 F1800 E27.40496
G1 F300 Z0.4
G0 F3000 X61.001 Y113.372 Z0.4
G0 X174.2 Y125.5
;TYPE:WALL-INNER
G1 F300 Z0.2
G1 F1800 E34.40496
G1 F1200 X61.321 Y125.5 E38.15933
G1 X58.873 Y125.307 E38.241
G1 X56.519 Y124.742 E38.32152
G1 X54.264 Y123.808 E38.4027
G1 X52.188 Y122.536 E38.48368
G1 X50.342 Y120.958 E38.56445
G1 X48.764 Y119.112 E38.64522
G1 X47.492 Y117.036 E38.7262
G1 X46.558 Y114.781 E38.80738
G1 X45.993 Y112.427 E38.8879
G1 X45.801 Y110 E38.96888
G1 X45.993 Y107.573 E39.04985
G1 X46.558 Y105.219 E39.13037
G1 X47.492 Y102.964 E39.21155
G1 X48.764 Y100.888 E39.29253
G1 X50.342 Y99.042 E39.3733
G1 X52.188 Y97.464 E39.45407
G1 X54.264 Y96.192 E39.53505
G1 X56.519 Y95.258 E39.61623
G1 X58.873 Y94.693 E39.69675
G1 X61.321 Y94.5 E39.77842
G1 X174.2 Y94.5 E43.5328
G1 X174.2 Y125.5 E44.56386
G0 F3000 X174.6 Y125.9
;TYPE:WALL-OUTER
G1 F1200 X61.303 Y125.9 E48.33213
G1 X58.812 Y125.704 E48.41524
G1 X56.392 Y125.123 E48.49802
G1 X54.084 Y124.167 E48.58111
G1 X51.952 Y122.86 E48.66428
G1 X50.058 Y121.242 E48.74713
G1 X48.44 Y119.348 E48.82998
G1 X47.133 Y117.216 E48.91316
G1 X46.177 Y114.908 E48.99625
G1 X45.596 Y112.488 E49.07902
G1 X45.4 Y110 E49.16203
G1 X45.596 Y107.512 E49.24504
G1 X46.177 Y105.092 E49.32782
G1 X47.133 Y102.784 E49.41091
G1 X48.44 Y100.652 E49.49408
G1 X50.058 Y98.758 E49.57693
G1 X51.952 Y97.14 E49.65978
G1 X54.084 Y95.833 E49.74296
G1 X56.392 Y94.877 E49.82605
G1 X58.812 Y94.296 E49.90882
G1 X61.303 Y94.1 E49.99193
G1 X174.6 Y94.1 E53.7602
G1 X174.6 Y125.9 E54.81788
G0 F3000 X174.4 Y125.9
G0 X174.16 Y125.46
G0 X173.81 Y125.11
;TYPE:SKIN
G1 F1200 X61.326 Y125.11 E58.55911
G1 X58.937 Y124.921 E58.63882
G1 X56.647 Y124.372 E58.71714
G1 X54.437 Y123.456 E58.79671
G1 X52.414 Y122.217 E58.87561
G1 X50.618 Y120.682 E58.95419
G1 X49.083 Y118.886 E59.03277
G1 X47.844 Y116.863 E59.11167
G1 X46.928 Y114.653 E59.19124
G1 X46.379 Y112.363 E59.26957
G1 X46.191 Y110 E59.34841
G1 X46.379 Y107.637 E59.42725
G1 X46.928 Y105.347 E59.50557
G1 X47.844 Y103.137 E59.58514
G1 X49.083 Y101.114 E59.66404
G1 X50.618 Y99.318 E59.74262
G1 X52.414 Y97.783 E59.8212
G1 X54.437 Y96.544 E59.90011
G1 X56.647 Y95.628 E59.97967
G1 X58.937 Y95.079 E60.058
G1 X61.326 Y94.89 E60.13771
G1 X173.81 Y94.89 E63.87894
G1 X173.81 Y125.11 E64.88406
G1 F1800 E57.88406
G1 F300 Z0.4
G0 F3000 X173.81 Y125.3 Z0.4
G0 X64.789 Y110.872
G1 F300 Z0.2
G1 F1800 E64.88406
G1 F1200 X64.896 Y110.006 E64.91308
G1 X64.809 Y109.209 E64.93975
G1 X64.554 Y108.476 E64.96556
G1 X64.482 Y108.346 E64.9705
G1 X64.143 Y107.803 E64.99179
G1 X64.046 Y107.69 E64.99675
G1 X63.611 Y107.255 E65.01721
G1 X63.498 Y107.158 E65.02216
G1 X62.951 Y106.816 E65.04362
G1 X62.821 Y106.746 E65.04853
G1 X62.222 Y106.536 E65.06964
G1 X62.08 Y106.49 E65.07461
G1 X61.295 Y106.404 E65.10087
G1 X60.463 Y106.505 E65.12875
G1 X60.311 Y106.552 E65.13404
G1 X59.664 Y106.803 E65.15712
G1 X59.526 Y106.88 E65.16238
G1 X58.959 Y107.282 E65.18549
G1 X58.835 Y107.386 E65.19088
G1 X58.289 Y108.031 E65.21898
G1 X57.925 Y108.773 E65.24647
G1 X57.876 Y108.925 E65.25178
