;FLAVOR:Marlin
;TIME:15063
;Filament used: 8.94118m
;Layer height: 0.2
;MINX:74.83
;MINY:72.587
;MINZ:0.2
;MAXX:145.133
;MAXY:147.407
;MAXZ:32.4
;Generated with Cura_SteamEngine master
M82 ;absolute extrusion mode
;Sliced at: Sat 21-05-2022 12:11:40
;Basic settings: Layer height: 0.2 Walls: 0.8 Fill: 20
G21 ;metric values
G90 ;absolute positioning
M82 ;set extruder to absolute mode
M107 ;start with the fan off
M117 Start heating ...
M104 S200
M117 Homing X/Y ...
G28 X0 Y0 ;move X/Y to min endstops
M117 Homing Z ...
G28 Z0 ;move Z to min endstops
G1 Z15.0 F100 ;move the platform down 15mm
M117 Heating ...
M109 S200
M117 Start cleaning ...
G92 E0 ;zero the extruded length
G1 F200 E10 ;extrude 10mm of feed stock
G92 E0 ;zero the extruded length again
M117 Intro line ...
G1 Z2.0 F3000 ; Move Z Axis up little to prevent scratching of Heat Bed
G1 X0.1 Y20 Z0.2 F5000.0 ; Move to start position
G1 X0.1 Y200.0 Z0.2 F1500.0 E15 ; Draw the first line
G1 X0.4 Y200.0 Z0.2 F5000.0 ; Move to side a little
G1 X0.4 Y20 Z0.3 F1500.0 E30 ; Draw the second line
G92 E0 ; Reset Extruder
G1 E-1 F500 ; Retract filiment by 1 mm
G1 Z2.0 F3000 ; Move Z Axis up little to prevent scratching of Heat Bed
G1 X5 Y20 Z0.3 F100 ; Move over to prevent blob squish
G1 F100
G92 E0 ; Reset Extruder
M117 Printing...

G92 E0
G92 E0
G1 F1800 E-7
;LAYER_COUNT:161
;LAYER:0
M107
G1 F300 Z0.4
G0 F3000 X76.618 Y93.308 Z0.4
;TYPE:SKIRT
G1 F300 Z0.2
G1 F1800 E0
G1 F1200 X77.058 Y92.987 E0.01812
G1 X79.275 Y91.324 E0.11029
G1 X81.367 Y89.66 E0.1992
G1 X83.472 Y87.886 E0.29076
G1 X85.489 Y86.087 E0.38065
G1 X87.473 Y84.214 E0.4714
G1 X89.396 Y82.292 E0.56183
G1 X90.861 Y80.752 E0.63252
G1 X91.225 Y80.372 E0.65003
G1 X91.301 Y80.3 E0.65351
G1 X91.738 Y79.941 E0.67232
G1 X92.221 Y79.648 E0.69111
G1 X92.741 Y79.425 E0.70993
G1 X93.286 Y79.278 E0.7287
G1 X93.796 Y79.212 E0.7458
G1 X94.434 Y79.172 E0.76707
G1 X95.92 Y79.099 E0.81655
G1 X98.621 Y78.889 E0.90666
G1 X101.355 Y78.599 E0.9981
G1 X104.03 Y78.238 E1.08788
G1 X106.676 Y77.805 E1.17705
G1 X109.395 Y77.28 E1.26916
G1 X111.984 Y76.703 E1.35738
G1 X114.666 Y76.027 E1.44938
G1 X117.249 Y75.297 E1.53865
G1 X119.882 Y74.471 E1.63043
G1 X122.425 Y73.594 E1.7199
G1 X124.402 Y72.856 E1.79009
G1 X124.787 Y72.734 E1.80352
G1 X125.342 Y72.626 E1.82233
G1 X126.033 Y72.589 E1.84534
G1 X126.146 Y72.587 E1.8491
G1 X126.666 Y72.587 E1.8664
G1 X127.364 Y72.597 E1.88962
G1 X127.928 Y72.645 E1.90844
G1 X128.478 Y72.772 E1.92722
G1 X129.006 Y72.976 E1.94604
G1 X129.5 Y73.251 E1.96485
G1 X129.949 Y73.594 E1.98364
G1 X130.346 Y73.996 E2.00243
G1 X130.683 Y74.451 E2.02127
G1 X130.951 Y74.948 E2.04005
G1 X131.147 Y75.478 E2.05884
G1 X131.267 Y76.031 E2.07766
G1 X131.3 Y76.366 E2.08886
G1 X131.377 Y77.693 E2.13307
G1 X131.578 Y80.473 E2.22577
G1 X131.849 Y83.165 E2.31576
G1 X132.195 Y85.846 E2.40567
G1 X132.62 Y88.534 E2.49618
G1 X133.122 Y91.218 E2.587
G1 X133.687 Y93.827 E2.67579
G1 X134.342 Y96.484 E2.76681
G1 X135.067 Y99.101 E2.85713
G1 X135.869 Y101.71 E2.94791
G1 X136.738 Y104.278 E3.03808
G1 X137.686 Y106.836 E3.12882
G1 X138.695 Y109.341 E3.21864
G1 X139.785 Y111.839 E3.30929
G1 X140.927 Y114.266 E3.3985
G1 X142.165 Y116.717 E3.48983
G1 X143.454 Y119.099 E3.57991
G1 X144.393 Y120.723 E3.6423
G1 X144.617 Y121.125 E3.65761
G1 X144.857 Y121.637 E3.67642
G1 X145.022 Y122.178 E3.69523
G1 X145.121 Y122.949 E3.72108
G1 X145.133 Y123.398 E3.73602
G1 X145.133 Y142.721 E4.37871
G1 X145.124 Y143.448 E4.40289
G1 X145.077 Y144.011 E4.42168
G1 X144.951 Y144.562 E4.44048
G1 X144.749 Y145.09 E4.45928
G1 X144.474 Y145.584 E4.47809
G1 X144.132 Y146.034 E4.49689
G1 X143.73 Y146.432 E4.5157
G1 X143.277 Y146.769 E4.53448
G1 X142.78 Y147.039 E4.55329
G1 X142.25 Y147.236 E4.5721
G1 X141.698 Y147.357 E4.59089
G1 X140.915 Y147.405 E4.61698
G1 X140.803 Y147.407 E4.62071
G1 X101.395 Y147.407 E5.93143
G1 X100.698 Y147.397 E5.95461
G1 X100.172 Y147.366 E5.97214
G1 X97.842 Y147.167 E6.04991
G1 X95.11 Y147.014 E6.14092
G1 X92.436 Y146.938 E6.2299
G1 X89.692 Y146.938 E6.32116
G1 X87.021 Y147.014 E6.41004
G1 X84.263 Y147.17 E6.50191
G1 X82.785 Y147.286 E6.55122
G1 X81.659 Y147.383 E6.58881
G1 X81.118 Y147.405 E6.60682
G1 X81.003 Y147.407 E6.61065
G1 X79.483 Y147.407 E6.6612
G1 X78.785 Y147.397 E6.68442
G1 X78.221 Y147.349 E6.70325
G1 X77.671 Y147.222 E6.72202
G1 X77.143 Y147.018 E6.74085
G1 X76.649 Y146.743 E6.75965
G1 X76.2 Y146.4 E6.77845
G1 X75.803 Y145.998 E6.79724
G1 X75.466 Y145.543 E6.81607
G1 X75.198 Y145.046 E6.83485
G1 X75.002 Y144.516 E6.85364
G1 X74.882 Y143.963 E6.87247
G1 X74.834 Y143.173 E6.89879
G1 X74.833 Y105.405 E8.15496
G1 X74.836 Y105.185 E8.16228
G1 X74.83 Y103.2 E8.2283
G1 X74.833 Y97.316 E8.424
G1 X74.843 Y96.614 E8.44735
G1 X74.891 Y96.051 E8.46615
G1 X75.018 Y95.5 E8.48495
G1 X75.222 Y94.972 E8.50378
G1 X75.497 Y94.479 E8.52255
G1 X76.015 Y93.843 E8.54984
G1 X76.145 Y93.713 E8.55595
G1 X76.618 Y93.308 E8.57666
G0 F3000 X76.853 Y93.631
G1 F1200 X77.328 Y93.285 E8.59621
G1 X79.518 Y91.642 E8.68727
G1 X81.629 Y89.963 E8.77698
G1 X83.731 Y88.192 E8.8684
G1 X85.766 Y86.376 E8.95911
G1 X87.748 Y84.505 E9.04977
G1 X89.666 Y82.588 E9.13996
G1 X91.175 Y81.002 E9.21277
G1 X91.576 Y80.591 E9.23187
G1 X91.992 Y80.252 E9.24972
G1 X92.453 Y79.978 E9.26756
G1 X92.95 Y79.777 E9.28539
G1 X93.472 Y79.651 E9.30325
G1 X93.822 Y79.611 E9.31497
G1 X94.454 Y79.571 E9.33603
G1 X95.97 Y79.497 E9.38651
G1 X98.658 Y79.288 E9.47618
G1 X101.379 Y78.999 E9.56719
G1 X104.082 Y78.634 E9.65791
G1 X106.78 Y78.192 E9.74884
G1 X109.453 Y77.677 E9.83938
G1 X112.097 Y77.087 E9.92949
G1 X114.768 Y76.414 E10.0211
G1 X117.363 Y75.681 E10.11079
G1 X119.994 Y74.855 E10.20251
G1 X122.546 Y73.975 E10.29229
G1 X124.542 Y73.23 E10.36315
G1 X124.891 Y73.12 E10.37532
G1 X125.418 Y73.019 E10.39317
G1 X126.044 Y72.988 E10.41402
G1 X126.661 Y72.987 E10.43454
G1 X127.359 Y72.997 E10.45776
G1 X127.893 Y73.045 E10.47559
G1 X128.414 Y73.171 E10.49342
G1 X128.911 Y73.374 E10.51127
G1 X129.372 Y73.648 E10.52911
G1 X129.787 Y73.987 E10.54693
G1 X130.147 Y74.385 E10.56478
G1 X130.444 Y74.831 E10.5826
G1 X130.672 Y75.317 E10.60046
G1 X130.824 Y75.831 E10.61829
G1 X130.901 Y76.389 E10.63702
G1 X130.978 Y77.722 E10.68143
G1 X131.179 Y80.506 E10.77427
G1 X131.452 Y83.22 E10.86499
G1 X131.797 Y85.888 E10.95447
G1 X132.227 Y88.605 E11.04596
G1 X132.73 Y91.298 E11.13708
G1 X133.294 Y93.901 E11.22566
G1 X133.964 Y96.62 E11.3188
G1 X134.681 Y99.21 E11.40819
G1 X135.483 Y101.818 E11.49894
G1 X136.36 Y104.409 E11.58992
G1 X137.316 Y106.988 E11.6814
G1 X138.317 Y109.472 E11.77047
G1 X139.428 Y112.02 E11.86293
G1 X140.566 Y114.437 E11.95178
G1 X141.814 Y116.909 E12.04388
G1 X143.099 Y119.283 E12.13367
G1 X144.044 Y120.918 E12.19648
G1 X144.268 Y121.32 E12.21178
G1 X144.493 Y121.806 E12.2296
G1 X144.644 Y122.321 E12.24745
G1 X144.721 Y122.962 E12.26892
G1 X144.733 Y123.398 E12.28343
G1 X144.733 Y142.716 E12.92595
G1 X144.724 Y143.443 E12.95013
G1 X144.677 Y143.977 E12.96796
G1 X144.552 Y144.498 E12.98578
G1 X144.35 Y144.995 E13.00362
G1 X144.077 Y145.457 E13.02147
G1 X143.739 Y145.873 E13.0393
G1 X143.342 Y146.234 E13.05714
G1 X142.896 Y146.532 E13.07499
G1 X142.411 Y146.76 E13.09281
G1 X141.897 Y146.914 E13.11066
G1 X141.225 Y146.997 E13.13318
G1 X140.803 Y147.007 E13.14722
G1 X101.4 Y147.007 E14.45777
G1 X100.703 Y146.997 E14.48095
G1 X100.206 Y146.967 E14.49751
G1 X97.863 Y146.767 E14.57572
G1 X95.18 Y146.616 E14.6651
G1 X92.411 Y146.538 E14.75724
G1 X89.717 Y146.538 E14.84684
G1 X86.952 Y146.616 E14.93884
G1 X84.255 Y146.769 E15.02869
G1 X82.782 Y146.885 E15.07783
G1 X81.625 Y146.985 E15.11646
G1 X81.107 Y147.006 E15.1337
G1 X79.488 Y147.007 E15.18755
G1 X78.79 Y146.997 E15.21076
G1 X78.256 Y146.949 E15.2286
G1 X77.735 Y146.823 E15.24642
G1 X77.238 Y146.62 E15.26428
G1 X76.777 Y146.346 E15.28212
G1 X76.362 Y146.007 E15.29994
G1 X76.002 Y145.609 E15.31779
G1 X75.705 Y145.163 E15.33561
G1 X75.477 Y144.677 E15.35347
G1 X75.325 Y144.163 E15.37129
G1 X75.243 Y143.495 E15.39368
G1 X75.233 Y143.065 E15.40798
G1 X75.233 Y105.411 E16.66036
G1 X75.236 Y105.191 E16.66768
G1 X75.23 Y103.2 E16.7339
G1 X75.233 Y97.322 E16.9294
G1 X75.243 Y96.62 E16.95275
G1 X75.291 Y96.086 E16.97059
G1 X75.417 Y95.564 E16.98845
G1 X75.62 Y95.068 E17.00627
G1 X75.894 Y94.607 E17.02411
G1 X76.297 Y94.125 E17.04501
G1 X76.427 Y93.995 E17.05112
G1 X76.853 Y93.631 E17.06976
G0 F3000 X77.089 Y93.954
G1 F1200 X77.564 Y93.608 E17.0893
G1 X79.762 Y91.959 E17.1807
G1 X81.89 Y90.266 E17.27114
G1 X83.991 Y88.495 E17.36253
G1 X86.024 Y86.683 E17.45311
G1 X88.04 Y84.779 E17.54534
G1 X89.956 Y82.864 E17.63544
G1 X91.437 Y81.307 E17.70691
G1 X91.851 Y80.881 E17.72667
G1 X92.245 Y80.563 E17.74351
G1 X92.683 Y80.312 E17.7603
G1 X93.156 Y80.132 E17.77713
G1 X93.848 Y80.011 E17.8005
G1 X94.473 Y79.971 E17.82133
G1 X95.987 Y79.897 E17.87174
G1 X98.698 Y79.686 E17.96219
G1 X101.434 Y79.395 E18.0537
G1 X104.134 Y79.031 E18.14431
G1 X106.849 Y78.587 E18.23581
G1 X109.544 Y78.067 E18.3271
G1 X112.168 Y77.482 E18.41652
G1 X114.868 Y76.801 E18.50914
G1 X117.495 Y76.059 E18.59993
G1 X120.108 Y75.239 E18.69102
G1 X122.69 Y74.349 E18.78185
G1 X124.682 Y73.605 E18.85258
G1 X124.995 Y73.506 E18.8635
G1 X125.737 Y73.397 E18.88844
G1 X126.146 Y73.387 E18.90205
G1 X126.655 Y73.387 E18.91898
G1 X127.353 Y73.397 E18.94219
G1 X127.856 Y73.444 E18.959
G1 X128.346 Y73.57 E18.97582
G1 X128.81 Y73.772 E18.99266
G1 X129.236 Y74.044 E19.00947
G1 X129.614 Y74.379 E19.02627
G1 X129.934 Y74.77 E19.04307
G1 X130.189 Y75.207 E19.0599
G1 X130.372 Y75.678 E19.07671
G1 X130.502 Y76.412 E19.1015
G1 X130.579 Y77.751 E19.14611
G1 X130.781 Y80.538 E19.23905
G1 X131.053 Y83.244 E19.3295
G1 X131.404 Y85.965 E19.42075
G1 X131.831 Y88.663 E19.51161
G1 X132.341 Y91.391 E19.60391
G1 X132.909 Y94.01 E19.69304
G1 X133.568 Y96.687 E19.78474
G1 X134.3 Y99.33 E19.87596
G1 X135.105 Y101.948 E19.96705
G1 X135.982 Y104.539 E20.05803
G1 X136.941 Y107.128 E20.14986
G1 X137.955 Y109.645 E20.24012
G1 X139.051 Y112.156 E20.33124
G1 X140.233 Y114.668 E20.42358
G1 X141.447 Y117.073 E20.51318
G1 X142.758 Y119.495 E20.60478
G1 X143.694 Y121.112 E20.66692
G1 X143.918 Y121.514 E20.68223
G1 X144.129 Y121.974 E20.69906
G1 X144.264 Y122.461 E20.71587
G1 X144.321 Y122.974 E20.73304
G1 X144.333 Y123.398 E20.74715
G1 X144.333 Y142.711 E21.3895
G1 X144.324 Y143.438 E21.41368
G1 X144.278 Y143.941 E21.43048
G1 X144.153 Y144.431 E21.4473
G1 X143.952 Y144.895 E21.46412
G1 X143.681 Y145.322 E21.48094
G1 X143.346 Y145.701 E21.49776
G1 X142.956 Y146.022 E21.51456
G1 X142.52 Y146.278 E21.53138
G1 X142.049 Y146.461 E21.54819
G1 X141.555 Y146.569 E21.565
G1 X140.893 Y146.606 E21.58706
G1 X101.406 Y146.607 E22.9004
G1 X100.709 Y146.597 E22.92359
G1 X100.24 Y146.568 E22.93921
G1 X97.92 Y146.37 E23.01666
G1 X95.178 Y146.216 E23.108
G1 X92.422 Y146.138 E23.1997
G1 X89.706 Y146.138 E23.29004
G1 X86.953 Y146.216 E23.38164
G1 X84.203 Y146.372 E23.47325
G1 X82.748 Y146.486 E23.52179
G1 X81.591 Y146.586 E23.56042
G1 X81.003 Y146.607 E23.57999
G1 X79.494 Y146.607 E23.63018
G1 X78.796 Y146.597 E23.6534
G1 X78.293 Y146.55 E23.6702
G1 X77.803 Y146.424 E23.68703
G1 X77.339 Y146.222 E23.70386
G1 X76.913 Y145.95 E23.72067
G1 X76.535 Y145.615 E23.73747
G1 X76.215 Y145.224 E23.75427
G1 X75.96 Y144.787 E23.7711
G1 X75.777 Y144.316 E23.78791
G1 X75.67 Y143.822 E23.80472
G1 X75.634 Y143.152 E23.82704
G1 X75.633 Y105.416 E25.08214
G1 X75.636 Y105.196 E25.08946
G1 X75.63 Y103.2 E25.15584
G1 X75.633 Y97.327 E25.35118
G1 X75.643 Y96.625 E25.37453
G1 X75.69 Y96.122 E25.39134
G1 X75.816 Y95.632 E25.40816
G1 X76.018 Y95.169 E25.42496
G1 X76.289 Y94.742 E25.44179
G1 X76.71 Y94.278 E25.46262
G1 X77.089 Y93.954 E25.47921
G1 F1800 E18.47921
G1 F300 Z0.4
G0 F3000 X79.046 Y96.735 Z0.4
;TYPE:SUPPORT
G1 F300 Z0.2
G1 F1800 E25.47921
G1 F1200 X83.433 Y96.734 E25.62512
G1 X83.433 Y102.884 E25.82967
G1 X79.033 Y102.885 E25.97601
G1 X79.033 Y96.748 E26.18013
G1 X79.046 Y96.735 E26.18074
G0 F3000 X80.01 Y96.894
G1 F1200 X80.01 Y102.725 E26.37468
G1 F1800 E19.37468
G1 F300 Z0.4
G0 F3000 X79.193 Y101.346 Z0.4
G1 F300 Z0.2
G1 F1800 E26.37468
G1 F1200 X83.273 Y101.346 E26.51038
G1 F1800 E19.51038
G1 F300 Z0.4
G0 F3000 X82.677 Y102.725 Z0.4
G1 F300 Z0.2
G1 F1800 E26.51038
G1 F1200 X82.677 Y96.894 E26.70432
G1 F1800 E19.70432
G1 F300 Z0.4
G0 F3000 X83.273 Y98.679 Z0.4
G1 F300 Z0.2
G1 F1800 E26.70432
G1 F1200 X79.193 Y98.679 E26.84003
G1 F1800 E19.84003
G1 F300 Z0.4
G0 F3000 X94.129 Y89.544 Z0.4
G1 F300 Z0.2
G1 F1800 E26.84003
G1 F1200 X94.129 Y83.395 E27.04454
G1 X98.629 Y83.395 E27.19421
G1 X98.629 Y89.544 E27.39873
G1 X94.129 Y89.544 E27.5484
G1 F1800 E20.5484
G1 F300 Z0.4
G0 F3000 X94.289 Y88.011 Z0.4
G1 F300 Z0.2
G1 F1800 E27.5484
G1 F1200 X98.469 Y88.011 E27.68743
G1 F1800 E20.68743
G1 F300 Z0.4
G0 F3000 X98.469 Y85.344 Z0.4
G1 F300 Z0.2
G1 F1800 E27.68743
G1 F1200 X94.289 Y85.344 E27.82645
G1 F1800 E20.82645
G1 F300 Z0.4
G0 F3000 X96.012 Y83.555 Z0.4
G1 F300 Z0.2
G1 F1800 E27.82645
G1 F1200 X96.012 Y89.384 E28.02033
G1 F1800 E21.02033
G1 F300 Z0.4
G0 F3000 X93.133 Y128.068 Z0.4
G1 F300 Z0.2
G1 F1800 E28.02033
G1 F1200 X93.133 Y129.868 E28.0802
G1 X90.533 Y129.868 E28.16667
G1 X90.533 Y128.068 E28.22654
G1 X93.133 Y128.068 E28.31302
G1 F1800 E21.31302
G1 F300 Z0.4
G0 F3000 X83.691 Y132.036 Z0.4
G1 F300 Z0.2
G1 F1800 E28.31302
G1 F1200 X82.333 Y137.459 E28.49896
G1 X82.333 Y131.245 E28.70563
G1 X83.085 Y131.245 E28.73065
G1 X83.691 Y132.036 E28.76379
G0 F3000 X82.677 Y131.405
G1 F1200 X82.677 Y135.426 E28.89753
G1 F1800 E21.89753
G1 F300 Z0.4
G0 F3000 X82.492 Y133.35 Z0.4
G1 F300 Z0.2
G1 F1800 E28.89753
G1 F1200 X83.195 Y133.35 E28.92091
G1 F1800 E21.92091
G1 F300 Z0.4
;MESH:camera.attached.to.lamp_reverse_full_esp32.wroover.amf 3
G0 F3000 X126.416 Y105.187 Z0.4
;TYPE:WALL-INNER
G1 F300 Z0.2
G1 F1800 E28.92091
G1 F1200 X126.416 Y77.187 E29.85219
G1 X126.716 Y77.187 E29.86217
G1 X126.716 Y105.387 E30.63848
G1 X124.216 Y105.387 E30.72163
G1 X100.416 Y105.387 E31.51322
G1 X98.229 Y105.387 E31.58596
G1 X94.529 Y105.387 E31.70903
G1 X94.529 Y92.016 E32.15375
G1 X98.229 Y92.016 E32.27681
G1 X98.229 Y105.187 E32.71488
G1 X100.416 Y105.187 E32.75134
G1 X100.416 Y103.187 E32.81786
G1 X101.766 Y103.187 E32.86276
G1 X101.766 Y98.587 E33.01576
G1 X100.416 Y98.587 E33.06066
G1 X100.416 Y97.787 E33.08727
G1 X104.216 Y97.787 E33.21366
G1 X104.216 Y103.587 E33.40657
G1 X120.416 Y103.587 E33.94538
G1 X120.416 Y97.787 E34.13829
G1 X124.216 Y97.787 E34.26468
G1 X124.216 Y98.587 E34.29129
G1 X122.866 Y98.587 E34.33619
G1 X122.866 Y103.187 E34.48918
G1 X124.216 Y103.187 E34.53408
G1 X124.216 Y105.187 E34.6006
G1 X126.416 Y105.187 E34.65047
G0 F3000 X126.016 Y104.787
;TYPE:WALL-OUTER
G1 F1200 X126.016 Y76.787 E35.58175
G1 X127.116 Y76.787 E35.61834
G1 X127.116 Y105.787 E36.58288
G1 X94.129 Y105.787 E37.68003
G1 X94.129 Y91.616 E38.15136
G1 X98.629 Y91.616 E38.30103
G1 X98.629 Y104.787 E38.7391
G1 X100.016 Y104.787 E38.78523
G1 X100.016 Y102.787 E38.85175
G1 X101.366 Y102.787 E38.89665
G1 X101.366 Y98.987 E39.02304
G1 X100.016 Y98.987 E39.06794
G1 X100.016 Y97.387 E39.12116
G1 X104.616 Y97.387 E39.27416
G1 X104.616 Y103.187 E39.46706
G1 X120.016 Y103.187 E39.97927
G1 X120.016 Y97.387 E40.17218
G1 X124.616 Y97.387 E40.32518
G1 X124.616 Y98.987 E40.37839
G1 X123.266 Y98.987 E40.42329
G1 X123.266 Y102.787 E40.54968
G1 X124.616 Y102.787 E40.59458
G1 X124.616 Y104.787 E40.6611
G1 X126.016 Y104.787 E40.70767
G0 F3000 X126.016 Y104.587
G0 X126.456 Y104.587
G0 X124.106 Y104.997
G0 X123.826 Y104.997
;TYPE:SKIN
G1 F1200 X100.806 Y104.997 E41.47332
G1 X100.806 Y103.577 E41.52055
G1 X102.156 Y103.577 E41.56545
G1 X102.156 Y98.197 E41.74439
G1 X100.806 Y98.197 E41.78929
G1 X100.806 Y98.177 E41.78995
G1 X103.826 Y98.177 E41.8904
G1 X103.826 Y103.977 E42.08331
G1 X120.806 Y103.977 E42.64806
G1 X120.806 Y98.177 E42.84097
G1 X123.826 Y98.177 E42.94142
G1 X123.826 Y98.197 E42.94208
G1 X122.476 Y98.197 E42.98699
G1 X122.476 Y103.577 E43.16592
G1 X123.826 Y103.577 E43.21083
G1 X123.826 Y104.997 E43.25806
G0 F3000 X124.106 Y104.997
G0 X124.034 Y103.369
G0 X123.038 Y103.015
G0 X122.756 Y98.536
