;FLAVOR:Marlin
;TIME:2652
;Filament used: 1.51081m
;Layer height: 0.2
;MINX:71.524
;MINY:97
;MINZ:0.2
;MAXX:148.5
;MAXY:123
;MAXZ:32.2
;Generated with Cura_SteamEngine master
M82 ;absolute extrusion mode
;Sliced at: Fri 30-09-2022 13:15:31
;Basic settings: Layer height: 0.2 Walls: 0.8 Fill: 30.0
G21 ;metric values
G90 ;absolute positioning
M82 ;set extruder to absolute mode
M107 ;start with the fan off
M117 Start heating ...
M104 S200
M117 Homing X/Y ...
G28 X0 Y0 ;move X/Y to min endstops
M117 Homing Z ...
G28 Z0 ;move Z to min endstops
G1 Z15.0 F100 ;move the platform down 15mm
M117 Heating ...
M109 S200
M117 Start cleaning ...
G92 E0 ;zero the extruded length
G1 F200 E10 ;extrude 10mm of feed stock
G92 E0 ;zero the extruded length again
M117 Intro line ...
G1 Z2.0 F3000 ; Move Z Axis up little to prevent scratching of Heat Bed
G1 X0.1 Y20 Z0.2 F5000.0 ; Move to start position
G1 X0.1 Y200.0 Z0.2 F1500.0 E15 ; Draw the first line
G1 X0.4 Y200.0 Z0.2 F5000.0 ; Move to side a little
G1 X0.4 Y20 Z0.3 F1500.0 E30 ; Draw the second line
G92 E0 ; Reset Extruder
G1 E-1 F500 ; Retract filiment by 1 mm
G1 Z2.0 F3000 ; Move Z Axis up little to prevent scratching of Heat Bed
G1 X5 Y20 Z0.3 F100 ; Move over to prevent blob squish
G1 F100
G92 E0 ; Reset Extruder
M117 Printing...

G92 E0
G92 E0
G1 F1800 E-7
;LAYER_COUNT:161
;LAYER:0
M107
G1 F300 Z0.4
G0 F3000 X77.01 Y99.399 Z0.4
;TYPE:SKIRT
G1 F300 Z0.2
G1 F1800 E0
G1 F1200 X77.573 Y99.023 E0.02252
G1 X78.219 Y98.666 E0.04707
G1 X78.615 Y98.454 E0.06201
G1 X79.234 Y98.136 E0.08515
G1 X79.843 Y97.884 E0.10707
G1 X80.556 Y97.657 E0.13196
G1 X80.925 Y97.545 E0.14479
G1 X81.64 Y97.339 E0.16953
G1 X82.3 Y97.208 E0.19191
G1 X83.048 Y97.124 E0.21695
G1 X83.476 Y97.082 E0.23125
G1 X83.984 Y97.04 E0.24821
G1 X84.229 Y97.027 E0.25637
G1 X85.538 Y97 E0.29991
G1 X143.85 Y97 E2.23938
G1 X144.548 Y97.01 E2.2626
G1 X145.112 Y97.058 E2.28142
G1 X145.662 Y97.185 E2.3002
G1 X146.19 Y97.389 E2.31902
G1 X146.684 Y97.664 E2.33783
G1 X147.133 Y98.007 E2.35662
G1 X147.53 Y98.409 E2.37541
G1 X147.867 Y98.864 E2.39425
G1 X148.135 Y99.361 E2.41303
G1 X148.331 Y99.891 E2.43182
G1 X148.451 Y100.444 E2.45064
G1 X148.498 Y101.218 E2.47643
G1 X148.5 Y101.33 E2.48016
G1 X148.5 Y118.314 E3.04505
G1 X148.491 Y119.041 E3.06923
G1 X148.444 Y119.604 E3.08802
G1 X148.318 Y120.155 E3.10682
G1 X148.116 Y120.683 E3.12562
G1 X147.841 Y121.177 E3.14443
G1 X147.499 Y121.627 E3.16323
G1 X147.097 Y122.025 E3.18204
G1 X146.644 Y122.362 E3.20082
G1 X146.147 Y122.632 E3.21963
G1 X145.617 Y122.829 E3.23844
G1 X145.065 Y122.95 E3.25723
G1 X144.282 Y122.998 E3.28333
G1 X144.17 Y123 E3.28705
G1 X85.153 Y123 E5.24996
G1 X84.63 Y122.993 E5.26736
G1 X84.373 Y122.981 E5.27592
G1 X83.142 Y122.885 E5.31699
G1 X83.005 Y122.872 E5.32156
G1 X82.296 Y122.792 E5.34529
G1 X81.639 Y122.661 E5.36758
G1 X80.941 Y122.46 E5.39174
G1 X80.497 Y122.325 E5.40717
G1 X79.852 Y122.12 E5.42968
G1 X79.228 Y121.862 E5.45214
G1 X78.542 Y121.507 E5.47783
G1 X78.208 Y121.327 E5.49045
G1 X77.566 Y120.972 E5.51485
G1 X77.01 Y120.601 E5.53708
G1 X76.431 Y120.139 E5.56172
G1 X76.114 Y119.879 E5.57535
G1 X75.551 Y119.402 E5.5999
G1 X75.08 Y118.929 E5.6221
G1 X74.594 Y118.353 E5.64716
G1 X74.344 Y118.048 E5.66028
G1 X73.892 Y117.479 E5.68445
G1 X73.506 Y116.898 E5.70765
G1 X73.162 Y116.273 E5.73138
G1 X72.956 Y115.887 E5.74593
G1 X72.635 Y115.263 E5.76927
G1 X72.382 Y114.65 E5.79133
G1 X72.157 Y113.944 E5.81597
G1 X72.045 Y113.575 E5.8288
G1 X71.839 Y112.86 E5.85355
G1 X71.708 Y112.2 E5.87593
G1 X71.624 Y111.452 E5.90096
G1 X71.582 Y111.028 E5.91513
G1 X71.524 Y110.335 E5.93826
G1 X71.524 Y109.665 E5.96055
G1 X71.587 Y108.926 E5.98522
G1 X71.629 Y108.501 E5.99942
G1 X71.71 Y107.788 E6.02329
G1 X71.84 Y107.134 E6.04546
G1 X72.04 Y106.441 E6.06945
G1 X72.174 Y105.999 E6.08482
G1 X72.378 Y105.356 E6.10725
G1 X72.637 Y104.73 E6.12979
G1 X72.993 Y104.042 E6.15555
G1 X73.177 Y103.701 E6.16844
G1 X73.535 Y103.057 E6.19294
G1 X73.806 Y102.633 E6.20968
G1 X73.929 Y102.471 E6.21645
G1 X74.361 Y101.931 E6.23945
G1 X74.622 Y101.614 E6.2531
G1 X75.1 Y101.05 E6.27769
G1 X75.573 Y100.577 E6.29994
G1 X76.173 Y100.072 E6.32603
G1 X76.445 Y99.85 E6.3377
G1 X77.01 Y99.399 E6.36175
G0 F3000 X77.259 Y99.711
G1 F1200 X77.766 Y99.373 E6.38202
G1 X78.408 Y99.019 E6.4064
G1 X78.798 Y98.81 E6.42112
G1 X79.417 Y98.492 E6.44426
G1 X79.965 Y98.265 E6.46399
G1 X80.672 Y98.04 E6.48867
G1 X81.035 Y97.93 E6.50128
G1 X81.75 Y97.724 E6.52603
G1 X82.344 Y97.606 E6.54617
G1 X83.088 Y97.522 E6.57108
G1 X83.509 Y97.48 E6.58515
G1 X84.017 Y97.438 E6.6021
G1 X84.238 Y97.427 E6.60946
G1 X85.538 Y97.4 E6.65271
G1 X143.845 Y97.4 E8.59201
G1 X144.543 Y97.41 E8.61523
G1 X145.077 Y97.458 E8.63306
G1 X145.598 Y97.584 E8.65089
G1 X146.095 Y97.787 E8.66874
G1 X146.556 Y98.061 E8.68658
G1 X146.971 Y98.4 E8.7044
G1 X147.331 Y98.798 E8.72225
G1 X147.628 Y99.244 E8.74007
G1 X147.856 Y99.73 E8.75793
G1 X148.008 Y100.244 E8.77576
G1 X148.09 Y100.909 E8.79804
G1 X148.1 Y101.33 E8.81205
G1 X148.1 Y118.309 E9.37677
G1 X148.091 Y119.036 E9.40095
G1 X148.044 Y119.57 E9.41878
G1 X147.919 Y120.091 E9.4366
G1 X147.717 Y120.588 E9.45445
G1 X147.444 Y121.05 E9.4723
G1 X147.106 Y121.466 E9.49012
G1 X146.709 Y121.827 E9.50797
G1 X146.263 Y122.125 E9.52581
G1 X145.778 Y122.353 E9.54364
G1 X145.264 Y122.507 E9.56148
G1 X144.592 Y122.59 E9.584
G1 X144.17 Y122.6 E9.59804
G1 X85.159 Y122.6 E11.56076
G1 X84.636 Y122.593 E11.57815
G1 X84.404 Y122.582 E11.58588
G1 X83.173 Y122.486 E11.62695
G1 X83.049 Y122.474 E11.63109
G1 X82.34 Y122.394 E11.65482
G1 X81.749 Y122.277 E11.67486
G1 X81.058 Y122.078 E11.69878
G1 X80.619 Y121.944 E11.71404
G1 X79.974 Y121.739 E11.73655
G1 X79.412 Y121.506 E11.75679
G1 X78.731 Y121.155 E11.78227
G1 X78.402 Y120.977 E11.79471
G1 X77.76 Y120.622 E11.81911
G1 X77.259 Y120.288 E11.83914
G1 X76.684 Y119.829 E11.86361
G1 X76.373 Y119.574 E11.87698
G1 X75.81 Y119.097 E11.90153
G1 X75.385 Y118.671 E11.92154
G1 X74.903 Y118.099 E11.94642
G1 X74.657 Y117.799 E11.95932
G1 X74.205 Y117.23 E11.98349
G1 X73.856 Y116.705 E12.00446
G1 X73.515 Y116.084 E12.02802
G1 X73.312 Y115.704 E12.04235
G1 X72.991 Y115.08 E12.06569
G1 X72.763 Y114.528 E12.08556
G1 X72.54 Y113.828 E12.10999
G1 X72.43 Y113.465 E12.12261
G1 X72.224 Y112.75 E12.14736
G1 X72.106 Y112.156 E12.1675
G1 X72.022 Y111.412 E12.1924
G1 X71.981 Y110.994 E12.20637
G1 X71.923 Y110.301 E12.2295
G1 X71.923 Y109.699 E12.24952
G1 X71.985 Y108.965 E12.27402
G1 X72.026 Y108.547 E12.28799
G1 X72.107 Y107.834 E12.31186
G1 X72.224 Y107.245 E12.33183
G1 X72.422 Y106.558 E12.35561
G1 X72.556 Y106.12 E12.37085
G1 X72.76 Y105.477 E12.39328
G1 X72.993 Y104.914 E12.41355
G1 X73.345 Y104.231 E12.43911
G1 X73.526 Y103.895 E12.4518
G1 X73.884 Y103.251 E12.47631
G1 X74.241 Y102.721 E12.49756
G1 X74.671 Y102.184 E12.52044
G1 X74.927 Y101.872 E12.53386
G1 X75.405 Y101.308 E12.55845
G1 X75.831 Y100.883 E12.57847
G1 X76.427 Y100.382 E12.60436
G1 X76.694 Y100.162 E12.61587
G1 X77.259 Y99.711 E12.63992
G0 F3000 X77.509 Y100.024
G1 F1200 X77.959 Y99.723 E12.65792
G1 X78.598 Y99.371 E12.68219
G1 X78.981 Y99.166 E12.69664
G1 X79.6 Y98.848 E12.71978
G1 X80.087 Y98.646 E12.73732
G1 X80.788 Y98.422 E12.76179
G1 X81.146 Y98.314 E12.77423
G1 X81.861 Y98.108 E12.79898
G1 X82.389 Y98.003 E12.81688
G1 X83.128 Y97.92 E12.84162
G1 X83.542 Y97.879 E12.85546
G1 X84.05 Y97.837 E12.87241
G1 X84.246 Y97.827 E12.87894
G1 X85.538 Y97.8 E12.92192
G1 X143.839 Y97.8 E14.86102
G1 X144.537 Y97.81 E14.88424
G1 X145.04 Y97.857 E14.90104
G1 X145.53 Y97.983 E14.91787
G1 X145.994 Y98.185 E14.9347
G1 X146.42 Y98.457 E14.95151
G1 X146.798 Y98.792 E14.96831
G1 X147.118 Y99.183 E14.98511
G1 X147.373 Y99.62 E15.00194
G1 X147.556 Y100.091 E15.01875
G1 X147.663 Y100.585 E15.03556
G1 X147.699 Y101.24 E15.05738
G1 X147.7 Y118.304 E15.62493
G1 X147.691 Y119.031 E15.64911
G1 X147.645 Y119.534 E15.66591
G1 X147.52 Y120.024 E15.68273
G1 X147.319 Y120.488 E15.69955
G1 X147.048 Y120.915 E15.71637
G1 X146.713 Y121.294 E15.73319
G1 X146.323 Y121.615 E15.74999
G1 X145.887 Y121.871 E15.76681
G1 X145.416 Y122.054 E15.78361
G1 X144.922 Y122.162 E15.80043
G1 X144.26 Y122.199 E15.82249
G1 X85.164 Y122.2 E17.78803
G1 X84.641 Y122.193 E17.80542
G1 X84.435 Y122.183 E17.81228
G1 X83.094 Y122.077 E17.85702
G1 X82.385 Y121.997 E17.88076
G1 X81.86 Y121.892 E17.89856
G1 X81.174 Y121.695 E17.9223
G1 X80.74 Y121.563 E17.93739
G1 X80.095 Y121.358 E17.9599
G1 X79.595 Y121.151 E17.9779
G1 X78.921 Y120.802 E18.00314
G1 X78.596 Y120.627 E18.01542
G1 X77.954 Y120.272 E18.03982
G1 X77.508 Y119.975 E18.05764
G1 X76.938 Y119.52 E18.0819
G1 X76.631 Y119.269 E18.09509
G1 X76.068 Y118.792 E18.11963
G1 X75.691 Y118.413 E18.13741
G1 X75.212 Y117.845 E18.16212
G1 X74.97 Y117.55 E18.17481
G1 X74.518 Y116.981 E18.19898
G1 X74.207 Y116.512 E18.2177
G1 X73.867 Y115.895 E18.24113
G1 X73.667 Y115.521 E18.25524
G1 X73.346 Y114.897 E18.27858
G1 X73.144 Y114.407 E18.29621
G1 X72.922 Y113.712 E18.32047
G1 X72.814 Y113.354 E18.33291
G1 X72.608 Y112.639 E18.35766
G1 X72.503 Y112.111 E18.37556
G1 X72.42 Y111.372 E18.4003
G1 X72.379 Y110.961 E18.41403
G1 X72.321 Y110.268 E18.43716
G1 X72.321 Y109.732 E18.45499
G1 X72.383 Y109.003 E18.47933
G1 X72.423 Y108.592 E18.49306
G1 X72.504 Y107.879 E18.51693
G1 X72.609 Y107.355 E18.5347
G1 X72.805 Y106.674 E18.55827
G1 X72.937 Y106.241 E18.57333
G1 X73.141 Y105.598 E18.59576
G1 X73.348 Y105.097 E18.61379
G1 X73.698 Y104.421 E18.63911
G1 X73.876 Y104.089 E18.65164
G1 X74.234 Y103.445 E18.67615
G1 X74.554 Y102.971 E18.69517
G1 X74.98 Y102.438 E18.71786
G1 X75.232 Y102.131 E18.73107
G1 X75.71 Y101.567 E18.75566
G1 X76.089 Y101.189 E18.77347
G1 X76.681 Y100.691 E18.7992
G1 X76.944 Y100.475 E18.81052
G1 X77.509 Y100.024 E18.83456
G1 F1800 E11.83456
G1 F300 Z0.4
;MESH:camera.wroover.nested_console.short.stl
G0 F3000 X83.368 Y112.998 Z0.4
;TYPE:WALL-INNER
G1 F300 Z0.2
G1 F1800 E18.83456
G1 F1200 X84.119 Y113.181 E18.86027
G1 X84.89 Y113.181 E18.88592
G1 X85.571 Y113.013 E18.90924
G1 X85.66 Y112.984 E18.91236
G1 X86.263 Y112.668 E18.935
G1 X86.343 Y112.617 E18.93816
G1 X86.852 Y112.168 E18.96073
G1 X86.918 Y112.097 E18.96396
G1 X87.295 Y111.55 E18.98605
G1 X87.346 Y111.469 E18.98923
G1 X87.592 Y110.819 E19.01235
G1 X87.617 Y110.72 E19.01575
G1 X87.704 Y109.99 E19.0402
G1 X87.617 Y109.28 E19.06399
G1 X87.596 Y109.189 E19.0671
G1 X87.347 Y108.532 E19.09046
G1 X87.296 Y108.451 E19.09365
G1 X86.919 Y107.904 E19.11574
G1 X86.853 Y107.833 E19.11897
G1 X86.344 Y107.384 E19.14154
G1 X86.264 Y107.333 E19.1447
G1 X85.661 Y107.017 E19.16734
G1 X85.572 Y106.988 E19.17045
G1 X84.892 Y106.82 E19.19375
G1 X84.121 Y106.818 E19.2194
G1 X83.369 Y107.001 E19.24514
G1 X82.683 Y107.36 E19.27089
G1 X82.104 Y107.873 E19.29662
G1 X81.664 Y108.509 E19.32234
G1 X81.39 Y109.232 E19.34806
G1 X81.295 Y110 E19.37379
G1 X81.389 Y110.767 E19.3995
G1 X81.663 Y111.49 E19.42521
G1 X82.103 Y112.126 E19.45093
G1 X82.682 Y112.639 E19.47666
G1 X83.368 Y112.998 E19.50242
G0 F3000 X83.51 Y112.621
;TYPE:WALL-OUTER
G1 F1200 X84.167 Y112.781 E19.52491
G1 X84.841 Y112.781 E19.54732
G1 X85.461 Y112.628 E19.56856
G1 X85.504 Y112.614 E19.57007
G1 X86.062 Y112.322 E19.59101
G1 X86.101 Y112.297 E19.59255
G1 X86.573 Y111.88 E19.6135
G1 X86.606 Y111.845 E19.6151
G1 X86.961 Y111.33 E19.63591
G1 X86.986 Y111.29 E19.63748
G1 X87.21 Y110.698 E19.65853
G1 X87.223 Y110.647 E19.66028
G1 X87.301 Y109.991 E19.68225
G1 X87.222 Y109.349 E19.70376
G1 X87.212 Y109.305 E19.70527
G1 X86.987 Y108.711 E19.72639
G1 X86.962 Y108.671 E19.72796
G1 X86.607 Y108.156 E19.74876
G1 X86.574 Y108.121 E19.75036
G1 X86.102 Y107.704 E19.77131
G1 X86.063 Y107.679 E19.77285
G1 X85.505 Y107.387 E19.7938
G1 X85.462 Y107.373 E19.7953
G1 X84.843 Y107.22 E19.81651
G1 X84.168 Y107.218 E19.83896
G1 X83.511 Y107.378 E19.86145
G1 X82.912 Y107.692 E19.88395
G1 X82.405 Y108.14 E19.90645
G1 X82.021 Y108.696 E19.92892
G1 X81.781 Y109.329 E19.95144
G1 X81.698 Y110 E19.97393
G1 X81.78 Y110.67 E19.99638
G1 X82.02 Y111.303 E20.0189
G1 X82.404 Y111.859 E20.04137
G1 X82.911 Y112.307 E20.06387
G1 X83.51 Y112.621 E20.08637
G0 F3000 X83.704 Y112.668
G0 X83.599 Y113.095
G1 F1800 E13.08637
G1 F300 Z0.4
G0 F3000 X83.561 Y113.25 Z0.4
G0 X143.9 Y118.4
;TYPE:WALL-INNER
G1 F300 Z0.2
G1 F1800 E20.08637
G1 F1200 X84.529 Y118.4 E22.06105
G1 X82.861 Y118.236 E22.1168
G1 X81.287 Y117.759 E22.1715
G1 X79.837 Y116.982 E22.22622
G1 X78.562 Y115.938 E22.28103
G1 X77.518 Y114.663 E22.33584
G1 X76.741 Y113.213 E22.39055
G1 X76.264 Y111.639 E22.44525
G1 X76.103 Y110 E22.50003
G1 X76.264 Y108.361 E22.5548
G1 X76.741 Y106.787 E22.60951
G1 X77.518 Y105.337 E22.66422
G1 X78.562 Y104.062 E22.71903
G1 X79.837 Y103.018 E22.77384
G1 X81.287 Y102.241 E22.82856
G1 X82.861 Y101.764 E22.88326
G1 X84.529 Y101.6 E22.939
G1 X143.9 Y101.6 E24.91369
G1 X143.9 Y118.4 E25.47246
G0 F3000 X144.3 Y118.8
;TYPE:WALL-OUTER
G1 F1200 X84.51 Y118.8 E27.46109
G1 X82.781 Y118.63 E27.51887
G1 X81.132 Y118.13 E27.57618
G1 X79.615 Y117.318 E27.63341
G1 X78.278 Y116.222 E27.69091
G1 X77.182 Y114.885 E27.74841
G1 X76.37 Y113.368 E27.80564
G1 X75.87 Y111.719 E27.86295
G1 X75.701 Y110 E27.9204
G1 X75.87 Y108.281 E27.97785
G1 X76.37 Y106.632 E28.03516
G1 X77.182 Y105.115 E28.09239
G1 X78.278 Y103.778 E28.14989
G1 X79.615 Y102.682 E28.20739
G1 X81.132 Y101.87 E28.26462
G1 X82.781 Y101.37 E28.32193
G1 X84.51 Y101.2 E28.37972
G1 X144.3 Y101.2 E30.36834
G1 X144.3 Y118.8 E30.95372
G0 F3000 X144.1 Y118.8
G0 X143.86 Y118.36
G0 X143.51 Y118.01
;TYPE:SKIN
G1 F1200 X84.548 Y118.01 E32.9148
G1 X82.936 Y117.852 E32.96868
G1 X81.434 Y117.397 E33.02087
G1 X80.058 Y116.659 E33.07281
G1 X78.839 Y115.661 E33.12521
G1 X77.841 Y114.442 E33.17761
G1 X77.103 Y113.066 E33.22954
G1 X76.648 Y111.564 E33.28174
G1 X76.495 Y110 E33.334
G1 X76.648 Y108.436 E33.38627
G1 X77.103 Y106.934 E33.43847
G1 X77.841 Y105.558 E33.4904
G1 X78.839 Y104.339 E33.5428
G1 X80.058 Y103.341 E33.5952
G1 X81.434 Y102.603 E33.64713
G1 X82.936 Y102.148 E33.69933
G1 X84.548 Y101.99 E33.7532
G1 X143.51 Y101.99 E35.71429
G1 X143.51 Y118.01 E36.24712
G1 F1800 E29.24712
G1 F300 Z0.4
G0 F3000 X143.51 Y118.2 Z0.4
G0 X88.001 Y110.791
G1 F300 Z0.2
G1 F1800 E36.24712
G1 F1200 X88.096 Y109.99 E36.27394
G1 X88.001 Y109.212 E36.30001
G1 X87.97 Y109.076 E36.30465
G1 X87.698 Y108.357 E36.33022
G1 X87.621 Y108.236 E36.33499
G1 X87.224 Y107.66 E36.35826
G1 X87.126 Y107.554 E36.36306
G1 X86.579 Y107.072 E36.38731
G1 X86.459 Y106.995 E36.39205
G1 X85.813 Y106.656 E36.41631
G1 X85.679 Y106.613 E36.421
G1 X84.94 Y106.43 E36.44632
G1 X84.074 Y106.428 E36.47512
G1 X83.23 Y106.633 E36.50401
G1 X82.46 Y107.036 E36.53291
G1 X81.81 Y107.612 E36.5618
G1 X81.317 Y108.326 E36.59066
G1 X81.008 Y109.138 E36.61956
G1 X80.902 Y110 E36.64844
G1 X81.007 Y110.861 E36.67729
G1 X81.316 Y111.673 E36.70619
G1 X81.809 Y112.387 E36.73505
G1 X82.459 Y112.963 E36.76393
G1 X83.229 Y113.366 E36.79284
G1 X84.072 Y113.571 E36.82169
G1 X84.937 Y113.571 E36.85046
G1 X85.678 Y113.388 E36.87585
G1 X85.812 Y113.345 E36.88053
G1 X86.458 Y113.006 E36.9048
G1 X86.578 Y112.929 E36.90954
G1 X87.125 Y112.447 E36.93379
G1 X87.223 Y112.341 E36.93859
G1 X87.62 Y111.765 E36.96186
G1 X87.697 Y111.644 E36.96663
G1 X87.965 Y110.936 E36.9918
G1 X88.001 Y110.791 E36.99677
G1 F1800 E29.99677
G1 F300 Z0.4
G0 F3000 X87.813 Y110.757 Z0.4
G0 X80.473 Y116.677
G1 F300 Z0.2
G1 F1800 E36.99677
G1 F1200 X77.82 Y114.024 E37.12156
G1 X77.75 Y113.954
G0 F3000 X77.371 Y114.156
G0 X76.792 Y113
G0 X77.23 Y112.868
G1 F1200 X81.629 Y117.268 E37.3285
G1 X81.699 Y117.338
G0 F3000 X82.441 Y117.514
G1 F1200 X76.984 Y112.056 E37.58521
G0 F3000 X76.803 Y111.309
G1 F1200 X83.188 Y117.695 E37.88556
G0 F3000 X83.815 Y117.756
G1 F1200 X76.742 Y110.683 E38.21825
G0 F3000 X76.68 Y110.056
G1 F1200 X84.442 Y117.818 E38.58335
G0 F3000 X85.019 Y117.829
G1 F1200 X76.721 Y109.53 E38.97369
G0 F3000 X76.771 Y109.015
G1 F1200 X85.585 Y117.829 E39.38827
G0 F3000 X86.151 Y117.829
G1 F1200 X76.821 Y108.499 E39.82713
G0 F3000 X76.948 Y108.06
G1 F1200 X86.716 Y117.829 E40.28661
G0 F3000 X87.282 Y117.829
G1 F1200 X82.794 Y113.341 E40.49771
