;FLAVOR:Marlin
;TIME:544
;Filament used: 0.0782819m
;Layer height: 0.1
;MINX:97.764
;MINY:102.418
;MINZ:0.1
;MAXX:122.237
;MAXY:117.582
;MAXZ:8
;Generated with Cura_SteamEngine master
M82 ;absolute extrusion mode
;Sliced at: Tue 30-08-2022 18:36:02
;Basic settings: Layer height: 0.1 Walls: 0.8 Fill: 30.0
G21 ;metric values
G90 ;absolute positioning
M82 ;set extruder to absolute mode
M107 ;start with the fan off
M117 Start heating ...
M104 S200
M117 Homing X/Y ...
G28 X0 Y0 ;move X/Y to min endstops
M117 Homing Z ...
G28 Z0 ;move Z to min endstops
G1 Z15.0 F50 ;move the platform down 15mm
M117 Heating ...
M109 S200
M117 Start cleaning ...
G92 E0 ;zero the extruded length
G1 F200 E10 ;extrude 10mm of feed stock
G92 E0 ;zero the extruded length again
M117 Intro line ...
G1 Z2.0 F3000 ; Move Z Axis up little to prevent scratching of Heat Bed
G1 X0.1 Y20 Z0.1 F5000.0 ; Move to start position
G1 X0.1 Y200.0 Z0.1 F1500.0 E15 ; Draw the first line
G1 X0.4 Y200.0 Z0.1 F5000.0 ; Move to side a little
G1 X0.4 Y20 Z0.3 F1500.0 E30 ; Draw the second line
G92 E0 ; Reset Extruder
G1 E-1 F500 ; Retract filiment by 1 mm
G1 Z2.0 F3000 ; Move Z Axis up little to prevent scratching of Heat Bed
G1 X5 Y20 Z0.3 F50 ; Move over to prevent blob squish
G1 F50
G92 E0 ; Reset Extruder
M117 Printing...

G92 E0
G92 E0
G1 F1800 E-7
;LAYER_COUNT:78
;LAYER:0
M107
G1 F300 Z0.3
G0 F1500 X100.256 Y104.369 Z0.3
;TYPE:SKIRT
G1 F300 Z0.1
G1 F1800 E0
G1 F900 X100.566 Y104.115 E0.00666
G1 X101.007 Y103.783 E0.01584
G1 X101.525 Y103.443 E0.02615
G1 X101.847 Y103.276 E0.03218
G1 X102.39 Y103.02 E0.04216
G1 X102.966 Y102.793 E0.05246
G1 X103.351 Y102.686 E0.05911
G1 X103.928 Y102.552 E0.06896
G1 X104.539 Y102.452 E0.07925
G1 X104.924 Y102.429 E0.08567
G1 X105.602 Y102.418 E0.09694
G1 X108.738 Y102.507 E0.14912
G1 X111.426 Y102.507 E0.19382
G1 X112.262 Y102.479 E0.20773
G1 X114.794 Y102.432 E0.24984
G1 X115.413 Y102.46 E0.26015
G1 X115.793 Y102.518 E0.26654
G1 X116.378 Y102.631 E0.27645
G1 X116.978 Y102.788 E0.28676
G1 X117.333 Y102.921 E0.29307
G1 X117.862 Y103.144 E0.30261
G1 X118.416 Y103.421 E0.31291
G1 X118.744 Y103.631 E0.31939
G1 X119.224 Y103.966 E0.32913
G1 X119.708 Y104.352 E0.33942
G1 X119.981 Y104.622 E0.34581
G1 X120.377 Y105.045 E0.35544
G1 X120.77 Y105.523 E0.36573
G1 X120.976 Y105.835 E0.37195
G1 X121.274 Y106.326 E0.3815
G1 X121.561 Y106.875 E0.3918
G1 X121.706 Y107.244 E0.3984
G1 X121.905 Y107.818 E0.4085
G1 X122.07 Y108.415 E0.4188
G1 X122.134 Y108.802 E0.42532
G1 X122.201 Y109.345 E0.43442
G1 X122.237 Y109.963 E0.44472
G1 X122.22 Y110.341 E0.45101
G1 X122.167 Y110.963 E0.46139
G1 X122.074 Y111.575 E0.47169
G1 X121.972 Y111.966 E0.47841
G1 X121.809 Y112.496 E0.48763
G1 X121.589 Y113.075 E0.49793
G1 X121.421 Y113.409 E0.50415
G1 X121.136 Y113.924 E0.51393
G1 X120.802 Y114.446 E0.52424
G1 X120.571 Y114.735 E0.53039
G1 X120.189 Y115.178 E0.54012
G1 X119.755 Y115.62 E0.55042
G1 X119.449 Y115.871 E0.557
G1 X119.01 Y116.203 E0.56616
G1 X118.782 Y116.366 E0.57082
G1 X118.13 Y116.737 E0.58329
G1 X117.622 Y116.976 E0.59263
G1 X117.046 Y117.203 E0.60293
G1 X116.667 Y117.308 E0.60947
G1 X116.07 Y117.447 E0.61966
G1 X115.459 Y117.548 E0.62996
G1 X115.073 Y117.571 E0.63639
G1 X114.397 Y117.582 E0.64763
G1 X111.263 Y117.493 E0.69977
G1 X108.574 Y117.493 E0.74449
G1 X107.738 Y117.521 E0.7584
G1 X105.206 Y117.568 E0.80052
G1 X104.587 Y117.54 E0.81082
G1 X104.207 Y117.482 E0.81721
G1 X103.622 Y117.369 E0.82712
G1 X103.022 Y117.212 E0.83743
G1 X102.675 Y117.082 E0.8436
G1 X102.146 Y116.86 E0.85314
G1 X101.591 Y116.584 E0.86345
G1 X101.25 Y116.366 E0.87018
G1 X100.77 Y116.03 E0.87992
G1 X100.287 Y115.643 E0.89021
G1 X100.017 Y115.377 E0.89652
G1 X99.627 Y114.96 E0.90601
G1 X99.234 Y114.481 E0.91631
G1 X99.025 Y114.165 E0.92262
G1 X98.713 Y113.649 E0.93264
G1 X98.428 Y113.099 E0.94294
G1 X98.285 Y112.736 E0.94943
G1 X98.098 Y112.196 E0.95894
G1 X97.934 Y111.599 E0.96923
G1 X97.871 Y111.216 E0.97569
G1 X97.801 Y110.652 E0.98514
G1 X97.764 Y110.034 E0.99543
G1 X97.781 Y109.661 E1.00164
G1 X97.832 Y109.051 E1.01182
G1 X97.923 Y108.438 E1.02213
G1 X98.027 Y108.041 E1.02895
G1 X98.192 Y107.504 E1.0383
G1 X98.411 Y106.925 E1.04859
G1 X98.579 Y106.593 E1.05478
G1 X98.863 Y106.079 E1.06454
G1 X99.197 Y105.557 E1.07485
G1 X99.433 Y105.261 E1.08115
G1 X99.822 Y104.811 E1.09104
G1 X100.256 Y104.369 E1.10134
G0 F1500 X100.541 Y104.651
G1 F900 X100.807 Y104.435 E1.10704
G1 X101.248 Y104.103 E1.11622
G1 X101.744 Y103.779 E1.12607
G1 X102.018 Y103.638 E1.13119
G1 X102.561 Y103.382 E1.14118
G1 X103.113 Y103.166 E1.15104
G1 X103.442 Y103.076 E1.15671
G1 X104.019 Y102.942 E1.16656
G1 X104.604 Y102.847 E1.17642
G1 X104.931 Y102.829 E1.18186
G1 X105.598 Y102.818 E1.19296
G1 X108.727 Y102.907 E1.24501
G1 X111.44 Y102.907 E1.29013
G1 X112.269 Y102.879 E1.30392
G1 X114.801 Y102.832 E1.34604
G1 X115.394 Y102.861 E1.35591
G1 X115.717 Y102.911 E1.36135
G1 X116.302 Y103.024 E1.37126
G1 X116.876 Y103.175 E1.38113
G1 X117.177 Y103.29 E1.38648
G1 X117.706 Y103.513 E1.39603
G1 X118.236 Y103.779 E1.40589
G1 X118.515 Y103.959 E1.41141
G1 X118.995 Y104.294 E1.42115
G1 X119.457 Y104.665 E1.431
G1 X119.689 Y104.895 E1.43644
G1 X120.085 Y105.318 E1.44607
G1 X120.46 Y105.777 E1.45593
G1 X120.634 Y106.042 E1.4612
G1 X120.932 Y106.533 E1.47075
G1 X121.205 Y107.06 E1.48062
G1 X121.328 Y107.375 E1.48625
G1 X121.527 Y107.949 E1.49635
G1 X121.683 Y108.521 E1.50621
G1 X121.737 Y108.851 E1.51177
G1 X121.804 Y109.394 E1.52087
G1 X121.837 Y109.986 E1.53073
G1 X121.821 Y110.307 E1.53607
G1 X121.768 Y110.929 E1.54645
G1 X121.678 Y111.515 E1.55631
G1 X121.59 Y111.848 E1.56204
G1 X121.427 Y112.378 E1.57126
G1 X121.215 Y112.932 E1.58113
G1 X121.071 Y113.215 E1.58641
G1 X120.786 Y113.73 E1.5962
G1 X120.464 Y114.229 E1.60607
G1 X120.268 Y114.473 E1.61128
G1 X119.886 Y114.916 E1.62101
G1 X119.47 Y115.338 E1.63086
G1 X119.208 Y115.552 E1.63649
G1 X118.769 Y115.884 E1.64564
G1 X118.558 Y116.035 E1.64995
G1 X117.96 Y116.375 E1.66139
G1 X117.452 Y116.614 E1.67073
G1 X116.9 Y116.83 E1.68059
G1 X116.577 Y116.918 E1.68616
G1 X115.98 Y117.057 E1.69635
G1 X115.395 Y117.153 E1.70621
G1 X115.065 Y117.171 E1.7117
G1 X114.402 Y117.182 E1.72273
G1 X111.274 Y117.093 E1.77477
G1 X108.56 Y117.093 E1.8199
G1 X107.731 Y117.121 E1.8337
G1 X105.199 Y117.168 E1.87581
G1 X104.606 Y117.139 E1.88569
G1 X104.283 Y117.089 E1.89112
G1 X103.698 Y116.976 E1.90103
G1 X103.124 Y116.825 E1.9109
G1 X102.829 Y116.713 E1.91615
G1 X102.3 Y116.491 E1.92569
G1 X101.77 Y116.225 E1.93555
G1 X101.48 Y116.039 E1.94128
G1 X101 Y115.703 E1.95102
G1 X100.538 Y115.331 E1.96089
G1 X100.309 Y115.103 E1.96626
G1 X99.919 Y114.686 E1.97576
G1 X99.545 Y114.227 E1.9856
G1 X99.368 Y113.958 E1.99096
G1 X99.056 Y113.442 E2.00099
G1 X98.784 Y112.915 E2.01085
G1 X98.663 Y112.605 E2.01638
G1 X98.476 Y112.065 E2.02589
G1 X98.32 Y111.493 E2.03575
G1 X98.268 Y111.167 E2.04124
G1 X98.198 Y110.603 E2.05069
G1 X98.164 Y110.011 E2.06055
G1 X98.179 Y109.694 E2.06583
G1 X98.23 Y109.084 E2.07601
G1 X98.319 Y108.498 E2.08586
G1 X98.409 Y108.159 E2.0917
G1 X98.574 Y107.622 E2.10104
G1 X98.786 Y107.068 E2.1109
G1 X98.929 Y106.786 E2.11616
G1 X99.213 Y106.272 E2.12593
G1 X99.534 Y105.774 E2.13578
G1 X99.735 Y105.523 E2.14113
G1 X100.124 Y105.073 E2.15102
G1 X100.541 Y104.651 E2.16089
G0 F1500 X100.826 Y104.934
G1 F900 X101.047 Y104.754 E2.16563
G1 X101.488 Y104.422 E2.17481
G1 X102.188 Y104 E2.1884
G1 X102.731 Y103.744 E2.19838
G1 X103.258 Y103.54 E2.20778
G1 X103.532 Y103.466 E2.2125
G1 X104.109 Y103.332 E2.22235
G1 X104.939 Y103.229 E2.23626
G1 X105.593 Y103.218 E2.24714
G1 X106.014 Y103.232 E2.25414
G1 X108.716 Y103.307 E2.29909
G1 X111.424 Y103.307 E2.34413
G1 X112.277 Y103.279 E2.35832
G1 X114.809 Y103.232 E2.40044
G1 X115.642 Y103.304 E2.41434
G1 X116.227 Y103.417 E2.42425
G1 X117.022 Y103.658 E2.43806
G1 X117.551 Y103.881 E2.44761
G1 X118.286 Y104.287 E2.46158
G1 X118.766 Y104.622 E2.47131
G1 X119.397 Y105.168 E2.48519
G1 X119.793 Y105.591 E2.49482
G1 X120.292 Y106.25 E2.50857
G1 X120.59 Y106.741 E2.51812
G1 X120.95 Y107.506 E2.53218
G1 X121.149 Y108.08 E2.54228
G1 X121.34 Y108.9 E2.55629
G1 X121.407 Y109.443 E2.56538
G1 X121.423 Y110.273 E2.57919
G1 X121.37 Y110.895 E2.58957
G1 X121.282 Y111.453 E2.59896
G1 X121.207 Y111.731 E2.60375
G1 X121.044 Y112.261 E2.61297
G1 X120.721 Y113.022 E2.62672
G1 X120.436 Y113.537 E2.63651
G1 X119.965 Y114.212 E2.6502
G1 X119.583 Y114.655 E2.65993
G1 X118.967 Y115.233 E2.67397
G1 X118.528 Y115.565 E2.68313
G1 X118.333 Y115.704 E2.68711
G1 X117.79 Y116.013 E2.6975
G1 X117.282 Y116.252 E2.70684
G1 X116.486 Y116.529 E2.72085
G1 X115.889 Y116.668 E2.73105
G1 X115.058 Y116.771 E2.74497
G1 X114.406 Y116.782 E2.75582
G1 X113.987 Y116.768 E2.76279
G1 X111.285 Y116.693 E2.80774
G1 X108.576 Y116.693 E2.85279
G1 X107.723 Y116.721 E2.86698
G1 X105.191 Y116.768 E2.9091
G1 X104.358 Y116.696 E2.923
G1 X103.773 Y116.583 E2.93291
G1 X102.984 Y116.344 E2.94662
G1 X102.455 Y116.122 E2.95616
G1 X101.951 Y115.867 E2.96556
G1 X101.709 Y115.711 E2.97034
G1 X101.229 Y115.375 E2.98009
G1 X100.602 Y114.83 E2.9939
G1 X100.212 Y114.413 E3.0034
G1 X99.71 Y113.751 E3.01721
G1 X99.398 Y113.235 E3.02724
G1 X99.041 Y112.474 E3.04122
G1 X98.854 Y111.934 E3.05072
G1 X98.664 Y111.118 E3.06466
G1 X98.594 Y110.554 E3.07411
G1 X98.578 Y109.728 E3.08785
G1 X98.629 Y109.118 E3.09803
G1 X98.716 Y108.559 E3.10744
G1 X98.791 Y108.276 E3.1123
G1 X98.956 Y107.739 E3.12165
G1 X99.279 Y106.98 E3.13536
G1 X99.563 Y106.466 E3.14513
G1 X100.038 Y105.784 E3.15895
G1 X100.427 Y105.334 E3.16884
G1 X100.826 Y104.934 E3.17824
G0 F1500 X101.288 Y105.074
G1 F900 X101.729 Y104.742 E3.18742
G1 X102.359 Y104.362 E3.19965
G1 X102.902 Y104.106 E3.20964
G1 X103.623 Y103.855 E3.22233
G1 X104.2 Y103.721 E3.23218
G1 X104.946 Y103.629 E3.24468
G1 X105.588 Y103.618 E3.25536
G1 X108.741 Y103.707 E3.30782
G1 X111.438 Y103.707 E3.35267
G1 X112.284 Y103.679 E3.36675
G1 X114.816 Y103.632 E3.40886
G1 X115.566 Y103.696 E3.42138
G1 X116.151 Y103.809 E3.43129
G1 X116.866 Y104.027 E3.44372
G1 X117.395 Y104.25 E3.45327
G1 X118.057 Y104.615 E3.46584
G1 X118.537 Y104.95 E3.47557
G1 X119.105 Y105.442 E3.48807
G1 X119.501 Y105.865 E3.4977
G1 X119.951 Y106.457 E3.51007
G1 X120.249 Y106.948 E3.51962
G1 X120.572 Y107.637 E3.53228
G1 X120.771 Y108.211 E3.54238
G1 X120.943 Y108.949 E3.55498
G1 X121.01 Y109.492 E3.56408
G1 X121.024 Y110.239 E3.5765
G1 X120.971 Y110.861 E3.58689
G1 X120.825 Y111.613 E3.59963
G1 X120.662 Y112.143 E3.60885
G1 X120.371 Y112.828 E3.62122
G1 X120.086 Y113.343 E3.63101
G1 X119.662 Y113.951 E3.64334
G1 X119.28 Y114.394 E3.65307
G1 X118.725 Y114.914 E3.66572
G1 X118.286 Y115.246 E3.67487
G1 X118.108 Y115.373 E3.6785
G1 X117.62 Y115.651 E3.68784
G1 X117.112 Y115.89 E3.69718
G1 X116.395 Y116.139 E3.7098
G1 X115.798 Y116.278 E3.72
G1 X115.05 Y116.371 E3.73253
G1 X114.411 Y116.382 E3.74316
G1 X111.26 Y116.293 E3.79558
G1 X108.562 Y116.293 E3.84045
G1 X107.716 Y116.321 E3.85453
G1 X105.184 Y116.368 E3.89664
G1 X104.434 Y116.304 E3.90916
G1 X103.849 Y116.191 E3.91907
G1 X103.139 Y115.976 E3.9314
G1 X102.61 Y115.754 E3.94095
G1 X101.939 Y115.383 E3.9537
G1 X101.459 Y115.047 E3.96344
G1 X100.894 Y114.557 E3.97588
G1 X100.504 Y114.14 E3.98537
G1 X100.052 Y113.544 E3.99781
G1 X99.74 Y113.028 E4.00784
G1 X99.419 Y112.343 E4.02042
G1 X99.232 Y111.803 E4.02992
G1 X99.061 Y111.068 E4.04247
G1 X98.991 Y110.504 E4.05192
G1 X98.977 Y109.761 E4.06428
G1 X99.028 Y109.151 E4.07446
G1 X99.174 Y108.394 E4.08728
G1 X99.339 Y107.857 E4.09663
G1 X99.629 Y107.173 E4.10898
G1 X99.913 Y106.659 E4.11875
G1 X100.341 Y106.046 E4.13118
G1 X100.73 Y105.596 E4.14107
G1 X101.288 Y105.074 E4.15378
G0 F1500 X101.528 Y105.393
G1 F900 X101.969 Y105.061 E4.16296
G1 X102.529 Y104.724 E4.17383
G1 X103.072 Y104.468 E4.18381
G1 X103.713 Y104.245 E4.1951
G1 X104.29 Y104.111 E4.20495
G1 X104.954 Y104.029 E4.21607
G1 X105.584 Y104.018 E4.22655
G1 X108.729 Y104.107 E4.27888
G1 X111.452 Y104.107 E4.32416
G1 X112.292 Y104.079 E4.33814
G1 X114.824 Y104.032 E4.38025
G1 X115.49 Y104.089 E4.39137
G1 X116.075 Y104.202 E4.40128
G1 X116.711 Y104.395 E4.41233
G1 X117.24 Y104.618 E4.42188
G1 X117.828 Y104.943 E4.43305
G1 X118.308 Y105.278 E4.44278
G1 X118.813 Y105.715 E4.45389
G1 X119.209 Y106.138 E4.46352
G1 X119.609 Y106.665 E4.47453
G1 X119.907 Y107.156 E4.48408
G1 X120.194 Y107.768 E4.49532
G1 X120.393 Y108.342 E4.50542
G1 X120.546 Y108.998 E4.51663
G1 X120.613 Y109.541 E4.52572
G1 X120.625 Y110.205 E4.53677
G1 X120.572 Y110.827 E4.54715
G1 X120.443 Y111.496 E4.55848
G1 X120.28 Y112.026 E4.5677
G1 X120.021 Y112.634 E4.57869
G1 X119.736 Y113.149 E4.58848
G1 X119.359 Y113.69 E4.59945
G1 X118.977 Y114.133 E4.60917
G1 X118.484 Y114.595 E4.62041
G1 X118.045 Y114.927 E4.62956
G1 X117.884 Y115.042 E4.63285
G1 X117.449 Y115.29 E4.64118
G1 X116.941 Y115.529 E4.65052
G1 X116.305 Y115.75 E4.66171
G1 X115.708 Y115.889 E4.67191
G1 X115.043 Y115.971 E4.68305
G1 X114.416 Y115.982 E4.69348
G1 X111.272 Y115.893 E4.74578
G1 X108.548 Y115.893 E4.79109
G1 X107.708 Y115.921 E4.80506
G1 X105.176 Y115.968 E4.84718
G1 X104.51 Y115.911 E4.85829
G1 X103.925 Y115.798 E4.8682
G1 X103.294 Y115.607 E4.87917
G1 X102.765 Y115.385 E4.88871
G1 X102.168 Y115.056 E4.90004
G1 X101.688 Y114.72 E4.90979
G1 X101.186 Y114.284 E4.92084
G1 X100.796 Y113.867 E4.93034
G1 X100.395 Y113.337 E4.94139
G1 X100.083 Y112.821 E4.95142
G1 X99.797 Y112.212 E4.96261
G1 X99.61 Y111.672 E4.97211
G1 X99.458 Y111.019 E4.98326
G1 X99.388 Y110.455 E4.99271
G1 X99.375 Y109.794 E5.00371
G1 X99.426 Y109.184 E5.01389
G1 X99.556 Y108.511 E5.02528
G1 X99.721 Y107.974 E5.03463
G1 X99.979 Y107.366 E5.04561
G1 X100.263 Y106.852 E5.05538
G1 X100.643 Y106.307 E5.06643
G1 X101.032 Y105.857 E5.07632
G1 X101.528 Y105.393 E5.08761
G1 F1800 E-1.91239
G1 F300 Z0.3
;MESH:camera.wroover.buttons.stl
G0 F1500 X105.576 Y112.178 Z0.3
;TYPE:WALL-INNER
G1 F300 Z0.1
G1 F1800 E5.08761
G1 F900 X105.119 Y112.178 E5.09521
G1 X104.667 Y112.082 E5.1029
G1 X104.249 Y111.895 E5.11051
G1 X103.88 Y111.627 E5.1181
G1 X103.569 Y111.283 E5.12581
G1 X103.341 Y110.886 E5.13342
G1 X103.2 Y110.454 E5.14098
G1 X103.151 Y109.993 E5.14869
G1 X103.2 Y109.533 E5.15638
G1 X103.341 Y109.101 E5.16394
G1 X103.568 Y108.705 E5.17153
G1 X103.878 Y108.362 E5.17922
G1 X104.25 Y108.091 E5.18687
G1 X104.671 Y107.904 E5.19453
G1 X105.118 Y107.809 E5.20213
G1 X105.577 Y107.809 E5.20977
G1 X106.027 Y107.904 E5.21741
G1 X106.445 Y108.091 E5.22503
G1 X106.815 Y108.36 E5.23264
G1 X107.127 Y108.705 E5.24037
G1 X107.354 Y109.101 E5.24796
G1 X107.495 Y109.533 E5.25552
G1 X107.544 Y109.993 E5.26321
G1 X107.495 Y110.453 E5.27091
G1 X107.354 Y110.886 E5.27848
G1 X107.126 Y111.283 E5.28609
G1 X106.816 Y111.626 E5.29378
G1 X106.445 Y111.896 E5.30141
G1 X106.028 Y112.082 E5.30901
G1 X105.576 Y112.178 E5.31669
G0 F1500 X105.617 Y112.578
;TYPE:WALL-OUTER
G1 F900 X105.078 Y112.578 E5.32565
G1 X104.543 Y112.464 E5.33475
G1 X104.049 Y112.244 E5.34374
G1 X103.609 Y111.924 E5.35279
G1 X103.243 Y111.519 E5.36187
G1 X102.974 Y111.05 E5.37086
G1 X102.806 Y110.535 E5.37987
G1 X102.748 Y109.993 E5.38894
G1 X102.806 Y109.452 E5.39798
G1 X102.974 Y108.936 E5.40701
G1 X103.243 Y108.468 E5.41598
G1 X103.609 Y108.063 E5.42506
G1 X104.049 Y107.742 E5.43412
G1 X104.544 Y107.522 E5.44313
G1 X105.077 Y107.409 E5.45219
G1 X105.618 Y107.409 E5.46119
G1 X106.151 Y107.522 E5.47025
G1 X106.645 Y107.742 E5.47924
G1 X107.086 Y108.063 E5.48831
G1 X107.452 Y108.468 E5.49739
G1 X107.721 Y108.936 E5.50637
G1 X107.889 Y109.452 E5.51539
G1 X107.946 Y109.993 E5.52444
G1 X107.889 Y110.535 E5.5335
G1 X107.721 Y111.05 E5.54251
G1 X107.452 Y111.519 E5.5515
G1 X107.084 Y111.926 E5.56063
G1 X106.648 Y112.243 E5.56959
G1 X106.152 Y112.464 E5.57862
G1 X105.617 Y112.578 E5.58772
G0 F1500 X105.417 Y112.578
G0 X105.417 Y112.138
G0 X105.532 Y111.788
;TYPE:SKIN
G1 F900 X105.163 Y111.788 E5.59385
G1 X104.789 Y111.708 E5.60021
G1 X104.445 Y111.555 E5.60648
G1 X104.14 Y111.333 E5.61275
G1 X103.887 Y111.053 E5.61902
G1 X103.7 Y110.727 E5.62527
G1 X103.584 Y110.371 E5.6315
G1 X103.543 Y109.993 E5.63782
