;FLAVOR:Marlin
;TIME:672
;Filament used: 0.117196m
;Layer height: 0.1
;MINX:96.072
;MINY:102.812
;MINZ:0.2
;MAXX:123.934
;MAXY:117.189
;MAXZ:8
;Generated with Cura_SteamEngine master
M82 ;absolute extrusion mode
;Sliced at: Fri 23-09-2022 13:56:16
;Basic settings: Layer height: 0.1 Walls: 0.8 Fill: 50.0
G21 ;metric values
G90 ;absolute positioning
M82 ;set extruder to absolute mode
M107 ;start with the fan off
M117 Start heating ...
M104 S200
M117 Homing X/Y ...
G28 X0 Y0 ;move X/Y to min endstops
M117 Homing Z ...
G28 Z0 ;move Z to min endstops
G1 Z15.0 F100 ;move the platform down 15mm
M117 Heating ...
M109 S200
M117 Start cleaning ...
G92 E0 ;zero the extruded length
G1 F200 E10 ;extrude 10mm of feed stock
G92 E0 ;zero the extruded length again
M117 Intro line ...
G1 Z2.0 F3000 ; Move Z Axis up little to prevent scratching of Heat Bed
G1 X0.1 Y20 Z0.1 F5000.0 ; Move to start position
G1 X0.1 Y200.0 Z0.1 F1500.0 E15 ; Draw the first line
G1 X0.4 Y200.0 Z0.1 F5000.0 ; Move to side a little
G1 X0.4 Y20 Z0.3 F1500.0 E30 ; Draw the second line
G92 E0 ; Reset Extruder
G1 E-1 F500 ; Retract filiment by 1 mm
G1 Z2.0 F3000 ; Move Z Axis up little to prevent scratching of Heat Bed
G1 X5 Y20 Z0.3 F100 ; Move over to prevent blob squish
G1 F100
G92 E0 ; Reset Extruder
M117 Printing...

G92 E0
G92 E0
G1 F1800 E-7
;LAYER_COUNT:77
;LAYER:0
M107
G1 F300 Z0.4
G0 F3000 X98.378 Y104.716 Z0.4
;TYPE:SKIRT
G1 F300 Z0.2
G1 F1800 E0
G1 F1200 X98.948 Y104.245 E0.02459
G1 X99.52 Y103.857 E0.04758
G1 X100.171 Y103.507 E0.07217
G1 X100.844 Y103.229 E0.09638
G1 X101.5 Y103.032 E0.11917
G1 X102.182 Y102.895 E0.1423
G1 X102.869 Y102.826 E0.16527
G1 X103.373 Y102.812 E0.18204
G1 X104.15 Y102.834 E0.20789
G1 X106.933 Y102.874 E0.30046
G1 X108.887 Y102.855 E0.36546
G1 X110.392 Y102.825 E0.41552
G1 X110.541 Y102.824 E0.42048
G1 X111.548 Y102.839 E0.45397
G1 X112.564 Y102.868 E0.48778
G1 X115.801 Y102.86 E0.59544
G1 X116.906 Y102.839 E0.6322
G1 X117.498 Y102.867 E0.65191
G1 X117.812 Y102.915 E0.66248
G1 X118.38 Y103.023 E0.68171
G1 X118.954 Y103.173 E0.70144
G1 X119.265 Y103.291 E0.71251
G1 X119.809 Y103.52 E0.73214
G1 X120.339 Y103.786 E0.75186
G1 X120.624 Y103.97 E0.76314
G1 X121.1 Y104.303 E0.78246
G1 X121.562 Y104.675 E0.80219
G1 X121.79 Y104.901 E0.81287
G1 X122.186 Y105.324 E0.83214
G1 X122.561 Y105.783 E0.85186
G1 X122.736 Y106.049 E0.86245
G1 X123.032 Y106.537 E0.88143
G1 X123.305 Y107.064 E0.90117
G1 X123.427 Y107.376 E0.91231
G1 X123.629 Y107.958 E0.9328
G1 X123.785 Y108.53 E0.95252
G1 X123.839 Y108.859 E0.96361
G1 X123.902 Y109.367 E0.98064
G1 X123.934 Y109.999 E1.00168
G1 X123.898 Y110.721 E1.02573
G1 X123.856 Y111.074 E1.03755
G1 X123.695 Y111.84 E1.06359
G1 X123.534 Y112.367 E1.08191
G1 X123.323 Y112.921 E1.10163
G1 X123.182 Y113.201 E1.11206
G1 X122.889 Y113.734 E1.13229
G1 X122.569 Y114.233 E1.152
G1 X122.358 Y114.496 E1.16322
G1 X121.98 Y114.932 E1.18241
G1 X121.562 Y115.353 E1.20214
G1 X121.305 Y115.563 E1.21318
G1 X120.849 Y115.907 E1.23218
G1 X120.352 Y116.231 E1.25191
G1 X120.074 Y116.374 E1.26231
G1 X119.537 Y116.627 E1.28205
G1 X118.985 Y116.843 E1.30177
G1 X118.652 Y116.934 E1.31325
G1 X118.089 Y117.064 E1.33247
G1 X117.504 Y117.158 E1.35218
G1 X117.189 Y117.176 E1.36267
G1 X116.604 Y117.188 E1.38213
G1 X116.449 Y117.189 E1.38729
G1 X115.506 Y117.174 E1.41865
G1 X114.503 Y117.145 E1.45203
G1 X111.111 Y117.154 E1.56485
G1 X110.084 Y117.175 E1.59901
G1 X109.93 Y117.176 E1.60414
G1 X108.7 Y117.157 E1.64505
G1 X108.058 Y117.139 E1.66641
G1 X104.091 Y117.169 E1.79836
G1 X103.368 Y117.188 E1.82241
G1 X102.676 Y117.158 E1.84545
G1 X102.207 Y117.108 E1.86114
G1 X101.517 Y116.974 E1.88452
G1 X100.81 Y116.759 E1.90909
G1 X100.153 Y116.484 E1.93278
G1 X99.619 Y116.201 E1.95288
G1 X99.175 Y115.922 E1.97033
G1 X98.741 Y115.592 E1.98846
G1 X98.419 Y115.321 E2.00246
G1 X97.952 Y114.858 E2.02433
G1 X97.494 Y114.303 E2.04826
G1 X97.076 Y113.678 E2.07327
G1 X96.754 Y113.072 E2.0961
G1 X96.489 Y112.44 E2.11889
G1 X96.283 Y111.768 E2.14227
G1 X96.137 Y111.035 E2.16713
G1 X96.072 Y110.373 E2.18925
G1 X96.072 Y109.629 E2.21399
G1 X96.138 Y108.962 E2.23629
G1 X96.276 Y108.256 E2.26021
G1 X96.466 Y107.623 E2.2822
G1 X96.739 Y106.952 E2.30629
G1 X97.069 Y106.332 E2.32965
G1 X97.488 Y105.704 E2.35476
G1 X97.919 Y105.181 E2.3773
G1 X98.378 Y104.716 E2.39903
G0 F3000 X98.641 Y105.018
G1 F1200 X99.198 Y104.557 E2.42308
G1 X99.718 Y104.205 E2.44396
G1 X100.354 Y103.863 E2.46798
G1 X100.966 Y103.61 E2.49001
G1 X101.61 Y103.417 E2.51237
G1 X102.229 Y103.292 E2.53337
G1 X102.904 Y103.225 E2.55593
G1 X103.361 Y103.212 E2.57114
G1 X104.144 Y103.234 E2.59719
G1 X106.931 Y103.274 E2.6899
G1 X108.891 Y103.255 E2.75509
G1 X110.4 Y103.225 E2.80529
G1 X110.535 Y103.224 E2.80978
G1 X111.537 Y103.239 E2.84311
G1 X112.554 Y103.268 E2.87695
G1 X115.81 Y103.26 E2.98525
G1 X116.914 Y103.239 E3.02197
G1 X117.737 Y103.308 E3.04944
G1 X118.305 Y103.416 E3.06867
G1 X119.11 Y103.659 E3.09664
G1 X119.654 Y103.888 E3.11627
G1 X120.395 Y104.297 E3.14442
G1 X120.871 Y104.63 E3.16374
G1 X121.498 Y105.174 E3.19135
G1 X121.894 Y105.597 E3.21062
G1 X122.394 Y106.257 E3.23816
G1 X122.69 Y106.745 E3.25715
G1 X123.049 Y107.507 E3.28516
G1 X123.251 Y108.089 E3.30565
G1 X123.442 Y108.909 E3.33366
G1 X123.505 Y109.417 E3.35068
G1 X123.534 Y109.991 E3.3698
G1 X123.501 Y110.674 E3.39254
G1 X123.459 Y111.027 E3.40436
G1 X123.312 Y111.723 E3.42802
G1 X123.151 Y112.25 E3.44635
G1 X122.831 Y113.008 E3.47372
G1 X122.538 Y113.541 E3.49395
G1 X122.055 Y114.234 E3.52204
G1 X121.677 Y114.67 E3.54124
G1 X121.064 Y115.243 E3.56914
G1 X120.608 Y115.587 E3.58814
G1 X119.904 Y116.013 E3.61551
G1 X119.367 Y116.266 E3.63525
G1 X118.84 Y116.47 E3.65405
G1 X118.562 Y116.544 E3.66362
G1 X117.999 Y116.674 E3.68284
G1 X117.181 Y116.776 E3.71025
G1 X116.596 Y116.788 E3.72971
G1 X116.455 Y116.789 E3.7344
G1 X115.517 Y116.774 E3.76561
G1 X114.513 Y116.745 E3.79901
G1 X111.102 Y116.754 E3.91246
G1 X110.076 Y116.775 E3.9466
G1 X109.936 Y116.776 E3.95125
G1 X108.711 Y116.758 E3.992
G1 X108.037 Y116.74 E4.01443
G1 X104.13 Y116.769 E4.14438
G1 X103.357 Y116.789 E4.1701
G1 X102.708 Y116.759 E4.1917
G1 X102.251 Y116.71 E4.20699
G1 X101.625 Y116.589 E4.2282
G1 X100.934 Y116.379 E4.25222
G1 X100.336 Y116.129 E4.27378
G1 X99.811 Y115.85 E4.29355
G1 X99.17 Y115.422 E4.31919
G1 X98.678 Y115.016 E4.3404
G1 X98.254 Y114.595 E4.36028
G1 X97.807 Y114.053 E4.38364
G1 X97.426 Y113.485 E4.40639
G1 X97.11 Y112.89 E4.4288
G1 X96.869 Y112.315 E4.44953
G1 X96.667 Y111.657 E4.47243
G1 X96.534 Y110.991 E4.49502
G1 X96.47 Y110.339 E4.51681
G1 X96.47 Y109.663 E4.53929
G1 X96.536 Y109.006 E4.56125
G1 X96.661 Y108.365 E4.58297
G1 X96.847 Y107.743 E4.60457
G1 X97.096 Y107.133 E4.62648
G1 X97.419 Y106.525 E4.64938
G1 X97.801 Y105.954 E4.67223
G1 X98.223 Y105.44 E4.69435
G1 X98.641 Y105.018 E4.7141
G0 F3000 X98.903 Y105.319
G1 F1200 X99.447 Y104.87 E4.73756
G1 X99.916 Y104.552 E4.75641
G1 X100.537 Y104.219 E4.77985
G1 X101.087 Y103.991 E4.79965
G1 X101.719 Y103.802 E4.82159
G1 X102.277 Y103.69 E4.84052
G1 X102.938 Y103.623 E4.86262
G1 X103.35 Y103.611 E4.87633
G1 X104.171 Y103.634 E4.90364
G1 X106.929 Y103.674 E4.99538
G1 X108.895 Y103.655 E5.06078
G1 X110.53 Y103.624 E5.11517
G1 X111.525 Y103.638 E5.14826
G1 X112.576 Y103.668 E5.18323
G1 X115.817 Y103.66 E5.29103
G1 X116.921 Y103.639 E5.32776
G1 X117.662 Y103.701 E5.35249
G1 X118.23 Y103.809 E5.37172
G1 X118.955 Y104.028 E5.39691
G1 X119.499 Y104.257 E5.41654
G1 X120.166 Y104.625 E5.44188
G1 X120.642 Y104.958 E5.4612
G1 X121.206 Y105.448 E5.48605
G1 X121.602 Y105.871 E5.50532
G1 X122.052 Y106.464 E5.53008
G1 X122.348 Y106.952 E5.54906
G1 X122.671 Y107.639 E5.57431
G1 X122.873 Y108.221 E5.5948
G1 X123.045 Y108.958 E5.61997
G1 X123.108 Y109.466 E5.637
G1 X123.134 Y109.983 E5.65422
G1 X123.104 Y110.626 E5.67563
G1 X123.062 Y110.979 E5.68745
G1 X122.93 Y111.606 E5.70876
G1 X122.769 Y112.133 E5.72709
G1 X122.481 Y112.815 E5.75171
G1 X122.188 Y113.348 E5.77194
G1 X121.753 Y113.972 E5.79724
G1 X121.375 Y114.408 E5.81643
G1 X120.823 Y114.924 E5.84157
G1 X120.367 Y115.268 E5.86056
G1 X119.733 Y115.651 E5.8852
G1 X119.196 Y115.904 E5.90494
G1 X118.472 Y116.155 E5.93043
G1 X117.909 Y116.285 E5.94965
G1 X117.173 Y116.376 E5.97431
G1 X116.461 Y116.389 E5.998
G1 X115.529 Y116.375 E6.029
G1 X114.492 Y116.345 E6.06351
G1 X111.093 Y116.354 E6.17656
G1 X109.942 Y116.376 E6.21485
G1 X108.722 Y116.358 E6.25543
G1 X108.045 Y116.34 E6.27795
G1 X104.117 Y116.369 E6.4086
G1 X103.347 Y116.389 E6.43422
G1 X102.74 Y116.361 E6.45443
G1 X102.296 Y116.313 E6.46929
G1 X101.732 Y116.203 E6.4884
G1 X101.058 Y115.998 E6.51183
G1 X100.52 Y115.774 E6.53121
G1 X100.004 Y115.499 E6.55066
G1 X99.419 Y115.109 E6.57404
G1 X98.938 Y114.712 E6.59479
G1 X98.556 Y114.333 E6.61269
G1 X98.119 Y113.803 E6.63553
G1 X97.777 Y113.292 E6.65598
G1 X97.466 Y112.707 E6.67802
G1 X97.249 Y112.19 E6.69667
G1 X97.051 Y111.546 E6.71908
G1 X96.932 Y110.946 E6.73942
G1 X96.869 Y110.305 E6.76085
G1 X96.869 Y109.697 E6.78107
G1 X96.933 Y109.051 E6.80266
G1 X97.046 Y108.473 E6.82225
G1 X97.229 Y107.863 E6.84343
G1 X97.453 Y107.314 E6.86315
G1 X97.77 Y106.718 E6.8856
G1 X98.113 Y106.204 E6.90616
G1 X98.528 Y105.699 E6.9279
G1 X98.903 Y105.319 E6.94565
G0 F3000 X99.307 Y105.498
G1 F1200 X99.697 Y105.182 E6.96235
G1 X100.113 Y104.9 E6.97906
G1 X100.72 Y104.575 E7.00196
G1 X101.209 Y104.372 E7.01957
G1 X101.829 Y104.186 E7.0411
G1 X102.324 Y104.087 E7.05789
G1 X102.972 Y104.022 E7.07955
G1 X103.339 Y104.011 E7.09177
G1 X104.154 Y104.034 E7.11888
G1 X106.927 Y104.075 E7.21112
G1 X108.899 Y104.055 E7.27672
G1 X110.524 Y104.024 E7.33077
G1 X111.514 Y104.038 E7.3637
G1 X112.566 Y104.068 E7.39871
G1 X115.827 Y104.06 E7.50717
G1 X116.929 Y104.039 E7.54383
G1 X117.588 Y104.094 E7.56582
G1 X118.156 Y104.202 E7.58505
G1 X118.8 Y104.397 E7.60743
G1 X119.344 Y104.626 E7.62707
G1 X119.936 Y104.953 E7.64956
G1 X120.412 Y105.286 E7.66888
G1 X120.914 Y105.721 E7.69097
G1 X121.31 Y106.144 E7.71025
G1 X121.71 Y106.671 E7.73225
G1 X122.006 Y107.159 E7.75123
G1 X122.293 Y107.77 E7.77369
G1 X122.495 Y108.352 E7.79418
G1 X122.648 Y109.007 E7.81655
G1 X122.711 Y109.515 E7.83357
G1 X122.728 Y110.267 E7.85859
G1 X122.665 Y110.932 E7.88081
G1 X122.547 Y111.489 E7.89975
G1 X122.386 Y112.016 E7.91807
G1 X122.13 Y112.623 E7.93999
G1 X121.837 Y113.156 E7.96021
G1 X121.451 Y113.71 E7.98267
G1 X121.073 Y114.146 E8.00187
G1 X120.582 Y114.605 E8.02422
G1 X120.126 Y114.949 E8.04322
G1 X119.563 Y115.289 E8.06509
G1 X119.026 Y115.542 E8.08484
G1 X118.382 Y115.765 E8.1075
G1 X117.819 Y115.895 E8.12672
G1 X117.165 Y115.976 E8.14864
G1 X116.467 Y115.989 E8.17186
G1 X115.54 Y115.975 E8.2027
G1 X114.502 Y115.945 E8.23724
G1 X111.084 Y115.954 E8.35092
G1 X109.948 Y115.976 E8.38871
G1 X108.733 Y115.958 E8.42912
G1 X108.053 Y115.939 E8.45175
G1 X104.103 Y115.969 E8.58313
G1 X103.336 Y115.989 E8.60865
G1 X102.772 Y115.962 E8.62743
G1 X102.34 Y115.915 E8.64188
G1 X101.839 Y115.818 E8.65886
G1 X101.182 Y115.618 E8.6817
G1 X100.703 Y115.418 E8.69896
G1 X100.197 Y115.149 E8.71802
G1 X99.667 Y114.796 E8.7392
G1 X99.197 Y114.408 E8.75947
G1 X98.746 Y113.942 E8.78104
G1 X98.431 Y113.553 E8.79769
G1 X98.127 Y113.099 E8.81586
G1 X97.821 Y112.525 E8.8375
G1 X97.553 Y111.834 E8.86215
G1 X97.435 Y111.434 E8.87602
G1 X97.329 Y110.901 E8.8941
G1 X97.267 Y110.271 E8.91515
G1 X97.268 Y109.731 E8.93311
G1 X97.331 Y109.095 E8.95437
G1 X97.431 Y108.582 E8.97175
G1 X97.611 Y107.983 E8.99255
G1 X97.809 Y107.495 E9.01007
G1 X98.12 Y106.91 E9.03211
G1 X98.425 Y106.454 E9.05035
G1 X98.833 Y105.958 E9.07171
G1 X99.307 Y105.498 E9.09368
G1 F1800 E2.09368
G1 F300 Z0.4
;MESH:camera.wroover.buttons.stl
G0 F3000 X103.676 Y112.155 Z0.4
;TYPE:WALL-INNER
G1 F300 Z0.2
G1 F1800 E9.09368
G1 F1200 X103.246 Y112.197 E9.10805
G1 X102.817 Y112.155 E9.12239
G1 X102.402 Y112.03 E9.13681
G1 X102.031 Y111.831 E9.15081
G1 X101.69 Y111.551 E9.16548
G1 X101.42 Y111.222 E9.17964
G1 X101.216 Y110.841 E9.19401
G1 X101.091 Y110.429 E9.20833
G1 X101.049 Y110 E9.22267
G1 X101.091 Y109.571 E9.23701
G1 X101.216 Y109.159 E9.25133
G1 X101.42 Y108.778 E9.2657
G1 X101.69 Y108.449 E9.27986
G1 X102.031 Y108.169 E9.29453
G1 X102.402 Y107.97 E9.30853
G1 X102.817 Y107.845 E9.32295
G1 X103.246 Y107.803 E9.33729
G1 X103.676 Y107.845 E9.35166
G1 X104.091 Y107.97 E9.36607
G1 X104.462 Y108.169 E9.38007
G1 X104.803 Y108.449 E9.39475
G1 X105.073 Y108.778 E9.40891
G1 X105.277 Y109.159 E9.42328
G1 X105.402 Y109.572 E9.43763
G1 X105.443 Y110 E9.45193
G1 X105.402 Y110.428 E9.46623
G1 X105.277 Y110.841 E9.48058
G1 X105.073 Y111.222 E9.49496
G1 X104.803 Y111.551 E9.50911
G1 X104.462 Y111.831 E9.52379
G1 X104.091 Y112.03 E9.53779
G1 X103.676 Y112.155 E9.55221
G0 F3000 X103.756 Y112.549
;TYPE:WALL-OUTER
G1 F1200 X103.246 Y112.599 E9.56925
G1 X102.737 Y112.549 E9.58626
G1 X102.251 Y112.402 E9.60315
G1 X101.806 Y112.163 E9.61995
G1 X101.406 Y111.835 E9.63716
G1 X101.085 Y111.444 E9.65398
G1 X100.845 Y110.996 E9.67089
G1 X100.697 Y110.509 E9.68782
G1 X100.647 Y110 E9.70483
G1 X100.697 Y109.491 E9.72184
G1 X100.845 Y109.004 E9.73877
G1 X101.085 Y108.556 E9.75567
G1 X101.406 Y108.165 E9.7725
G1 X101.806 Y107.837 E9.7897
G1 X102.251 Y107.598 E9.8065
G1 X102.737 Y107.451 E9.82339
G1 X103.246 Y107.401 E9.8404
G1 X103.756 Y107.451 E9.85744
G1 X104.242 Y107.598 E9.87433
G1 X104.687 Y107.837 E9.89113
G1 X105.087 Y108.165 E9.90834
G1 X105.408 Y108.556 E9.92516
G1 X105.648 Y109.004 E9.94207
G1 X105.796 Y109.492 E9.95903
G1 X105.845 Y110 E9.976
G1 X105.796 Y110.508 E9.99298
G1 X105.648 Y110.996 E10.00994
G1 X105.408 Y111.444 E10.02684
G1 X105.087 Y111.835 E10.04367
G1 X104.687 Y112.163 E10.06087
G1 X104.242 Y112.402 E10.07767
G1 X103.756 Y112.549 E10.09456
G0 F3000 X103.557 Y112.568
G0 X103.516 Y112.13
G0 X103.596 Y111.771
;TYPE:SKIN
G1 F1200 X103.246 Y111.805 E10.10626
G1 X102.897 Y111.771 E10.11792
G1 X102.547 Y111.666 E10.13007
G1 X102.251 Y111.507 E10.14125
G1 X101.967 Y111.274 E10.15347
G1 X101.743 Y111.001 E10.16521
G1 X101.578 Y110.694 E10.1768
G1 X101.475 Y110.353 E10.18865
G1 X101.441 Y110 E10.20045
G1 X101.475 Y109.647 E10.21224
G1 X101.578 Y109.306 E10.22409
G1 X101.743 Y108.999 E10.23568
G1 X101.967 Y108.726 E10.24743
G1 X102.251 Y108.493 E10.25965
G1 X102.547 Y108.334 E10.27082
G1 X102.897 Y108.229 E10.28297
G1 X103.246 Y108.195 E10.29464
G1 X103.596 Y108.229 E10.30633
G1 X103.946 Y108.334 E10.31849
G1 X104.242 Y108.493 E10.32966
G1 X104.526 Y108.726 E10.34188
G1 X104.75 Y108.999 E10.35363
G1 X104.915 Y109.306 E10.36522
G1 X105.018 Y109.647 E10.37707
G1 X105.051 Y110 E10.38886
G1 X105.018 Y110.353 E10.40065
G1 X104.915 Y110.694 E10.4125
G1 X104.75 Y111.001 E10.42409
G1 X104.526 Y111.274 E10.43583
G1 X104.242 Y111.507 E10.44805
G1 X103.946 Y111.666 E10.45923
G1 X103.596 Y111.771 E10.47138
G0 F3000 X103.622 Y112.05
G0 X102.467 Y111.871
G0 X101.563 Y111.128
G0 X101.175 Y110.161
G0 X101.632 Y110.117
G1 F1200 X103.126 Y111.611 E10.54166
G0 F3000 X103.647 Y111.566
G1 F1200 X101.677 Y109.596 E10.63432
G0 F3000 X101.841 Y109.194
G1 F1200 X104.05 Y111.404 E10.73825
G0 F3000 X104.375 Y111.163
G1 F1200 X102.081 Y108.869 E10.84615
G0 F3000 X102.396 Y108.618
G1 F1200 X104.627 Y110.849 E10.95109
G0 F3000 X104.799 Y110.456
G1 F1200 X102.791 Y108.448 E11.04554
G0 F3000 X103.288 Y108.379
G1 F1200 X104.866 Y109.957 E11.11976
G1 X104.936 Y110.027
G0 F3000 X104.63 Y109.156
G1 F1200 X104.088 Y108.614 E11.14526
G0 F3000 X104.262 Y108.289
G1 F1800 E4.14526
G1 F300 Z0.4
G0 F3000 X104.262 Y108.289 Z0.4
G0 X110.477 Y112.185
;TYPE:WALL-INNER
G1 F300 Z0.2
G1 F1800 E11.14526
G1 F1200 X110.02 Y112.185 E11.16046
G1 X109.568 Y112.089 E11.17583
G1 X109.15 Y111.902 E11.19106
G1 X108.781 Y111.634 E11.20622
G1 X108.469 Y111.289 E11.2217
G1 X108.242 Y110.894 E11.23685
G1 X108.101 Y110.46 E11.25203
G1 X108.052 Y110 E11.26741
G1 X108.101 Y109.54 E11.2828
G1 X108.242 Y109.106 E11.29798
G1 X108.469 Y108.711 E11.31313
G1 X108.781 Y108.366 E11.3286
G1 X109.15 Y108.098 E11.34377
G1 X109.568 Y107.911 E11.359
G1 X110.02 Y107.815 E11.37437
G1 X110.477 Y107.815 E11.38957
G1 X110.929 Y107.911 E11.40494
