;FLAVOR:Marlin
;TIME:9193
;Filament used: 5.32222m
;Layer height: 0.2
;MINX:74.1
;MINY:84.9
;MINZ:0.2
;MAXX:145.9
;MAXY:135.2
;MAXZ:22.8
;Generated with Cura_SteamEngine master
M82 ;absolute extrusion mode
;Sliced at: Fri 30-09-2022 13:05:58
;Basic settings: Layer height: 0.2 Walls: 0.8 Fill: 30.0
G21 ;metric values
G90 ;absolute positioning
M82 ;set extruder to absolute mode
M107 ;start with the fan off
M117 Start heating ...
M104 S200
M117 Homing X/Y ...
G28 X0 Y0 ;move X/Y to min endstops
M117 Homing Z ...
G28 Z0 ;move Z to min endstops
G1 Z15.0 F100 ;move the platform down 15mm
M117 Heating ...
M109 S200
M117 Start cleaning ...
G92 E0 ;zero the extruded length
G1 F200 E10 ;extrude 10mm of feed stock
G92 E0 ;zero the extruded length again
M117 Intro line ...
G1 Z2.0 F3000 ; Move Z Axis up little to prevent scratching of Heat Bed
G1 X0.1 Y20 Z0.2 F5000.0 ; Move to start position
G1 X0.1 Y200.0 Z0.2 F1500.0 E15 ; Draw the first line
G1 X0.4 Y200.0 Z0.2 F5000.0 ; Move to side a little
G1 X0.4 Y20 Z0.3 F1500.0 E30 ; Draw the second line
G92 E0 ; Reset Extruder
G1 E-1 F500 ; Retract filiment by 1 mm
G1 Z2.0 F3000 ; Move Z Axis up little to prevent scratching of Heat Bed
G1 X5 Y20 Z0.3 F100 ; Move over to prevent blob squish
G1 F100
G92 E0 ; Reset Extruder
M117 Printing...

G92 E0
G92 E0
G1 F1800 E-7
;LAYER_COUNT:114
;LAYER:0
M107
G1 F300 Z0.4
G0 F3000 X75.506 Y85.872 Z0.4
;TYPE:SKIRT
G1 F300 Z0.2
G1 F1800 E0
G1 F1200 X75.96 Y85.535 E0.01881
G1 X76.457 Y85.266 E0.0376
G1 X76.987 Y85.069 E0.05641
G1 X77.54 Y84.95 E0.07522
G1 X78.318 Y84.902 E0.10115
G1 X78.43 Y84.9 E0.10487
G1 X141.25 Y84.9 E2.19427
G1 X141.948 Y84.91 E2.21749
G1 X142.512 Y84.958 E2.23632
G1 X143.062 Y85.085 E2.25509
G1 X143.59 Y85.289 E2.27392
G1 X144.084 Y85.564 E2.29273
G1 X144.533 Y85.907 E2.31152
G1 X144.93 Y86.309 E2.33031
G1 X145.267 Y86.764 E2.34914
G1 X145.535 Y87.261 E2.36792
G1 X145.731 Y87.791 E2.38672
G1 X145.851 Y88.344 E2.40554
G1 X145.898 Y89.118 E2.43133
G1 X145.9 Y89.23 E2.43505
G1 X145.9 Y120.419 E3.4724
G1 X145.89 Y121.148 E3.49665
G1 X145.842 Y121.711 E3.51545
G1 X145.715 Y122.262 E3.53425
G1 X145.512 Y122.79 E3.55307
G1 X145.237 Y123.283 E3.57184
G1 X144.895 Y123.733 E3.59064
G1 X144.492 Y124.131 E3.60948
G1 X144.038 Y124.467 E3.62827
G1 X143.442 Y124.78 E3.65066
G1 X142.971 Y124.977 E3.66764
G1 X141.255 Y125.667 E3.72915
G1 X138.767 Y126.753 E3.81944
G1 X136.309 Y127.908 E3.90977
G1 X133.874 Y129.138 E4.00051
G1 X131.474 Y130.436 E4.09126
G1 X129.15 Y131.782 E4.18058
G1 X126.826 Y133.214 E4.27138
G1 X125.878 Y133.84 E4.30916
G1 X124.773 Y134.552 E4.35288
G1 X124.277 Y134.824 E4.3717
G1 X123.748 Y135.024 E4.39051
G1 X123.196 Y135.146 E4.40931
G1 X122.565 Y135.194 E4.43036
G1 X122.121 Y135.2 E4.44513
G1 X99.53 Y135.2 E5.19651
G1 X98.831 Y135.19 E5.21976
G1 X98.267 Y135.142 E5.23858
G1 X97.717 Y135.015 E5.25736
G1 X97.168 Y134.801 E5.27696
G1 X96.771 Y134.587 E5.29196
G1 X95.787 Y133.981 E5.33039
G1 X95.429 Y133.754 E5.34449
G1 X93.054 Y132.337 E5.43648
G1 X90.723 Y131.034 E5.5253
G1 X88.293 Y129.765 E5.61648
G1 X85.883 Y128.592 E5.70562
G1 X83.394 Y127.466 E5.79648
G1 X80.87 Y126.409 E5.8875
G1 X78.344 Y125.433 E5.97757
G1 X77.783 Y125.237 E5.99733
G1 X76.723 Y124.845 E6.03492
G1 X76.208 Y124.612 E6.05372
G1 X75.73 Y124.308 E6.07256
G1 X75.301 Y123.941 E6.09134
G1 X74.928 Y123.516 E6.11015
G1 X74.618 Y123.043 E6.12896
G1 X74.378 Y122.532 E6.14773
G1 X74.212 Y121.991 E6.16656
G1 X74.112 Y121.215 E6.19258
G1 X74.1 Y120.764 E6.20758
G1 X74.1 Y89.52 E7.24676
G1 X74.109 Y88.855 E7.26888
G1 X74.157 Y88.292 E7.28768
G1 X74.283 Y87.741 E7.30648
G1 X74.486 Y87.213 E7.32529
G1 X74.762 Y86.719 E7.34411
G1 X75.104 Y86.269 E7.36291
G1 X75.506 Y85.872 E7.3817
G0 F3000 X75.894 Y86.071
G1 F1200 X76.341 Y85.773 E7.39957
G1 X76.826 Y85.545 E7.4174
G1 X77.34 Y85.392 E7.43523
G1 X78.008 Y85.31 E7.45762
G1 X78.43 Y85.3 E7.47166
G1 X141.245 Y85.3 E9.56089
G1 X141.943 Y85.31 E9.58411
G1 X142.477 Y85.358 E9.60194
G1 X142.998 Y85.484 E9.61977
G1 X143.495 Y85.687 E9.63763
G1 X143.956 Y85.961 E9.65546
G1 X144.371 Y86.3 E9.67329
G1 X144.731 Y86.698 E9.69114
G1 X145.028 Y87.144 E9.70896
G1 X145.256 Y87.63 E9.72681
G1 X145.408 Y88.144 E9.74464
G1 X145.49 Y88.809 E9.76693
G1 X145.5 Y89.23 E9.78093
G1 X145.5 Y120.413 E10.81808
G1 X145.49 Y121.142 E10.84233
G1 X145.442 Y121.677 E10.8602
G1 X145.316 Y122.198 E10.87803
G1 X145.114 Y122.695 E10.89587
G1 X144.84 Y123.156 E10.91371
G1 X144.501 Y123.571 E10.93153
G1 X144.104 Y123.932 E10.94938
G1 X143.658 Y124.229 E10.9672
G1 X142.876 Y124.584 E10.99576
G1 X141.112 Y125.294 E11.05901
G1 X138.586 Y126.396 E11.15067
G1 X136.138 Y127.547 E11.24064
G1 X133.667 Y128.794 E11.3327
G1 X131.304 Y130.073 E11.42207
G1 X128.945 Y131.438 E11.51272
G1 X126.602 Y132.882 E11.60426
G1 X125.661 Y133.504 E11.64177
G1 X124.556 Y134.216 E11.68549
G1 X124.085 Y134.472 E11.70332
G1 X123.581 Y134.656 E11.72117
G1 X123.055 Y134.762 E11.73902
G1 X122.551 Y134.794 E11.75581
G1 X122.117 Y134.8 E11.77025
G1 X99.536 Y134.8 E12.5213
G1 X98.837 Y134.79 E12.54455
G1 X98.302 Y134.742 E12.56241
G1 X97.781 Y134.616 E12.58024
G1 X97.319 Y134.43 E12.59681
G1 X96.98 Y134.246 E12.60963
G1 X96.002 Y133.643 E12.64785
G1 X95.643 Y133.415 E12.66199
G1 X93.274 Y132.003 E12.75372
G1 X90.897 Y130.673 E12.84432
G1 X88.503 Y129.423 E12.93414
G1 X86.028 Y128.219 E13.02568
G1 X83.551 Y127.098 E13.11611
G1 X81.033 Y126.044 E13.2069
G1 X78.466 Y125.052 E13.29843
G1 X77.921 Y124.862 E13.31763
G1 X76.861 Y124.47 E13.35522
G1 X76.374 Y124.247 E13.37304
G1 X75.924 Y123.954 E13.3909
G1 X75.524 Y123.597 E13.40873
G1 X75.18 Y123.185 E13.42658
G1 X74.902 Y122.727 E13.4444
G1 X74.695 Y122.232 E13.46224
G1 X74.564 Y121.712 E13.48008
G1 X74.512 Y121.202 E13.49713
G1 X74.5 Y120.764 E13.5117
G1 X74.5 Y89.525 E14.55072
G1 X74.509 Y88.86 E14.57284
G1 X74.557 Y88.326 E14.59067
G1 X74.683 Y87.805 E14.6085
G1 X74.885 Y87.308 E14.62634
G1 X75.158 Y86.847 E14.64416
G1 X75.497 Y86.431 E14.66201
G1 X75.894 Y86.071 E14.67983
G0 F3000 X75.889 Y86.604
G1 F1200 X76.28 Y86.283 E14.69666
G1 X76.717 Y86.028 E14.71349
G1 X77.188 Y85.844 E14.73031
G1 X77.682 Y85.738 E14.74711
G1 X78.34 Y85.701 E14.76903
G1 X141.239 Y85.7 E16.86106
G1 X141.937 Y85.71 E16.88428
G1 X142.44 Y85.757 E16.90108
G1 X142.93 Y85.883 E16.91791
G1 X143.394 Y86.085 E16.93474
G1 X143.82 Y86.357 E16.95155
G1 X144.198 Y86.692 E16.96835
G1 X144.518 Y87.083 E16.98516
G1 X144.773 Y87.52 E17.00198
G1 X144.956 Y87.991 E17.01879
G1 X145.063 Y88.485 E17.0356
G1 X145.099 Y89.14 E17.05742
G1 X145.1 Y120.408 E18.0974
G1 X145.09 Y121.137 E18.12165
G1 X145.043 Y121.64 E18.13845
G1 X144.917 Y122.13 E18.15528
G1 X144.716 Y122.594 E18.1721
G1 X144.445 Y123.02 E18.18889
G1 X144.109 Y123.399 E18.20573
G1 X143.718 Y123.719 E18.22254
G1 X143.131 Y124.042 E18.24482
G1 X142.673 Y124.235 E18.26135
G1 X140.94 Y124.932 E18.32348
G1 X138.421 Y126.031 E18.41489
G1 X135.937 Y127.199 E18.50619
G1 X133.518 Y128.42 E18.59631
G1 X131.12 Y129.718 E18.687
G1 X128.714 Y131.11 E18.77945
G1 X126.409 Y132.531 E18.86952
G1 X125.444 Y133.168 E18.90798
G1 X124.339 Y133.88 E18.9517
G1 X123.894 Y134.119 E18.9685
G1 X123.417 Y134.286 E18.98531
G1 X122.714 Y134.388 E19.00893
G1 X122.112 Y134.4 E19.02896
G1 X99.541 Y134.4 E19.77967
G1 X98.842 Y134.39 E19.80292
G1 X98.339 Y134.343 E19.81973
G1 X97.849 Y134.217 E19.83656
G1 X97.19 Y133.905 E19.86081
G1 X96.216 Y133.306 E19.89884
G1 X95.815 Y133.051 E19.91464
G1 X93.495 Y131.668 E20.00448
G1 X91.098 Y130.328 E20.09581
G1 X88.656 Y129.053 E20.18744
G1 X86.218 Y127.866 E20.27763
G1 X83.704 Y126.729 E20.3694
G1 X81.183 Y125.673 E20.4603
G1 X78.598 Y124.674 E20.55248
G1 X78.06 Y124.486 E20.57143
G1 X77 Y124.094 E20.60902
G1 X76.541 Y123.882 E20.62584
G1 X76.122 Y123.6 E20.64264
G1 X75.751 Y123.256 E20.65947
G1 X75.44 Y122.857 E20.67629
G1 X75.196 Y122.415 E20.69308
G1 X75.024 Y121.939 E20.70992
G1 X74.929 Y121.443 E20.72671
G1 X74.901 Y120.861 E20.74609
G1 X74.9 Y89.531 E21.78813
G1 X74.909 Y88.866 E21.81025
G1 X74.956 Y88.362 E21.82709
G1 X75.082 Y87.873 E21.84389
G1 X75.283 Y87.409 E21.8607
G1 X75.554 Y86.982 E21.87753
G1 X75.889 Y86.604 E21.89432
G1 F1800 E14.89432
G1 F300 Z0.4
G0 F3000 X109.238 Y127 Z0.4
;TYPE:SUPPORT
G1 F300 Z0.2
G1 F1800 E21.89432
G1 F1200 X112.278 Y127 E21.99544
G1 X112.275 Y128 E22.0287
G1 X109.277 Y128 E22.12841
G1 X109.238 Y127 E22.16169
G1 F1800 E15.16169
G1 F300 Z0.4
G0 F3000 X112.014 Y127.16 Z0.4
G1 F300 Z0.2
G1 F1800 E22.16169
G1 F1200 X112.014 Y127.84 E22.18431
G1 F1800 E15.18431
G1 F300 Z0.4
;MESH:camera.wrover.nested_frame.stl
G0 F3000 X85.606 Y100.022 Z0.4
;TYPE:WALL-INNER
G1 F300 Z0.2
G1 F1800 E22.18431
G1 F1200 X86.262 Y100.184 E22.20679
G1 X86.938 Y100.184 E22.22927
G1 X87.594 Y100.022 E22.25174
G1 X88.193 Y99.709 E22.27422
G1 X88.7 Y99.259 E22.29677
G1 X89.083 Y98.703 E22.31923
G1 X89.323 Y98.07 E22.34174
G1 X89.404 Y97.4 E22.36419
G1 X89.323 Y96.729 E22.38667
G1 X89.083 Y96.097 E22.40915
G1 X88.7 Y95.541 E22.43161
G1 X88.193 Y95.091 E22.45415
G1 X87.594 Y94.778 E22.47663
G1 X86.938 Y94.616 E22.49911
G1 X86.262 Y94.616 E22.52159
G1 X85.606 Y94.778 E22.54407
G1 X85.007 Y95.091 E22.56654
G1 X84.5 Y95.541 E22.58909
G1 X84.117 Y96.097 E22.61155
G1 X83.877 Y96.729 E22.63403
G1 X83.796 Y97.4 E22.65651
G1 X83.877 Y98.07 E22.67896
G1 X84.117 Y98.703 E22.70147
G1 X84.5 Y99.259 E22.72393
G1 X85.007 Y99.709 E22.74648
G1 X85.606 Y100.022 E22.76896
G0 F3000 X85.749 Y99.645
;TYPE:WALL-OUTER
G1 F1200 X86.311 Y99.784 E22.78821
G1 X86.889 Y99.784 E22.80744
G1 X87.451 Y99.645 E22.82669
G1 X87.964 Y99.377 E22.84594
G1 X88.398 Y98.992 E22.86524
G1 X88.726 Y98.516 E22.88446
G1 X88.932 Y97.974 E22.90375
G1 X89.001 Y97.4 E22.92298
G1 X88.932 Y96.825 E22.94224
G1 X88.726 Y96.284 E22.96149
G1 X88.398 Y95.808 E22.98072
G1 X87.964 Y95.423 E23.00002
G1 X87.451 Y95.155 E23.01927
G1 X86.889 Y95.016 E23.03852
G1 X86.311 Y95.016 E23.05775
G1 X85.749 Y95.155 E23.077
G1 X85.236 Y95.423 E23.09625
G1 X84.802 Y95.808 E23.11555
G1 X84.474 Y96.284 E23.13478
G1 X84.268 Y96.825 E23.15403
G1 X84.199 Y97.4 E23.17329
G1 X84.268 Y97.974 E23.19252
G1 X84.474 Y98.516 E23.2118
G1 X84.802 Y98.992 E23.23103
G1 X85.236 Y99.377 E23.25033
G1 X85.749 Y99.645 E23.26958
G0 F3000 X85.943 Y99.693
G0 X85.838 Y100.119
G1 F1800 E16.26958
G1 F300 Z0.4
G0 F3000 X85.798 Y100.274 Z0.4
G0 X85.606 Y115.222
;TYPE:WALL-INNER
G1 F300 Z0.2
G1 F1800 E23.26958
G1 F1200 X86.262 Y115.384 E23.29205
G1 X86.938 Y115.384 E23.31454
G1 X87.594 Y115.222 E23.33701
G1 X88.193 Y114.909 E23.35949
G1 X88.7 Y114.459 E23.38204
G1 X89.083 Y113.903 E23.40449
G1 X89.323 Y113.27 E23.42701
G1 X89.404 Y112.6 E23.44945
G1 X89.323 Y111.929 E23.47193
G1 X89.083 Y111.297 E23.49442
G1 X88.7 Y110.741 E23.51687
G1 X88.193 Y110.291 E23.53942
G1 X87.594 Y109.978 E23.5619
G1 X86.938 Y109.816 E23.58437
G1 X86.262 Y109.816 E23.60686
G1 X85.606 Y109.978 E23.62933
G1 X85.007 Y110.291 E23.65181
G1 X84.5 Y110.741 E23.67436
G1 X84.117 Y111.297 E23.69681
G1 X83.877 Y111.929 E23.7193
G1 X83.796 Y112.6 E23.74178
G1 X83.877 Y113.27 E23.76422
G1 X84.117 Y113.903 E23.78674
G1 X84.5 Y114.459 E23.8092
G1 X85.007 Y114.909 E23.83174
G1 X85.606 Y115.222 E23.85422
G0 F3000 X85.749 Y114.845
;TYPE:WALL-OUTER
G1 F1200 X86.311 Y114.984 E23.87348
G1 X86.889 Y114.984 E23.8927
G1 X87.451 Y114.845 E23.91196
G1 X87.964 Y114.577 E23.93121
G1 X88.398 Y114.192 E23.9505
G1 X88.726 Y113.716 E23.96973
G1 X88.932 Y113.174 E23.98902
G1 X89.001 Y112.6 E24.00824
G1 X88.932 Y112.025 E24.02751
G1 X88.726 Y111.484 E24.04676
G1 X88.398 Y111.008 E24.06599
G1 X87.964 Y110.623 E24.08528
G1 X87.451 Y110.355 E24.10453
G1 X86.889 Y110.216 E24.12379
G1 X86.311 Y110.216 E24.14301
G1 X85.749 Y110.355 E24.16227
G1 X85.236 Y110.623 E24.18152
G1 X84.802 Y111.008 E24.20082
G1 X84.474 Y111.484 E24.22004
G1 X84.268 Y112.025 E24.2393
G1 X84.199 Y112.6 E24.25856
G1 X84.268 Y113.174 E24.27779
G1 X84.474 Y113.716 E24.29707
G1 X84.802 Y114.192 E24.3163
G1 X85.236 Y114.577 E24.33559
G1 X85.749 Y114.845 E24.35484
G0 F3000 X85.943 Y114.893
G0 X85.838 Y115.319
G1 F1800 E17.35484
G1 F300 Z0.4
G0 F3000 X85.798 Y115.474 Z0.4
G0 X103.153 Y112.768
;TYPE:WALL-INNER
G1 F300 Z0.2
G1 F1800 E24.35484
G1 F1200 X103.647 Y112.889 E24.37176
G1 X104.153 Y112.889 E24.38859
G1 X104.647 Y112.768 E24.40551
G1 X105.095 Y112.532 E24.42235
G1 X105.476 Y112.196 E24.43924
G1 X105.763 Y111.777 E24.45614
G1 X105.943 Y111.304 E24.47297
G1 X106.004 Y110.8 E24.48985
G1 X105.943 Y110.296 E24.50674
G1 X105.763 Y109.823 E24.52357
G1 X105.476 Y109.404 E24.54046
G1 X105.095 Y109.068 E24.55736
G1 X104.647 Y108.832 E24.5742
G1 X104.153 Y108.711 E24.59112
G1 X103.647 Y108.711 E24.60795
G1 X103.153 Y108.832 E24.62486
G1 X102.705 Y109.068 E24.64171
G1 X102.324 Y109.404 E24.6586
G1 X102.037 Y109.823 E24.67549
G1 X101.857 Y110.296 E24.69233
G1 X101.796 Y110.8 E24.70921
G1 X101.857 Y111.304 E24.7261
G1 X102.037 Y111.777 E24.74293
G1 X102.324 Y112.196 E24.75982
G1 X102.705 Y112.532 E24.77672
G1 X103.153 Y112.768 E24.79356
G0 F3000 X103.296 Y112.391
;TYPE:WALL-OUTER
G1 F1200 X103.695 Y112.489 E24.80722
G1 X104.105 Y112.489 E24.82086
G1 X104.504 Y112.391 E24.83453
G1 X104.866 Y112.2 E24.84814
G1 X105.174 Y111.929 E24.86178
G1 X105.406 Y111.59 E24.87545
G1 X105.552 Y111.207 E24.88908
G1 X105.601 Y110.8 E24.90271
G1 X105.552 Y110.393 E24.91635
G1 X105.406 Y110.01 E24.92998
G1 X105.174 Y109.671 E24.94364
G1 X104.866 Y109.4 E24.95729
G1 X104.504 Y109.209 E24.9709
G1 X104.105 Y109.111 E24.98457
G1 X103.695 Y109.111 E24.9982
G1 X103.296 Y109.209 E25.01187
G1 X102.934 Y109.4 E25.02548
G1 X102.626 Y109.671 E25.03913
G1 X102.394 Y110.01 E25.05279
G1 X102.248 Y110.393 E25.06642
G1 X102.199 Y110.8 E25.08006
G1 X102.248 Y111.207 E25.09369
G1 X102.394 Y111.59 E25.10733
G1 X102.626 Y111.929 E25.12099
G1 X102.934 Y112.2 E25.13463
G1 X103.296 Y112.391 E25.14825
G0 F3000 X103.49 Y112.438
G0 X103.384 Y112.866
G1 F1800 E18.14825
G1 F300 Z0.4
G0 F3000 X103.346 Y113.02 Z0.4
G0 X114.087 Y110.035
;TYPE:WALL-INNER
G1 F300 Z0.2
G1 F1800 E25.14825
G1 F1200 X114.208 Y110.047 E25.15229
G1 X115.124 Y110.093 E25.1828
G1 X115.201 Y110.093 E25.18536
G1 X116.353 Y109.893 E25.22425
G1 X117.444 Y109.425 E25.26373
G1 X118.398 Y108.717 E25.30324
G1 X119.161 Y107.81 E25.34266
G1 X119.695 Y106.749 E25.38217
G1 X119.969 Y105.593 E25.42169
G1 X119.969 Y104.407 E25.46113
G1 X119.695 Y103.251 E25.50065
G1 X119.161 Y102.19 E25.54015
G1 X118.398 Y101.282 E25.5796
G1 X117.444 Y100.575 E25.61909
G1 X116.352 Y100.107 E25.65861
G1 X115.172 Y99.904 E25.69843
G1 X114.071 Y99.974 E25.73512
G1 X113.932 Y99.99 E25.73978
G1 X112.908 Y100.313 E25.77549
G1 X112.776 Y100.359 E25.78014
G1 X111.74 Y100.991 E25.8205
G1 X110.892 Y101.844 E25.86051
G1 X110.814 Y101.959 E25.86513
G1 X110.263 Y102.875 E25.90068
G1 X110.217 Y102.986 E25.90468
G1 X109.905 Y103.993 E25.93974
G1 X109.875 Y104.11 E25.94376
G1 X109.807 Y105.266 E25.98228
G1 X109.817 Y105.386 E25.98628
G1 X110.01 Y106.441 E26.02195
G1 X110.066 Y106.614 E26.028
G1 X110.504 Y107.584 E26.0634
G1 X110.556 Y107.675 E26.06689
G1 X111.235 Y108.541 E26.10349
G1 X111.301 Y108.616 E26.10681
G1 X112.119 Y109.279 E26.14183
G1 X113.056 Y109.755 E26.17679
G1 X113.172 Y109.794 E26.18086
G1 X114.087 Y110.035 E26.21233
G0 F3000 X114.158 Y109.64
;TYPE:WALL-OUTER
G1 F1200 X114.238 Y109.648 E26.215
G1 X115.134 Y109.693 E26.24484
G1 X115.167 Y109.693 E26.24594
G1 X116.238 Y109.507 E26.28209
G1 X117.243 Y109.076 E26.31846
G1 X118.122 Y108.424 E26.35486
G1 X118.825 Y107.588 E26.39119
G1 X119.317 Y106.611 E26.42758
G1 X119.569 Y105.546 E26.46398
G1 X119.569 Y104.454 E26.5003
G1 X119.317 Y103.389 E26.5367
G1 X118.825 Y102.412 E26.57308
G1 X118.122 Y101.575 E26.60944
G1 X117.243 Y100.924 E26.64582
G1 X116.238 Y100.493 E26.68219
G1 X115.15 Y100.306 E26.7189
G1 X114.108 Y100.372 E26.75363
G1 X114.017 Y100.383 E26.75668
G1 X113.034 Y100.693 E26.79096
G1 X112.948 Y100.723 E26.79399
G1 X111.99 Y101.307 E26.83131
G1 X111.202 Y102.1 E26.86849
G1 X111.151 Y102.175 E26.87151
G1 X110.621 Y103.056 E26.9057
G1 X110.593 Y103.123 E26.90812
G1 X110.29 Y104.102 E26.9422
G1 X110.272 Y104.172 E26.94461
