;FLAVOR:Marlin
;TIME:3934
;Filament used: 2.42935m
;Layer height: 0.2
;MINX:74.1
;MINY:89.9
;MINZ:0.2
;MAXX:145.9
;MAXY:130.1
;MAXZ:18.8
;Generated with Cura_SteamEngine master
M82 ;absolute extrusion mode
;Sliced at: Fri 16-09-2022 00:23:37
;Basic settings: Layer height: 0.2 Walls: 0.8 Fill: 30.0
G21 ;metric values
G90 ;absolute positioning
M82 ;set extruder to absolute mode
M107 ;start with the fan off
M117 Start heating ...
M104 S200
M117 Homing X/Y ...
G28 X0 Y0 ;move X/Y to min endstops
M117 Homing Z ...
G28 Z0 ;move Z to min endstops
G1 Z15.0 F100 ;move the platform down 15mm
M117 Heating ...
M109 S200
M117 Start cleaning ...
G92 E0 ;zero the extruded length
G1 F200 E10 ;extrude 10mm of feed stock
G92 E0 ;zero the extruded length again
M117 Intro line ...
G1 Z2.0 F3000 ; Move Z Axis up little to prevent scratching of Heat Bed
G1 X0.1 Y20 Z0.2 F5000.0 ; Move to start position
G1 X0.1 Y200.0 Z0.2 F1500.0 E15 ; Draw the first line
G1 X0.4 Y200.0 Z0.2 F5000.0 ; Move to side a little
G1 X0.4 Y20 Z0.3 F1500.0 E30 ; Draw the second line
G92 E0 ; Reset Extruder
G1 E-1 F500 ; Retract filiment by 1 mm
G1 Z2.0 F3000 ; Move Z Axis up little to prevent scratching of Heat Bed
G1 X5 Y20 Z0.3 F100 ; Move over to prevent blob squish
G1 F100
G92 E0 ; Reset Extruder
M117 Printing...

G92 E0
G92 E0
G1 F1800 E-7
;LAYER_COUNT:93
;LAYER:0
M107
G1 F300 Z0.4
G0 F3000 X75.506 Y90.872 Z0.4
;TYPE:SKIRT
G1 F300 Z0.2
G1 F1800 E0
G1 F1200 X75.96 Y90.535 E0.01881
G1 X76.457 Y90.266 E0.0376
G1 X76.987 Y90.069 E0.05641
G1 X77.54 Y89.95 E0.07522
G1 X78.318 Y89.902 E0.10115
G1 X78.43 Y89.9 E0.10487
G1 X141.25 Y89.9 E2.19427
G1 X141.948 Y89.91 E2.21749
G1 X142.512 Y89.958 E2.23632
G1 X143.062 Y90.085 E2.25509
G1 X143.59 Y90.289 E2.27392
G1 X144.084 Y90.564 E2.29273
G1 X144.533 Y90.907 E2.31152
G1 X144.93 Y91.309 E2.33031
G1 X145.267 Y91.764 E2.34914
G1 X145.535 Y92.261 E2.36792
G1 X145.731 Y92.791 E2.38672
G1 X145.851 Y93.344 E2.40554
G1 X145.898 Y94.118 E2.43133
G1 X145.9 Y94.23 E2.43505
G1 X145.9 Y125.414 E3.47224
G1 X145.891 Y126.141 E3.49642
G1 X145.844 Y126.704 E3.51521
G1 X145.718 Y127.255 E3.53401
G1 X145.516 Y127.783 E3.55281
G1 X145.241 Y128.277 E3.57162
G1 X144.899 Y128.727 E3.59042
G1 X144.497 Y129.125 E3.60923
G1 X144.044 Y129.462 E3.62801
G1 X143.547 Y129.732 E3.64682
G1 X143.017 Y129.929 E3.66563
G1 X142.465 Y130.05 E3.68442
G1 X141.682 Y130.098 E3.71052
G1 X141.57 Y130.1 E3.71424
G1 X78.755 Y130.1 E5.80348
G1 X78.057 Y130.091 E5.82669
G1 X77.494 Y130.043 E5.84549
G1 X76.943 Y129.917 E5.86429
G1 X76.415 Y129.715 E5.88309
G1 X75.921 Y129.44 E5.90189
G1 X75.471 Y129.098 E5.92069
G1 X75.073 Y128.696 E5.93951
G1 X74.737 Y128.242 E5.95829
G1 X74.467 Y127.745 E5.97711
G1 X74.27 Y127.215 E5.99591
G1 X74.15 Y126.663 E6.0147
G1 X74.101 Y125.866 E6.04126
G1 X74.1 Y94.52 E7.08383
G1 X74.109 Y93.855 E7.10595
G1 X74.157 Y93.292 E7.12475
G1 X74.283 Y92.741 E7.14354
G1 X74.486 Y92.213 E7.16236
G1 X74.762 Y91.719 E7.18118
G1 X75.104 Y91.269 E7.19998
G1 X75.506 Y90.872 E7.21877
G0 F3000 X75.894 Y91.071
G1 F1200 X76.341 Y90.773 E7.23664
G1 X76.826 Y90.545 E7.25446
G1 X77.34 Y90.392 E7.2723
G1 X78.008 Y90.31 E7.29469
G1 X78.43 Y90.3 E7.30873
G1 X141.245 Y90.3 E9.39796
G1 X141.943 Y90.31 E9.42118
G1 X142.477 Y90.358 E9.43901
G1 X142.998 Y90.484 E9.45684
G1 X143.495 Y90.687 E9.47469
G1 X143.956 Y90.961 E9.49253
G1 X144.371 Y91.3 E9.51035
G1 X144.731 Y91.698 E9.5282
G1 X145.028 Y92.144 E9.54603
G1 X145.256 Y92.63 E9.56388
G1 X145.408 Y93.144 E9.58171
G1 X145.49 Y93.809 E9.60399
G1 X145.5 Y94.23 E9.618
G1 X145.5 Y125.409 E10.65502
G1 X145.491 Y126.136 E10.6792
G1 X145.444 Y126.67 E10.69703
G1 X145.319 Y127.191 E10.71485
G1 X145.117 Y127.688 E10.73269
G1 X144.844 Y128.15 E10.75054
G1 X144.506 Y128.566 E10.76837
G1 X144.109 Y128.927 E10.78622
G1 X143.663 Y129.225 E10.80406
G1 X143.178 Y129.453 E10.82188
G1 X142.664 Y129.607 E10.83973
G1 X141.992 Y129.69 E10.86225
G1 X141.57 Y129.7 E10.87629
G1 X78.761 Y129.7 E12.96532
G1 X78.063 Y129.691 E12.98854
G1 X77.528 Y129.644 E13.0064
G1 X77.007 Y129.518 E13.02423
G1 X76.51 Y129.316 E13.04208
G1 X76.049 Y129.043 E13.0599
G1 X75.633 Y128.704 E13.07774
G1 X75.272 Y128.308 E13.09557
G1 X74.974 Y127.862 E13.11341
G1 X74.746 Y127.376 E13.13126
G1 X74.593 Y126.862 E13.1491
G1 X74.51 Y126.188 E13.17169
G1 X74.5 Y125.758 E13.18599
G1 X74.5 Y94.525 E14.22481
G1 X74.509 Y93.86 E14.24693
G1 X74.557 Y93.326 E14.26476
G1 X74.683 Y92.805 E14.28259
G1 X74.885 Y92.308 E14.30043
G1 X75.158 Y91.847 E14.31825
G1 X75.497 Y91.431 E14.3361
G1 X75.894 Y91.071 E14.35392
G0 F3000 X75.889 Y91.604
G1 F1200 X76.28 Y91.283 E14.37075
G1 X76.717 Y91.028 E14.38758
G1 X77.188 Y90.844 E14.4044
G1 X77.682 Y90.738 E14.4212
G1 X78.34 Y90.701 E14.44312
G1 X141.239 Y90.7 E16.53515
G1 X141.937 Y90.71 E16.55837
G1 X142.44 Y90.757 E16.57517
G1 X142.93 Y90.883 E16.592
G1 X143.394 Y91.085 E16.60883
G1 X143.82 Y91.357 E16.62564
G1 X144.198 Y91.692 E16.64244
G1 X144.518 Y92.083 E16.65924
G1 X144.773 Y92.52 E16.67607
G1 X144.956 Y92.991 E16.69288
G1 X145.063 Y93.485 E16.70969
G1 X145.099 Y94.14 E16.73151
G1 X145.1 Y125.404 E17.77135
G1 X145.091 Y126.131 E17.79554
G1 X145.045 Y126.634 E17.81233
G1 X144.92 Y127.124 E17.82915
G1 X144.719 Y127.588 E17.84597
G1 X144.448 Y128.015 E17.86279
G1 X144.113 Y128.394 E17.87962
G1 X143.723 Y128.715 E17.89642
G1 X143.287 Y128.971 E17.91323
G1 X142.816 Y129.154 E17.93004
G1 X142.322 Y129.262 E17.94686
G1 X141.66 Y129.299 E17.96891
G1 X78.766 Y129.3 E20.06077
G1 X78.068 Y129.291 E20.08399
G1 X77.564 Y129.244 E20.10083
G1 X77.074 Y129.119 E20.11765
G1 X76.61 Y128.918 E20.13447
G1 X76.184 Y128.647 E20.15126
G1 X75.805 Y128.312 E20.16808
G1 X75.484 Y127.921 E20.18491
G1 X75.229 Y127.485 E20.20171
G1 X75.045 Y127.014 E20.21853
G1 X74.938 Y126.52 E20.23534
G1 X74.901 Y125.844 E20.25786
G1 X74.9 Y94.531 E21.29933
G1 X74.909 Y93.866 E21.32145
G1 X74.956 Y93.362 E21.33829
G1 X75.082 Y92.873 E21.35508
G1 X75.283 Y92.409 E21.3719
G1 X75.554 Y91.982 E21.38872
G1 X75.889 Y91.604 E21.40552
G1 F1800 E14.40552
G1 F300 Z0.4
;MESH:camera.wroover.cover.stl
G0 F3000 X141.3 Y125.5 Z0.4
;TYPE:WALL-INNER
G1 F300 Z0.2
G1 F1800 E21.40552
G1 F1200 X78.7 Y125.5 E23.4876
G1 X78.7 Y94.5 E24.51867
G1 X141.3 Y94.5 E26.60075
G1 X141.3 Y125.5 E27.63182
G0 F3000 X141.7 Y125.9
;TYPE:WALL-OUTER
G1 F1200 X78.3 Y125.9 E29.74051
G1 X78.3 Y94.1 E30.79818
G1 X141.7 Y94.1 E32.90687
G1 X141.7 Y125.9 E33.96455
G0 F3000 X141.5 Y125.9
G0 X141.26 Y125.46
G0 X140.91 Y125.11
;TYPE:SKIN
G1 F1200 X79.09 Y125.11 E36.02069
G1 X79.09 Y94.89 E37.02581
G1 X140.91 Y94.89 E39.08195
G1 X140.91 Y125.11 E40.08707
G1 F1800 E33.08707
G0 F3000 X141.19 Y125.11
G0 X141.19 Y95.474
G1 F1800 E40.08707
G0 F3000 X140.729 Y95.474
G1 F1200 X140.324 Y95.069 E40.10612
G0 F3000 X139.758 Y95.069
G1 F1200 X140.729 Y96.039 E40.15177
G0 F3000 X140.729 Y96.605
G1 F1200 X139.193 Y95.069 E40.22402
G0 F3000 X138.627 Y95.069
G1 F1200 X140.729 Y97.171 E40.32289
G0 F3000 X140.729 Y97.737
G1 F1200 X138.061 Y95.069 E40.44839
G0 F3000 X137.496 Y95.069
G1 F1200 X140.729 Y98.302 E40.60046
G0 F3000 X140.729 Y98.868
G1 F1200 X136.93 Y95.069 E40.77915
G0 F3000 X136.364 Y95.069
G1 F1200 X140.729 Y99.434 E40.98447
G0 F3000 X140.729 Y99.999
G1 F1200 X135.799 Y95.069 E41.21636
G0 F3000 X135.233 Y95.069
G1 F1200 X140.729 Y100.565 E41.47487
G0 F3000 X140.729 Y101.131
G1 F1200 X134.667 Y95.069 E41.76001
G0 F3000 X134.102 Y95.069
G1 F1200 X140.729 Y101.696 E42.07173
G0 F3000 X140.729 Y102.262
G1 F1200 X133.536 Y95.069 E42.41006
G0 F3000 X132.97 Y95.069
G1 F1200 X140.729 Y102.828 E42.77502
G0 F3000 X140.729 Y103.393
G1 F1200 X132.405 Y95.069 E43.16656
G0 F3000 X131.839 Y95.069
G1 F1200 X140.729 Y103.959 E43.58472
G0 F3000 X140.729 Y104.525
G1 F1200 X131.273 Y95.069 E44.0295
G0 F3000 X130.707 Y95.069
G1 F1200 X140.729 Y105.09 E44.50088
G0 F3000 X140.729 Y105.656
G1 F1200 X130.142 Y95.069 E44.99886
G0 F3000 X129.576 Y95.069
G1 F1200 X140.729 Y106.222 E45.52346
G0 F3000 X140.729 Y106.787
G1 F1200 X129.01 Y95.069 E46.07466
G0 F3000 X128.445 Y95.069
G1 F1200 X140.729 Y107.353 E46.65246
G0 F3000 X140.729 Y107.919
G1 F1200 X127.879 Y95.069 E47.25689
G0 F3000 X127.313 Y95.069
G1 F1200 X140.729 Y108.485 E47.88794
G0 F3000 X140.729 Y109.05
G1 F1200 X126.748 Y95.069 E48.54556
G0 F3000 X126.182 Y95.069
G1 F1200 X140.729 Y109.616 E49.22981
G0 F3000 X140.729 Y110.182
G1 F1200 X125.616 Y95.069 E49.94068
G0 F3000 X125.051 Y95.069
G1 F1200 X140.729 Y110.747 E50.67812
G0 F3000 X140.729 Y111.313
G1 F1200 X124.485 Y95.069 E51.44219
G0 F3000 X123.919 Y95.069
G1 F1200 X140.729 Y111.879 E52.23288
G0 F3000 X140.729 Y112.444
G1 F1200 X123.354 Y95.069 E53.05015
G0 F3000 X122.788 Y95.069
G1 F1200 X140.729 Y113.01 E53.89404
G0 F3000 X140.729 Y113.576
G1 F1200 X122.222 Y95.069 E54.76455
G0 F3000 X121.657 Y95.069
G1 F1200 X140.729 Y114.141 E55.66164
G0 F3000 X140.729 Y114.707
G1 F1200 X121.091 Y95.069 E56.58535
G0 F3000 X120.525 Y95.069
G1 F1200 X140.729 Y115.273 E57.53568
G0 F3000 X140.729 Y115.838
G1 F1200 X119.959 Y95.069 E58.51262
G0 F3000 X119.394 Y95.069
G1 F1200 X140.729 Y116.404 E59.51615
G0 F3000 X140.729 Y116.97
G1 F1200 X118.828 Y95.069 E60.5463
G0 F3000 X118.262 Y95.069
G1 F1200 X140.729 Y117.535 E61.60306
G0 F3000 X140.729 Y118.101
G1 F1200 X117.697 Y95.069 E62.68641
G0 F3000 X117.131 Y95.069
G1 F1200 X140.729 Y118.667 E63.79639
G0 F3000 X140.729 Y119.233
G1 F1200 X116.565 Y95.069 E64.93299
G0 F3000 X116 Y95.069
G1 F1200 X140.729 Y119.798 E66.09617
G0 F3000 X140.729 Y120.364
G1 F1200 X115.434 Y95.069 E67.28597
G0 F3000 X114.868 Y95.069
G1 F1200 X140.729 Y120.93 E68.50239
G0 F3000 X140.729 Y121.495
G1 F1200 X114.303 Y95.069 E69.74539
G0 F3000 X113.737 Y95.069
G1 F1200 X140.729 Y122.061 E71.01501
G0 F3000 X140.729 Y122.627
G1 F1200 X113.171 Y95.069 E72.31125
G0 F3000 X112.606 Y95.069
G1 F1200 X140.729 Y123.192 E73.63407
G0 F3000 X140.729 Y123.758
G1 F1200 X112.04 Y95.069 E74.98352
G0 F3000 X111.474 Y95.069
G1 F1200 X140.729 Y124.324 E76.35958
G0 F3000 X140.729 Y124.889
G1 F1200 X110.908 Y95.069 E77.76225
G0 F3000 X110.343 Y95.069
G1 F1200 X140.203 Y124.929 E79.16677
G0 F3000 X139.637 Y124.929
G1 F1200 X109.777 Y95.069 E80.57129
G0 F3000 X109.211 Y95.069
G1 F1200 X139.071 Y124.929 E81.97581
G0 F3000 X138.505 Y124.929
G1 F1200 X108.646 Y95.069 E83.38031
G0 F3000 X108.08 Y95.069
G1 F1200 X137.94 Y124.929 E84.78484
G0 F3000 X137.374 Y124.929
G1 F1200 X107.514 Y95.069 E86.18936
G0 F3000 X106.949 Y95.069
G1 F1200 X136.808 Y124.929 E87.59386
G0 F3000 X136.243 Y124.929
G1 F1200 X106.383 Y95.069 E88.99838
G0 F3000 X105.817 Y95.069
G1 F1200 X135.677 Y124.929 E90.4029
G0 F3000 X135.111 Y124.929
G1 F1200 X105.252 Y95.069 E91.8074
G0 F3000 X104.686 Y95.069
G1 F1200 X134.546 Y124.929 E93.21193
G0 F3000 X133.98 Y124.929
G1 F1200 X104.12 Y95.069 E94.61645
G0 F3000 X103.555 Y95.069
G1 F1200 X133.414 Y124.929 E96.02095
G0 F3000 X132.849 Y124.929
G1 F1200 X102.989 Y95.069 E97.42547
G0 F3000 X102.423 Y95.069
G1 F1200 X132.283 Y124.929 E98.82999
G0 F3000 X131.717 Y124.929
G1 F1200 X101.858 Y95.069 E100.23449
G0 F3000 X101.292 Y95.069
G1 F1200 X131.152 Y124.929 E101.63902
G0 F3000 X130.586 Y124.929
G1 F1200 X100.726 Y95.069 E103.04354
G0 F3000 X100.16 Y95.069
G1 F1200 X130.02 Y124.929 E104.44806
G0 F3000 X129.454 Y124.929
G1 F1200 X99.595 Y95.069 E105.85256
G0 F3000 X99.029 Y95.069
G1 F1200 X128.889 Y124.929 E107.25708
G0 F3000 X128.323 Y124.929
G1 F1200 X98.463 Y95.069 E108.66161
G0 F3000 X97.898 Y95.069
G1 F1200 X127.757 Y124.929 E110.06611
G0 F3000 X127.192 Y124.929
G1 F1200 X97.332 Y95.069 E111.47063
G0 F3000 X96.766 Y95.069
G1 F1200 X126.626 Y124.929 E112.87515
G0 F3000 X126.06 Y124.929
G1 F1200 X96.201 Y95.069 E114.27965
G0 F3000 X95.635 Y95.069
G1 F1200 X125.495 Y124.929 E115.68417
G0 F3000 X124.929 Y124.929
G1 F1200 X95.069 Y95.069 E117.0887
G0 F3000 X94.504 Y95.069
G1 F1200 X124.363 Y124.929 E118.4932
G0 F3000 X123.798 Y124.929
G1 F1200 X93.938 Y95.069 E119.89772
G0 F3000 X93.372 Y95.069
G1 F1200 X123.232 Y124.929 E121.30224
G0 F3000 X122.666 Y124.929
G1 F1200 X92.807 Y95.069 E122.70674
G0 F3000 X92.241 Y95.069
G1 F1200 X122.101 Y124.929 E124.11126
G0 F3000 X121.535 Y124.929
G1 F1200 X91.675 Y95.069 E125.51579
G0 F3000 X91.11 Y95.069
G1 F1200 X120.969 Y124.929 E126.92029
G0 F3000 X120.404 Y124.929
G1 F1200 X90.544 Y95.069 E128.32481
G0 F3000 X89.978 Y95.069
G1 F1200 X119.838 Y124.929 E129.72933
G0 F3000 X119.272 Y124.929
G1 F1200 X89.412 Y95.069 E131.13386
G0 F3000 X88.847 Y95.069
G1 F1200 X118.706 Y124.929 E132.53835
G0 F3000 X118.141 Y124.929
G1 F1200 X88.281 Y95.069 E133.94288
G0 F3000 X87.715 Y95.069
G1 F1200 X117.575 Y124.929 E135.3474
G0 F3000 X117.009 Y124.929
G1 F1200 X87.15 Y95.069 E136.7519
G0 F3000 X86.584 Y95.069
G1 F1200 X116.444 Y124.929 E138.15642
G0 F3000 X115.878 Y124.929
G1 F1200 X86.018 Y95.069 E139.56095
G0 F3000 X85.453 Y95.069
G1 F1200 X115.312 Y124.929 E140.96544
G0 F3000 X114.747 Y124.929
G1 F1200 X84.887 Y95.069 E142.36997
G0 F3000 X84.321 Y95.069
G1 F1200 X114.181 Y124.929 E143.77449
G0 F3000 X113.615 Y124.929
G1 F1200 X83.756 Y95.069 E145.17899
G0 F3000 X83.19 Y95.069
G1 F1200 X113.05 Y124.929 E146.58351
G0 F3000 X112.484 Y124.929
G1 F1200 X82.624 Y95.069 E147.98804
G0 F3000 X82.059 Y95.069
G1 F1200 X111.918 Y124.929 E149.39253
G0 F3000 X111.353 Y124.929
G1 F1200 X81.493 Y95.069 E150.79706
G0 F3000 X80.927 Y95.069
G1 F1200 X110.787 Y124.929 E152.20158
G0 F3000 X110.221 Y124.929
G1 F1200 X80.361 Y95.069 E153.6061
G0 F3000 X79.796 Y95.069
G1 F1200 X109.655 Y124.929 E155.0106
G0 F3000 X109.09 Y124.929
G1 F1200 X79.269 Y95.108 E156.41329
G0 F3000 X79.269 Y95.674
G1 F1200 X108.524 Y124.929 E157.78936
G0 F3000 X107.958 Y124.929
G1 F1200 X79.269 Y96.24 E159.1388
G0 F3000 X79.269 Y96.805
G1 F1200 X107.393 Y124.929 E160.46167
G0 F3000 X106.827 Y124.929
G1 F1200 X79.269 Y97.371 E161.75791
G0 F3000 X79.269 Y97.937
G1 F1200 X106.261 Y124.929 E163.02753
G0 F3000 X105.696 Y124.929
G1 F1200 X79.269 Y98.502 E164.27058
G0 F3000 X79.269 Y99.068
G1 F1200 X105.13 Y124.929 E165.487
G0 F3000 X104.564 Y124.929
G1 F1200 X79.269 Y99.634 E166.6768
G0 F3000 X79.269 Y100.199
G1 F1200 X103.999 Y124.929 E167.84002
G0 F3000 X103.433 Y124.929
G1 F1200 X79.269 Y100.765 E168.97662
G0 F3000 X79.269 Y101.331
G1 F1200 X102.867 Y124.929 E170.0866
G0 F3000 X102.302 Y124.929
G1 F1200 X79.269 Y101.896 E171.17
G0 F3000 X79.269 Y102.462
G1 F1200 X101.736 Y124.929 E172.22678
G0 F3000 X101.17 Y124.929
G1 F1200 X79.269 Y103.028 E173.25693
G0 F3000 X79.269 Y103.593
G1 F1200 X100.605 Y124.929 E174.26051
G0 F3000 X100.039 Y124.929
G1 F1200 X79.269 Y104.159 E175.23747
G0 F3000 X79.269 Y104.725
G1 F1200 X99.473 Y124.929 E176.18781
G0 F3000 X98.907 Y124.929
G1 F1200 X79.269 Y105.291 E177.11152
G0 F3000 X79.269 Y105.856
G1 F1200 X98.342 Y124.929 E178.00865
G0 F3000 X97.776 Y124.929
G1 F1200 X79.269 Y106.422 E178.87917
G0 F3000 X79.269 Y106.988
G1 F1200 X97.21 Y124.929 E179.72306
G0 F3000 X96.645 Y124.929
G1 F1200 X79.269 Y107.553 E180.54037
G0 F3000 X79.269 Y108.119
G1 F1200 X96.079 Y124.929 E181.33106
G0 F3000 X95.513 Y124.929
G1 F1200 X79.269 Y108.685 E182.09513
G0 F3000 X79.269 Y109.25
G1 F1200 X94.948 Y124.929 E182.83262
G0 F3000 X94.382 Y124.929
G1 F1200 X79.269 Y109.816 E183.54349
G0 F3000 X79.269 Y110.382
G1 F1200 X93.816 Y124.929 E184.22774
G0 F3000 X93.251 Y124.929
G1 F1200 X79.269 Y110.947 E184.88541
G0 F3000 X79.269 Y111.513
G1 F1200 X92.685 Y124.929 E185.51645
G0 F3000 X92.119 Y124.929
G1 F1200 X79.269 Y112.079 E186.12088
G0 F3000 X79.269 Y112.644
G1 F1200 X91.554 Y124.929 E186.69873
G0 F3000 X90.988 Y124.929
G1 F1200 X79.269 Y113.21 E187.24995
G0 F3000 X79.269 Y113.776
G1 F1200 X90.422 Y124.929 E187.77456
G0 F3000 X89.857 Y124.929
G1 F1200 X79.269 Y114.341 E188.27258
G0 F3000 X79.269 Y114.907
G1 F1200 X89.291 Y124.929 E188.74399
G0 F3000 X88.725 Y124.929
G1 F1200 X79.269 Y115.473 E189.18877
G0 F3000 X79.269 Y116.039
G1 F1200 X88.159 Y124.929 E189.60693
G0 F3000 X87.594 Y124.929
G1 F1200 X79.269 Y116.604 E189.99851
G0 F3000 X79.269 Y117.17
G1 F1200 X87.028 Y124.929 E190.36347
G0 F3000 X86.462 Y124.929
G1 F1200 X79.269 Y117.736 E190.7018
