;FLAVOR:Marlin
;TIME:8356
;Filament used: 5.02932m
;Layer height: 0.2
;MINX:74.1
;MINY:87.4
;MINZ:0.2
;MAXX:145.9
;MAXY:132.5
;MAXZ:22.8
;Generated with Cura_SteamEngine master
M82 ;absolute extrusion mode
;Sliced at: Fri 16-09-2022 00:21:05
;Basic settings: Layer height: 0.2 Walls: 0.8 Fill: 40.0
G21 ;metric values
G90 ;absolute positioning
M82 ;set extruder to absolute mode
M107 ;start with the fan off
M117 Start heating ...
M104 S200
M117 Homing X/Y ...
G28 X0 Y0 ;move X/Y to min endstops
M117 Homing Z ...
G28 Z0 ;move Z to min endstops
G1 Z15.0 F100 ;move the platform down 15mm
M117 Heating ...
M109 S200
M117 Start cleaning ...
G92 E0 ;zero the extruded length
G1 F200 E10 ;extrude 10mm of feed stock
G92 E0 ;zero the extruded length again
M117 Intro line ...
G1 Z2.0 F3000 ; Move Z Axis up little to prevent scratching of Heat Bed
G1 X0.1 Y20 Z0.2 F5000.0 ; Move to start position
G1 X0.1 Y200.0 Z0.2 F1500.0 E15 ; Draw the first line
G1 X0.4 Y200.0 Z0.2 F5000.0 ; Move to side a little
G1 X0.4 Y20 Z0.3 F1500.0 E30 ; Draw the second line
G92 E0 ; Reset Extruder
G1 E-1 F500 ; Retract filiment by 1 mm
G1 Z2.0 F3000 ; Move Z Axis up little to prevent scratching of Heat Bed
G1 X5 Y20 Z0.3 F100 ; Move over to prevent blob squish
G1 F100
G92 E0 ; Reset Extruder
M117 Printing...

G92 E0
G92 E0
G1 F1800 E-7
;LAYER_COUNT:114
;LAYER:0
M107
G1 F300 Z0.4
G0 F3000 X75.512 Y88.368 Z0.4
;TYPE:SKIRT
G1 F300 Z0.2
G1 F1800 E0
G1 F1200 X75.966 Y88.032 E0.01879
G1 X76.464 Y87.763 E0.03761
G1 X76.994 Y87.568 E0.05639
G1 X77.547 Y87.449 E0.07521
G1 X78.318 Y87.402 E0.1009
G1 X78.43 Y87.4 E0.10463
G1 X141.25 Y87.4 E2.19403
G1 X141.948 Y87.41 E2.21724
G1 X142.512 Y87.458 E2.23607
G1 X143.062 Y87.585 E2.25485
G1 X143.59 Y87.789 E2.27367
G1 X144.084 Y88.064 E2.29248
G1 X144.533 Y88.407 E2.31127
G1 X144.93 Y88.809 E2.33006
G1 X145.267 Y89.264 E2.34889
G1 X145.535 Y89.761 E2.36767
G1 X145.731 Y90.291 E2.38647
G1 X145.851 Y90.844 E2.40529
G1 X145.898 Y91.618 E2.43108
G1 X145.9 Y91.73 E2.43481
G1 X145.9 Y122.924 E3.47232
G1 X145.889 Y123.652 E3.49654
G1 X145.84 Y124.216 E3.51537
G1 X145.713 Y124.766 E3.53414
G1 X145.509 Y125.294 E3.55297
G1 X145.233 Y125.787 E3.57176
G1 X144.89 Y126.237 E3.59058
G1 X144.487 Y126.633 E3.60937
G1 X144.032 Y126.969 E3.62818
G1 X143.535 Y127.238 E3.64698
G1 X143.005 Y127.433 E3.66576
G1 X142.566 Y127.534 E3.68075
G1 X141.858 Y127.655 E3.70464
G1 X140.439 Y127.88 E3.75242
G1 X137.705 Y128.393 E3.84494
G1 X135.101 Y128.957 E3.93356
G1 X132.437 Y129.614 E4.02482
G1 X129.813 Y130.341 E4.11538
G1 X127.227 Y131.137 E4.20538
G1 X124.724 Y131.983 E4.29325
G1 X123.938 Y132.261 E4.32098
G1 X123.393 Y132.411 E4.33978
G1 X122.724 Y132.488 E4.36218
G1 X122.27 Y132.5 E4.37729
G1 X99.532 Y132.5 E5.13355
G1 X98.829 Y132.49 E5.15694
G1 X98.266 Y132.442 E5.17573
G1 X97.611 Y132.281 E5.19817
G1 X96.357 Y131.859 E5.24217
G1 X93.718 Y131.011 E5.33437
G1 X91.111 Y130.254 E5.42466
G1 X88.472 Y129.568 E5.51535
G1 X85.839 Y128.959 E5.60523
G1 X83.17 Y128.426 E5.69576
G1 X80.489 Y127.968 E5.78622
G1 X77.809 Y127.586 E5.87626
G1 X77.589 Y127.557 E5.88364
G1 X77.035 Y127.444 E5.90244
G1 X76.502 Y127.254 E5.92126
G1 X76.002 Y126.991 E5.94005
G1 X75.544 Y126.66 E5.95885
G1 X75.137 Y126.268 E5.97764
G1 X74.789 Y125.822 E5.99646
G1 X74.508 Y125.332 E6.01525
G1 X74.298 Y124.807 E6.03405
G1 X74.165 Y124.257 E6.05287
G1 X74.11 Y123.699 E6.07152
G1 X74.1 Y123.258 E6.08619
G1 X74.1 Y92.014 E7.12537
G1 X74.11 Y91.349 E7.14749
G1 X74.159 Y90.786 E7.16629
G1 X74.286 Y90.235 E7.1851
G1 X74.49 Y89.707 E7.20392
G1 X74.766 Y89.214 E7.22272
G1 X75.109 Y88.765 E7.24151
G1 X75.512 Y88.368 E7.26032
G0 F3000 X75.9 Y88.568
G1 F1200 X76.346 Y88.271 E7.27815
G1 X76.832 Y88.043 E7.296
G1 X77.346 Y87.891 E7.31383
G1 X78.009 Y87.81 E7.33604
G1 X78.43 Y87.8 E7.35005
G1 X141.245 Y87.8 E9.43929
G1 X141.943 Y87.81 E9.4625
G1 X142.477 Y87.858 E9.48034
G1 X142.998 Y87.984 E9.49816
G1 X143.495 Y88.187 E9.51602
G1 X143.956 Y88.461 E9.53386
G1 X144.371 Y88.8 E9.55168
G1 X144.731 Y89.198 E9.56953
G1 X145.028 Y89.644 E9.58735
G1 X145.256 Y90.13 E9.60521
G1 X145.408 Y90.644 E9.62303
G1 X145.49 Y91.309 E9.64532
G1 X145.5 Y91.73 E9.65933
G1 X145.5 Y122.918 E10.69664
G1 X145.489 Y123.646 E10.72086
G1 X145.441 Y124.181 E10.73872
G1 X145.314 Y124.702 E10.75656
G1 X145.111 Y125.198 E10.77439
G1 X144.837 Y125.659 E10.79222
G1 X144.497 Y126.074 E10.81007
G1 X144.099 Y126.434 E10.82792
G1 X143.653 Y126.73 E10.84572
G1 X143.167 Y126.958 E10.86357
G1 X142.498 Y127.14 E10.88663
G1 X141.796 Y127.26 E10.91032
G1 X140.333 Y127.492 E10.95959
G1 X137.653 Y127.995 E11.05028
G1 X134.992 Y128.571 E11.14084
G1 X132.339 Y129.225 E11.23172
G1 X129.736 Y129.947 E11.32156
G1 X127.086 Y130.762 E11.41378
G1 X124.59 Y131.606 E11.50141
G1 X123.804 Y131.884 E11.52914
G1 X123.287 Y132.025 E11.54696
G1 X122.712 Y132.088 E11.5662
G1 X122.27 Y132.1 E11.58091
G1 X99.538 Y132.1 E12.33698
G1 X98.835 Y132.09 E12.36036
G1 X98.301 Y132.042 E12.3782
G1 X97.738 Y131.902 E12.39749
G1 X96.433 Y131.463 E12.44329
G1 X93.847 Y130.632 E12.53363
G1 X91.219 Y129.868 E12.62466
G1 X88.592 Y129.185 E12.71493
G1 X85.878 Y128.559 E12.80757
G1 X83.244 Y128.033 E12.89691
G1 X80.576 Y127.576 E12.98694
G1 X77.845 Y127.187 E13.07869
G1 X77.641 Y127.16 E13.08553
G1 X77.116 Y127.051 E13.10337
G1 X76.613 Y126.865 E13.12121
G1 X76.143 Y126.607 E13.13904
G1 X75.717 Y126.281 E13.15688
G1 X75.344 Y125.896 E13.17471
G1 X75.032 Y125.46 E13.19254
G1 X74.789 Y124.982 E13.21038
G1 X74.619 Y124.473 E13.22822
G1 X74.51 Y123.688 E13.25458
G1 X74.5 Y123.258 E13.26889
G1 X74.5 Y92.02 E14.30787
G1 X74.51 Y91.355 E14.32999
G1 X74.558 Y90.821 E14.34782
G1 X74.685 Y90.3 E14.36566
G1 X74.888 Y89.803 E14.38351
G1 X75.162 Y89.342 E14.40135
G1 X75.502 Y88.927 E14.4192
G1 X75.9 Y88.568 E14.43702
G0 F3000 X75.894 Y89.101
G1 F1200 X76.285 Y88.78 E14.45385
G1 X76.722 Y88.526 E14.47066
G1 X77.193 Y88.343 E14.48747
G1 X77.688 Y88.237 E14.5043
G1 X78.34 Y88.201 E14.52602
G1 X141.239 Y88.2 E16.61805
G1 X141.937 Y88.21 E16.64127
G1 X142.44 Y88.257 E16.65807
G1 X142.93 Y88.383 E16.6749
G1 X143.394 Y88.585 E16.69173
G1 X143.82 Y88.857 E16.70854
G1 X144.198 Y89.192 E16.72534
G1 X144.518 Y89.583 E16.74215
G1 X144.773 Y90.02 E16.75897
G1 X144.956 Y90.491 E16.77578
G1 X145.063 Y90.985 E16.79259
G1 X145.099 Y91.64 E16.81441
G1 X145.1 Y122.912 E17.85452
G1 X145.089 Y123.64 E17.87874
G1 X145.041 Y124.144 E17.89558
G1 X144.915 Y124.633 E17.91237
G1 X144.713 Y125.097 E17.9292
G1 X144.441 Y125.523 E17.94601
G1 X144.105 Y125.901 E17.96284
G1 X143.714 Y126.221 E17.97964
G1 X143.277 Y126.475 E17.99645
G1 X142.805 Y126.658 E18.01329
G1 X142.431 Y126.746 E18.02607
G1 X141.733 Y126.865 E18.04962
G1 X140.268 Y127.098 E18.09896
G1 X137.573 Y127.603 E18.19015
G1 X134.91 Y128.18 E18.28078
G1 X132.241 Y128.838 E18.37221
G1 X129.584 Y129.574 E18.46391
G1 X126.988 Y130.373 E18.55425
G1 X124.457 Y131.229 E18.64312
G1 X123.671 Y131.507 E18.67084
G1 X123.183 Y131.637 E18.68764
G1 X122.366 Y131.699 E18.71489
G1 X99.543 Y131.7 E19.47399
G1 X98.84 Y131.69 E19.49737
G1 X98.337 Y131.643 E19.51418
G1 X97.866 Y131.523 E19.53034
G1 X96.602 Y131.098 E19.5747
G1 X93.943 Y130.244 E19.66758
G1 X91.317 Y129.481 E19.75854
G1 X88.677 Y128.794 E19.84927
G1 X85.981 Y128.172 E19.94129
G1 X83.312 Y127.639 E20.03182
G1 X80.634 Y127.181 E20.12218
G1 X77.925 Y126.794 E20.2132
G1 X77.693 Y126.764 E20.22098
G1 X77.198 Y126.659 E20.23781
G1 X76.727 Y126.477 E20.2546
G1 X76.289 Y126.223 E20.27144
G1 X75.897 Y125.904 E20.28825
G1 X75.561 Y125.527 E20.30505
G1 X75.288 Y125.101 E20.32188
G1 X75.085 Y124.638 E20.33869
G1 X74.958 Y124.149 E20.3555
G1 X74.901 Y123.344 E20.38234
G1 X74.9 Y92.026 E21.42398
G1 X74.91 Y91.361 E21.4461
G1 X74.958 Y90.858 E21.4629
G1 X75.084 Y90.368 E21.47973
G1 X75.286 Y89.904 E21.49656
G1 X75.558 Y89.478 E21.51337
G1 X75.894 Y89.101 E21.53017
G1 F1800 E14.53017
G1 F300 Z0.4
;MESH:camera.wroover_frame.stl
G0 F3000 X85.606 Y102.522 Z0.4
;TYPE:WALL-INNER
G1 F300 Z0.2
G1 F1800 E21.53017
G1 F1200 X86.262 Y102.684 E21.55265
G1 X86.938 Y102.684 E21.57513
G1 X87.594 Y102.522 E21.5976
G1 X88.193 Y102.209 E21.62008
G1 X88.7 Y101.759 E21.64263
G1 X89.083 Y101.203 E21.66508
G1 X89.323 Y100.571 E21.68757
G1 X89.404 Y99.9 E21.71005
G1 X89.323 Y99.23 E21.7325
G1 X89.083 Y98.597 E21.75501
G1 X88.7 Y98.041 E21.77747
G1 X88.193 Y97.591 E21.80001
G1 X87.594 Y97.278 E21.82249
G1 X86.938 Y97.116 E21.84497
G1 X86.262 Y97.116 E21.86745
G1 X85.606 Y97.278 E21.88993
G1 X85.007 Y97.591 E21.9124
G1 X84.5 Y98.041 E21.93495
G1 X84.117 Y98.597 E21.95741
G1 X83.877 Y99.23 E21.97992
G1 X83.796 Y99.9 E22.00237
G1 X83.877 Y100.571 E22.02485
G1 X84.117 Y101.203 E22.04733
G1 X84.5 Y101.759 E22.06979
G1 X85.007 Y102.209 E22.09234
G1 X85.606 Y102.522 E22.11482
G0 F3000 X85.749 Y102.145
;TYPE:WALL-OUTER
G1 F1200 X86.311 Y102.284 E22.13407
G1 X86.889 Y102.284 E22.1533
G1 X87.451 Y102.145 E22.17255
G1 X87.964 Y101.877 E22.1918
G1 X88.398 Y101.492 E22.2111
G1 X88.726 Y101.016 E22.23032
G1 X88.932 Y100.475 E22.24958
G1 X89.001 Y99.9 E22.26884
G1 X88.932 Y99.326 E22.28807
G1 X88.726 Y98.784 E22.30735
G1 X88.398 Y98.308 E22.32658
G1 X87.964 Y97.923 E22.34588
G1 X87.451 Y97.655 E22.36513
G1 X86.889 Y97.516 E22.38438
G1 X86.311 Y97.516 E22.40361
G1 X85.749 Y97.655 E22.42286
G1 X85.236 Y97.923 E22.44211
G1 X84.802 Y98.308 E22.46141
G1 X84.474 Y98.784 E22.48063
G1 X84.268 Y99.326 E22.49992
G1 X84.199 Y99.9 E22.51915
G1 X84.268 Y100.475 E22.53841
G1 X84.474 Y101.016 E22.55766
G1 X84.802 Y101.492 E22.57689
G1 X85.236 Y101.877 E22.59619
G1 X85.749 Y102.145 E22.61544
G0 F3000 X85.943 Y102.193
G0 X85.838 Y102.619
G1 F1800 E15.61544
G1 F300 Z0.4
G0 F3000 X85.798 Y102.774 Z0.4
G0 X85.606 Y117.722
;TYPE:WALL-INNER
G1 F300 Z0.2
G1 F1800 E22.61544
G1 F1200 X86.262 Y117.884 E22.63791
G1 X86.938 Y117.884 E22.6604
G1 X87.594 Y117.722 E22.68287
G1 X88.193 Y117.409 E22.70535
G1 X88.7 Y116.959 E22.7279
G1 X89.083 Y116.403 E22.75035
G1 X89.323 Y115.771 E22.77284
G1 X89.404 Y115.1 E22.79532
G1 X89.323 Y114.43 E22.81776
G1 X89.083 Y113.797 E22.84028
G1 X88.7 Y113.241 E22.86273
G1 X88.193 Y112.791 E22.88528
G1 X87.594 Y112.478 E22.90776
G1 X86.938 Y112.316 E22.93023
G1 X86.262 Y112.316 E22.95272
G1 X85.606 Y112.478 E22.97519
G1 X85.007 Y112.791 E22.99767
G1 X84.5 Y113.241 E23.02022
G1 X84.117 Y113.797 E23.04267
G1 X83.877 Y114.43 E23.06519
G1 X83.796 Y115.1 E23.08764
G1 X83.877 Y115.771 E23.11012
G1 X84.117 Y116.403 E23.1326
G1 X84.5 Y116.959 E23.15506
G1 X85.007 Y117.409 E23.1776
G1 X85.606 Y117.722 E23.20008
G0 F3000 X85.749 Y117.345
;TYPE:WALL-OUTER
G1 F1200 X86.311 Y117.484 E23.21934
G1 X86.889 Y117.484 E23.23856
G1 X87.451 Y117.345 E23.25782
G1 X87.964 Y117.077 E23.27707
G1 X88.398 Y116.692 E23.29636
G1 X88.726 Y116.216 E23.31559
G1 X88.932 Y115.675 E23.33484
G1 X89.001 Y115.1 E23.35411
G1 X88.932 Y114.526 E23.37333
G1 X88.726 Y113.984 E23.39262
G1 X88.398 Y113.508 E23.41185
G1 X87.964 Y113.123 E23.43114
G1 X87.451 Y112.855 E23.45039
G1 X86.889 Y112.716 E23.46965
G1 X86.311 Y112.716 E23.48887
G1 X85.749 Y112.855 E23.50813
G1 X85.236 Y113.123 E23.52738
G1 X84.802 Y113.508 E23.54667
G1 X84.474 Y113.984 E23.5659
G1 X84.268 Y114.526 E23.58519
G1 X84.199 Y115.1 E23.60442
G1 X84.268 Y115.675 E23.62368
G1 X84.474 Y116.216 E23.64293
G1 X84.802 Y116.692 E23.66216
G1 X85.236 Y117.077 E23.68145
G1 X85.749 Y117.345 E23.7007
G0 F3000 X85.943 Y117.393
G0 X85.838 Y117.819
G1 F1800 E16.7007
G1 F300 Z0.4
G0 F3000 X85.798 Y117.974 Z0.4
G0 X103.247 Y115.036
;TYPE:WALL-INNER
G1 F300 Z0.2
G1 F1800 E23.7007
G1 F1200 X103.681 Y115.141 E23.71556
G1 X104.129 Y115.141 E23.73046
G1 X104.561 Y115.032 E23.74527
G1 X104.954 Y114.825 E23.76005
G1 X105.29 Y114.528 E23.77496
G1 X105.542 Y114.16 E23.7898
G1 X105.702 Y113.743 E23.80465
G1 X105.753 Y113.293 E23.81972
G1 X105.703 Y112.858 E23.83428
G1 X105.538 Y112.432 E23.84947
G1 X105.29 Y112.071 E23.86404
G1 X104.948 Y111.771 E23.87917
G1 X104.552 Y111.564 E23.89403
G1 X104.119 Y111.459 E23.90885
G1 X103.672 Y111.459 E23.92372
G1 X103.238 Y111.568 E23.9386
G1 X102.842 Y111.777 E23.9535
G1 X102.509 Y112.075 E23.96836
G1 X102.256 Y112.443 E23.98321
G1 X102.098 Y112.861 E23.99808
G1 X102.046 Y113.305 E24.01294
G1 X102.101 Y113.748 E24.02779
G1 X102.261 Y114.166 E24.04268
G1 X102.514 Y114.533 E24.0575
G1 X102.851 Y114.829 E24.07242
G1 X103.247 Y115.036 E24.08728
G0 F3000 X103.389 Y114.659
;TYPE:WALL-OUTER
G1 F1200 X103.729 Y114.741 E24.09892
G1 X104.079 Y114.741 E24.11056
G1 X104.417 Y114.656 E24.12215
G1 X104.725 Y114.494 E24.13372
G1 X104.988 Y114.261 E24.14541
G1 X105.185 Y113.973 E24.15702
G1 X105.31 Y113.647 E24.16863
G1 X105.35 Y113.293 E24.18048
G1 X105.311 Y112.954 E24.19183
G1 X105.182 Y112.62 E24.20374
G1 X104.989 Y112.339 E24.21507
G1 X104.72 Y112.103 E24.22698
G1 X104.41 Y111.941 E24.23861
G1 X104.071 Y111.859 E24.25021
G1 X103.721 Y111.859 E24.26185
G1 X103.382 Y111.944 E24.27348
G1 X103.072 Y112.108 E24.28514
G1 X102.811 Y112.341 E24.29678
G1 X102.613 Y112.629 E24.3084
G1 X102.49 Y112.956 E24.32002
G1 X102.449 Y113.304 E24.33168
G1 X102.492 Y113.651 E24.34331
G1 X102.617 Y113.978 E24.35495
G1 X102.815 Y114.265 E24.36655
G1 X103.079 Y114.497 E24.37824
G1 X103.389 Y114.659 E24.38987
G0 F3000 X103.583 Y114.705
G0 X103.479 Y115.133
G1 F1800 E17.38987
G1 F300 Z0.4
G0 F3000 X103.442 Y115.288 Z0.4
G0 X114.087 Y112.535
;TYPE:WALL-INNER
G1 F300 Z0.2
G1 F1800 E24.38987
G1 F1200 X114.208 Y112.547 E24.39391
G1 X115.124 Y112.593 E24.42442
G1 X115.201 Y112.593 E24.42698
G1 X116.353 Y112.393 E24.46587
G1 X117.444 Y111.925 E24.50535
G1 X118.398 Y111.218 E24.54485
G1 X119.161 Y110.31 E24.58429
G1 X119.695 Y109.249 E24.6238
G1 X119.969 Y108.093 E24.66331
G1 X119.969 Y106.907 E24.70276
G1 X119.695 Y105.751 E24.74227
G1 X119.161 Y104.69 E24.78178
G1 X118.398 Y103.783 E24.8212
G1 X117.444 Y103.075 E24.86072
G1 X116.352 Y102.607 E24.90023
G1 X115.172 Y102.404 E24.94005
G1 X114.071 Y102.474 E24.97675
G1 X113.932 Y102.49 E24.9814
G1 X112.783 Y102.855 E25.0215
G1 X111.74 Y103.491 E25.06213
G1 X110.892 Y104.344 E25.10214
G1 X110.814 Y104.459 E25.10676
G1 X110.263 Y105.375 E25.14231
G1 X110.217 Y105.486 E25.14631
G1 X109.905 Y106.493 E25.18137
G1 X109.875 Y106.61 E25.18539
G1 X109.807 Y107.766 E25.2239
G1 X109.817 Y107.886 E25.22791
G1 X110.01 Y108.941 E25.26358
G1 X110.066 Y109.114 E25.26963
G1 X110.504 Y110.084 E25.30503
G1 X110.556 Y110.175 E25.30851
G1 X111.235 Y111.041 E25.34511
G1 X111.301 Y111.116 E25.34844
G1 X112.119 Y111.779 E25.38346
G1 X113.056 Y112.255 E25.41841
G1 X113.172 Y112.294 E25.42248
G1 X114.087 Y112.535 E25.45396
G0 F3000 X114.158 Y112.14
;TYPE:WALL-OUTER
G1 F1200 X114.238 Y112.148 E25.45663
G1 X115.134 Y112.193 E25.48647
G1 X115.167 Y112.193 E25.48757
G1 X116.238 Y112.007 E25.52372
G1 X117.243 Y111.576 E25.56009
G1 X118.122 Y110.925 E25.59647
G1 X118.825 Y110.088 E25.63283
G1 X119.317 Y109.111 E25.66921
G1 X119.569 Y108.046 E25.70561
G1 X119.569 Y106.954 E25.74193
G1 X119.317 Y105.889 E25.77833
G1 X118.825 Y104.912 E25.81471
G1 X118.122 Y104.076 E25.85104
G1 X117.243 Y103.424 E25.88744
G1 X116.238 Y102.993 E25.92381
G1 X115.15 Y102.806 E25.96053
G1 X114.108 Y102.872 E25.99526
G1 X114.017 Y102.883 E25.99831
G1 X112.95 Y103.222 E26.03554
G1 X111.99 Y103.807 E26.07293
G1 X111.202 Y104.6 E26.11012
G1 X111.151 Y104.675 E26.11313
G1 X110.621 Y105.556 E26.14733
G1 X110.593 Y105.623 E26.14974
G1 X110.29 Y106.602 E26.18383
G1 X110.272 Y106.672 E26.18623
G1 X110.208 Y107.761 E26.22252
G1 X110.214 Y107.833 E26.22492
G1 X110.399 Y108.843 E26.25907
G1 X110.44 Y108.97 E26.26351
G1 X110.861 Y109.902 E26.29752
G1 X110.889 Y109.951 E26.2994
G1 X111.543 Y110.786 E26.33468
G1 X111.579 Y110.827 E26.33649
G1 X112.338 Y111.442 E26.36898
G1 X113.21 Y111.885 E26.40152
G1 X113.286 Y111.91 E26.40418
G1 X114.158 Y112.14 E26.43417
G0 F3000 X114.238 Y112.148
G0 X114.357 Y112.154
G0 X114.335 Y112.592
G1 F1800 E19.43417
G1 F300 Z0.4
G0 F3000 X114.327 Y112.752 Z0.4
G0 X122.006 Y123
;TYPE:WALL-INNER
G1 F300 Z0.2
G1 F1800 E26.43417
G1 F1200 X122.005 Y127.9 E26.59715
G1 X99.478 Y127.9 E27.3464
G1 X99.477 Y123 E27.50937
G1 X78.7 Y123 E28.20042
