;FLAVOR:Marlin
;TIME:22897
;Filament used: 13.4276m
;Layer height: 0.2
;MINX:54.179
;MINY:51.363
;MINZ:0.2
;MAXX:165.817
;MAXY:168.637
;MAXZ:32.8
;Generated with Cura_SteamEngine master
M82 ;absolute extrusion mode
;Sliced at: Fri 23-09-2022 13:57:48
;Basic settings: Layer height: 0.2 Walls: 0.8 Fill: 30.0
G21 ;metric values
G90 ;absolute positioning
M82 ;set extruder to absolute mode
M107 ;start with the fan off
M117 Start heating ...
M104 S200
M117 Homing X/Y ...
G28 X0 Y0 ;move X/Y to min endstops
M117 Homing Z ...
G28 Z0 ;move Z to min endstops
G1 Z15.0 F100 ;move the platform down 15mm
M117 Heating ...
M109 S200
M117 Start cleaning ...
G92 E0 ;zero the extruded length
G1 F200 E10 ;extrude 10mm of feed stock
G92 E0 ;zero the extruded length again
M117 Intro line ...
G1 Z2.0 F3000 ; Move Z Axis up little to prevent scratching of Heat Bed
G1 X0.1 Y20 Z0.2 F5000.0 ; Move to start position
G1 X0.1 Y200.0 Z0.2 F1500.0 E15 ; Draw the first line
G1 X0.4 Y200.0 Z0.2 F5000.0 ; Move to side a little
G1 X0.4 Y20 Z0.3 F1500.0 E30 ; Draw the second line
G92 E0 ; Reset Extruder
G1 E-1 F500 ; Retract filiment by 1 mm
G1 Z2.0 F3000 ; Move Z Axis up little to prevent scratching of Heat Bed
G1 X5 Y20 Z0.3 F100 ; Move over to prevent blob squish
G1 F100
G92 E0 ; Reset Extruder
M117 Printing...

G92 E0
G92 E0
G1 F1800 E-7
;LAYER_COUNT:164
;LAYER:0
M107
G1 F300 Z0.4
G0 F3000 X94.421 Y53.567 Z0.4
;TYPE:SKIRT
G1 F300 Z0.2
G1 F1800 E0
G1 F1200 X94.711 Y53.082 E0.01879
G1 X95.067 Y52.643 E0.03759
G1 X95.481 Y52.258 E0.0564
G1 X95.945 Y51.935 E0.0752
G1 X96.45 Y51.681 E0.094
G1 X96.986 Y51.5 E0.11282
G1 X97.542 Y51.397 E0.13163
G1 X98.201 Y51.365 E0.15357
G1 X98.313 Y51.363 E0.1573
G1 X161.133 Y51.363 E2.2467
G1 X161.831 Y51.373 E2.26992
G1 X162.395 Y51.421 E2.28874
G1 X162.945 Y51.548 E2.30752
G1 X163.473 Y51.752 E2.32634
G1 X163.967 Y52.027 E2.34515
G1 X164.416 Y52.37 E2.36394
G1 X164.813 Y52.772 E2.38273
G1 X165.15 Y53.227 E2.40156
G1 X165.418 Y53.724 E2.42035
G1 X165.614 Y54.254 E2.43914
G1 X165.734 Y54.807 E2.45796
G1 X165.781 Y55.581 E2.48375
G1 X165.783 Y55.693 E2.48748
G1 X165.783 Y86.914 E3.52589
G1 X165.762 Y88.288 E3.5716
G1 X165.718 Y89.874 E3.62437
G1 X165.718 Y92.62 E3.7157
G1 X165.749 Y94.025 E3.76244
G1 X165.783 Y95.226 E3.8024
G1 X165.783 Y126.43 E4.84025
G1 X165.764 Y127.789 E4.88546
G1 X165.764 Y130.524 E4.97642
G1 X165.795 Y131.989 E5.02516
G1 X165.817 Y132.785 E5.05165
G1 X165.817 Y163.956 E6.0884
G1 X165.807 Y164.683 E6.11258
G1 X165.759 Y165.246 E6.13137
G1 X165.632 Y165.797 E6.15018
G1 X165.429 Y166.325 E6.16899
G1 X165.154 Y166.819 E6.1878
G1 X164.812 Y167.269 E6.2066
G1 X164.409 Y167.666 E6.22541
G1 X163.955 Y168.002 E6.2442
G1 X163.458 Y168.271 E6.263
G1 X162.928 Y168.468 E6.2818
G1 X162.375 Y168.587 E6.30062
G1 X161.599 Y168.635 E6.32648
G1 X161.487 Y168.637 E6.3302
G1 X108.967 Y168.637 E8.07702
G1 X108.155 Y168.624 E8.10403
G1 X107.511 Y168.585 E8.12549
G1 X106.13 Y168.477 E8.17157
G1 X105.431 Y168.412 E8.19491
G1 X104.688 Y168.282 E8.22
G1 X104.581 Y168.258 E8.22365
G1 X103.046 Y167.891 E8.27614
G1 X102.352 Y167.714 E8.29996
G1 X101.6 Y167.456 E8.32641
G1 X101.492 Y167.413 E8.33027
G1 X100.097 Y166.834 E8.38051
G1 X99.421 Y166.542 E8.405
G1 X98.673 Y166.141 E8.43323
G1 X97.356 Y165.335 E8.48458
G1 X96.736 Y164.945 E8.50895
G1 X96.016 Y164.398 E8.53902
G1 X94.798 Y163.358 E8.59229
G1 X94.29 Y162.91 E8.61482
G1 X93.743 Y162.343 E8.64102
G1 X92.664 Y161.082 E8.69622
G1 X92.226 Y160.554 E8.71904
G1 X90.268 Y157.977 E8.82668
G1 X88.541 Y155.837 E8.91815
G1 X86.804 Y153.803 E9.00711
G1 X84.974 Y151.779 E9.09786
G1 X83.088 Y149.808 E9.1886
G1 X81.139 Y147.884 E9.27969
G1 X79.193 Y146.069 E9.36819
G1 X77.118 Y144.241 E9.46017
G1 X75.051 Y142.52 E9.54963
G1 X72.939 Y140.861 E9.63895
G1 X70.722 Y139.217 E9.73075
G1 X68.502 Y137.669 E9.82077
G1 X66.235 Y136.18 E9.91098
G1 X63.944 Y134.766 E10.00052
G1 X61.578 Y133.397 E10.09144
G1 X59.197 Y132.108 E10.18149
G1 X56.388 Y130.689 E10.28616
G1 X55.903 Y130.399 E10.30496
G1 X55.463 Y130.043 E10.32378
G1 X55.078 Y129.63 E10.34256
G1 X54.755 Y129.166 E10.36137
G1 X54.5 Y128.661 E10.38018
G1 X54.32 Y128.125 E10.39899
G1 X54.217 Y127.569 E10.4178
G1 X54.184 Y126.894 E10.44027
G1 X54.184 Y109.853 E11.00706
G1 X54.179 Y107.831 E11.07431
G1 X54.183 Y101.135 E11.29702
G1 X54.193 Y100.432 E11.32041
G1 X54.241 Y99.869 E11.3392
G1 X54.368 Y99.318 E11.35801
G1 X54.572 Y98.79 E11.37683
G1 X54.847 Y98.297 E11.39561
G1 X55.046 Y98.02 E11.40695
G1 X55.629 Y97.277 E11.43836
G1 X56.24 Y96.519 E11.47075
G1 X58.148 Y94.004 E11.57574
G1 X58.883 Y93.002 E11.61707
G1 X59.417 Y92.408 E11.64364
G1 X59.968 Y91.985 E11.66674
G1 X60.175 Y91.853 E11.67491
G1 X62.412 Y90.374 E11.7641
G1 X64.667 Y88.789 E11.85578
G1 X66.816 Y87.187 E11.94493
G1 X68.963 Y85.489 E12.03597
G1 X71.039 Y83.749 E12.12607
G1 X73.072 Y81.945 E12.21647
G1 X75.065 Y80.073 E12.30741
G1 X76.955 Y78.197 E12.39598
G1 X78.842 Y76.212 E12.48708
G1 X80.666 Y74.181 E12.57787
G1 X82.418 Y72.116 E12.66794
G1 X84.126 Y69.984 E12.7588
G1 X85.74 Y67.847 E12.84787
G1 X87.333 Y65.61 E12.93921
G1 X88.83 Y63.377 E13.02863
G1 X90.296 Y61.05 E13.1201
G1 X91.671 Y58.725 E13.20994
G1 X92.977 Y56.366 E13.29963
G1 X94.119 Y54.165 E13.3821
G1 X94.421 Y53.567 E13.40438
G0 F3000 X94.778 Y53.748
G1 F1200 X95.055 Y53.289 E13.42221
G1 X95.397 Y52.876 E13.44005
G1 X95.797 Y52.518 E13.4579
G1 X96.245 Y52.224 E13.47572
G1 X96.732 Y51.999 E13.49357
G1 X97.247 Y51.85 E13.5114
G1 X97.89 Y51.773 E13.53294
G1 X98.313 Y51.763 E13.54701
G1 X161.128 Y51.763 E15.63625
G1 X161.826 Y51.773 E15.65946
G1 X162.36 Y51.821 E15.6773
G1 X162.881 Y51.947 E15.69512
G1 X163.378 Y52.15 E15.71298
G1 X163.839 Y52.424 E15.73082
G1 X164.254 Y52.763 E15.74864
G1 X164.614 Y53.161 E15.76649
G1 X164.911 Y53.607 E15.78431
G1 X165.139 Y54.093 E15.80217
G1 X165.291 Y54.607 E15.81999
G1 X165.373 Y55.272 E15.84228
G1 X165.383 Y55.693 E15.85629
G1 X165.383 Y86.908 E16.8945
G1 X165.363 Y88.277 E16.94004
G1 X165.318 Y89.899 E16.99401
G1 X165.318 Y92.629 E17.08481
G1 X165.349 Y94.037 E17.13165
G1 X165.383 Y95.226 E17.17121
G1 X165.383 Y126.424 E18.20886
G1 X165.364 Y127.783 E18.25407
G1 X165.364 Y130.532 E18.3455
G1 X165.395 Y132.001 E18.39437
G1 X165.417 Y132.785 E18.42045
G1 X165.417 Y163.951 E19.45704
G1 X165.407 Y164.678 E19.48122
G1 X165.359 Y165.212 E19.49905
G1 X165.233 Y165.733 E19.51688
G1 X165.031 Y166.23 E19.53473
G1 X164.757 Y166.691 E19.55256
G1 X164.418 Y167.106 E19.57039
G1 X164.021 Y167.467 E19.58823
G1 X163.575 Y167.764 E19.60605
G1 X163.089 Y167.992 E19.62391
G1 X162.575 Y168.145 E19.64175
G1 X161.908 Y168.227 E19.6641
G1 X161.487 Y168.237 E19.6781
G1 X108.973 Y168.237 E21.42473
G1 X108.268 Y168.227 E21.44818
G1 X107.538 Y168.186 E21.4725
G1 X106.167 Y168.079 E21.51823
G1 X105.468 Y168.014 E21.54158
G1 X104.77 Y167.891 E21.56516
G1 X103.145 Y167.503 E21.62072
G1 X102.451 Y167.326 E21.64455
G1 X101.743 Y167.082 E21.66945
G1 X100.305 Y166.488 E21.7212
G1 X99.579 Y166.175 E21.7475
G1 X98.874 Y165.795 E21.77413
G1 X97.531 Y164.972 E21.82652
G1 X96.949 Y164.606 E21.84939
G1 X96.269 Y164.088 E21.87782
G1 X95.063 Y163.058 E21.93057
G1 X94.555 Y162.61 E21.9531
G1 X94.04 Y162.075 E21.9778
G1 X92.972 Y160.826 E22.03246
G1 X92.534 Y160.298 E22.05527
G1 X90.583 Y157.73 E22.16254
G1 X88.873 Y155.61 E22.25313
G1 X87.073 Y153.503 E22.3453
G1 X85.277 Y151.517 E22.43436
G1 X83.375 Y149.529 E22.52587
G1 X81.429 Y147.607 E22.61684
G1 X79.446 Y145.758 E22.70702
G1 X77.395 Y143.952 E22.79791
G1 X75.308 Y142.214 E22.88824
G1 X73.14 Y140.51 E22.97996
G1 X70.983 Y138.912 E23.06924
G1 X68.745 Y137.351 E23.16
G1 X66.443 Y135.839 E23.2516
G1 X64.133 Y134.414 E23.34187
G1 X61.777 Y133.05 E23.43242
G1 X59.388 Y131.756 E23.52279
G1 X56.568 Y130.332 E23.62786
G1 X56.109 Y130.055 E23.64569
G1 X55.696 Y129.713 E23.66352
G1 X55.338 Y129.313 E23.68138
G1 X55.043 Y128.865 E23.69922
G1 X54.819 Y128.378 E23.71705
G1 X54.669 Y127.863 E23.73489
G1 X54.592 Y127.207 E23.75686
G1 X54.583 Y126.795 E23.77056
G1 X54.584 Y109.853 E24.33406
G1 X54.579 Y107.831 E24.40131
G1 X54.583 Y101.141 E24.62382
G1 X54.593 Y100.438 E24.6472
G1 X54.641 Y99.904 E24.66504
G1 X54.767 Y99.382 E24.6829
G1 X54.97 Y98.886 E24.70072
G1 X55.36 Y98.267 E24.72506
G1 X55.94 Y97.528 E24.7563
G1 X56.554 Y96.767 E24.78882
G1 X58.454 Y94.262 E24.89339
G1 X59.205 Y93.238 E24.93563
G1 X59.686 Y92.704 E24.95953
G1 X60.183 Y92.323 E24.98036
G1 X60.345 Y92.22 E24.98675
G1 X62.657 Y90.691 E25.07894
G1 X64.89 Y89.121 E25.16973
G1 X67.08 Y87.489 E25.26057
G1 X69.201 Y85.811 E25.35052
G1 X71.316 Y84.039 E25.44229
G1 X73.348 Y82.235 E25.53267
G1 X75.301 Y80.401 E25.62178
G1 X77.277 Y78.439 E25.7144
G1 X79.13 Y76.489 E25.80387
G1 X80.968 Y74.444 E25.89532
G1 X82.719 Y72.38 E25.98534
G1 X84.442 Y70.23 E26.07698
G1 X86.082 Y68.058 E26.1675
G1 X87.647 Y65.86 E26.25724
G1 X89.184 Y63.568 E26.34903
G1 X90.62 Y61.288 E26.43865
G1 X92.022 Y58.917 E26.53027
G1 X93.324 Y56.565 E26.61968
G1 X94.474 Y54.349 E26.70272
G1 X94.778 Y53.748 E26.72512
G0 F3000 X95.135 Y53.928
G1 F1200 X95.398 Y53.497 E26.74191
G1 X95.726 Y53.112 E26.75874
G1 X96.11 Y52.783 E26.77555
G1 X96.541 Y52.519 E26.79236
G1 X97.009 Y52.326 E26.8092
G1 X97.501 Y52.21 E26.82601
G1 X98.224 Y52.164 E26.85011
G1 X161.122 Y52.163 E28.94211
G1 X161.82 Y52.173 E28.96532
G1 X162.323 Y52.22 E28.98213
G1 X162.813 Y52.346 E28.99895
G1 X163.277 Y52.548 E29.01579
G1 X163.703 Y52.82 E29.0326
G1 X164.081 Y53.155 E29.0494
G1 X164.401 Y53.546 E29.0662
G1 X164.656 Y53.983 E29.08303
G1 X164.839 Y54.454 E29.09984
G1 X164.946 Y54.948 E29.11665
G1 X164.982 Y55.603 E29.13847
G1 X164.983 Y86.902 E30.17947
G1 X164.963 Y88.266 E30.22485
G1 X164.918 Y89.888 E30.27881
G1 X164.918 Y92.638 E30.37028
G1 X164.95 Y94.048 E30.41719
G1 X164.982 Y95.131 E30.45323
G1 X164.983 Y126.419 E31.49387
G1 X164.964 Y127.778 E31.53907
G1 X164.964 Y130.562 E31.63167
G1 X164.996 Y132.013 E31.67994
G1 X165.016 Y132.691 E31.7025
G1 X165.017 Y163.945 E32.74201
G1 X165.007 Y164.672 E32.7662
G1 X164.96 Y165.175 E32.783
G1 X164.834 Y165.665 E32.79983
G1 X164.633 Y166.129 E32.81665
G1 X164.361 Y166.555 E32.83346
G1 X164.026 Y166.934 E32.85028
G1 X163.635 Y167.254 E32.86708
G1 X163.199 Y167.509 E32.88388
G1 X162.728 Y167.693 E32.9007
G1 X162.233 Y167.799 E32.91754
G1 X161.577 Y167.836 E32.93939
G1 X108.979 Y167.837 E34.68881
G1 X108.274 Y167.827 E34.71226
G1 X107.566 Y167.787 E34.73585
G1 X106.204 Y167.68 E34.78129
G1 X105.505 Y167.615 E34.80464
G1 X104.852 Y167.499 E34.82669
G1 X103.244 Y167.116 E34.88167
G1 X102.55 Y166.939 E34.90549
G1 X101.885 Y166.708 E34.92891
G1 X100.414 Y166.1 E34.98185
G1 X99.738 Y165.808 E35.00634
G1 X99.074 Y165.449 E35.03145
G1 X97.743 Y164.634 E35.08336
G1 X97.161 Y164.268 E35.10622
G1 X96.522 Y163.777 E35.13303
G1 X96.463 Y163.729 E35.13556
G1 X95.327 Y162.758 E35.18526
G1 X94.819 Y162.31 E35.20779
G1 X94.337 Y161.806 E35.23098
G1 X94.278 Y161.74 E35.23393
G1 X93.28 Y160.571 E35.28505
G1 X92.842 Y160.043 E35.30787
G1 X90.896 Y157.482 E35.41485
G1 X89.172 Y155.345 E35.50617
G1 X87.39 Y153.259 E35.59742
G1 X85.562 Y151.237 E35.68808
G1 X83.645 Y149.233 E35.78032
G1 X81.7 Y147.312 E35.87124
G1 X79.719 Y145.466 E35.96131
G1 X77.671 Y143.661 E36.0521
G1 X75.545 Y141.89 E36.14413
G1 X73.402 Y140.207 E36.23476
G1 X71.221 Y138.591 E36.32505
G1 X68.954 Y137.01 E36.41697
G1 X66.642 Y135.491 E36.50898
G1 X64.338 Y134.069 E36.59903
G1 X61.989 Y132.709 E36.68931
G1 X59.538 Y131.383 E36.782
G1 X56.749 Y129.974 E36.88592
G1 X56.317 Y129.712 E36.90273
G1 X55.932 Y129.384 E36.91955
G1 X55.603 Y129 E36.93637
G1 X55.339 Y128.569 E36.95318
G1 X55.146 Y128.102 E36.96999
G1 X55.029 Y127.61 E36.98681
G1 X54.984 Y126.874 E37.01133
G1 X54.984 Y109.853 E37.57745
G1 X54.979 Y107.831 E37.6447
G1 X54.983 Y101.146 E37.86705
G1 X54.993 Y100.443 E37.89043
G1 X55.04 Y99.94 E37.90724
G1 X55.166 Y99.45 E37.92406
G1 X55.368 Y98.987 E37.94086
G1 X55.675 Y98.514 E37.95962
G1 X56.252 Y97.779 E37.9907
G1 X56.869 Y97.014 E38.02339
G1 X58.783 Y94.491 E38.12872
G1 X59.528 Y93.475 E38.17062
G1 X59.955 Y93 E38.19186
G1 X60.398 Y92.66 E38.21044
G1 X60.605 Y92.528 E38.2186
G1 X62.862 Y91.036 E38.30859
G1 X65.136 Y89.436 E38.40107
G1 X67.321 Y87.808 E38.4917
G1 X69.46 Y86.116 E38.58241
G1 X71.555 Y84.361 E38.67331
G1 X73.622 Y82.526 E38.76524
G1 X75.593 Y80.675 E38.85517
G1 X77.549 Y78.732 E38.94687
G1 X79.433 Y76.751 E39.0378
G1 X81.271 Y74.704 E39.1293
G1 X83.034 Y72.626 E39.21994
G1 X84.745 Y70.493 E39.31088
G1 X86.411 Y68.285 E39.40288
G1 X87.972 Y66.093 E39.49239
G1 X89.511 Y63.798 E39.58429
G1 X90.976 Y61.473 E39.67569
G1 X92.367 Y59.119 E39.76663
G1 X93.687 Y56.736 E39.85724
G1 X94.814 Y54.563 E39.93866
G1 X95.135 Y53.928 E39.96232
G1 F1800 E32.96232
G1 F300 Z0.4
G0 F3000 X90.922 Y95.558 Z0.4
;TYPE:SUPPORT
G1 F300 Z0.2
G1 F1800 E39.96232
G1 F1200 X91.438 Y96.759 E40.0058
G1 X91.168 Y97.029 E40.0185
G1 X90.986 Y97.47 E40.03437
G1 X90.986 Y100.168 E40.1241
G1 X91.385 Y100.567 E40.14287
G1 X94.77 Y100.567 E40.25546
G1 X94.77 Y107.516 E40.48658
G1 X90.27 Y107.516 E40.63625
G1 X90.27 Y98.241 E40.94474
G1 X89.871 Y97.842 E40.96351
G1 X88.501 Y97.842 E41.00907
G1 X87.854 Y97.195 E41.03951
G1 X87.854 Y96.218 E41.072
G1 X88.508 Y95.564 E41.10276
G1 X90.922 Y95.558 E41.18305
G0 F3000 X90.678 Y95.718
G1 F1200 X90.678 Y107.356 E41.57013
G0 F3000 X90.43 Y106.68
G1 F1200 X94.61 Y106.68 E41.70916
G0 F3000 X93.345 Y107.356
G1 F1200 X93.345 Y100.727 E41.92964
G0 F3000 X94.61 Y101.346
G1 F1200 X90.43 Y101.346 E42.06867
G1 F1800 E35.06867
G1 F300 Z0.4
G0 F3000 X90.43 Y98.679 Z0.4
G1 F300 Z0.2
G1 F1800 E42.06867
G1 F1200 X90.826 Y98.679 E42.08184
G1 F1800 E35.08184
G1 F300 Z0.4
G0 F3000 X90.943 Y96.012 Z0.4
G1 F300 Z0.2
G1 F1800 E42.08184
G1 F1200 X88.285 Y96.012 E42.17025
G1 F1800 E35.17025
G1 F300 Z0.4
G0 F3000 X90.43 Y104.013 Z0.4
G1 F300 Z0.2
G1 F1800 E42.17025
G1 F1200 X94.61 Y104.013 E42.30927
G1 F1800 E35.30927
G1 F300 Z0.4
G0 F3000 X65.299 Y97.195 Z0.4
G1 F300 Z0.2
G1 F1800 E42.30927
G1 F1200 X64.652 Y97.842 E42.33971
G1 X63.282 Y97.842 E42.38527
G1 X62.883 Y98.241 E42.40404
G1 X62.883 Y107.515 E42.7125
G1 X58.383 Y107.516 E42.86217
G1 X58.384 Y100.567 E43.09329
G1 X61.768 Y100.567 E43.20584
G1 X62.167 Y100.168 E43.22461
G1 X62.167 Y97.194 E43.32353
G1 X61.738 Y96.759 E43.34385
G1 X62.235 Y95.559 E43.38705
G1 X63.721 Y95.564 E43.43647
G1 X64.651 Y95.563 E43.4674
G1 X65.299 Y96.212 E43.49791
G1 X65.299 Y97.195 E43.5306
G0 F3000 X64.873 Y96.012
G1 F1200 X62.22 Y96.012 E43.61884
G1 F1800 E36.61884
G1 F300 Z0.4
G0 F3000 X64.008 Y95.723 Z0.4
G1 F300 Z0.2
G1 F1800 E43.61884
G1 F1200 X64.008 Y97.682 E43.684
G1 F1800 E36.684
G1 F300 Z0.4
G0 F3000 X62.722 Y98.679 Z0.4
G1 F300 Z0.2
G1 F1800 E43.684
G1 F1200 X62.326 Y98.679 E43.69717
G1 F1800 E36.69717
G1 F300 Z0.4
G0 F3000 X61.341 Y100.727 Z0.4
G1 F300 Z0.2
G1 F1800 E43.69717
G1 F1200 X61.341 Y107.356 E43.91765
G1 F1800 E36.91765
G1 F300 Z0.4
G0 F3000 X62.722 Y106.68 Z0.4
G1 F300 Z0.2
G1 F1800 E43.91765
G1 F1200 X58.543 Y106.68 E44.05664
G0 F3000 X58.674 Y107.356
G1 F1200 X58.674 Y100.727 E44.27713
G0 F3000 X58.543 Y101.346
G1 F1200 X62.722 Y101.346 E44.41612
G1 F1800 E37.41612
G1 F300 Z0.4
G0 F3000 X62.722 Y104.013 Z0.4
G1 F300 Z0.2
G1 F1800 E44.41612
G1 F1200 X58.543 Y104.013 E44.55511
G1 F1800 E37.55511
G1 F300 Z0.4
;MESH:camera.wroover.all.reverse.stl
G0 F3000 X67.29 Y122.025 Z0.4
;TYPE:WALL-INNER
G1 F300 Z0.2
G1 F1800 E44.55511
G1 F1200 X67.29 Y126.326 E44.69817
G1 X85.99 Y126.326 E45.32013
G1 X85.99 Y122.025 E45.46318
G1 X67.29 Y122.025 E46.08515
G0 F3000 X67.69 Y122.425
;TYPE:WALL-OUTER
G1 F1200 X67.69 Y125.926 E46.20159
G1 X85.59 Y125.926 E46.79695
G1 X85.59 Y122.425 E46.91339
G1 X67.69 Y122.425 E47.50875
G0 F3000 X67.69 Y122.625
G0 X67.25 Y122.625
G0 X85.818 Y122.197
G0 X86.462 Y126.154
G0 X89.558 Y126.154
G0 X89.566 Y124.763
G0 X90.67 Y124.526
;TYPE:WALL-INNER
G1 F1200 X90.67 Y109.792 E47.9988
G1 X94.37 Y109.792 E48.12186
G1 X94.37 Y126.525 E48.67841
G1 X89.73 Y126.525 E48.83273
G1 X86.29 Y126.525 E48.94715
G1 X66.99 Y126.525 E49.5273
G1 X63.423 Y126.525 E49.64594
G1 X58.783 Y126.525 E49.80027
