;FLAVOR:Marlin
;TIME:22866
;Filament used: 13.1025m
;Layer height: 0.2
;MINX:54.18
;MINY:51.363
;MINZ:0.2
;MAXX:165.817
;MAXY:168.637
;MAXZ:32.8
;Generated with Cura_SteamEngine master
M82 ;absolute extrusion mode
;Sliced at: Thu 15-09-2022 00:21:20
;Basic settings: Layer height: 0.2 Walls: 0.8 Fill: 30.0
G21 ;metric values
G90 ;absolute positioning
M82 ;set extruder to absolute mode
M107 ;start with the fan off
M117 Start heating ...
M104 S200
M117 Homing X/Y ...
G28 X0 Y0 ;move X/Y to min endstops
M117 Homing Z ...
G28 Z0 ;move Z to min endstops
G1 Z15.0 F100 ;move the platform down 15mm
M117 Heating ...
M109 S200
M117 Start cleaning ...
G92 E0 ;zero the extruded length
G1 F200 E10 ;extrude 10mm of feed stock
G92 E0 ;zero the extruded length again
M117 Intro line ...
G1 Z2.0 F3000 ; Move Z Axis up little to prevent scratching of Heat Bed
G1 X0.1 Y20 Z0.2 F5000.0 ; Move to start position
G1 X0.1 Y200.0 Z0.2 F1500.0 E15 ; Draw the first line
G1 X0.4 Y200.0 Z0.2 F5000.0 ; Move to side a little
G1 X0.4 Y20 Z0.3 F1500.0 E30 ; Draw the second line
G92 E0 ; Reset Extruder
G1 E-1 F500 ; Retract filiment by 1 mm
G1 Z2.0 F3000 ; Move Z Axis up little to prevent scratching of Heat Bed
G1 X5 Y20 Z0.3 F100 ; Move over to prevent blob squish
G1 F100
G92 E0 ; Reset Extruder
M117 Printing...

G92 E0
G92 E0
G1 F1800 E-7
;LAYER_COUNT:164
;LAYER:0
M107
G1 F300 Z0.4
G0 F3000 X55.477 Y62.065 Z0.4
;TYPE:SKIRT
G1 F300 Z0.2
G1 F1800 E0
G1 F1200 X55.904 Y61.694 E0.01881
G1 X56.379 Y61.387 E0.03762
G1 X56.892 Y61.151 E0.05641
G1 X57.434 Y60.989 E0.07522
G1 X58.16 Y60.896 E0.09957
G1 X59.279 Y60.855 E0.13681
G1 X60.472 Y60.825 E0.1765
G1 X63.145 Y60.681 E0.26553
G1 X65.877 Y60.457 E0.35671
G1 X68.566 Y60.16 E0.44669
G1 X71.264 Y59.783 E0.53729
G1 X73.957 Y59.33 E0.62812
G1 X76.608 Y58.807 E0.71799
G1 X79.235 Y58.209 E0.8076
G1 X81.868 Y57.532 E0.89803
G1 X84.511 Y56.773 E0.98948
G1 X87.062 Y55.961 E1.07853
G1 X89.635 Y55.061 E1.16919
G1 X92.167 Y54.094 E1.25934
G1 X94.674 Y53.055 E1.3496
G1 X96.372 Y52.295 E1.41147
G1 X96.453 Y52.265 E1.41434
G1 X97.635 Y51.73 E1.4575
G1 X98.165 Y51.534 E1.47629
G1 X98.511 Y51.45 E1.48813
G1 X99.182 Y51.374 E1.51059
G1 X99.613 Y51.363 E1.52493
G1 X161.133 Y51.363 E3.5711
G1 X161.831 Y51.373 E3.59432
G1 X162.395 Y51.421 E3.61314
G1 X162.945 Y51.548 E3.63192
G1 X163.473 Y51.752 E3.65074
G1 X163.967 Y52.027 E3.66955
G1 X164.416 Y52.37 E3.68834
G1 X164.813 Y52.772 E3.70713
G1 X165.15 Y53.227 E3.72596
G1 X165.418 Y53.724 E3.74474
G1 X165.614 Y54.254 E3.76354
G1 X165.734 Y54.807 E3.78236
G1 X165.781 Y55.581 E3.80815
G1 X165.783 Y55.693 E3.81188
G1 X165.783 Y86.914 E4.85029
G1 X165.762 Y88.276 E4.8956
G1 X165.718 Y89.868 E4.94857
G1 X165.718 Y92.613 E5.03987
G1 X165.749 Y94.025 E5.08684
G1 X165.783 Y95.235 E5.1271
G1 X165.783 Y126.457 E6.16555
G1 X165.764 Y127.79 E6.20989
G1 X165.764 Y130.524 E6.30082
G1 X165.795 Y131.989 E6.34956
G1 X165.817 Y132.785 E6.37605
G1 X165.817 Y163.951 E7.41263
G1 X165.808 Y164.678 E7.43681
G1 X165.761 Y165.241 E7.4556
G1 X165.635 Y165.792 E7.4744
G1 X165.433 Y166.32 E7.49321
G1 X165.158 Y166.814 E7.51201
G1 X164.816 Y167.264 E7.53081
G1 X164.414 Y167.662 E7.54962
G1 X163.961 Y167.999 E7.5684
G1 X163.464 Y168.269 E7.58722
G1 X162.934 Y168.466 E7.60602
G1 X162.382 Y168.587 E7.62482
G1 X161.599 Y168.635 E7.65091
G1 X161.487 Y168.637 E7.65463
G1 X108.967 Y168.637 E9.40146
G1 X108.155 Y168.624 E9.42847
G1 X107.511 Y168.585 E9.44993
G1 X106.13 Y168.477 E9.496
G1 X105.431 Y168.412 E9.51935
G1 X104.688 Y168.282 E9.54444
G1 X104.581 Y168.258 E9.54808
G1 X103.046 Y167.891 E9.60058
G1 X102.352 Y167.714 E9.6244
G1 X101.6 Y167.456 E9.65084
G1 X101.492 Y167.413 E9.65471
G1 X100.097 Y166.834 E9.70494
G1 X99.421 Y166.542 E9.72943
G1 X98.673 Y166.141 E9.75766
G1 X97.356 Y165.335 E9.80902
G1 X96.736 Y164.945 E9.83338
G1 X96.016 Y164.398 E9.86345
G1 X94.798 Y163.358 E9.91672
G1 X94.29 Y162.91 E9.93925
G1 X93.743 Y162.343 E9.96545
G1 X92.664 Y161.081 E10.02068
G1 X92.218 Y160.543 E10.04392
G1 X91.772 Y159.908 E10.06973
G1 X91.708 Y159.807 E10.07371
G1 X90.874 Y158.446 E10.1268
G1 X90.531 Y157.865 E10.14924
G1 X90.198 Y157.183 E10.17448
G1 X90.15 Y157.073 E10.17847
G1 X89.557 Y155.639 E10.23009
G1 X89.309 Y155.018 E10.25233
G1 X89.056 Y154.192 E10.28106
G1 X89.028 Y154.083 E10.2848
G1 X88.684 Y152.647 E10.33392
G1 X88.522 Y151.922 E10.35862
G1 X88.463 Y151.593 E10.36974
G1 X88.346 Y150.738 E10.39844
G1 X87.926 Y147.97 E10.49156
G1 X87.454 Y145.353 E10.58001
G1 X86.89 Y142.666 E10.67132
G1 X86.266 Y140.049 E10.76081
G1 X85.544 Y137.378 E10.85283
G1 X84.779 Y134.825 E10.94148
G1 X83.911 Y132.209 E11.03315
G1 X82.997 Y129.69 E11.12228
G1 X81.99 Y127.144 E11.21334
G1 X80.92 Y124.647 E11.30369
G1 X79.783 Y122.186 E11.39386
G1 X78.583 Y119.772 E11.48352
G1 X77.292 Y117.351 E11.57478
G1 X75.945 Y114.988 E11.66525
G1 X74.562 Y112.712 E11.75383
G1 X73.069 Y110.403 E11.84528
G1 X71.521 Y108.157 E11.93601
G1 X69.922 Y105.968 E12.02617
G1 X68.263 Y103.828 E12.11623
G1 X66.534 Y101.722 E12.20686
G1 X64.761 Y99.684 E12.2967
G1 X62.929 Y97.693 E12.38669
G1 X61.011 Y95.727 E12.47804
G1 X59.076 Y93.852 E12.56766
G1 X57.065 Y92.008 E12.65841
G1 X56.638 Y91.639 E12.67718
G1 X56.557 Y91.558 E12.68099
G1 X55.551 Y90.673 E12.72555
G1 X55.154 Y90.27 E12.74437
G1 X54.817 Y89.816 E12.76317
G1 X54.549 Y89.319 E12.78195
G1 X54.353 Y88.788 E12.80078
G1 X54.233 Y88.236 E12.81957
G1 X54.185 Y87.468 E12.84516
G1 X54.183 Y87.345 E12.84925
G1 X54.183 Y73.753 E13.30133
G1 X54.186 Y73.533 E13.30864
G1 X54.18 Y71.548 E13.37466
G1 X54.183 Y65.628 E13.57156
G1 X54.193 Y64.946 E13.59425
G1 X54.242 Y64.383 E13.61305
G1 X54.369 Y63.832 E13.63185
G1 X54.572 Y63.305 E13.65064
G1 X54.848 Y62.811 E13.66946
G1 X55.365 Y62.177 E13.69667
G1 X55.477 Y62.065 E13.70194
G0 F3000 X55.759 Y62.347
G1 F1200 X56.166 Y61.998 E13.71977
G1 X56.62 Y61.712 E13.73761
G1 X57.111 Y61.497 E13.75544
G1 X57.629 Y61.357 E13.77329
G1 X58.174 Y61.295 E13.79153
G1 X59.29 Y61.255 E13.82867
G1 X60.469 Y61.225 E13.8679
G1 X63.199 Y61.078 E13.95883
G1 X65.917 Y60.856 E14.04953
G1 X68.628 Y60.556 E14.14025
G1 X71.313 Y60.181 E14.23042
G1 X73.995 Y59.73 E14.32088
G1 X76.709 Y59.194 E14.41289
G1 X79.31 Y58.603 E14.50161
G1 X82.015 Y57.907 E14.59451
G1 X84.606 Y57.163 E14.68416
G1 X87.2 Y56.337 E14.77471
G1 X89.761 Y55.441 E14.86495
G1 X92.295 Y54.473 E14.95517
G1 X94.841 Y53.418 E15.04684
G1 X96.535 Y52.66 E15.10856
G1 X96.622 Y52.629 E15.11163
G1 X97.8 Y52.095 E15.15465
G1 X98.303 Y51.91 E15.17248
G1 X98.589 Y51.842 E15.18225
G1 X99.193 Y51.773 E15.20247
G1 X99.613 Y51.763 E15.21645
G1 X161.128 Y51.763 E17.26245
G1 X161.826 Y51.773 E17.28566
G1 X162.36 Y51.821 E17.3035
G1 X162.881 Y51.947 E17.32132
G1 X163.378 Y52.15 E17.33918
G1 X163.839 Y52.424 E17.35702
G1 X164.254 Y52.763 E17.37484
G1 X164.614 Y53.161 E17.39269
G1 X164.911 Y53.607 E17.41051
G1 X165.139 Y54.093 E17.42837
G1 X165.291 Y54.607 E17.44619
G1 X165.373 Y55.272 E17.46848
G1 X165.383 Y55.693 E17.48249
G1 X165.383 Y86.908 E18.5207
G1 X165.363 Y88.264 E18.56581
G1 X165.318 Y89.892 E18.61997
G1 X165.318 Y92.622 E18.71077
G1 X165.349 Y94.037 E18.75785
G1 X165.383 Y95.235 E18.79771
G1 X165.383 Y126.451 E19.83596
G1 X165.364 Y127.784 E19.8803
G1 X165.364 Y130.532 E19.9717
G1 X165.395 Y132.001 E20.02057
G1 X165.417 Y132.785 E20.04665
G1 X165.417 Y163.946 E21.08307
G1 X165.408 Y164.673 E21.10725
G1 X165.361 Y165.207 E21.12508
G1 X165.236 Y165.728 E21.1429
G1 X165.034 Y166.225 E21.16075
G1 X164.761 Y166.687 E21.1786
G1 X164.423 Y167.103 E21.19642
G1 X164.026 Y167.464 E21.21427
G1 X163.58 Y167.762 E21.23211
G1 X163.095 Y167.99 E21.24994
G1 X162.581 Y168.144 E21.26778
G1 X161.909 Y168.227 E21.2903
G1 X161.487 Y168.237 E21.30434
G1 X108.973 Y168.237 E23.05097
G1 X108.268 Y168.227 E23.07442
G1 X107.538 Y168.186 E23.09874
G1 X106.167 Y168.079 E23.14447
G1 X105.468 Y168.014 E23.16782
G1 X104.77 Y167.891 E23.1914
G1 X103.145 Y167.503 E23.24696
G1 X102.451 Y167.326 E23.27078
G1 X101.743 Y167.082 E23.29569
G1 X100.305 Y166.488 E23.34744
G1 X99.579 Y166.175 E23.37374
G1 X98.874 Y165.795 E23.40037
G1 X97.531 Y164.972 E23.45276
G1 X96.949 Y164.606 E23.47563
G1 X96.269 Y164.088 E23.50406
G1 X95.063 Y163.058 E23.55681
G1 X94.555 Y162.61 E23.57934
G1 X94.04 Y162.075 E23.60404
G1 X92.972 Y160.826 E23.65869
G1 X92.526 Y160.288 E23.68194
G1 X92.107 Y159.689 E23.70625
G1 X92.049 Y159.598 E23.70984
G1 X91.219 Y158.242 E23.76272
G1 X90.876 Y157.661 E23.78516
G1 X90.563 Y157.019 E23.80891
G1 X89.946 Y155.533 E23.86243
G1 X89.681 Y154.87 E23.88618
G1 X89.442 Y154.088 E23.91338
G1 X89.087 Y152.615 E23.96377
G1 X88.913 Y151.835 E23.99035
G1 X88.859 Y151.539 E24.00036
G1 X88.734 Y150.627 E24.03098
G1 X88.328 Y147.946 E24.12116
G1 X87.839 Y145.238 E24.21269
G1 X87.285 Y142.597 E24.30244
G1 X86.647 Y139.925 E24.39381
G1 X85.938 Y137.297 E24.48434
G1 X85.155 Y134.69 E24.57488
G1 X84.295 Y132.095 E24.6658
G1 X83.369 Y129.543 E24.7561
G1 X82.353 Y126.975 E24.84795
G1 X81.293 Y124.501 E24.93747
G1 X80.146 Y122.019 E25.02841
G1 X78.936 Y119.585 E25.11882
G1 X77.649 Y117.171 E25.20981
G1 X76.291 Y114.788 E25.30103
G1 X74.88 Y112.467 E25.39138
G1 X73.402 Y110.181 E25.48192
G1 X71.858 Y107.94 E25.57243
G1 X70.229 Y105.71 E25.66428
G1 X68.59 Y103.596 E25.75325
G1 X66.828 Y101.451 E25.84558
G1 X65.074 Y99.433 E25.93451
G1 X63.209 Y97.408 E26.02607
G1 X61.294 Y95.443 E26.11733
G1 X59.36 Y93.569 E26.2069
G1 X57.333 Y91.711 E26.29835
G1 X56.9 Y91.337 E26.31738
G1 X56.824 Y91.261 E26.32096
G1 X55.815 Y90.373 E26.36566
G1 X55.44 Y89.989 E26.38352
G1 X55.126 Y89.555 E26.40133
G1 X54.88 Y89.078 E26.41918
G1 X54.707 Y88.57 E26.43703
G1 X54.595 Y87.781 E26.46354
G1 X54.583 Y87.345 E26.47804
G1 X54.583 Y73.759 E26.92992
G1 X54.586 Y73.539 E26.93724
G1 X54.58 Y71.548 E27.00346
G1 X54.583 Y65.634 E27.20016
G1 X54.593 Y64.952 E27.22284
G1 X54.641 Y64.418 E27.24068
G1 X54.768 Y63.897 E27.25851
G1 X54.97 Y63.4 E27.27635
G1 X55.245 Y62.939 E27.29421
G1 X55.647 Y62.459 E27.31503
G1 X55.759 Y62.347 E27.3203
G0 F3000 X56.042 Y62.63
G1 F1200 X56.427 Y62.302 E27.33712
G1 X56.858 Y62.039 E27.35392
G1 X57.326 Y61.846 E27.37075
G1 X57.818 Y61.73 E27.38757
G1 X58.189 Y61.695 E27.39996
G1 X59.3 Y61.655 E27.43694
G1 X60.5 Y61.625 E27.47686
G1 X63.219 Y61.478 E27.56743
G1 X65.923 Y61.257 E27.65766
G1 X68.696 Y60.95 E27.75046
G1 X71.358 Y60.579 E27.83985
G1 X74.107 Y60.116 E27.93257
G1 X76.771 Y59.59 E28.02289
G1 X79.426 Y58.986 E28.11345
G1 X82.077 Y58.305 E28.20448
G1 X84.732 Y57.542 E28.29636
G1 X87.316 Y56.72 E28.38655
G1 X89.931 Y55.805 E28.4787
G1 X92.443 Y54.845 E28.56814
G1 X94.992 Y53.789 E28.65991
G1 X96.699 Y53.025 E28.72211
G1 X96.775 Y52.998 E28.72479
G1 X97.965 Y52.459 E28.76824
G1 X98.667 Y52.234 E28.79276
G1 X99.204 Y52.173 E28.81074
G1 X99.613 Y52.163 E28.82434
G1 X161.122 Y52.163 E30.87014
G1 X161.82 Y52.173 E30.89336
G1 X162.323 Y52.22 E30.91016
G1 X162.813 Y52.346 E30.92699
G1 X163.277 Y52.548 E30.94382
G1 X163.703 Y52.82 E30.96063
G1 X164.081 Y53.155 E30.97743
G1 X164.401 Y53.546 E30.99424
G1 X164.656 Y53.983 E31.01106
G1 X164.839 Y54.454 E31.02787
G1 X164.946 Y54.948 E31.04468
G1 X164.982 Y55.603 E31.0665
G1 X164.983 Y86.902 E32.10751
G1 X164.963 Y88.253 E32.15245
G1 X164.918 Y89.881 E32.20662
G1 X164.918 Y92.631 E32.29808
G1 X164.95 Y94.048 E32.34522
G1 X164.982 Y95.141 E32.38159
G1 X164.983 Y126.446 E33.4228
G1 X164.964 Y127.779 E33.46714
G1 X164.964 Y130.562 E33.55971
G1 X164.996 Y132.013 E33.60798
G1 X165.016 Y132.691 E33.63054
G1 X165.017 Y163.941 E34.66992
G1 X165.008 Y164.668 E34.6941
G1 X164.962 Y165.171 E34.7109
G1 X164.837 Y165.661 E34.72772
G1 X164.636 Y166.125 E34.74454
G1 X164.365 Y166.552 E34.76136
G1 X164.03 Y166.931 E34.77818
G1 X163.64 Y167.252 E34.79498
G1 X163.204 Y167.508 E34.8118
G1 X162.733 Y167.691 E34.8286
G1 X162.239 Y167.799 E34.84542
G1 X161.577 Y167.836 E34.86748
G1 X108.979 Y167.837 E36.61689
G1 X108.274 Y167.827 E36.64034
G1 X107.566 Y167.787 E36.66393
G1 X106.204 Y167.68 E36.70937
G1 X105.505 Y167.615 E36.73272
G1 X104.852 Y167.499 E36.75478
G1 X103.244 Y167.116 E36.80975
G1 X102.55 Y166.939 E36.83358
G1 X101.885 Y166.708 E36.85699
G1 X100.414 Y166.1 E36.90993
G1 X99.738 Y165.808 E36.93442
G1 X99.074 Y165.449 E36.95953
G1 X97.743 Y164.634 E37.01144
G1 X97.161 Y164.268 E37.0343
G1 X96.522 Y163.777 E37.06111
G1 X96.463 Y163.729 E37.06364
G1 X95.327 Y162.758 E37.11334
G1 X94.819 Y162.31 E37.13587
G1 X94.337 Y161.806 E37.15906
G1 X94.278 Y161.74 E37.16201
G1 X93.279 Y160.57 E37.21318
G1 X92.833 Y160.032 E37.23642
G1 X92.441 Y159.47 E37.25921
G1 X92.39 Y159.39 E37.26237
G1 X91.563 Y158.039 E37.31505
G1 X91.22 Y157.458 E37.33749
G1 X90.928 Y156.855 E37.35978
G1 X90.3 Y155.343 E37.41423
G1 X90.052 Y154.722 E37.43647
G1 X89.829 Y153.984 E37.46211
G1 X89.806 Y153.897 E37.46511
G1 X89.465 Y152.473 E37.51381
G1 X89.303 Y151.748 E37.53852
G1 X89.256 Y151.485 E37.5474
G1 X89.137 Y150.618 E37.57651
G1 X88.718 Y147.851 E37.66959
G1 X88.236 Y145.183 E37.75976
G1 X87.673 Y142.5 E37.85094
G1 X87.034 Y139.824 E37.94245
G1 X86.326 Y137.202 E38.03278
G1 X85.532 Y134.556 E38.12467
G1 X84.671 Y131.959 E38.21567
G1 X83.745 Y129.408 E38.30593
G1 X82.734 Y126.85 E38.39741
G1 X81.652 Y124.325 E38.48878
G1 X80.503 Y121.838 E38.5799
G1 X79.29 Y119.398 E38.67053
G1 X77.992 Y116.964 E38.76228
G1 X76.647 Y114.604 E38.85262
G1 X75.215 Y112.248 E38.94432
G1 X73.739 Y109.966 E39.03472
G1 X72.178 Y107.699 E39.12626
G1 X70.552 Y105.474 E39.21792
G1 X68.9 Y103.342 E39.30763
G1 X67.155 Y101.219 E39.39903
G1 X65.352 Y99.146 E39.49041
G1 X63.49 Y97.122 E39.58188
G1 X61.593 Y95.177 E39.67225
G1 X59.608 Y93.253 E39.76419
G1 X57.616 Y91.427 E39.85407
G1 X57.161 Y91.034 E39.87407
G1 X57.087 Y90.959 E39.87757
G1 X56.079 Y90.072 E39.92223
G1 X55.727 Y89.709 E39.93905
G1 X55.437 Y89.296 E39.95583
G1 X55.215 Y88.841 E39.97267
G1 X55.068 Y88.358 E39.98946
G1 X54.995 Y87.768 E40.00924
G1 X54.983 Y87.345 E40.02331
G1 X54.983 Y73.764 E40.47502
G1 X54.986 Y73.544 E40.48233
G1 X54.98 Y71.548 E40.54872
G1 X54.983 Y65.64 E40.74522
G1 X54.993 Y64.958 E40.76791
G1 X55.041 Y64.455 E40.78471
G1 X55.167 Y63.965 E40.80154
G1 X55.368 Y63.501 E40.81836
G1 X55.64 Y63.075 E40.83517
G1 X56.042 Y62.63 E40.85512
G1 F1800 E33.85512
G1 F300 Z0.4
G0 F3000 X58.383 Y65.083 Z0.4
;TYPE:SUPPORT
G1 F300 Z0.2
G1 F1800 E40.85512
G1 F1200 X62.883 Y65.083 E41.00479
G1 X62.883 Y71.233 E41.20934
G1 X58.383 Y71.233 E41.35901
G1 X58.383 Y65.083 E41.56356
G0 F3000 X58.674 Y65.243
G1 F1200 X58.674 Y71.073 E41.75746
G1 F1800 E34.75746
G1 F300 Z0.4
G0 F3000 X58.542 Y69.342 Z0.4
G1 F300 Z0.2
G1 F1800 E41.75746
G1 F1200 X62.722 Y69.342 E41.89649
G1 F1800 E34.89649
G1 F300 Z0.4
G0 F3000 X61.341 Y71.073 Z0.4
G1 F300 Z0.2
G1 F1800 E41.89649
G1 F1200 X61.341 Y65.243 E42.0904
G1 F1800 E35.0904
G1 F300 Z0.4
G0 F3000 X62.722 Y66.675 Z0.4
G1 F300 Z0.2
G1 F1800 E42.0904
G1 F1200 X58.542 Y66.675 E42.22943
G1 F1800 E35.22943
G1 F300 Z0.4
G0 F3000 X90.27 Y65.083 Z0.4
G1 F300 Z0.2
G1 F1800 E42.22943
G1 F1200 X94.77 Y65.083 E42.3791
G1 X94.77 Y71.233 E42.58365
G1 X90.27 Y71.233 E42.73332
G1 X90.27 Y65.083 E42.93787
G0 F3000 X90.678 Y65.243
G1 F1200 X90.678 Y71.073 E43.13177
G1 F1800 E36.13177
G1 F300 Z0.4
G0 F3000 X90.43 Y69.342 Z0.4
G1 F300 Z0.2
G1 F1800 E43.13177
G1 F1200 X94.61 Y69.342 E43.2708
G1 F1800 E36.2708
G1 F300 Z0.4
G0 F3000 X93.345 Y71.073 Z0.4
G1 F300 Z0.2
G1 F1800 E43.2708
G1 F1200 X93.345 Y65.243 E43.46471
G1 F1800 E36.46471
G1 F300 Z0.4
G0 F3000 X94.61 Y66.675 Z0.4
G1 F300 Z0.2
G1 F1800 E43.46471
G1 F1200 X90.43 Y66.675 E43.60373
G1 F1800 E36.60373
G1 F300 Z0.4
;MESH:camera.wroover.all.straight.stl
G0 F3000 X90.67 Y86.876 Z0.4
;TYPE:WALL-INNER
G1 F300 Z0.2
G1 F1800 E43.60373
G1 F1200 X90.67 Y73.704 E44.04184
G1 X94.37 Y73.704 E44.1649
G1 X94.37 Y87.075 E44.60962
G1 X90.67 Y87.075 E44.73268
G1 X88.47 Y87.075 E44.80586
G1 X64.67 Y87.075 E45.59745
G1 X62.483 Y87.075 E45.67019
G1 X58.783 Y87.075 E45.79325
G1 X58.783 Y73.704 E46.23797
G1 X62.483 Y73.704 E46.36103
G1 X62.483 Y86.876 E46.79914
G1 X64.67 Y86.876 E46.83541
G1 X64.67 Y84.876 E46.90193
G1 X66.02 Y84.876 E46.94684
G1 X66.02 Y80.276 E47.09983
