;FLAVOR:Marlin
;TIME:5532
;Filament used: 3.23723m
;Layer height: 0.2
;MINX:75.124
;MINY:79.233
;MINZ:0.2
;MAXX:144.924
;MAXY:140.749
;MAXZ:38.6
;Generated with Cura_SteamEngine master
M82 ;absolute extrusion mode
;Sliced at: Tue 03-05-2022 21:12:23
;Basic settings: Layer height: 0.2 Walls: 0.8 Fill: 20
G21 ;metric values
G90 ;absolute positioning
M82 ;set extruder to absolute mode
M107 ;start with the fan off
M117 Start heating ...
M104 S200
M117 Homing X/Y ...
G28 X0 Y0 ;move X/Y to min endstops
M117 Homing Z ...
G28 Z0 ;move Z to min endstops
G1 Z15.0 F100 ;move the platform down 15mm
M117 Heating ...
M109 S200
M117 Start cleaning ...
G92 E0 ;zero the extruded length
G1 F200 E10 ;extrude 10mm of feed stock
G92 E0 ;zero the extruded length again
M117 Intro line ...
G1 Z2.0 F3000 ; Move Z Axis up little to prevent scratching of Heat Bed
G1 X0.1 Y20 Z0.2 F5000.0 ; Move to start position
G1 X0.1 Y200.0 Z0.2 F1500.0 E15 ; Draw the first line
G1 X0.4 Y200.0 Z0.2 F5000.0 ; Move to side a little
G1 X0.4 Y20 Z0.3 F1500.0 E30 ; Draw the second line
G92 E0 ; Reset Extruder
G1 E-1 F500 ; Retract filiment by 1 mm
G1 Z2.0 F3000 ; Move Z Axis up little to prevent scratching of Heat Bed
G1 X5 Y20 Z0.3 F100 ; Move over to prevent blob squish
G1 F100
G92 E0 ; Reset Extruder
M117 Printing...

G92 E0
G92 E0
G1 F1800 E-7
;LAYER_COUNT:194
;LAYER:0
M107
G1 F300 Z0.4
G0 F3000 X80.398 Y81.151 Z0.4
;TYPE:SKIRT
G1 F300 Z0.2
G1 F1800 E0
G1 F1200 X81.012 Y80.624 E0.02691
G1 X81.581 Y80.23 E0.04993
G1 X82.274 Y79.862 E0.07603
G1 X82.903 Y79.604 E0.09864
G1 X83.656 Y79.394 E0.12464
G1 X84.325 Y79.277 E0.14723
G1 X85.117 Y79.233 E0.17361
G1 X85.581 Y79.234 E0.18905
G1 X88.039 Y79.308 E0.27084
G1 X90.761 Y79.312 E0.36137
G1 X92.904 Y79.261 E0.43267
G1 X93.689 Y79.234 E0.45879
G1 X93.936 Y79.234 E0.46701
G1 X94.48 Y79.249 E0.48511
G1 X95.184 Y79.331 E0.50868
G1 X95.699 Y79.438 E0.52618
G1 X96.391 Y79.648 E0.55023
G1 X96.829 Y79.826 E0.56595
G1 X97.46 Y80.151 E0.58956
G1 X97.93 Y80.448 E0.60805
G1 X98.37 Y80.756 E0.62592
G1 X100.609 Y82.33 E0.71695
G1 X102.827 Y83.797 E0.80539
G1 X105.185 Y85.262 E0.89772
G1 X107.483 Y86.601 E0.98618
G1 X109.912 Y87.927 E1.07823
G1 X112.287 Y89.137 E1.16688
G1 X114.778 Y90.319 E1.25859
G1 X117.248 Y91.406 E1.34834
G1 X119.752 Y92.424 E1.43825
G1 X122.316 Y93.385 E1.52932
G1 X124.841 Y94.249 E1.61808
G1 X127.475 Y95.068 E1.70982
G1 X130.104 Y95.805 E1.80064
G1 X132.725 Y96.461 E1.8905
G1 X135.385 Y97.045 E1.98108
G1 X138.013 Y97.545 E2.07005
G1 X140.721 Y97.983 E2.16129
G1 X141.011 Y98.023 E2.17103
G1 X141.541 Y98.107 E2.18888
G1 X142.092 Y98.235 E2.20769
G1 X142.619 Y98.439 E2.22649
G1 X143.112 Y98.716 E2.2453
G1 X143.562 Y99.059 E2.26412
G1 X143.958 Y99.462 E2.28291
G1 X144.294 Y99.917 E2.30172
G1 X144.562 Y100.414 E2.3205
G1 X144.757 Y100.945 E2.33931
G1 X144.876 Y101.498 E2.35813
G1 X144.922 Y102.267 E2.38375
G1 X144.924 Y102.379 E2.38748
G1 X144.924 Y129.568 E3.29179
G1 X144.914 Y130.296 E3.316
G1 X144.866 Y130.859 E3.3348
G1 X144.739 Y131.41 E3.3536
G1 X144.536 Y131.938 E3.37242
G1 X144.261 Y132.432 E3.39122
G1 X143.919 Y132.882 E3.41002
G1 X143.516 Y133.279 E3.42884
G1 X143.062 Y133.615 E3.44762
G1 X142.565 Y133.884 E3.46642
G1 X141.925 Y134.111 E3.489
G1 X141.717 Y134.165 E3.49615
G1 X139.103 Y134.888 E3.58636
G1 X136.496 Y135.689 E3.67707
G1 X133.925 Y136.559 E3.76734
G1 X131.352 Y137.511 E3.85859
G1 X128.843 Y138.522 E3.94856
G1 X126.37 Y139.6 E4.03829
G1 X125.577 Y139.972 E4.06742
G1 X124.667 Y140.383 E4.10063
G1 X123.88 Y140.645 E4.12822
G1 X123.125 Y140.738 E4.15352
G1 X122.694 Y140.749 E4.16786
G1 X97.669 Y140.749 E5.0002
G1 X96.961 Y140.738 E5.02375
G1 X96.398 Y140.689 E5.04254
G1 X95.847 Y140.561 E5.06136
G1 X95.319 Y140.357 E5.08018
G1 X94.929 Y140.173 E5.09453
G1 X92.397 Y139.029 E5.18694
G1 X89.899 Y137.982 E5.27702
G1 X87.385 Y137.016 E5.3666
G1 X84.842 Y136.117 E5.45631
G1 X82.238 Y135.28 E5.54728
G1 X79.622 Y134.519 E5.6379
G1 X79.259 Y134.424 E5.65038
G1 X78.077 Y134.1 E5.69114
G1 X77.543 Y133.912 E5.70997
G1 X77.042 Y133.651 E5.72876
G1 X76.582 Y133.322 E5.74757
G1 X76.173 Y132.932 E5.76637
G1 X75.824 Y132.487 E5.78518
G1 X75.54 Y131.998 E5.80399
G1 X75.328 Y131.474 E5.82279
G1 X75.193 Y130.925 E5.84159
G1 X75.136 Y130.364 E5.86035
G1 X75.124 Y129.913 E5.87535
G1 X75.125 Y102.658 E6.78186
G1 X75.136 Y101.984 E6.80428
G1 X75.192 Y101.373 E6.82468
G1 X75.282 Y100.969 E6.83845
G1 X75.515 Y100.122 E6.86767
G1 X76.216 Y97.423 E6.96042
G1 X76.824 Y94.778 E7.05068
G1 X77.352 Y92.131 E7.14046
G1 X77.813 Y89.434 E7.23146
G1 X78.193 Y86.762 E7.32123
G1 X78.239 Y86.35 E7.33501
G1 X78.383 Y85.225 E7.37274
G1 X78.498 Y84.597 E7.39397
G1 X78.595 Y84.19 E7.40789
G1 X78.808 Y83.544 E7.43051
G1 X79.135 Y82.838 E7.45639
G1 X79.489 Y82.241 E7.47947
G1 X79.955 Y81.628 E7.50509
G1 X80.398 Y81.151 E7.52674
G0 F3000 X80.668 Y81.445
G1 F1200 X81.267 Y80.932 E7.55297
G1 X81.779 Y80.578 E7.57367
G1 X82.456 Y80.218 E7.59917
G1 X83.022 Y79.986 E7.61952
G1 X83.757 Y79.781 E7.6449
G1 X84.36 Y79.676 E7.66526
G1 X85.133 Y79.632 E7.69101
G1 X85.569 Y79.634 E7.70551
G1 X88.026 Y79.708 E7.78727
G1 X90.77 Y79.712 E7.87853
G1 X92.926 Y79.661 E7.95026
G1 X93.702 Y79.634 E7.97609
G1 X93.925 Y79.633 E7.9835
G1 X94.469 Y79.648 E8.0016
G1 X95.102 Y79.722 E8.0228
G1 X95.617 Y79.829 E8.0403
G1 X96.24 Y80.019 E8.06196
G1 X96.678 Y80.197 E8.07768
G1 X97.246 Y80.489 E8.09893
G1 X97.716 Y80.786 E8.11742
G1 X98.113 Y81.064 E8.13354
G1 X100.364 Y82.647 E8.22507
G1 X102.642 Y84.153 E8.31589
G1 X104.953 Y85.589 E8.40639
G1 X107.312 Y86.963 E8.49719
G1 X109.704 Y88.269 E8.58783
G1 X112.156 Y89.518 E8.67936
G1 X114.582 Y90.669 E8.76867
G1 X117.073 Y91.765 E8.85918
G1 X119.641 Y92.81 E8.95139
G1 X122.152 Y93.751 E9.04058
G1 X124.74 Y94.637 E9.13156
G1 X127.385 Y95.46 E9.2237
G1 X129.971 Y96.184 E9.31302
G1 X132.647 Y96.854 E9.40477
G1 X135.295 Y97.435 E9.49493
G1 X137.945 Y97.94 E9.58466
G1 X140.682 Y98.382 E9.67687
G1 X140.949 Y98.418 E9.68583
G1 X141.479 Y98.502 E9.70368
G1 X142 Y98.626 E9.72149
G1 X142.498 Y98.825 E9.73933
G1 X142.961 Y99.096 E9.75717
G1 X143.378 Y99.433 E9.77501
G1 X143.741 Y99.828 E9.79285
G1 X144.041 Y100.272 E9.81067
G1 X144.272 Y100.757 E9.82854
G1 X144.428 Y101.27 E9.84637
G1 X144.514 Y101.957 E9.8694
G1 X144.524 Y102.379 E9.88344
G1 X144.524 Y129.562 E10.78755
G1 X144.514 Y130.29 E10.81177
G1 X144.466 Y130.825 E10.82963
G1 X144.34 Y131.346 E10.84746
G1 X144.138 Y131.843 E10.8653
G1 X143.864 Y132.304 E10.88314
G1 X143.525 Y132.719 E10.90096
G1 X143.128 Y133.08 E10.91881
G1 X142.682 Y133.377 E10.93663
G1 X142.196 Y133.605 E10.95449
G1 X141.652 Y133.769 E10.97339
G1 X138.974 Y134.51 E11.0658
G1 X136.355 Y135.314 E11.15692
G1 X133.773 Y136.188 E11.24759
G1 X131.231 Y137.128 E11.33773
G1 X128.712 Y138.143 E11.42806
G1 X126.19 Y139.243 E11.51957
G1 X125.413 Y139.608 E11.54812
G1 X124.503 Y140.019 E11.58134
G1 X123.793 Y140.254 E11.60621
G1 X123.114 Y140.339 E11.62897
G1 X122.694 Y140.349 E11.64294
G1 X97.675 Y140.349 E12.47508
G1 X96.967 Y140.338 E12.49863
G1 X96.433 Y140.289 E12.51646
G1 X95.912 Y140.162 E12.5343
G1 X95.084 Y139.804 E12.5643
G1 X92.61 Y138.686 E12.6546
G1 X90.019 Y137.6 E12.74804
G1 X87.514 Y136.637 E12.8373
G1 X84.962 Y135.735 E12.92733
G1 X82.367 Y134.901 E13.01799
G1 X79.73 Y134.134 E13.10933
G1 X79.364 Y134.038 E13.12191
G1 X78.182 Y133.714 E13.16268
G1 X77.677 Y133.534 E13.18051
G1 X77.204 Y133.281 E13.19835
G1 X76.774 Y132.961 E13.21618
G1 X76.396 Y132.58 E13.23403
G1 X76.08 Y132.147 E13.25186
G1 X75.83 Y131.672 E13.26971
G1 X75.655 Y131.166 E13.28752
G1 X75.556 Y130.639 E13.30535
G1 X75.526 Y130.022 E13.3259
G1 X75.524 Y129.913 E13.32952
G1 X75.524 Y102.664 E14.23583
G1 X75.535 Y101.99 E14.25825
G1 X75.587 Y101.439 E14.27666
G1 X75.667 Y101.075 E14.28905
G1 X75.916 Y100.171 E14.32024
G1 X76.601 Y97.533 E14.41089
G1 X77.212 Y94.881 E14.50141
G1 X77.755 Y92.155 E14.59386
G1 X78.205 Y89.52 E14.68276
G1 X78.587 Y86.827 E14.77323
G1 X78.636 Y86.401 E14.78749
G1 X78.78 Y85.276 E14.82522
G1 X78.887 Y84.689 E14.84506
G1 X78.984 Y84.282 E14.85898
G1 X79.176 Y83.702 E14.8793
G1 X79.496 Y83.012 E14.9046
G1 X79.814 Y82.474 E14.92538
G1 X80.27 Y81.875 E14.95042
G1 X80.668 Y81.445 E14.96991
G0 F3000 X80.938 Y81.74
G1 F1200 X81.522 Y81.24 E14.99548
G1 X81.977 Y80.926 E15.01387
G1 X82.638 Y80.574 E15.03877
G1 X83.141 Y80.368 E15.05685
G1 X83.859 Y80.167 E15.08165
G1 X84.395 Y80.074 E15.09974
G1 X85.15 Y80.032 E15.1249
G1 X85.557 Y80.033 E15.13843
G1 X88.049 Y80.108 E15.22135
G1 X90.779 Y80.112 E15.31215
G1 X92.949 Y80.06 E15.38435
G1 X93.716 Y80.034 E15.40987
G1 X93.914 Y80.033 E15.41646
G1 X94.458 Y80.048 E15.43456
G1 X95.021 Y80.114 E15.45341
G1 X95.536 Y80.221 E15.47091
G1 X96.09 Y80.389 E15.49016
G1 X96.528 Y80.567 E15.50589
G1 X97.032 Y80.827 E15.52475
G1 X97.502 Y81.124 E15.54324
G1 X100.159 Y82.992 E15.65127
G1 X102.415 Y84.484 E15.74123
G1 X104.747 Y85.932 E15.83253
G1 X107.126 Y87.318 E15.9241
G1 X109.524 Y88.628 E16.01499
G1 X111.938 Y89.857 E16.10508
G1 X114.428 Y91.039 E16.19676
G1 X116.94 Y92.144 E16.28803
G1 X119.455 Y93.167 E16.37834
G1 X122.03 Y94.132 E16.4698
G1 X124.629 Y95.021 E16.56116
G1 X127.264 Y95.841 E16.65295
G1 X129.871 Y96.571 E16.74299
G1 X132.536 Y97.239 E16.83437
G1 X135.206 Y97.825 E16.92529
G1 X137.913 Y98.34 E17.01694
G1 X140.599 Y98.774 E17.10743
G1 X140.886 Y98.813 E17.11707
G1 X141.416 Y98.897 E17.13492
G1 X141.907 Y99.016 E17.15172
G1 X142.374 Y99.21 E17.16854
G1 X142.805 Y99.475 E17.18537
G1 X143.188 Y99.805 E17.20218
G1 X143.514 Y100.191 E17.21899
G1 X143.776 Y100.624 E17.23582
G1 X143.966 Y101.092 E17.25262
G1 X144.08 Y101.585 E17.26945
G1 X144.123 Y102.289 E17.29291
G1 X144.124 Y129.557 E18.19984
G1 X144.114 Y130.285 E18.22406
G1 X144.067 Y130.788 E18.24086
G1 X143.941 Y131.278 E18.25769
G1 X143.74 Y131.742 E18.27451
G1 X143.469 Y132.168 E18.2913
G1 X143.133 Y132.547 E18.30815
G1 X142.742 Y132.867 E18.32495
G1 X142.306 Y133.122 E18.34175
G1 X141.723 Y133.337 E18.36242
G1 X141.512 Y133.392 E18.36967
G1 X138.865 Y134.124 E18.46102
G1 X136.247 Y134.928 E18.5521
G1 X133.643 Y135.809 E18.64354
G1 X131.091 Y136.754 E18.73405
G1 X128.539 Y137.781 E18.82554
G1 X126.039 Y138.872 E18.91627
G1 X125.248 Y139.243 E18.94533
G1 X124.338 Y139.654 E18.97854
G1 X123.706 Y139.864 E19.00069
G1 X123.103 Y139.939 E19.0209
G1 X122.694 Y139.949 E19.0345
G1 X97.681 Y139.949 E19.86644
G1 X96.973 Y139.938 E19.88999
G1 X96.47 Y139.89 E19.9068
G1 X95.98 Y139.763 E19.92363
G1 X95.278 Y139.453 E19.94916
G1 X92.751 Y138.311 E20.04139
G1 X90.192 Y137.239 E20.13367
G1 X87.643 Y136.258 E20.22451
G1 X85.08 Y135.353 E20.31491
G1 X82.496 Y134.522 E20.40519
G1 X79.828 Y133.746 E20.49761
G1 X79.47 Y133.652 E20.50992
G1 X78.288 Y133.328 E20.55068
G1 X77.813 Y133.156 E20.56749
G1 X77.37 Y132.912 E20.58431
G1 X76.972 Y132.601 E20.60111
G1 X76.627 Y132.231 E20.61793
G1 X76.345 Y131.811 E20.63476
G1 X76.133 Y131.352 E20.65157
G1 X75.995 Y130.866 E20.66838
G1 X75.935 Y130.339 E20.68602
G1 X75.924 Y129.913 E20.70019
G1 X75.924 Y102.671 E21.60627
G1 X75.935 Y101.997 E21.62869
G1 X76.053 Y101.181 E21.65611
G1 X76.302 Y100.277 E21.6873
G1 X76.99 Y97.626 E21.77839
G1 X77.608 Y94.944 E21.86993
G1 X78.14 Y92.273 E21.96051
G1 X78.602 Y89.573 E22.05162
G1 X78.986 Y86.861 E22.14272
G1 X79.033 Y86.452 E22.15641
G1 X79.177 Y85.327 E22.19414
G1 X79.276 Y84.782 E22.21256
G1 X79.373 Y84.375 E22.22648
G1 X79.544 Y83.859 E22.24456
G1 X79.856 Y83.185 E22.26926
G1 X80.139 Y82.707 E22.28774
G1 X80.584 Y82.123 E22.31216
G1 X80.938 Y81.74 E22.3295
G1 F1800 E15.3295
G1 F300 Z0.4
;MESH:camera.frame.amf 1
G0 F3000 X85.713 Y88.132 Z0.4
;TYPE:WALL-INNER
G1 F300 Z0.2
G1 F1800 E22.3295
G1 F1200 X85.246 Y88.208 E22.34524
G1 X84.772 Y88.182 E22.36103
G1 X84.317 Y88.056 E22.37673
G1 X83.895 Y87.831 E22.39264
G1 X83.533 Y87.525 E22.4084
G1 X83.245 Y87.145 E22.42426
G1 X83.046 Y86.716 E22.43999
G1 X82.944 Y86.253 E22.45576
G1 X82.944 Y85.777 E22.47159
G1 X83.046 Y85.312 E22.48742
G1 X83.244 Y84.885 E22.50308
G1 X83.533 Y84.504 E22.51898
G1 X83.892 Y84.199 E22.53465
G1 X84.319 Y83.974 E22.55071
G1 X84.772 Y83.848 E22.56634
G1 X85.246 Y83.822 E22.58213
G1 X85.713 Y83.898 E22.59787
G1 X86.16 Y84.076 E22.61387
G1 X86.549 Y84.34 E22.62951
G1 X86.875 Y84.684 E22.64527
G1 X87.121 Y85.093 E22.66115
G1 X87.271 Y85.541 E22.67686
G1 X87.324 Y86.015 E22.69272
G1 X87.271 Y86.489 E22.70859
G1 X87.12 Y86.94 E22.72441
G1 X86.878 Y87.343 E22.74004
G1 X86.549 Y87.69 E22.75595
G1 X86.16 Y87.954 E22.77158
G1 X85.713 Y88.132 E22.78758
G0 F3000 X85.821 Y88.52
;TYPE:WALL-OUTER
G1 F1200 X85.271 Y88.61 E22.80612
G1 X84.707 Y88.579 E22.82491
G1 X84.167 Y88.429 E22.84355
G1 X83.668 Y88.164 E22.86234
G1 X83.24 Y87.801 E22.88101
G1 X82.9 Y87.353 E22.89971
G1 X82.664 Y86.845 E22.91834
G1 X82.544 Y86.298 E22.93697
G1 X82.544 Y85.732 E22.95579
G1 X82.664 Y85.185 E22.97442
G1 X82.9 Y84.676 E22.99308
G1 X83.24 Y84.228 E23.01179
G1 X83.667 Y83.865 E23.03043
G1 X84.167 Y83.601 E23.04923
G1 X84.707 Y83.451 E23.06787
G1 X85.271 Y83.42 E23.08666
G1 X85.821 Y83.51 E23.1052
G1 X86.348 Y83.72 E23.12406
G1 X86.807 Y84.032 E23.14252
G1 X87.198 Y84.444 E23.16142
G1 X87.485 Y84.92 E23.1799
G1 X87.665 Y85.458 E23.19877
G1 X87.727 Y86.015 E23.21741
G1 X87.665 Y86.572 E23.23605
G1 X87.485 Y87.11 E23.25492
G1 X87.199 Y87.585 E23.27336
G1 X86.807 Y87.998 E23.2923
G1 X86.348 Y88.31 E23.31076
G1 X85.821 Y88.52 E23.32963
G0 F3000 X85.624 Y88.552
G0 X85.554 Y88.118
G0 X85.607 Y87.754
;TYPE:SKIN
G1 F1200 X85.228 Y87.816 E23.3424
G1 X84.834 Y87.794 E23.35553
G1 X84.461 Y87.691 E23.3684
G1 X84.115 Y87.506 E23.38145
G1 X83.817 Y87.256 E23.39438
G1 X83.579 Y86.941 E23.40752
G1 X83.418 Y86.594 E23.42024
G1 X83.334 Y86.21 E23.43331
G1 X83.334 Y85.82 E23.44628
G1 X83.418 Y85.438 E23.45929
G1 X83.581 Y85.085 E23.47222
G1 X83.818 Y84.773 E23.48526
G1 X84.109 Y84.525 E23.49797
G1 X84.462 Y84.339 E23.51124
G1 X84.835 Y84.236 E23.52411
G1 X85.228 Y84.214 E23.53721
G1 X85.607 Y84.276 E23.54998
G1 X85.981 Y84.425 E23.56337
G1 X86.291 Y84.636 E23.57584
G1 X86.564 Y84.924 E23.58904
G1 X86.764 Y85.257 E23.60196
G1 X86.887 Y85.623 E23.6148
G1 X86.932 Y86.015 E23.62793
G1 X86.887 Y86.407 E23.64105
G1 X86.763 Y86.776 E23.654
G1 X86.567 Y87.103 E23.66668
G1 X86.291 Y87.394 E23.68002
G1 X85.981 Y87.605 E23.69249
G1 X85.607 Y87.754 E23.70588
G0 F3000 X85.71 Y88.015
G0 X84.797 Y88.012
G0 X83.992 Y87.69
G0 X83.108 Y86.483
G0 X83.556 Y86.385
G1 F1200 X84.755 Y87.584 E23.76228
G0 F3000 X85.349 Y87.612
G1 F1200 X83.524 Y85.786 E23.84814
G0 F3000 X83.655 Y85.352
G1 F1200 X85.789 Y87.486 E23.94852
G0 F3000 X86.143 Y87.274
G1 F1200 X83.869 Y85 E24.05548
G0 F3000 X84.155 Y84.721
G1 F1200 X86.424 Y86.989 E24.16218
G0 F3000 X86.624 Y86.624
G1 F1200 X84.514 Y84.514 E24.26143
G0 F3000 X84.975 Y84.409
G1 F1200 X86.732 Y86.166 E24.34408
G0 F3000 X86.665 Y85.534
G1 F1200 X85.598 Y84.466 E24.39429
G1 X85.528 Y84.396
G0 F3000 X85.579 Y84.078
G1 F1800 E17.39429
G1 F300 Z0.4
;MESH:camera.frame.amf 2
G0 F3000 X85.579 Y84.078 Z0.4
G0 X94.361 Y88.191
;TYPE:WALL-INNER
G1 F300 Z0.2
G1 F1800 E24.39429
G1 F1200 X93.955 Y88.21 E24.40781
G1 X93.575 Y88.158 E24.42056
G1 X93.195 Y88.036 E24.43384
G1 X92.848 Y87.849 E24.44695
G1 X92.544 Y87.606 E24.45989
G1 X92.284 Y87.308 E24.47305
G1 X92.077 Y86.962 E24.48646
G1 X91.943 Y86.607 E24.49908
G1 X91.871 Y86.208 E24.51256
G1 X91.871 Y85.822 E24.5254
G1 X91.943 Y85.423 E24.53889
G1 X92.077 Y85.068 E24.55151
G1 X92.284 Y84.722 E24.56492
G1 X92.544 Y84.424 E24.57807
G1 X92.848 Y84.181 E24.59101
G1 X93.195 Y83.994 E24.60412
G1 X93.575 Y83.872 E24.6174
G1 X93.955 Y83.82 E24.63016
G1 X94.357 Y83.838 E24.64354
G1 X94.74 Y83.925 E24.6566
G1 X95.099 Y84.078 E24.66958
G1 X95.436 Y84.301 E24.68302
G1 X95.708 Y84.562 E24.69556
G1 X95.947 Y84.891 E24.70909
G1 X96.116 Y85.239 E24.72195
G1 X96.224 Y85.63 E24.73545
G1 X96.258 Y86.015 E24.7483
G1 X96.224 Y86.4 E24.76115
G1 X96.116 Y86.791 E24.77465
G1 X95.949 Y87.137 E24.78743
G1 X95.71 Y87.464 E24.8009
G1 X95.431 Y87.732 E24.81376
G1 X95.101 Y87.95 E24.82692
G1 X94.738 Y88.106 E24.84006
G1 X94.361 Y88.191 E24.85291
G0 F3000 X94.411 Y88.59
;TYPE:WALL-OUTER
