;FLAVOR:Marlin
;TIME:6149
;Filament used: 3.20757m
;Layer height: 0.2
;MINX:87.603
;MINY:95.5
;MINZ:0.2
;MAXX:132.394
;MAXY:128.7
;MAXZ:32.2
;Generated with Cura_SteamEngine master
M82 ;absolute extrusion mode
;Sliced at: Fri 23-09-2022 13:55:21
;Basic settings: Layer height: 0.2 Walls: 0.8 Fill: 30.0
G21 ;metric values
G90 ;absolute positioning
M82 ;set extruder to absolute mode
M107 ;start with the fan off
M117 Start heating ...
M104 S200
M117 Homing X/Y ...
G28 X0 Y0 ;move X/Y to min endstops
M117 Homing Z ...
G28 Z0 ;move Z to min endstops
G1 Z15.0 F100 ;move the platform down 15mm
M117 Heating ...
M109 S200
M117 Start cleaning ...
G92 E0 ;zero the extruded length
G1 F200 E10 ;extrude 10mm of feed stock
G92 E0 ;zero the extruded length again
M117 Intro line ...
G1 Z2.0 F3000 ; Move Z Axis up little to prevent scratching of Heat Bed
G1 X0.1 Y20 Z0.2 F5000.0 ; Move to start position
G1 X0.1 Y200.0 Z0.2 F1500.0 E15 ; Draw the first line
G1 X0.4 Y200.0 Z0.2 F5000.0 ; Move to side a little
G1 X0.4 Y20 Z0.3 F1500.0 E30 ; Draw the second line
G92 E0 ; Reset Extruder
G1 E-1 F500 ; Retract filiment by 1 mm
G1 Z2.0 F3000 ; Move Z Axis up little to prevent scratching of Heat Bed
G1 X5 Y20 Z0.3 F100 ; Move over to prevent blob squish
G1 F100
G92 E0 ; Reset Extruder
M117 Printing...

G92 E0
G92 E0
G1 F1800 E-7
;LAYER_COUNT:161
;LAYER:0
M107
G1 F300 Z0.4
G0 F3000 X88.9 Y99.09 Z0.4
;TYPE:SKIRT
G1 F300 Z0.2
G1 F1800 E0
G1 F1200 X89.327 Y98.719 E0.01881
G1 X89.802 Y98.412 E0.03762
G1 X90.315 Y98.176 E0.05641
G1 X90.857 Y98.014 E0.07522
G1 X91.593 Y97.92 E0.0999
G1 X92.236 Y97.908 E0.12129
G1 X95.744 Y97.908 E0.23797
G1 X96.459 Y97.919 E0.26175
G1 X96.905 Y97.951 E0.27662
G1 X97.787 Y98.064 E0.3062
G1 X100.462 Y98.369 E0.39574
G1 X103.191 Y98.601 E0.48684
G1 X105.928 Y98.756 E0.57802
G1 X108.603 Y98.833 E0.66703
G1 X111.347 Y98.833 E0.75829
G1 X114.016 Y98.758 E0.8471
G1 X116.759 Y98.603 E0.93848
G1 X119.489 Y98.371 E1.0296
G1 X122.153 Y98.069 E1.11878
G1 X122.349 Y98.042 E1.12536
G1 X123.136 Y97.947 E1.15172
G1 X123.715 Y97.913 E1.17101
G1 X124.124 Y97.908 E1.18462
G1 X127.627 Y97.908 E1.30113
G1 X128.329 Y97.918 E1.32448
G1 X128.892 Y97.966 E1.34327
G1 X129.443 Y98.093 E1.36208
G1 X129.971 Y98.297 E1.38091
G1 X130.464 Y98.572 E1.39968
G1 X131.1 Y99.09 E1.42696
G1 X131.212 Y99.202 E1.43223
G1 X131.583 Y99.629 E1.45104
G1 X131.89 Y100.104 E1.46986
G1 X132.126 Y100.617 E1.48864
G1 X132.288 Y101.159 E1.50745
G1 X132.381 Y101.883 E1.53173
G1 X132.394 Y102.49 E1.55192
G1 X132.394 Y108.361 E1.74719
G1 X132.389 Y109.796 E1.79492
G1 X132.394 Y110.489 E1.81797
G1 X132.394 Y124.019 E2.26798
G1 X132.384 Y124.746 E2.29216
G1 X132.336 Y125.309 E2.31096
G1 X132.209 Y125.86 E2.32977
G1 X132.006 Y126.388 E2.34858
G1 X131.731 Y126.882 E2.36738
G1 X131.389 Y127.332 E2.38618
G1 X130.986 Y127.729 E2.405
G1 X130.532 Y128.065 E2.42378
G1 X130.035 Y128.334 E2.44258
G1 X129.505 Y128.531 E2.46139
G1 X128.952 Y128.65 E2.4802
G1 X128.176 Y128.698 E2.50606
G1 X128.064 Y128.7 E2.50979
G1 X92.261 Y128.7 E3.7006
G1 X91.563 Y128.691 E3.72382
G1 X91 Y128.643 E3.74261
G1 X90.449 Y128.517 E3.76141
G1 X89.921 Y128.315 E3.78021
G1 X89.427 Y128.04 E3.79902
G1 X88.977 Y127.698 E3.81782
G1 X88.579 Y127.296 E3.83663
G1 X88.243 Y126.842 E3.85542
G1 X87.973 Y126.345 E3.87423
G1 X87.776 Y125.815 E3.89303
G1 X87.656 Y125.263 E3.91182
G1 X87.607 Y124.466 E3.93838
G1 X87.606 Y110.749 E4.39461
G1 X87.609 Y110.552 E4.40116
G1 X87.603 Y108.572 E4.46702
G1 X87.606 Y102.653 E4.66389
G1 X87.616 Y101.971 E4.68657
G1 X87.665 Y101.408 E4.70537
G1 X87.792 Y100.857 E4.72417
G1 X87.995 Y100.33 E4.74296
G1 X88.271 Y99.836 E4.76178
G1 X88.788 Y99.202 E4.78899
G1 X88.9 Y99.09 E4.79426
G0 F3000 X89.182 Y99.372
G1 F1200 X89.589 Y99.023 E4.81209
G1 X90.043 Y98.737 E4.82993
G1 X90.534 Y98.522 E4.84776
G1 X91.052 Y98.382 E4.86561
G1 X91.606 Y98.32 E4.88415
G1 X92.241 Y98.308 E4.90527
G1 X95.737 Y98.308 E5.02155
G1 X96.452 Y98.319 E5.04534
G1 X96.854 Y98.348 E5.05874
G1 X97.715 Y98.458 E5.08761
G1 X100.45 Y98.77 E5.17917
G1 X103.168 Y99.001 E5.26989
G1 X105.86 Y99.154 E5.35958
G1 X108.626 Y99.233 E5.45161
G1 X111.322 Y99.233 E5.54128
G1 X114.084 Y99.156 E5.63318
G1 X116.781 Y99.003 E5.72303
G1 X119.497 Y98.773 E5.81368
G1 X122.218 Y98.464 E5.90477
G1 X122.397 Y98.439 E5.91078
G1 X123.184 Y98.344 E5.93714
G1 X123.72 Y98.313 E5.955
G1 X124.129 Y98.308 E5.96861
G1 X127.621 Y98.308 E6.08475
G1 X128.323 Y98.318 E6.1081
G1 X128.857 Y98.366 E6.12593
G1 X129.379 Y98.492 E6.14379
G1 X129.875 Y98.695 E6.16162
G1 X130.336 Y98.969 E6.17946
G1 X130.818 Y99.372 E6.20035
G1 X130.93 Y99.484 E6.20562
G1 X131.279 Y99.891 E6.22345
G1 X131.565 Y100.345 E6.2413
G1 X131.78 Y100.836 E6.25913
G1 X131.92 Y101.354 E6.27697
G1 X131.982 Y101.898 E6.29518
G1 X131.994 Y102.495 E6.31504
G1 X131.994 Y108.36 E6.51012
G1 X131.989 Y109.795 E6.55784
G1 X131.994 Y110.491 E6.58099
G1 X131.994 Y124.014 E7.03077
G1 X131.984 Y124.741 E7.05495
G1 X131.936 Y125.275 E7.07279
G1 X131.81 Y125.796 E7.09061
G1 X131.608 Y126.293 E7.10846
G1 X131.334 Y126.754 E7.12629
G1 X130.995 Y127.169 E7.14412
G1 X130.598 Y127.53 E7.16196
G1 X130.152 Y127.827 E7.17979
G1 X129.666 Y128.055 E7.19764
G1 X129.152 Y128.208 E7.21548
G1 X128.485 Y128.29 E7.23783
G1 X128.064 Y128.3 E7.25184
G1 X92.267 Y128.3 E8.44245
G1 X91.569 Y128.291 E8.46567
G1 X91.034 Y128.244 E8.48353
G1 X90.513 Y128.118 E8.50136
G1 X90.016 Y127.916 E8.5192
G1 X89.555 Y127.643 E8.53702
G1 X89.139 Y127.304 E8.55487
G1 X88.778 Y126.908 E8.57269
G1 X88.48 Y126.462 E8.59053
G1 X88.252 Y125.976 E8.60839
G1 X88.099 Y125.462 E8.62622
G1 X88.016 Y124.788 E8.64881
G1 X88.006 Y124.358 E8.66312
G1 X88.006 Y110.755 E9.11555
G1 X88.009 Y110.558 E9.12211
G1 X88.003 Y108.572 E9.18816
G1 X88.006 Y102.659 E9.38483
G1 X88.016 Y101.977 E9.40751
G1 X88.064 Y101.443 E9.42535
G1 X88.191 Y100.922 E9.44318
G1 X88.393 Y100.425 E9.46103
G1 X88.668 Y99.964 E9.47888
G1 X89.07 Y99.484 E9.4997
G1 X89.182 Y99.372 E9.50497
G0 F3000 X89.465 Y99.655
G1 F1200 X89.85 Y99.327 E9.5218
G1 X90.281 Y99.064 E9.53859
G1 X90.749 Y98.871 E9.55543
G1 X91.241 Y98.755 E9.57224
G1 X91.768 Y98.715 E9.58982
G1 X92.246 Y98.708 E9.60572
G1 X95.731 Y98.708 E9.72163
G1 X96.446 Y98.719 E9.74541
G1 X96.804 Y98.745 E9.75735
G1 X97.686 Y98.858 E9.78693
G1 X100.407 Y99.168 E9.87801
G1 X103.112 Y99.398 E9.96831
G1 X105.86 Y99.554 E10.05985
G1 X108.615 Y99.633 E10.15152
G1 X111.334 Y99.633 E10.24196
G1 X114.083 Y99.556 E10.33342
G1 X116.802 Y99.402 E10.424
G1 X119.54 Y99.17 E10.5154
G1 X122.283 Y98.859 E10.60721
G1 X122.445 Y98.836 E10.61265
G1 X123.232 Y98.741 E10.63902
G1 X124.134 Y98.708 E10.66904
G1 X127.616 Y98.708 E10.78485
G1 X128.318 Y98.718 E10.8082
G1 X128.821 Y98.765 E10.82501
G1 X129.311 Y98.891 E10.84183
G1 X129.774 Y99.093 E10.85864
G1 X130.201 Y99.364 E10.87546
G1 X130.647 Y99.767 E10.89545
G1 X130.975 Y100.152 E10.91227
G1 X131.238 Y100.583 E10.92906
G1 X131.431 Y101.051 E10.9459
G1 X131.547 Y101.543 E10.96271
G1 X131.587 Y102.048 E10.97956
G1 X131.594 Y102.501 E10.99463
G1 X131.594 Y108.358 E11.18944
G1 X131.589 Y109.793 E11.23717
G1 X131.594 Y110.494 E11.26048
G1 X131.594 Y124.008 E11.70996
G1 X131.584 Y124.735 E11.73414
G1 X131.537 Y125.238 E11.75094
G1 X131.411 Y125.728 E11.76777
G1 X131.21 Y126.192 E11.78459
G1 X130.938 Y126.618 E11.8014
G1 X130.603 Y126.997 E11.81822
G1 X130.212 Y127.317 E11.83503
G1 X129.776 Y127.572 E11.85183
G1 X129.305 Y127.756 E11.86865
G1 X128.81 Y127.862 E11.88548
G1 X128.154 Y127.899 E11.90734
G1 X92.272 Y127.9 E13.10078
G1 X91.574 Y127.891 E13.124
G1 X91.07 Y127.844 E13.14083
G1 X90.58 Y127.719 E13.15765
G1 X90.116 Y127.518 E13.17447
G1 X89.69 Y127.247 E13.19126
G1 X89.311 Y126.912 E13.20809
G1 X88.99 Y126.521 E13.22491
G1 X88.735 Y126.085 E13.24171
G1 X88.551 Y125.614 E13.25853
G1 X88.444 Y125.12 E13.27534
G1 X88.407 Y124.444 E13.29786
G1 X88.406 Y110.761 E13.75296
G1 X88.409 Y110.564 E13.75951
G1 X88.403 Y108.572 E13.82576
G1 X88.406 Y102.665 E14.02223
G1 X88.416 Y101.983 E14.04492
G1 X88.464 Y101.48 E14.06172
G1 X88.59 Y100.99 E14.07855
G1 X88.791 Y100.526 E14.09537
G1 X89.063 Y100.1 E14.11218
G1 X89.465 Y99.655 E14.13213
G1 F1800 E7.13213
G1 F300 Z0.4
G0 F3000 X91.806 Y102.108 Z0.4
;TYPE:SUPPORT
G1 F300 Z0.2
G1 F1800 E14.13213
G1 F1200 X96.306 Y102.108 E14.2818
G1 X96.306 Y108.257 E14.48631
G1 X91.806 Y108.257 E14.63598
G1 X91.806 Y102.108 E14.8405
G1 F1800 E7.8405
G1 F300 Z0.4
G0 F3000 X93.345 Y102.268 Z0.4
G1 F300 Z0.2
G1 F1800 E14.8405
G1 F1200 X93.345 Y108.097 E15.03437
G1 F1800 E8.03437
G1 F300 Z0.4
G0 F3000 X91.966 Y106.68 Z0.4
G1 F300 Z0.2
G1 F1800 E15.03437
G1 F1200 X96.146 Y106.68 E15.1734
G0 F3000 X96.012 Y108.097
G1 F1200 X96.012 Y102.268 E15.36728
G1 F1800 E8.36728
G1 F300 Z0.4
G0 F3000 X96.146 Y104.013 Z0.4
G1 F300 Z0.2
G1 F1800 E15.36728
G1 F1200 X91.966 Y104.013 E15.5063
G1 F1800 E8.5063
G1 F300 Z0.4
G0 F3000 X123.694 Y102.108 Z0.4
G1 F300 Z0.2
G1 F1800 E15.5063
G1 F1200 X128.194 Y102.108 E15.65597
G1 X128.194 Y108.257 E15.86049
G1 X123.694 Y108.257 E16.01016
G1 X123.694 Y102.108 E16.21468
G1 F1800 E9.21468
G1 F300 Z0.4
G0 F3000 X125.349 Y102.268 Z0.4
G1 F300 Z0.2
G1 F1800 E16.21468
G1 F1200 X125.349 Y108.097 E16.40855
G1 F1800 E9.40855
G1 F300 Z0.4
G0 F3000 X123.854 Y106.68 Z0.4
G1 F300 Z0.2
G1 F1800 E16.40855
G1 F1200 X128.034 Y106.68 E16.54758
G0 F3000 X128.016 Y108.097
G1 F1200 X128.016 Y102.268 E16.74145
G1 F1800 E9.74145
G1 F300 Z0.4
G0 F3000 X128.034 Y104.013 Z0.4
G1 F300 Z0.2
G1 F1800 E16.74145
G1 F1200 X123.854 Y104.013 E16.88048
G1 F1800 E9.88048
G1 F300 Z0.4
;MESH:camera.wroover_rail_.reverse.stl
G0 F3000 X124.094 Y123.9 Z0.4
;TYPE:WALL-INNER
G1 F300 Z0.2
G1 F1800 E16.88048
G1 F1200 X124.094 Y110.729 E17.31855
G1 X127.794 Y110.729 E17.44161
G1 X127.794 Y124.1 E17.88633
G1 X124.094 Y124.1 E18.00939
G1 X121.894 Y124.1 E18.08257
G1 X98.094 Y124.1 E18.87416
G1 X95.906 Y124.1 E18.94693
G1 X92.206 Y124.1 E19.06999
G1 X92.206 Y110.729 E19.51471
G1 X95.906 Y110.729 E19.63778
G1 X95.906 Y123.9 E20.07585
G1 X98.094 Y123.9 E20.11232
G1 X98.094 Y121.9 E20.17884
G1 X99.444 Y121.9 E20.22375
G1 X99.444 Y117.3 E20.37674
G1 X98.094 Y117.3 E20.42164
G1 X98.094 Y116.5 E20.44825
G1 X101.894 Y116.5 E20.57464
G1 X101.894 Y122.3 E20.76755
G1 X118.094 Y122.3 E21.30636
G1 X118.094 Y116.5 E21.49927
G1 X121.894 Y116.5 E21.62566
G1 X121.894 Y117.3 E21.65227
G1 X120.544 Y117.3 E21.69717
G1 X120.544 Y121.9 E21.85017
G1 X121.894 Y121.9 E21.89507
G1 X121.894 Y123.9 E21.96159
G1 X124.094 Y123.9 E21.99827
G0 F3000 X123.694 Y123.5
;TYPE:WALL-OUTER
G1 F1200 X123.694 Y110.329 E22.43633
G1 X128.194 Y110.329 E22.586
G1 X128.194 Y124.5 E23.05733
G1 X91.806 Y124.5 E24.2676
G1 X91.806 Y110.329 E24.73893
G1 X96.306 Y110.329 E24.8886
G1 X96.306 Y123.5 E25.32667
G1 X97.694 Y123.5 E25.37284
G1 X97.694 Y121.5 E25.43936
G1 X99.044 Y121.5 E25.48426
G1 X99.044 Y117.7 E25.61065
G1 X97.694 Y117.7 E25.65555
G1 X97.694 Y116.1 E25.70877
G1 X102.294 Y116.1 E25.86176
G1 X102.294 Y121.9 E26.05467
G1 X117.694 Y121.9 E26.56688
G1 X117.694 Y116.1 E26.75979
G1 X122.294 Y116.1 E26.91278
G1 X122.294 Y117.7 E26.966
G1 X120.944 Y117.7 E27.0109
G1 X120.944 Y121.5 E27.13729
G1 X122.294 Y121.5 E27.18219
G1 X122.294 Y123.5 E27.24871
G1 X123.694 Y123.5 E27.29527
G0 F3000 X123.694 Y123.3
G0 X124.134 Y123.3
G0 X124.484 Y123.71
;TYPE:SKIN
G1 F1200 X124.484 Y111.119 E27.71405
G1 X127.404 Y111.119 E27.81117
G1 X127.404 Y123.71 E28.22995
G1 X124.484 Y123.71 E28.32707
G0 F3000 X125.226 Y123.529
G1 F1200 X124.662 Y122.965 E28.3536
G0 F3000 X124.662 Y122.4
G1 F1200 X125.792 Y123.529 E28.40673
G0 F3000 X126.357 Y123.529
G1 F1200 X124.662 Y121.834 E28.48645
G0 F3000 X124.662 Y121.268
G1 F1200 X126.923 Y123.529 E28.59281
G0 F3000 X127.223 Y123.263
G1 F1200 X124.662 Y120.703 E28.71324
G0 F3000 X124.662 Y120.137
G1 F1200 X127.223 Y122.697 E28.83368
G0 F3000 X127.223 Y122.132
G1 F1200 X124.662 Y119.571 E28.95414
G0 F3000 X124.662 Y119.006
G1 F1200 X127.223 Y121.566 E29.07458
G0 F3000 X127.223 Y121
G1 F1200 X124.662 Y118.44 E29.19502
G0 F3000 X124.662 Y117.874
G1 F1200 X127.223 Y120.435 E29.31548
G0 F3000 X127.223 Y119.869
G1 F1200 X124.662 Y117.309 E29.43592
G0 F3000 X124.662 Y116.743
G1 F1200 X127.223 Y119.303 E29.55636
G0 F3000 X127.223 Y118.738
G1 F1200 X124.662 Y116.177 E29.67682
G0 F3000 X124.662 Y115.611
G1 F1200 X127.223 Y118.172 E29.79728
G0 F3000 X127.223 Y117.606
G1 F1200 X124.662 Y115.046 E29.91772
G0 F3000 X124.662 Y114.48
G1 F1200 X127.223 Y117.041 E30.03818
G0 F3000 X127.223 Y116.475
G1 F1200 X124.662 Y113.914 E30.15864
G0 F3000 X124.662 Y113.349
G1 F1200 X127.223 Y115.909 E30.27908
G0 F3000 X127.223 Y115.343
G1 F1200 X124.662 Y112.783 E30.39952
G0 F3000 X124.662 Y112.217
G1 F1200 X127.223 Y114.778 E30.51998
G0 F3000 X127.223 Y114.212
G1 F1200 X124.662 Y111.652 E30.64042
G0 F3000 X124.875 Y111.299
G1 F1200 X127.223 Y113.646 E30.75084
G0 F3000 X127.223 Y113.081
G1 F1200 X125.441 Y111.299 E30.83466
G0 F3000 X126.007 Y111.299
G1 F1200 X127.223 Y112.515 E30.89185
G0 F3000 X127.223 Y111.949
G1 F1200 X126.572 Y111.299 E30.92245
G0 F3000 X127.138 Y111.299
G1 F1200 X127.223 Y111.384 E30.92645
G0 F3000 X127.684 Y111.384
G0 X124.276 Y110.911
G0 X123.922 Y123.728
G0 X122.066 Y123.728
G0 X122.066 Y121.728
G0 X120.716 Y121.728
G0 X120.716 Y117.472
G0 X122.066 Y117.472
G0 X121.504 Y116.61
G0 X121.504 Y116.89
G1 F1200 X121.504 Y116.91 E30.92711
G1 X120.154 Y116.91 E30.97202
G1 X120.154 Y122.29 E31.15095
G1 X121.504 Y122.29 E31.19586
G1 X121.504 Y123.71 E31.24309
G1 X98.484 Y123.71 E32.00873
G1 X98.484 Y122.29 E32.05596
G1 X99.834 Y122.29 E32.10086
G1 X99.834 Y116.91 E32.2798
G1 X98.484 Y116.91 E32.3247
G1 X98.484 Y116.89 E32.32537
G1 X101.504 Y116.89 E32.42582
G1 X101.504 Y122.69 E32.61872
G1 X118.484 Y122.69 E33.18348
G1 X118.484 Y116.89 E33.37639
G1 X121.504 Y116.89 E33.47684
G0 F3000 X121.504 Y116.61
G0 X120.434 Y117.145
G0 X119.974 Y117.145
G1 F1200 X119.898 Y117.07 E33.48039
G0 F3000 X119.332 Y117.07
G1 F1200 X119.974 Y117.711 E33.51056
G0 F3000 X119.974 Y118.277
G1 F1200 X118.767 Y117.07 E33.56734
G0 F3000 X118.663 Y117.532
G1 F1200 X119.974 Y118.842 E33.62898
G0 F3000 X119.974 Y119.408
G1 F1200 X118.663 Y118.098 E33.69062
G0 F3000 X118.663 Y118.663
G1 F1200 X119.974 Y119.974 E33.75228
G0 F3000 X119.974 Y120.539
G1 F1200 X118.663 Y119.229 E33.81393
G0 F3000 X118.663 Y119.795
G1 F1200 X119.974 Y121.105 E33.87557
G0 F3000 X119.974 Y121.671
G1 F1200 X118.663 Y120.36 E33.93723
G0 F3000 X118.663 Y120.926
G1 F1200 X119.974 Y122.236 E33.99888
G0 F3000 X120.206 Y122.469
G1 F1200 X121.265 Y123.528 E34.04869
G0 F3000 X121.323 Y123.021
G1 F1200 X120.772 Y122.469 E34.07463
G0 F3000 X120.772 Y122.01
G0 X121.712 Y122.082
G0 X121.712 Y123.918
G0 X120.7 Y123.99
G0 X120.7 Y123.528
G1 F1200 X118.663 Y121.492 E34.17042
G0 F3000 X118.663 Y122.057
G1 F1200 X120.134 Y123.528 E34.23961
G0 F3000 X119.568 Y123.528
G1 F1200 X118.663 Y122.623 E34.28218
G0 F3000 X118.344 Y122.869
G1 F1200 X119.003 Y123.528 E34.31318
G0 F3000 X118.437 Y123.528
G1 F1200 X117.778 Y122.869 E34.34417
G0 F3000 X117.212 Y122.869
G1 F1200 X117.871 Y123.528 E34.37517
G0 F3000 X117.306 Y123.528
G1 F1200 X116.647 Y122.869 E34.40617
G0 F3000 X116.081 Y122.869
G1 F1200 X116.74 Y123.528 E34.43717
G0 F3000 X116.174 Y123.528
G1 F1200 X115.515 Y122.869 E34.46816
G0 F3000 X114.95 Y122.869
G1 F1200 X115.609 Y123.528 E34.49916
G0 F3000 X115.043 Y123.528
G1 F1200 X114.384 Y122.869 E34.53016
G0 F3000 X113.818 Y122.869
G1 F1200 X114.477 Y123.528 E34.56115
G0 F3000 X113.912 Y123.528
G1 F1200 X113.253 Y122.869 E34.59215
G0 F3000 X112.687 Y122.869
G1 F1200 X113.346 Y123.528 E34.62315
G0 F3000 X112.78 Y123.528
G1 F1200 X112.121 Y122.869 E34.65415
G0 F3000 X111.555 Y122.869
G1 F1200 X112.215 Y123.528 E34.68517
G0 F3000 X111.649 Y123.528
G1 F1200 X110.99 Y122.869 E34.71617
G0 F3000 X110.424 Y122.869
G1 F1200 X111.083 Y123.528 E34.74716
G0 F3000 X110.517 Y123.528
G1 F1200 X109.858 Y122.869 E34.77816
G0 F3000 X109.293 Y122.869
G1 F1200 X109.952 Y123.528 E34.80916
G0 F3000 X109.386 Y123.528
G1 F1200 X108.727 Y122.869 E34.84015
G0 F3000 X108.161 Y122.869
G1 F1200 X108.82 Y123.528 E34.87115
