;FLAVOR:Marlin
;TIME:4362
;Filament used: 2.82918m
;Layer height: 0.2
;MINX:71.218
;MINY:89.9
;MINZ:0.2
;MAXX:148.8
;MAXY:130.1
;MAXZ:32.8
;Generated with Cura_SteamEngine master
M82 ;absolute extrusion mode
;Sliced at: Thu 15-09-2022 00:19:51
;Basic settings: Layer height: 0.2 Walls: 0.8 Fill: 30.0
G21 ;metric values
G90 ;absolute positioning
M82 ;set extruder to absolute mode
M107 ;start with the fan off
M117 Start heating ...
M104 S200
M117 Homing X/Y ...
G28 X0 Y0 ;move X/Y to min endstops
M117 Homing Z ...
G28 Z0 ;move Z to min endstops
G1 Z15.0 F100 ;move the platform down 15mm
M117 Heating ...
M109 S200
M117 Start cleaning ...
G92 E0 ;zero the extruded length
G1 F200 E10 ;extrude 10mm of feed stock
G92 E0 ;zero the extruded length again
M117 Intro line ...
G1 Z2.0 F3000 ; Move Z Axis up little to prevent scratching of Heat Bed
G1 X0.1 Y20 Z0.2 F5000.0 ; Move to start position
G1 X0.1 Y200.0 Z0.2 F1500.0 E15 ; Draw the first line
G1 X0.4 Y200.0 Z0.2 F5000.0 ; Move to side a little
G1 X0.4 Y20 Z0.3 F1500.0 E30 ; Draw the second line
G92 E0 ; Reset Extruder
G1 E-1 F500 ; Retract filiment by 1 mm
G1 Z2.0 F3000 ; Move Z Axis up little to prevent scratching of Heat Bed
G1 X5 Y20 Z0.3 F100 ; Move over to prevent blob squish
G1 F100
G92 E0 ; Reset Extruder
M117 Printing...

G92 E0
G92 E0
G1 F1800 E-7
;LAYER_COUNT:164
;LAYER:0
M107
G1 F300 Z0.4
G0 F3000 X78.753 Y94.349 Z0.4
;TYPE:SKIRT
G1 F300 Z0.2
G1 F1800 E0
G1 F1200 X79.278 Y93.913 E0.0227
G1 X79.916 Y93.463 E0.04867
G1 X80.031 Y93.39 E0.0532
G1 X81.387 Y92.561 E0.10606
G1 X81.966 Y92.218 E0.12844
G1 X82.653 Y91.881 E0.15389
G1 X82.764 Y91.833 E0.15791
G1 X84.199 Y91.24 E0.20956
G1 X84.818 Y90.993 E0.23172
G1 X85.591 Y90.753 E0.25864
G1 X85.707 Y90.723 E0.26263
G1 X87.237 Y90.355 E0.31497
G1 X87.901 Y90.206 E0.3376
G1 X88.656 Y90.099 E0.36296
G1 X88.772 Y90.088 E0.36684
G1 X90.359 Y89.962 E0.41979
G1 X91.131 Y89.914 E0.44552
G1 X91.808 Y89.9 E0.46804
G1 X144.15 Y89.9 E2.20894
G1 X144.848 Y89.91 E2.23216
G1 X145.412 Y89.958 E2.25098
G1 X145.962 Y90.085 E2.26976
G1 X146.49 Y90.289 E2.28859
G1 X146.984 Y90.564 E2.30739
G1 X147.433 Y90.907 E2.32618
G1 X147.83 Y91.309 E2.34497
G1 X148.167 Y91.764 E2.36381
G1 X148.435 Y92.261 E2.38259
G1 X148.631 Y92.791 E2.40138
G1 X148.751 Y93.344 E2.4202
G1 X148.798 Y94.118 E2.44599
G1 X148.8 Y94.23 E2.44972
G1 X148.8 Y125.414 E3.4869
G1 X148.791 Y126.141 E3.51109
G1 X148.744 Y126.704 E3.52988
G1 X148.618 Y127.255 E3.54868
G1 X148.416 Y127.783 E3.56748
G1 X148.141 Y128.277 E3.58628
G1 X147.799 Y128.727 E3.60508
G1 X147.397 Y129.125 E3.6239
G1 X146.944 Y129.462 E3.64268
G1 X146.447 Y129.732 E3.66149
G1 X145.917 Y129.929 E3.68029
G1 X145.365 Y130.05 E3.69909
G1 X144.582 Y130.098 E3.72518
G1 X144.47 Y130.1 E3.72891
G1 X91.95 Y130.1 E5.47573
G1 X91.245 Y130.09 E5.49918
G1 X90.497 Y130.049 E5.5241
G1 X89.088 Y129.938 E5.5711
G1 X88.402 Y129.873 E5.59402
G1 X87.675 Y129.747 E5.61856
G1 X86.051 Y129.36 E5.67409
G1 X85.333 Y129.176 E5.69874
G1 X84.512 Y128.889 E5.72767
G1 X84.413 Y128.85 E5.73121
G1 X83.078 Y128.296 E5.77928
G1 X82.404 Y128.005 E5.8037
G1 X81.656 Y127.604 E5.83193
G1 X80.339 Y126.798 E5.88328
G1 X79.719 Y126.408 E5.90765
G1 X78.999 Y125.861 E5.93772
G1 X77.781 Y124.821 E5.99099
G1 X77.273 Y124.373 E6.01352
G1 X76.726 Y123.806 E6.03972
G1 X75.647 Y122.544 E6.09495
G1 X75.201 Y122.006 E6.11819
G1 X74.755 Y121.371 E6.144
G1 X74.691 Y121.27 E6.14798
G1 X73.857 Y119.909 E6.20107
G1 X73.514 Y119.328 E6.22351
G1 X73.181 Y118.646 E6.24875
G1 X73.133 Y118.536 E6.25274
G1 X72.54 Y117.102 E6.30435
G1 X72.292 Y116.481 E6.32659
G1 X72.053 Y115.709 E6.35347
G1 X72.023 Y115.593 E6.35746
G1 X71.654 Y114.059 E6.40993
G1 X71.503 Y113.383 E6.43297
G1 X71.387 Y112.527 E6.4617
G1 X71.266 Y111.002 E6.51258
G1 X71.218 Y110.249 E6.53768
G1 X71.231 Y109.474 E6.56346
G1 X71.238 Y109.356 E6.56739
G1 X71.361 Y107.792 E6.61957
G1 X71.425 Y107.106 E6.64249
G1 X71.586 Y106.228 E6.67218
G1 X71.94 Y104.749 E6.72276
G1 X72.125 Y104.029 E6.74748
G1 X72.371 Y103.31 E6.77276
G1 X72.98 Y101.835 E6.82583
G1 X73.295 Y101.104 E6.85231
G1 X73.697 Y100.355 E6.88058
G1 X74.546 Y98.967 E6.9347
G1 X74.895 Y98.414 E6.95645
G1 X75.435 Y97.704 E6.98612
G1 X76.497 Y96.461 E7.04049
G1 X76.929 Y95.972 E7.06219
G1 X77.488 Y95.432 E7.08804
G1 X77.578 Y95.353 E7.09203
G1 X78.753 Y94.349 E7.14343
G0 F3000 X78.971 Y94.689
G1 F1200 X79.534 Y94.221 E7.16778
G1 X80.137 Y93.797 E7.1923
G1 X80.24 Y93.732 E7.19635
G1 X81.591 Y92.905 E7.24904
G1 X82.17 Y92.562 E7.27142
G1 X82.817 Y92.246 E7.29537
G1 X84.347 Y91.611 E7.35046
G1 X84.966 Y91.364 E7.37263
G1 X85.696 Y91.139 E7.39804
G1 X85.8 Y91.112 E7.40161
G1 X87.325 Y90.745 E7.45378
G1 X87.989 Y90.596 E7.47642
G1 X88.699 Y90.496 E7.50026
G1 X88.804 Y90.486 E7.50377
G1 X90.384 Y90.361 E7.55649
G1 X91.147 Y90.314 E7.58191
G1 X91.813 Y90.3 E7.60407
G1 X144.145 Y90.3 E9.34464
G1 X144.843 Y90.31 E9.36786
G1 X145.377 Y90.358 E9.38569
G1 X145.898 Y90.484 E9.40352
G1 X146.395 Y90.687 E9.42137
G1 X146.856 Y90.961 E9.43921
G1 X147.271 Y91.3 E9.45703
G1 X147.631 Y91.698 E9.47488
G1 X147.928 Y92.144 E9.4927
G1 X148.156 Y92.63 E9.51056
G1 X148.308 Y93.144 E9.52839
G1 X148.39 Y93.809 E9.55067
G1 X148.4 Y94.23 E9.56468
G1 X148.4 Y125.409 E10.6017
G1 X148.391 Y126.136 E10.62588
G1 X148.344 Y126.67 E10.64371
G1 X148.219 Y127.191 E10.66153
G1 X148.017 Y127.688 E10.67937
G1 X147.744 Y128.15 E10.69722
G1 X147.406 Y128.566 E10.71505
G1 X147.009 Y128.927 E10.73289
G1 X146.563 Y129.225 E10.75073
G1 X146.078 Y129.453 E10.76856
G1 X145.564 Y129.607 E10.78641
G1 X144.892 Y129.69 E10.80893
G1 X144.47 Y129.7 E10.82297
G1 X91.956 Y129.7 E12.56959
G1 X91.15 Y129.687 E12.5964
G1 X90.525 Y129.65 E12.61722
G1 X89.125 Y129.54 E12.66393
G1 X88.439 Y129.475 E12.68685
G1 X87.757 Y129.355 E12.70988
G1 X87.653 Y129.332 E12.71342
G1 X86.086 Y128.957 E12.76701
G1 X85.432 Y128.789 E12.78947
G1 X84.655 Y128.516 E12.81687
G1 X84.566 Y128.481 E12.82005
G1 X83.237 Y127.929 E12.86791
G1 X82.563 Y127.638 E12.89233
G1 X81.857 Y127.258 E12.91899
G1 X80.514 Y126.435 E12.97138
G1 X79.932 Y126.069 E12.99425
G1 X79.252 Y125.551 E13.02268
G1 X78.046 Y124.521 E13.07543
G1 X77.538 Y124.073 E13.09796
G1 X77.023 Y123.538 E13.12266
G1 X75.955 Y122.289 E13.17732
G1 X75.509 Y121.751 E13.20056
G1 X75.09 Y121.152 E13.22487
G1 X75.032 Y121.061 E13.22846
G1 X74.202 Y119.705 E13.28134
G1 X73.859 Y119.124 E13.30378
G1 X73.546 Y118.482 E13.32754
G1 X72.929 Y116.996 E13.38105
G1 X72.664 Y116.333 E13.4048
G1 X72.439 Y115.604 E13.43017
G1 X72.412 Y115.5 E13.43375
G1 X72.045 Y113.972 E13.48602
G1 X71.894 Y113.296 E13.50905
G1 X71.785 Y112.486 E13.53624
G1 X71.661 Y110.917 E13.58858
G1 X71.617 Y110.224 E13.61168
G1 X71.63 Y109.493 E13.636
G1 X71.755 Y107.883 E13.68971
G1 X71.824 Y107.144 E13.71439
G1 X71.977 Y106.313 E13.7425
G1 X72.343 Y104.785 E13.79476
G1 X72.512 Y104.128 E13.81732
G1 X72.745 Y103.452 E13.8411
G1 X73.37 Y101.939 E13.89555
G1 X73.662 Y101.262 E13.92007
G1 X74.043 Y100.556 E13.94675
G1 X74.885 Y99.181 E14.00038
G1 X75.234 Y98.628 E14.02213
G1 X75.746 Y97.956 E14.05023
G1 X76.797 Y96.726 E14.10404
G1 X77.229 Y96.237 E14.12574
G1 X77.757 Y95.728 E14.15013
G1 X78.971 Y94.689 E14.20328
G0 F3000 X79.23 Y94.993
G1 F1200 X79.79 Y94.528 E14.22749
G1 X80.357 Y94.131 E14.25051
G1 X80.448 Y94.073 E14.2541
G1 X81.795 Y93.249 E14.30662
G1 X82.374 Y92.906 E14.329
G1 X82.981 Y92.611 E14.35145
G1 X83.07 Y92.572 E14.35468
G1 X84.495 Y91.983 E14.40597
G1 X85.114 Y91.736 E14.42813
G1 X85.801 Y91.525 E14.45204
G1 X85.894 Y91.501 E14.45523
G1 X87.412 Y91.136 E14.50716
G1 X88.076 Y90.987 E14.52979
G1 X88.742 Y90.894 E14.55216
G1 X88.835 Y90.885 E14.55527
G1 X90.41 Y90.76 E14.60782
G1 X91.164 Y90.714 E14.63294
G1 X91.817 Y90.7 E14.65466
G1 X144.139 Y90.7 E16.3949
G1 X144.837 Y90.71 E16.41812
G1 X145.34 Y90.757 E16.43492
G1 X145.83 Y90.883 E16.45175
G1 X146.294 Y91.085 E16.46858
G1 X146.72 Y91.357 E16.48539
G1 X147.098 Y91.692 E16.50219
G1 X147.418 Y92.083 E16.519
G1 X147.673 Y92.52 E16.53582
G1 X147.856 Y92.991 E16.55263
G1 X147.963 Y93.485 E16.56944
G1 X147.999 Y94.14 E16.59126
G1 X148 Y125.404 E17.63111
G1 X147.991 Y126.131 E17.65529
G1 X147.945 Y126.634 E17.67209
G1 X147.82 Y127.124 E17.68891
G1 X147.619 Y127.588 E17.70573
G1 X147.348 Y128.015 E17.72255
G1 X147.013 Y128.394 E17.73937
G1 X146.623 Y128.715 E17.75617
G1 X146.187 Y128.971 E17.77299
G1 X145.716 Y129.154 E17.78979
G1 X145.222 Y129.262 E17.80661
G1 X144.56 Y129.299 E17.82866
G1 X91.962 Y129.3 E19.57808
G1 X91.257 Y129.29 E19.60153
G1 X90.552 Y129.251 E19.62502
G1 X89.163 Y129.142 E19.67136
G1 X88.477 Y129.077 E19.69427
G1 X87.838 Y128.964 E19.71586
G1 X86.237 Y128.582 E19.7706
G1 X85.532 Y128.401 E19.79481
G1 X84.798 Y128.143 E19.82069
G1 X83.396 Y127.562 E19.87116
G1 X82.722 Y127.271 E19.89558
G1 X82.057 Y126.912 E19.92072
G1 X80.726 Y126.097 E19.97263
G1 X80.144 Y125.731 E19.99549
G1 X79.505 Y125.24 E20.0223
G1 X79.446 Y125.192 E20.02483
G1 X78.31 Y124.221 E20.07453
G1 X77.802 Y123.773 E20.09706
G1 X77.32 Y123.269 E20.12025
G1 X77.261 Y123.203 E20.1232
G1 X76.262 Y122.033 E20.17437
G1 X75.816 Y121.495 E20.19761
G1 X75.424 Y120.933 E20.2204
G1 X75.373 Y120.853 E20.22356
G1 X74.546 Y119.502 E20.27624
G1 X74.203 Y118.921 E20.29868
G1 X73.911 Y118.318 E20.32097
G1 X73.283 Y116.806 E20.37542
G1 X73.035 Y116.185 E20.39766
G1 X72.825 Y115.499 E20.42152
G1 X72.801 Y115.406 E20.42472
G1 X72.435 Y113.885 E20.47675
G1 X72.284 Y113.209 E20.49979
G1 X72.183 Y112.445 E20.52542
G1 X72.06 Y110.892 E20.57723
G1 X72.016 Y110.199 E20.60033
G1 X72.03 Y109.513 E20.62315
G1 X72.154 Y107.914 E20.67649
G1 X72.222 Y107.181 E20.70098
G1 X72.368 Y106.398 E20.72747
G1 X72.718 Y104.935 E20.7775
G1 X72.9 Y104.228 E20.80178
G1 X73.119 Y103.594 E20.82409
G1 X73.719 Y102.141 E20.87638
G1 X74.03 Y101.421 E20.90246
G1 X74.389 Y100.756 E20.9276
G1 X75.223 Y99.394 E20.98072
G1 X75.572 Y98.841 E21.00247
G1 X76.056 Y98.208 E21.02897
G1 X77.097 Y96.99 E21.08226
G1 X77.529 Y96.501 E21.10396
G1 X78.025 Y96.024 E21.12685
G1 X79.23 Y94.993 E21.1796
G1 F1800 E14.1796
G1 F300 Z0.4
;MESH:camera.wroover.console.stl
G0 F3000 X90.744 Y113.153 Z0.4
;TYPE:WALL-INNER
G1 F300 Z0.2
G1 F1800 E21.1796
G1 F1200 X90.855 Y113.166 E21.18331
G1 X91.51 Y113.193 E21.20512
G1 X91.622 Y113.184 E21.20885
G1 X92.263 Y113.048 E21.23065
G1 X92.369 Y113.018 E21.23431
G1 X93.052 Y112.683 E21.25962
G1 X93.629 Y112.196 E21.28473
G1 X93.702 Y112.111 E21.28846
G1 X94.089 Y111.568 E21.31063
G1 X94.142 Y111.469 E21.31437
G1 X94.408 Y110.777 E21.33903
G1 X94.504 Y110.004 E21.36493
G1 X94.426 Y109.295 E21.38866
G1 X94.197 Y108.636 E21.41186
G1 X94.146 Y108.544 E21.41536
G1 X93.828 Y108.035 E21.43532
G1 X93.759 Y107.955 E21.43884
G1 X93.346 Y107.542 E21.45826
G1 X93.266 Y107.473 E21.46178
G1 X92.754 Y107.153 E21.48186
G1 X92.663 Y107.104 E21.48529
G1 X92.099 Y106.906 E21.50518
G1 X91.998 Y106.874 E21.5087
G1 X91.297 Y106.796 E21.53216
G1 X90.545 Y106.888 E21.55736
G1 X90.439 Y106.921 E21.56105
G1 X89.83 Y107.158 E21.58278
G1 X89.733 Y107.211 E21.58646
G1 X89.197 Y107.592 E21.60833
G1 X89.11 Y107.664 E21.61209
G1 X88.618 Y108.246 E21.63744
G1 X88.288 Y108.919 E21.66237
G1 X88.254 Y109.025 E21.66607
G1 X88.119 Y109.67 E21.68799
G1 X88.108 Y109.78 E21.69166
G1 X88.133 Y110.441 E21.71366
G1 X88.146 Y110.553 E21.71741
G1 X88.359 Y111.269 E21.74226
G1 X88.412 Y111.367 E21.74597
G1 X88.746 Y111.93 E21.76774
G1 X88.817 Y112.016 E21.77145
G1 X89.28 Y112.48 E21.79325
G1 X89.368 Y112.552 E21.79703
G1 X90.015 Y112.936 E21.82206
G1 X90.744 Y113.153 E21.84735
G0 F3000 X90.825 Y112.76
;TYPE:WALL-OUTER
G1 F1200 X90.886 Y112.767 E21.8494
G1 X91.502 Y112.792 E21.8699
G1 X91.564 Y112.787 E21.87197
G1 X92.166 Y112.66 E21.89243
G1 X92.225 Y112.643 E21.89447
G1 X92.832 Y112.346 E21.91695
G1 X93.347 Y111.91 E21.93939
G1 X93.388 Y111.863 E21.94147
G1 X93.748 Y111.358 E21.9621
G1 X93.777 Y111.303 E21.96416
G1 X94.017 Y110.679 E21.9864
G1 X94.101 Y110.001 E22.00912
G1 X94.033 Y109.383 E22.0298
G1 X93.831 Y108.8 E22.05032
G1 X93.802 Y108.748 E22.0523
G1 X93.505 Y108.273 E22.07094
G1 X93.466 Y108.228 E22.07292
G1 X93.073 Y107.835 E22.0914
G1 X93.028 Y107.796 E22.09338
G1 X92.553 Y107.499 E22.11202
G1 X92.501 Y107.471 E22.11398
G1 X91.972 Y107.285 E22.13263
G1 X91.915 Y107.267 E22.13462
G1 X91.299 Y107.199 E22.15523
G1 X90.629 Y107.281 E22.17768
G1 X90.571 Y107.299 E22.1797
G1 X89.998 Y107.522 E22.20015
G1 X89.944 Y107.551 E22.20219
G1 X89.441 Y107.909 E22.22273
G1 X89.393 Y107.949 E22.2248
G1 X88.955 Y108.466 E22.24734
G1 X88.66 Y109.07 E22.2697
G1 X88.641 Y109.128 E22.27173
G1 X88.515 Y109.731 E22.29222
G1 X88.509 Y109.792 E22.29426
G1 X88.532 Y110.411 E22.31486
G1 X88.539 Y110.473 E22.31693
G1 X88.731 Y111.116 E22.33925
G1 X88.76 Y111.17 E22.34129
G1 X89.075 Y111.7 E22.3618
G1 X89.114 Y111.748 E22.36385
G1 X89.549 Y112.183 E22.38432
G1 X89.598 Y112.223 E22.38642
G1 X90.177 Y112.567 E22.40882
G1 X90.825 Y112.76 E22.43131
G0 F3000 X90.886 Y112.767
G0 X91.025 Y112.772
G0 X91.007 Y113.212
G1 F1800 E15.43131
G1 F300 Z0.4
G0 F3000 X91.001 Y113.372 Z0.4
G0 X144.2 Y125.5
;TYPE:WALL-INNER
G1 F300 Z0.2
G1 F1800 E22.43131
G1 F1200 X91.321 Y125.5 E24.19007
G1 X88.873 Y125.307 E24.27174
G1 X86.519 Y124.742 E24.35226
G1 X84.264 Y123.808 E24.43344
G1 X82.188 Y122.536 E24.51442
G1 X80.342 Y120.958 E24.59519
G1 X78.764 Y119.112 E24.67597
G1 X77.492 Y117.036 E24.75695
G1 X76.558 Y114.781 E24.83813
G1 X75.993 Y112.427 E24.91864
G1 X75.801 Y110 E24.99962
G1 X75.993 Y107.573 E25.08059
G1 X76.558 Y105.219 E25.16111
G1 X77.492 Y102.964 E25.24229
G1 X78.764 Y100.888 E25.32327
G1 X80.342 Y99.042 E25.40404
G1 X82.188 Y97.464 E25.48482
G1 X84.264 Y96.192 E25.5658
G1 X86.519 Y95.258 E25.64698
G1 X88.873 Y94.693 E25.72749
G1 X91.321 Y94.5 E25.80917
G1 X144.2 Y94.5 E27.56793
G1 X144.2 Y125.5 E28.59899
G0 F3000 X144.6 Y125.9
;TYPE:WALL-OUTER
G1 F1200 X91.303 Y125.9 E30.37166
G1 X88.812 Y125.704 E30.45477
G1 X86.392 Y125.123 E30.53754
G1 X84.084 Y124.167 E30.62063
G1 X81.952 Y122.86 E30.70381
G1 X80.058 Y121.242 E30.78666
G1 X78.44 Y119.348 E30.86951
G1 X77.133 Y117.216 E30.95269
G1 X76.177 Y114.908 E31.03577
G1 X75.596 Y112.488 E31.11855
G1 X75.4 Y110 E31.20156
G1 X75.596 Y107.512 E31.28457
G1 X76.177 Y105.092 E31.36734
G1 X77.133 Y102.784 E31.45043
G1 X78.44 Y100.652 E31.53361
G1 X80.058 Y98.758 E31.61646
G1 X81.952 Y97.14 E31.69931
G1 X84.084 Y95.833 E31.78248
G1 X86.392 Y94.877 E31.86557
G1 X88.812 Y94.296 E31.94835
G1 X91.303 Y94.1 E32.03146
G1 X144.6 Y94.1 E33.80412
G1 X144.6 Y125.9 E34.8618
G0 F3000 X144.4 Y125.9
G0 X144.16 Y125.46
G0 X143.81 Y125.11
;TYPE:SKIN
G1 F1200 X91.326 Y125.11 E36.60742
G1 X88.937 Y124.921 E36.68713
G1 X86.647 Y124.372 E36.76545
G1 X84.437 Y123.456 E36.84502
G1 X82.414 Y122.217 E36.92392
G1 X80.618 Y120.682 E37.0025
G1 X79.083 Y118.886 E37.08108
G1 X77.844 Y116.863 E37.15998
G1 X76.928 Y114.653 E37.23955
G1 X76.379 Y112.363 E37.31788
G1 X76.191 Y110 E37.39672
G1 X76.379 Y107.637 E37.47556
G1 X76.928 Y105.347 E37.55388
G1 X77.844 Y103.137 E37.63345
G1 X79.083 Y101.114 E37.71235
G1 X80.618 Y99.318 E37.79093
G1 X82.414 Y97.783 E37.86952
G1 X84.437 Y96.544 E37.94842
G1 X86.647 Y95.628 E38.02799
G1 X88.937 Y95.079 E38.10631
G1 X91.326 Y94.89 E38.18602
G1 X143.81 Y94.89 E39.93164
G1 X143.81 Y125.11 E40.93676
G1 F1800 E33.93676
G1 F300 Z0.4
G0 F3000 X143.81 Y125.3 Z0.4
G0 X94.789 Y110.872
G1 F300 Z0.2
G1 F1800 E40.93676
G1 F1200 X94.896 Y110.006 E40.96578
G1 X94.809 Y109.209 E40.99245
G1 X94.554 Y108.476 E41.01826
G1 X94.482 Y108.346 E41.02321
G1 X94.143 Y107.803 E41.0445
G1 X94.046 Y107.69 E41.04945
G1 X93.611 Y107.255 E41.06991
G1 X93.498 Y107.158 E41.07486
G1 X92.951 Y106.816 E41.09632
G1 X92.821 Y106.746 E41.10123
G1 X92.222 Y106.536 E41.12234
G1 X92.08 Y106.49 E41.12731
G1 X91.295 Y106.404 E41.15357
G1 X90.463 Y106.505 E41.18145
G1 X90.311 Y106.552 E41.18674
G1 X89.664 Y106.803 E41.20982
G1 X89.526 Y106.88 E41.21508
G1 X88.959 Y107.282 E41.2382
G1 X88.835 Y107.386 E41.24358
G1 X88.289 Y108.031 E41.27169
G1 X87.925 Y108.773 E41.29917
G1 X87.876 Y108.925 E41.30449
G1 X87.733 Y109.61 E41.32776
G1 X87.718 Y109.768 E41.33304
