;FLAVOR:Marlin
;TIME:6139
;Filament used: 3.44089m
;Layer height: 0.2
;MINX:87.602
;MINY:90.465
;MINZ:0.2
;MAXX:132.395
;MAXY:130.298
;MAXZ:32.2
;Generated with Cura_SteamEngine master
M82 ;absolute extrusion mode
;Sliced at: Thu 15-09-2022 00:14:02
;Basic settings: Layer height: 0.2 Walls: 0.8 Fill: 30.0
G21 ;metric values
G90 ;absolute positioning
M82 ;set extruder to absolute mode
M107 ;start with the fan off
M117 Start heating ...
M104 S200
M117 Homing X/Y ...
G28 X0 Y0 ;move X/Y to min endstops
M117 Homing Z ...
G28 Z0 ;move Z to min endstops
G1 Z15.0 F100 ;move the platform down 15mm
M117 Heating ...
M109 S200
M117 Start cleaning ...
G92 E0 ;zero the extruded length
G1 F200 E10 ;extrude 10mm of feed stock
G92 E0 ;zero the extruded length again
M117 Intro line ...
G1 Z2.0 F3000 ; Move Z Axis up little to prevent scratching of Heat Bed
G1 X0.1 Y20 Z0.2 F5000.0 ; Move to start position
G1 X0.1 Y200.0 Z0.2 F1500.0 E15 ; Draw the first line
G1 X0.4 Y200.0 Z0.2 F5000.0 ; Move to side a little
G1 X0.4 Y20 Z0.3 F1500.0 E30 ; Draw the second line
G92 E0 ; Reset Extruder
G1 E-1 F500 ; Retract filiment by 1 mm
G1 Z2.0 F3000 ; Move Z Axis up little to prevent scratching of Heat Bed
G1 X5 Y20 Z0.3 F100 ; Move over to prevent blob squish
G1 F100
G92 E0 ; Reset Extruder
M117 Printing...

G92 E0
G92 E0
G1 F1800 E-7
;LAYER_COUNT:161
;LAYER:0
M107
G1 F300 Z0.4
G0 F3000 X92.643 Y91.76 Z0.4
;TYPE:SKIRT
G1 F300 Z0.2
G1 F1800 E0
G1 F1200 X93.064 Y91.383 E0.0188
G1 X93.534 Y91.069 E0.0376
G1 X94.044 Y90.824 E0.05641
G1 X94.583 Y90.654 E0.07521
G1 X95.366 Y90.547 E0.1015
G1 X96.692 Y90.497 E0.14563
G1 X97.863 Y90.465 E0.18459
G1 X98.405 Y90.481 E0.20263
G1 X99.194 Y90.559 E0.229
G1 X100.487 Y90.707 E0.27228
G1 X103.15 Y90.934 E0.36118
G1 X105.923 Y91.092 E0.45356
G1 X108.595 Y91.169 E0.54247
G1 X111.338 Y91.169 E0.6337
G1 X114.01 Y91.094 E0.7226
G1 X116.743 Y90.94 E0.81365
G1 X120.538 Y90.599 E0.94038
G1 X121.553 Y90.487 E0.97434
G1 X122.117 Y90.465 E0.99312
G1 X123.148 Y90.499 E1.02743
G1 X124.039 Y90.521 E1.05707
G1 X124.664 Y90.547 E1.07788
G1 X125.226 Y90.611 E1.09669
G1 X125.773 Y90.753 E1.11548
G1 X126.295 Y90.97 E1.13429
G1 X126.781 Y91.259 E1.15309
G1 X127.221 Y91.614 E1.1719
G1 X127.739 Y92.2 E1.19791
G1 X128.183 Y92.814 E1.22311
G1 X129.839 Y95.04 E1.31539
G1 X131.133 Y96.674 E1.38471
G1 X131.551 Y97.216 E1.40748
G1 X131.864 Y97.687 E1.42629
G1 X132.107 Y98.197 E1.44508
G1 X132.276 Y98.737 E1.4639
G1 X132.382 Y99.525 E1.49034
G1 X132.394 Y100.168 E1.51173
G1 X132.395 Y107.001 E1.739
G1 X132.39 Y108.261 E1.78091
G1 X132.394 Y108.727 E1.79641
G1 X132.394 Y125.617 E2.35817
G1 X132.384 Y126.344 E2.38235
G1 X132.336 Y126.907 E2.40115
G1 X132.209 Y127.458 E2.41995
G1 X132.006 Y127.986 E2.43877
G1 X131.731 Y128.48 E2.45757
G1 X131.389 Y128.93 E2.47637
G1 X130.986 Y129.327 E2.49519
G1 X130.532 Y129.663 E2.51397
G1 X130.035 Y129.932 E2.53277
G1 X129.505 Y130.129 E2.55158
G1 X128.952 Y130.248 E2.57039
G1 X128.176 Y130.296 E2.59625
G1 X128.064 Y130.298 E2.59997
G1 X92.261 Y130.298 E3.79079
G1 X91.563 Y130.289 E3.814
G1 X91 Y130.241 E3.8328
G1 X90.449 Y130.115 E3.8516
G1 X89.921 Y129.913 E3.8704
G1 X89.427 Y129.638 E3.88921
G1 X88.977 Y129.296 E3.908
G1 X88.579 Y128.894 E3.92682
G1 X88.243 Y128.44 E3.9456
G1 X87.973 Y127.943 E3.96442
G1 X87.776 Y127.413 E3.98322
G1 X87.656 Y126.861 E4.00201
G1 X87.607 Y126.064 E4.02857
G1 X87.607 Y109.025 E4.59529
G1 X87.602 Y107.003 E4.66254
G1 X87.606 Y100.307 E4.88525
G1 X87.616 Y99.604 E4.90864
G1 X87.664 Y99.041 E4.92743
G1 X87.791 Y98.49 E4.94624
G1 X87.995 Y97.962 E4.96506
G1 X88.27 Y97.469 E4.98384
G1 X88.467 Y97.194 E4.99509
G1 X89.096 Y96.393 E5.02896
G1 X89.572 Y95.805 E5.05413
G1 X91.778 Y92.883 E5.1759
G1 X92.279 Y92.193 E5.20426
G1 X92.643 Y91.76 E5.22307
G0 F3000 X92.949 Y92.019
G1 F1200 X93.353 Y91.665 E5.24094
G1 X93.805 Y91.376 E5.25878
G1 X94.294 Y91.157 E5.2766
G1 X94.811 Y91.014 E5.29444
G1 X95.381 Y90.947 E5.31353
G1 X96.703 Y90.897 E5.35753
G1 X97.878 Y90.865 E5.39663
G1 X98.366 Y90.879 E5.41287
G1 X99.148 Y90.956 E5.439
G1 X100.44 Y91.104 E5.48226
G1 X103.164 Y91.336 E5.57318
G1 X105.854 Y91.49 E5.6628
G1 X108.618 Y91.569 E5.75477
G1 X111.313 Y91.569 E5.84441
G1 X114.08 Y91.492 E5.93647
G1 X116.771 Y91.34 E6.02612
G1 X120.568 Y90.998 E6.15292
G1 X121.597 Y90.885 E6.18735
G1 X122.104 Y90.865 E6.20422
G1 X123.168 Y90.9 E6.23963
G1 X124.023 Y90.921 E6.26808
G1 X124.648 Y90.947 E6.28888
G1 X125.18 Y91.009 E6.3067
G1 X125.698 Y91.15 E6.32455
G1 X126.189 Y91.366 E6.34239
G1 X126.642 Y91.652 E6.36021
G1 X127.048 Y92.003 E6.37806
G1 X127.415 Y92.434 E6.39689
G1 X127.891 Y93.091 E6.42388
G1 X129.517 Y95.278 E6.51452
G1 X130.817 Y96.918 E6.58412
G1 X131.235 Y97.46 E6.60689
G1 X131.53 Y97.908 E6.62473
G1 X131.755 Y98.395 E6.64257
G1 X131.905 Y98.91 E6.66041
G1 X131.982 Y99.538 E6.68146
G1 X131.994 Y100.173 E6.70258
G1 X131.995 Y106.999 E6.92961
G1 X131.99 Y108.259 E6.97152
G1 X131.994 Y108.73 E6.98719
G1 X131.994 Y125.612 E7.54868
G1 X131.984 Y126.339 E7.57287
G1 X131.936 Y126.873 E7.5907
G1 X131.81 Y127.394 E7.60853
G1 X131.608 Y127.891 E7.62637
G1 X131.334 Y128.352 E7.64421
G1 X130.995 Y128.767 E7.66203
G1 X130.598 Y129.128 E7.67988
G1 X130.152 Y129.425 E7.6977
G1 X129.666 Y129.653 E7.71555
G1 X129.152 Y129.806 E7.73339
G1 X128.485 Y129.888 E7.75574
G1 X128.064 Y129.898 E7.76975
G1 X92.267 Y129.898 E8.96036
G1 X91.569 Y129.889 E8.98358
G1 X91.034 Y129.842 E9.00144
G1 X90.513 Y129.716 E9.01927
G1 X90.016 Y129.514 E9.03711
G1 X89.555 Y129.241 E9.05493
G1 X89.139 Y128.902 E9.07278
G1 X88.778 Y128.506 E9.09061
G1 X88.48 Y128.06 E9.10845
G1 X88.252 Y127.574 E9.1263
G1 X88.099 Y127.06 E9.14414
G1 X88.016 Y126.386 E9.16672
G1 X88.006 Y125.956 E9.18103
G1 X88.007 Y109.025 E9.74416
G1 X88.002 Y107.003 E9.81141
G1 X88.006 Y100.313 E10.03392
G1 X88.016 Y99.61 E10.0573
G1 X88.064 Y99.076 E10.07514
G1 X88.19 Y98.554 E10.093
G1 X88.393 Y98.058 E10.11082
G1 X88.782 Y97.441 E10.13508
G1 X89.407 Y96.644 E10.16877
G1 X89.901 Y96.033 E10.1949
G1 X92.097 Y93.125 E10.3161
G1 X92.603 Y92.428 E10.34475
G1 X92.949 Y92.019 E10.36257
G0 F3000 X93.255 Y92.279
G1 F1200 X93.64 Y91.951 E10.37939
G1 X94.072 Y91.688 E10.39621
G1 X94.539 Y91.496 E10.41301
G1 X95.032 Y91.381 E10.42984
G1 X95.396 Y91.346 E10.44201
G1 X96.714 Y91.297 E10.48587
G1 X97.893 Y91.264 E10.5251
G1 X98.327 Y91.277 E10.53954
G1 X99.103 Y91.354 E10.56548
G1 X100.397 Y91.502 E10.6088
G1 X103.108 Y91.734 E10.6993
G1 X105.854 Y91.89 E10.79078
G1 X108.607 Y91.969 E10.88238
G1 X111.325 Y91.969 E10.97278
G1 X114.076 Y91.892 E11.06432
G1 X116.801 Y91.739 E11.15509
G1 X120.592 Y91.397 E11.28169
G1 X121.64 Y91.282 E11.31676
G1 X122.091 Y91.265 E11.33177
G1 X123.106 Y91.297 E11.36555
G1 X123.173 Y91.301 E11.36778
G1 X124.006 Y91.321 E11.39549
G1 X124.631 Y91.347 E11.4163
G1 X125.133 Y91.408 E11.43312
G1 X125.619 Y91.547 E11.44993
G1 X126.077 Y91.761 E11.46674
G1 X126.496 Y92.044 E11.48356
G1 X126.864 Y92.39 E11.50036
G1 X127.091 Y92.668 E11.5123
G1 X127.567 Y93.326 E11.53931
G1 X129.198 Y95.52 E11.63024
G1 X130.5 Y97.163 E11.69996
G1 X130.918 Y97.705 E11.72273
G1 X131.194 Y98.128 E11.73953
G1 X131.4 Y98.59 E11.75635
G1 X131.531 Y99.078 E11.77316
G1 X131.587 Y99.701 E11.79396
G1 X131.594 Y100.217 E11.81112
G1 X131.595 Y106.998 E12.03666
G1 X131.59 Y108.258 E12.07857
G1 X131.594 Y108.733 E12.09437
G1 X131.594 Y125.606 E12.65557
G1 X131.584 Y126.333 E12.67975
G1 X131.537 Y126.836 E12.69655
G1 X131.411 Y127.326 E12.71338
G1 X131.21 Y127.79 E12.7302
G1 X130.938 Y128.216 E12.74701
G1 X130.603 Y128.595 E12.76383
G1 X130.212 Y128.915 E12.78064
G1 X129.776 Y129.17 E12.79744
G1 X129.305 Y129.354 E12.81426
G1 X128.81 Y129.46 E12.83109
G1 X128.154 Y129.497 E12.85295
G1 X92.272 Y129.498 E14.04639
G1 X91.574 Y129.489 E14.0696
G1 X91.07 Y129.442 E14.08644
G1 X90.58 Y129.317 E14.10326
G1 X90.116 Y129.116 E14.12008
G1 X89.69 Y128.845 E14.13687
G1 X89.311 Y128.51 E14.15369
G1 X88.99 Y128.119 E14.17052
G1 X88.735 Y127.683 E14.18732
G1 X88.551 Y127.212 E14.20414
G1 X88.444 Y126.718 E14.22095
G1 X88.407 Y126.042 E14.24347
G1 X88.407 Y109.025 E14.80945
G1 X88.402 Y107.003 E14.87671
G1 X88.406 Y100.318 E15.09905
G1 X88.416 Y99.615 E15.12243
G1 X88.463 Y99.112 E15.13924
G1 X88.589 Y98.622 E15.15607
G1 X88.791 Y98.159 E15.17287
G1 X89.097 Y97.687 E15.19158
G1 X89.718 Y96.896 E15.22502
G1 X90.207 Y96.291 E15.2509
G1 X92.394 Y93.396 E15.37157
G1 X92.926 Y92.663 E15.4017
G1 X93.255 Y92.279 E15.41851
G1 F1800 E8.41851
G1 F300 Z0.4
G0 F3000 X95.643 Y94.734 Z0.4
;TYPE:SUPPORT
G1 F300 Z0.2
G1 F1800 E15.41851
G1 F1200 X96.599 Y94.736 E15.45031
G1 X97.449 Y94.735 E15.47858
G1 X97.955 Y94.663 E15.49558
G1 X98.722 Y95.334 E15.52948
G1 X98.722 Y96.367 E15.56383
G1 X98.075 Y97.014 E15.59427
G1 X96.705 Y97.014 E15.63983
G1 X96.306 Y97.413 E15.6586
G1 X96.306 Y106.687 E15.96706
G1 X91.806 Y106.688 E16.11673
G1 X91.807 Y99.739 E16.34785
G1 X95.191 Y99.739 E16.4604
G1 X95.59 Y99.34 E16.47917
G1 X95.59 Y96.39 E16.57729
G1 X95.147 Y95.948 E16.5981
G1 X95.643 Y94.734 E16.64172
G0 F3000 X96.012 Y94.895
G1 F1200 X96.012 Y106.528 E17.02864
G1 F1800 E10.02864
G1 F300 Z0.4
G0 F3000 X96.146 Y104.013 Z0.4
G1 F300 Z0.2
G1 F1800 E17.02864
G1 F1200 X91.967 Y104.013 E17.16763
G1 F1800 E10.16763
G1 F300 Z0.4
G0 F3000 X91.967 Y101.346 Z0.4
G1 F300 Z0.2
G1 F1800 E17.16763
G1 F1200 X96.146 Y101.346 E17.30662
G1 F1800 E10.30662
G1 F300 Z0.4
G0 F3000 X96.146 Y98.679 Z0.4
G1 F300 Z0.2
G1 F1800 E17.30662
G1 F1200 X95.75 Y98.679 E17.31979
G1 F1800 E10.31979
G1 F300 Z0.4
G0 F3000 X95.439 Y96.012 Z0.4
G1 F300 Z0.2
G1 F1800 E17.31979
G1 F1200 X98.562 Y96.012 E17.42367
G1 F1800 E10.42367
G1 F300 Z0.4
G0 F3000 X93.345 Y99.899 Z0.4
G1 F300 Z0.2
G1 F1800 E17.42367
G1 F1200 X93.345 Y106.528 E17.64415
G1 F1800 E10.64415
G1 F300 Z0.4
G0 F3000 X121.278 Y96.367 Z0.4
G1 F300 Z0.2
G1 F1800 E17.64415
G1 F1200 X121.278 Y95.335 E17.67847
G1 X122.046 Y94.664 E17.71239
G1 X122.551 Y94.736 E17.72936
G1 X124.368 Y94.734 E17.78979
G1 X124.853 Y95.948 E17.83327
G1 X124.41 Y96.39 E17.85409
G1 X124.41 Y99.339 E17.95217
G1 X124.809 Y99.738 E17.97094
G1 X128.194 Y99.738 E18.08352
G1 X128.194 Y106.688 E18.31468
G1 X123.694 Y106.688 E18.46435
G1 X123.694 Y97.413 E18.77284
G1 X123.295 Y97.014 E18.79161
G1 X121.925 Y97.014 E18.83717
G1 X121.278 Y96.367 E18.86761
G0 F3000 X121.438 Y96.012
G1 F1200 X124.561 Y96.012 E18.97148
G1 F1800 E11.97148
G1 F300 Z0.4
G0 F3000 X122.682 Y96.854 Z0.4
G1 F300 Z0.2
G1 F1800 E18.97148
G1 F1200 X122.682 Y94.895 E19.03664
G1 F1800 E12.03664
G1 F300 Z0.4
G0 F3000 X123.854 Y98.679 Z0.4
G1 F300 Z0.2
G1 F1800 E19.03664
G1 F1200 X124.25 Y98.679 E19.04981
G1 F1800 E12.04981
G1 F300 Z0.4
G0 F3000 X125.349 Y99.898 Z0.4
G1 F300 Z0.2
G1 F1800 E19.04981
G1 F1200 X125.349 Y106.528 E19.27032
G1 F1800 E12.27032
G1 F300 Z0.4
G0 F3000 X128.016 Y106.528 Z0.4
G1 F300 Z0.2
G1 F1800 E19.27032
G1 F1200 X128.016 Y99.898 E19.49084
G0 F3000 X128.034 Y101.346
G1 F1200 X123.854 Y101.346 E19.62986
G1 F1800 E12.62986
G1 F300 Z0.4
G0 F3000 X123.854 Y104.013 Z0.4
G1 F300 Z0.2
G1 F1800 E19.62986
G1 F1200 X128.034 Y104.013 E19.76889
G1 F1800 E12.76889
G1 F300 Z0.4
;MESH:camera.wroover_rail_.reverse.stl
G0 F3000 X100.714 Y121.198 Z0.4
;TYPE:WALL-INNER
G1 F300 Z0.2
G1 F1800 E19.76889
G1 F1200 X100.714 Y125.498 E19.91191
G1 X119.414 Y125.498 E20.53387
G1 X119.414 Y121.198 E20.67689
G1 X100.714 Y121.198 E21.29886
G0 F3000 X101.114 Y121.598
;TYPE:WALL-OUTER
G1 F1200 X101.114 Y125.098 E21.41527
G1 X119.014 Y125.098 E22.01062
G1 X119.014 Y121.598 E22.12703
G1 X101.114 Y121.598 E22.72239
G0 F3000 X101.114 Y121.798
G0 X100.674 Y121.798
G0 X119.242 Y121.37
G0 X119.886 Y125.326
G0 X122.982 Y125.326
G0 X122.99 Y123.935
G0 X124.094 Y123.698
;TYPE:WALL-INNER
G1 F1200 X124.094 Y108.964 E23.21245
G1 X127.794 Y108.964 E23.33551
G1 X127.794 Y125.698 E23.89208
G1 X123.154 Y125.698 E24.04641
G1 X119.714 Y125.698 E24.16082
G1 X100.414 Y125.698 E24.74098
G1 X96.846 Y125.698 E24.85965
G1 X92.206 Y125.698 E25.01398
G1 X92.206 Y108.964 E25.57055
G1 X95.906 Y108.963 E25.69361
G1 X95.906 Y123.698 E26.1837
G1 X96.846 Y123.698 E26.21497
G1 X96.846 Y125.498 E26.27483
G1 X100.414 Y125.498 E26.33432
G1 X100.414 Y121.098 E26.44767
G1 X119.714 Y121.098 E26.95813
G1 X119.714 Y125.498 E27.07148
G1 X123.154 Y125.498 E27.12883
G1 X123.154 Y123.698 E27.1887
G1 X124.094 Y123.698 E27.21996
G0 F3000 X123.694 Y123.298
;TYPE:WALL-OUTER
G1 F1200 X123.694 Y108.564 E27.71002
G1 X128.194 Y108.564 E27.85969
G1 X128.194 Y126.098 E28.44287
G1 X91.806 Y126.098 E29.65314
G1 X91.806 Y108.564 E30.23632
G1 X96.306 Y108.563 E30.38599
G1 X96.306 Y123.298 E30.87608
G1 X97.246 Y123.298 E30.90735
G1 X97.246 Y125.098 E30.96721
G1 X100.014 Y125.098 E31.05928
G1 X100.014 Y120.698 E31.20562
G1 X120.114 Y120.698 E31.87415
G1 X120.114 Y125.098 E32.0205
G1 X122.754 Y125.098 E32.1083
G1 X122.754 Y123.298 E32.16817
G1 X123.694 Y123.298 E32.19943
G0 F3000 X123.694 Y123.098
G0 X124.134 Y123.098
G0 X124.484 Y124.088
;TYPE:SKIN
G1 F1200 X124.484 Y109.354 E32.68949
G1 X127.404 Y109.354 E32.78661
G1 X127.404 Y125.308 E33.31724
G1 X123.544 Y125.308 E33.44563
G1 X123.544 Y124.088 E33.4862
G1 X124.484 Y124.088 E33.51747
G0 F3000 X124.234 Y123.838
G0 X123.336 Y123.88
G0 X123.336 Y125.516
G0 X123.995 Y125.126
G1 F1200 X123.723 Y124.855 E33.53024
G0 F3000 X123.723 Y124.289
G1 F1200 X124.561 Y125.126 E33.56963
G0 F3000 X125.126 Y125.126
G1 F1200 X124.267 Y124.267 E33.61004
G0 F3000 X124.662 Y124.097
G1 F1200 X125.692 Y125.126 E33.65846
G0 F3000 X126.258 Y125.126
G1 F1200 X124.662 Y123.531 E33.73351
G0 F3000 X124.662 Y122.965
G1 F1200 X126.823 Y125.126 E33.83516
G0 F3000 X127.223 Y124.96
G1 F1200 X124.662 Y122.4 E33.95559
G0 F3000 X124.662 Y121.834
G1 F1200 X127.223 Y124.394 E34.07603
G0 F3000 X127.223 Y123.829
G1 F1200 X124.662 Y121.268 E34.19649
G0 F3000 X124.662 Y120.703
G1 F1200 X127.223 Y123.263 E34.31693
G0 F3000 X127.223 Y122.697
G1 F1200 X124.662 Y120.137 E34.43737
G0 F3000 X124.662 Y119.571
G1 F1200 X127.223 Y122.132 E34.55783
G0 F3000 X127.223 Y121.566
G1 F1200 X124.662 Y119.006 E34.67827
G0 F3000 X124.662 Y118.44
G1 F1200 X127.223 Y121 E34.79871
G0 F3000 X127.223 Y120.435
G1 F1200 X124.662 Y117.874 E34.91917
G0 F3000 X124.662 Y117.309
G1 F1200 X127.223 Y119.869 E35.03961
G0 F3000 X127.223 Y119.303
G1 F1200 X124.662 Y116.743 E35.16004
G0 F3000 X124.662 Y116.177
G1 F1200 X127.223 Y118.738 E35.28051
G0 F3000 X127.223 Y118.172
G1 F1200 X124.662 Y115.611 E35.40097
G0 F3000 X124.662 Y115.046
G1 F1200 X127.223 Y117.606 E35.52141
G0 F3000 X127.223 Y117.041
G1 F1200 X124.662 Y114.48 E35.64187
G0 F3000 X124.662 Y113.914
G1 F1200 X127.223 Y116.475 E35.76233
G0 F3000 X127.223 Y115.909
G1 F1200 X124.662 Y113.349 E35.88277
G0 F3000 X124.662 Y112.783
G1 F1200 X127.223 Y115.343 E36.0032
G0 F3000 X127.223 Y114.778
G1 F1200 X124.662 Y112.217 E36.12367
G0 F3000 X124.662 Y111.652
G1 F1200 X127.223 Y114.212 E36.2441
G0 F3000 X127.223 Y113.646
G1 F1200 X124.662 Y111.086 E36.36454
G0 F3000 X124.662 Y110.52
G1 F1200 X127.223 Y113.081 E36.485
G0 F3000 X127.223 Y112.515
G1 F1200 X124.662 Y109.955 E36.60544
G0 F3000 X124.807 Y109.534
G1 F1200 X127.223 Y111.949 E36.71906
G0 F3000 X127.223 Y111.384
G1 F1200 X125.373 Y109.534 E36.80608
G0 F3000 X125.939 Y109.534
G1 F1200 X127.223 Y110.818 E36.86647
G0 F3000 X127.223 Y110.252
G1 F1200 X126.504 Y109.534 E36.90027
G0 F3000 X127.07 Y109.534
G1 F1200 X127.223 Y109.687 E36.90747
G1 F1800 E29.90747
G0 F3000 X127.684 Y109.687
G0 X124.276 Y109.146
G0 X123.922 Y123.526
G0 X122.982 Y123.526
G0 X122.982 Y125.326
G0 X97.018 Y125.326
G0 X97.018 Y123.526
G0 X96.078 Y123.526
G0 X96.065 Y109.083
G1 F1800 E36.90747
G0 F3000 X95.516 Y109.353
G1 F1200 X95.516 Y124.088 E37.39755
G1 X96.456 Y124.088 E37.42882
G1 X96.456 Y125.308 E37.4694
G1 X92.596 Y125.308 E37.59778
G1 X92.596 Y109.354 E38.12841
G1 X95.516 Y109.353 E38.22553
G0 F3000 X95.336 Y110.044
G1 F1200 X94.825 Y109.532 E38.24959
G0 F3000 X94.259 Y109.532
G1 F1200 X95.336 Y110.609 E38.30025
G0 F3000 X95.336 Y111.175
G1 F1200 X93.693 Y109.532 E38.37753
G0 F3000 X93.128 Y109.532
G1 F1200 X95.336 Y111.741 E38.48141
G0 F3000 X95.336 Y112.306
