;FLAVOR:Marlin
;TIME:7479
;Filament used: 5.11232m
;Layer height: 0.2
;MINX:91.292
;MINY:20.975
;MINZ:0.2
;MAXX:128.708
;MAXY:199.007
;MAXZ:5.8
;Generated with Cura_SteamEngine master
M82 ;absolute extrusion mode
;Sliced at: Tue 03-05-2022 21:11:20
;Basic settings: Layer height: 0.2 Walls: 0.8 Fill: 20
G21 ;metric values
G90 ;absolute positioning
M82 ;set extruder to absolute mode
M107 ;start with the fan off
M117 Start heating ...
M104 S200
M117 Homing X/Y ...
G28 X0 Y0 ;move X/Y to min endstops
M117 Homing Z ...
G28 Z0 ;move Z to min endstops
G1 Z15.0 F100 ;move the platform down 15mm
M117 Heating ...
M109 S200
M117 Start cleaning ...
G92 E0 ;zero the extruded length
G1 F200 E10 ;extrude 10mm of feed stock
G92 E0 ;zero the extruded length again
M117 Intro line ...
G1 Z2.0 F3000 ; Move Z Axis up little to prevent scratching of Heat Bed
G1 X0.1 Y20 Z0.2 F5000.0 ; Move to start position
G1 X0.1 Y200.0 Z0.2 F1500.0 E15 ; Draw the first line
G1 X0.4 Y200.0 Z0.2 F5000.0 ; Move to side a little
G1 X0.4 Y20 Z0.3 F1500.0 E30 ; Draw the second line
G92 E0 ; Reset Extruder
G1 E-1 F500 ; Retract filiment by 1 mm
G1 Z2.0 F3000 ; Move Z Axis up little to prevent scratching of Heat Bed
G1 X5 Y20 Z0.3 F100 ; Move over to prevent blob squish
G1 F100
G92 E0 ; Reset Extruder
M117 Printing...

G92 E0
G92 E0
G1 F1800 E-7
;LAYER_COUNT:28
;LAYER:0
M107
G1 F300 Z0.4
G0 F3000 X91.478 Y23.81 Z0.4
;TYPE:SKIRT
G1 F300 Z0.2
G1 F1800 E0
G1 F1200 X91.682 Y23.282 E0.01883
G1 X91.958 Y22.789 E0.03762
G1 X92.301 Y22.34 E0.05641
G1 X92.704 Y21.943 E0.07523
G1 X93.158 Y21.607 E0.09401
G1 X93.656 Y21.338 E0.11284
G1 X94.186 Y21.143 E0.13162
G1 X94.739 Y21.024 E0.15043
G1 X95.51 Y20.977 E0.17613
G1 X95.622 Y20.975 E0.17985
G1 X124.053 Y20.975 E1.12547
G1 X124.751 Y20.984 E1.14869
G1 X125.314 Y21.032 E1.16748
G1 X125.865 Y21.158 E1.18628
G1 X126.393 Y21.36 E1.20508
G1 X126.887 Y21.635 E1.22389
G1 X127.337 Y21.977 E1.24269
G1 X127.735 Y22.379 E1.2615
G1 X128.071 Y22.833 E1.28029
G1 X128.341 Y23.33 E1.2991
G1 X128.538 Y23.86 E1.31791
G1 X128.658 Y24.412 E1.33669
G1 X128.706 Y25.193 E1.36272
G1 X128.708 Y25.305 E1.36645
G1 X128.708 Y179.667 E6.50055
G1 X128.698 Y180.372 E6.524
G1 X128.656 Y181.132 E6.54931
G1 X128.566 Y182.271 E6.58732
G1 X128.5 Y182.982 E6.61106
G1 X128.368 Y183.738 E6.63659
G1 X128.342 Y183.856 E6.64061
G1 X128.039 Y185.121 E6.68387
G1 X127.854 Y185.847 E6.70879
G1 X127.583 Y186.632 E6.73641
G1 X127.541 Y186.739 E6.74024
G1 X127.056 Y187.907 E6.7823
G1 X126.767 Y188.576 E6.80654
G1 X126.403 Y189.263 E6.8324
G1 X126.339 Y189.371 E6.83657
G1 X125.62 Y190.543 E6.8823
G1 X125.269 Y191.095 E6.90406
G1 X124.764 Y191.763 E6.93191
G1 X123.884 Y192.797 E6.97707
G1 X123.382 Y193.366 E7.00231
G1 X122.888 Y193.848 E7.02527
G1 X122.653 Y194.054 E7.03566
G1 X121.789 Y194.791 E7.07343
G1 X121.184 Y195.293 E7.09958
G1 X120.606 Y195.703 E7.12315
G1 X120.5 Y195.77 E7.12732
G1 X119.351 Y196.475 E7.17216
G1 X118.718 Y196.851 E7.19664
G1 X117.983 Y197.209 E7.22384
G1 X117.877 Y197.255 E7.22768
G1 X116.655 Y197.761 E7.27167
G1 X116.018 Y198.014 E7.29447
G1 X115.302 Y198.234 E7.31938
G1 X115.187 Y198.264 E7.32333
G1 X113.855 Y198.584 E7.36889
G1 X113.189 Y198.734 E7.3916
G1 X112.695 Y198.815 E7.40825
G1 X112.2 Y198.865 E7.4248
G1 X110.97 Y198.961 E7.46583
G1 X110.254 Y199.007 E7.4897
G1 X109.422 Y198.991 E7.51737
G1 X109.312 Y198.984 E7.52104
G1 X108.03 Y198.882 E7.56381
G1 X107.337 Y198.818 E7.58696
G1 X106.589 Y198.689 E7.61221
G1 X105.138 Y198.342 E7.66183
G1 X104.455 Y198.167 E7.68528
G1 X103.702 Y197.907 E7.71177
G1 X102.447 Y197.389 E7.75693
G1 X101.748 Y197.089 E7.78223
G1 X100.975 Y196.673 E7.81143
G1 X99.823 Y195.968 E7.85635
G1 X99.23 Y195.594 E7.87967
G1 X98.536 Y195.066 E7.90867
G1 X97.529 Y194.206 E7.95272
G1 X96.968 Y193.714 E7.97753
G1 X96.4 Y193.127 E8.0047
G1 X96.321 Y193.037 E8.00868
G1 X95.489 Y192.061 E8.05134
G1 X95.032 Y191.511 E8.07512
G1 X94.558 Y190.832 E8.10267
G1 X93.833 Y189.65 E8.14879
G1 X93.467 Y189.034 E8.17262
G1 X93.078 Y188.225 E8.20247
G1 X93.04 Y188.138 E8.20563
G1 X92.576 Y187.017 E8.24598
G1 X92.304 Y186.334 E8.27044
G1 X92.062 Y185.537 E8.29814
G1 X92.035 Y185.433 E8.30171
G1 X91.746 Y184.224 E8.34306
G1 X91.58 Y183.487 E8.36818
G1 X91.468 Y182.694 E8.39482
G1 X91.457 Y182.577 E8.39873
G1 X91.357 Y181.295 E8.4415
G1 X91.305 Y180.465 E8.46916
G1 X91.292 Y179.813 E8.49085
G1 X91.292 Y25.589 E13.62036
G1 X91.302 Y24.924 E13.64248
G1 X91.351 Y24.361 E13.66128
G1 X91.478 Y23.81 E13.68008
G0 F3000 X91.877 Y23.875
G1 F1200 X92.08 Y23.378 E13.69794
G1 X92.354 Y22.917 E13.71578
G1 X92.694 Y22.502 E13.73362
G1 X93.092 Y22.143 E13.75145
G1 X93.538 Y21.846 E13.76927
G1 X94.024 Y21.618 E13.78712
G1 X94.538 Y21.466 E13.80495
G1 X95.201 Y21.385 E13.82717
G1 X95.622 Y21.375 E13.84117
G1 X124.047 Y21.375 E14.78659
G1 X124.745 Y21.384 E14.80981
G1 X125.28 Y21.431 E14.82767
G1 X125.801 Y21.557 E14.8455
G1 X126.298 Y21.759 E14.86335
G1 X126.759 Y22.032 E14.88117
G1 X127.175 Y22.371 E14.89901
G1 X127.536 Y22.767 E14.91684
G1 X127.834 Y23.213 E14.93468
G1 X128.062 Y23.699 E14.95253
G1 X128.215 Y24.213 E14.97037
G1 X128.298 Y24.883 E14.99282
G1 X128.308 Y25.305 E15.00686
G1 X128.308 Y179.661 E20.14076
G1 X128.295 Y180.472 E20.16774
G1 X128.257 Y181.106 E20.18887
G1 X128.168 Y182.234 E20.2265
G1 X128.102 Y182.945 E20.25025
G1 X127.977 Y183.657 E20.27429
G1 X127.652 Y185.022 E20.32096
G1 X127.467 Y185.748 E20.34588
G1 X127.209 Y186.49 E20.37201
G1 X127.171 Y186.586 E20.37544
G1 X126.689 Y187.749 E20.41732
G1 X126.4 Y188.418 E20.44155
G1 X126.056 Y189.065 E20.46593
G1 X125.283 Y190.329 E20.51521
G1 X124.932 Y190.881 E20.53696
G1 X124.452 Y191.513 E20.56336
G1 X123.539 Y192.585 E20.61019
G1 X123.083 Y193.101 E20.63309
G1 X122.618 Y193.553 E20.65466
G1 X122.393 Y193.75 E20.66461
G1 X121.534 Y194.483 E20.70217
G1 X120.929 Y194.985 E20.72832
G1 X120.386 Y195.369 E20.75044
G1 X119.147 Y196.131 E20.79882
G1 X118.514 Y196.507 E20.8233
G1 X117.819 Y196.844 E20.84899
G1 X117.724 Y196.885 E20.85243
G1 X116.507 Y197.389 E20.89625
G1 X115.87 Y197.642 E20.91904
G1 X115.197 Y197.848 E20.94245
G1 X115.094 Y197.875 E20.94599
G1 X113.767 Y198.194 E20.99139
G1 X113.101 Y198.344 E21.01409
G1 X112.253 Y198.458 E21.04255
G1 X110.945 Y198.562 E21.08619
G1 X110.229 Y198.608 E21.11006
G1 X109.443 Y198.591 E21.1362
G1 X109.344 Y198.585 E21.1395
G1 X108.067 Y198.484 E21.18211
G1 X107.374 Y198.42 E21.20526
G1 X106.67 Y198.297 E21.22903
G1 X105.29 Y197.967 E21.27622
G1 X104.554 Y197.779 E21.30148
G1 X103.845 Y197.533 E21.32645
G1 X102.555 Y197 E21.37287
G1 X101.906 Y196.721 E21.39636
G1 X101.176 Y196.327 E21.42396
G1 X100.078 Y195.656 E21.46675
G1 X99.444 Y195.256 E21.49169
G1 X98.788 Y194.756 E21.51912
G1 X97.792 Y193.906 E21.56267
G1 X97.231 Y193.414 E21.58749
G1 X96.697 Y192.859 E21.61311
G1 X95.797 Y191.806 E21.65918
G1 X95.34 Y191.256 E21.68296
G1 X94.894 Y190.614 E21.70896
G1 X94.202 Y189.487 E21.75295
G1 X93.811 Y188.83 E21.77838
G1 X93.444 Y188.063 E21.80666
G1 X92.947 Y186.869 E21.84967
G1 X92.675 Y186.186 E21.87413
G1 X92.448 Y185.433 E21.90028
G1 X92.424 Y185.34 E21.90348
G1 X92.136 Y184.136 E21.94465
G1 X91.97 Y183.399 E21.96978
G1 X91.866 Y182.651 E21.9949
G1 X91.856 Y182.546 E21.99841
G1 X91.756 Y181.27 E22.04098
G1 X91.709 Y180.541 E22.06527
G1 X91.692 Y179.808 E22.08966
G1 X91.692 Y25.595 E27.2188
G1 X91.702 Y24.93 E27.24093
G1 X91.75 Y24.396 E27.25876
G1 X91.877 Y23.875 E27.27659
G0 F3000 X92.276 Y23.943
G1 F1200 X92.478 Y23.479 E27.29343
G1 X92.75 Y23.053 E27.31024
G1 X93.086 Y22.676 E27.32703
G1 X93.477 Y22.355 E27.34386
G1 X93.914 Y22.101 E27.36067
G1 X94.385 Y21.918 E27.37748
G1 X94.88 Y21.812 E27.39431
G1 X95.532 Y21.776 E27.41603
G1 X124.042 Y21.775 E28.36428
G1 X124.74 Y21.784 E28.3875
G1 X125.244 Y21.831 E28.40433
G1 X125.734 Y21.956 E28.42115
G1 X126.198 Y22.157 E28.43797
G1 X126.624 Y22.428 E28.45476
G1 X127.003 Y22.763 E28.47159
G1 X127.324 Y23.154 E28.48841
G1 X127.579 Y23.59 E28.50521
G1 X127.763 Y24.061 E28.52203
G1 X127.87 Y24.555 E28.53884
G1 X127.907 Y25.215 E28.56083
G1 X127.908 Y179.655 E33.69752
G1 X127.898 Y180.36 E33.72097
G1 X127.858 Y181.079 E33.74493
G1 X127.769 Y182.197 E33.78223
G1 X127.703 Y182.908 E33.80598
G1 X127.585 Y183.576 E33.82854
G1 X127.275 Y184.878 E33.87305
G1 X127.079 Y185.649 E33.89951
G1 X126.835 Y186.348 E33.92414
G1 X126.322 Y187.59 E33.96883
G1 X126.033 Y188.259 E33.99307
G1 X125.709 Y188.867 E34.01598
G1 X124.945 Y190.114 E34.06463
G1 X124.594 Y190.666 E34.08638
G1 X124.14 Y191.262 E34.1113
G1 X124.082 Y191.333 E34.11435
G1 X123.239 Y192.32 E34.15752
G1 X122.783 Y192.836 E34.18043
G1 X122.349 Y193.257 E34.20054
G1 X122.133 Y193.446 E34.21008
G1 X121.278 Y194.176 E34.24748
G1 X120.673 Y194.678 E34.27362
G1 X120.166 Y195.035 E34.29425
G1 X118.982 Y195.763 E34.34048
G1 X118.309 Y196.163 E34.36651
G1 X117.656 Y196.479 E34.39064
G1 X117.571 Y196.516 E34.39373
G1 X116.359 Y197.017 E34.43735
G1 X115.722 Y197.27 E34.46014
G1 X115.092 Y197.462 E34.48205
G1 X115 Y197.486 E34.48521
G1 X113.679 Y197.804 E34.5304
G1 X113.013 Y197.954 E34.55311
G1 X112.212 Y198.06 E34.57998
G1 X110.964 Y198.159 E34.62162
G1 X110.203 Y198.208 E34.64698
G1 X109.463 Y198.192 E34.6716
G1 X108.146 Y198.089 E34.71554
G1 X107.411 Y198.021 E34.74009
G1 X106.752 Y197.905 E34.76235
G1 X106.654 Y197.884 E34.76568
G1 X105.337 Y197.567 E34.81073
G1 X104.654 Y197.392 E34.83418
G1 X103.988 Y197.159 E34.85765
G1 X103.908 Y197.128 E34.86051
G1 X102.713 Y196.633 E34.90353
G1 X102.064 Y196.354 E34.92702
G1 X101.378 Y195.981 E34.95299
G1 X100.25 Y195.292 E34.99696
G1 X99.657 Y194.918 E35.02027
G1 X99.041 Y194.446 E35.04609
G1 X98.056 Y193.605 E35.08916
G1 X97.495 Y193.113 E35.11398
G1 X96.993 Y192.59 E35.13809
G1 X96.131 Y191.581 E35.18223
G1 X95.648 Y191 E35.20736
G1 X95.229 Y190.396 E35.23181
G1 X94.521 Y189.242 E35.27684
G1 X94.155 Y188.626 E35.30067
G1 X93.809 Y187.901 E35.32739
G1 X93.319 Y186.721 E35.36989
G1 X93.047 Y186.038 E35.39434
G1 X92.834 Y185.329 E35.41896
G1 X92.526 Y184.048 E35.46278
G1 X92.36 Y183.311 E35.48791
G1 X92.263 Y182.608 E35.51151
G1 X92.156 Y181.244 E35.55702
G1 X92.104 Y180.434 E35.58402
G1 X92.092 Y179.804 E35.60497
G1 X92.092 Y25.601 E40.73379
G1 X92.102 Y24.936 E40.75591
G1 X92.15 Y24.433 E40.77271
G1 X92.276 Y23.943 E40.78954
G1 F1800 E33.78954
G1 F300 Z0.4
;MESH:camera.console.amf
G0 F3000 X108.185 Y39.718 Z0.4
;TYPE:WALL-INNER
G1 F300 Z0.2
G1 F1800 E40.78954
G1 F1200 X108.337 Y39.767 E40.79485
G1 X109.434 Y40.036 E40.83242
G1 X110.564 Y40.036 E40.87
G1 X110.723 Y40.022 E40.87531
G1 X111.84 Y39.745 E40.91359
G1 X112.83 Y39.227 E40.95075
G1 X112.968 Y39.149 E40.95602
G1 X113.834 Y38.38 E40.99454
G1 X113.928 Y38.254 E40.99977
G1 X114.568 Y37.327 E41.03724
G1 X114.627 Y37.157 E41.04322
G1 X114.996 Y36.179 E41.07799
G1 X115.141 Y34.975 E41.11832
G1 X114.996 Y33.772 E41.15863
G1 X114.626 Y32.794 E41.1934
G1 X114.572 Y32.628 E41.19921
G1 X113.843 Y31.576 E41.24178
G1 X112.973 Y30.809 E41.28036
G1 X112.84 Y30.727 E41.28555
G1 X111.839 Y30.206 E41.32309
G1 X110.731 Y29.933 E41.36104
G1 X110.574 Y29.914 E41.3663
G1 X109.433 Y29.915 E41.40425
G1 X108.343 Y30.183 E41.44158
G1 X108.191 Y30.229 E41.44687
G1 X107.161 Y30.771 E41.48558
G1 X106.213 Y31.609 E41.52766
G1 X105.557 Y32.563 E41.56617
G1 X105.491 Y32.706 E41.57141
G1 X105.09 Y33.763 E41.60901
G1 X104.954 Y34.893 E41.64686
G1 X104.953 Y35.05 E41.65208
G1 X105.09 Y36.189 E41.69024
G1 X105.489 Y37.236 E41.72751
G1 X105.551 Y37.381 E41.73275
G1 X106.211 Y38.336 E41.77136
G1 X106.327 Y38.443 E41.77661
G1 X107.161 Y39.18 E41.81363
G1 X108.185 Y39.718 E41.8521
G0 F3000 X108.341 Y39.348
;TYPE:WALL-OUTER
G1 F1200 X108.446 Y39.382 E41.85577
G1 X109.482 Y39.636 E41.89125
G1 X110.546 Y39.636 E41.92664
G1 X110.656 Y39.626 E41.93031
G1 X111.697 Y39.368 E41.96599
G1 X112.639 Y38.876 E42.00133
G1 X112.734 Y38.822 E42.00497
G1 X113.538 Y38.108 E42.04073
G1 X113.603 Y38.021 E42.04434
G1 X114.208 Y37.144 E42.07978
G1 X114.253 Y37.016 E42.08429
G1 X114.605 Y36.083 E42.11746
G1 X114.738 Y34.975 E42.15458
G1 X114.605 Y33.868 E42.19166
G1 X114.252 Y32.936 E42.22481
G1 X114.21 Y32.808 E42.22929
G1 X113.542 Y31.844 E42.2683
G1 X112.735 Y31.132 E42.30409
G1 X112.643 Y31.076 E42.30767
G1 X111.697 Y30.583 E42.34315
G1 X110.659 Y30.327 E42.37871
G1 X110.55 Y30.314 E42.38236
G1 X109.482 Y30.315 E42.41788
G1 X108.449 Y30.569 E42.45327
G1 X108.344 Y30.601 E42.45692
G1 X107.39 Y31.103 E42.49277
G1 X106.515 Y31.876 E42.5316
G1 X105.906 Y32.762 E42.56736
G1 X105.86 Y32.861 E42.57099
G1 X105.481 Y33.859 E42.6065
G1 X105.354 Y34.919 E42.64201
G1 X105.353 Y35.028 E42.64563
G1 X105.481 Y36.092 E42.68128
G1 X105.86 Y37.086 E42.71666
G1 X105.903 Y37.187 E42.72031
G1 X106.515 Y38.072 E42.7561
G1 X106.595 Y38.146 E42.75972
G1 X107.39 Y38.848 E42.795
G1 X108.341 Y39.348 E42.83073
G0 F3000 X108.446 Y39.382
G0 X108.533 Y39.403
G0 X108.428 Y39.83
G1 F1800 E35.83073
G1 F300 Z0.4
G0 F3000 X108.39 Y39.986 Z0.4
G0 X108.799 Y183.344
;TYPE:WALL-INNER
G1 F300 Z0.2
G1 F1800 E42.83073
G1 F1200 X108.949 Y183.391 E42.83596
G1 X109.61 Y183.554 E42.85861
G1 X110.307 Y183.554 E42.88179
G1 X110.464 Y183.537 E42.88704
G1 X111.147 Y183.369 E42.91043
G1 X111.751 Y183.054 E42.93309
G1 X111.886 Y182.972 E42.93834
G1 X112.424 Y182.497 E42.96221
G1 X112.902 Y181.81 E42.99005
G1 X112.946 Y181.674 E42.99481
G1 X113.169 Y181.086 E43.01572
G1 X113.248 Y180.434 E43.03757
G1 X113.247 Y180.198 E43.04542
G1 X113.169 Y179.548 E43.06719
G1 X112.949 Y178.966 E43.08788
G1 X112.897 Y178.819 E43.09307
G1 X112.512 Y178.261 E43.11562
G1 X112.419 Y178.133 E43.12088
G1 X111.883 Y177.658 E43.1447
G1 X111.746 Y177.579 E43.14996
G1 X111.149 Y177.265 E43.1724
G1 X110.457 Y177.094 E43.1961
G1 X110.3 Y177.081 E43.20134
G1 X109.611 Y177.08 E43.22426
G1 X108.944 Y177.244 E43.24711
G1 X108.796 Y177.293 E43.25229
G1 X108.16 Y177.624 E43.27614
G1 X107.548 Y178.172 E43.30346
G1 X107.138 Y178.762 E43.32736
G1 X107.074 Y178.907 E43.33263
G1 X106.832 Y179.542 E43.35523
G1 X106.748 Y180.241 E43.37865
G1 X106.749 Y180.398 E43.38387
G1 X106.832 Y181.091 E43.40708
G1 X107.074 Y181.731 E43.42984
G1 X107.142 Y181.875 E43.43514
G1 X107.547 Y182.462 E43.45886
G1 X108.16 Y183.009 E43.48618
G1 X108.799 Y183.344 E43.51018
G0 F3000 X108.952 Y182.973
;TYPE:WALL-OUTER
G1 F1200 X109.056 Y183.005 E43.5138
G1 X109.659 Y183.154 E43.53446
G1 X110.285 Y183.154 E43.55528
G1 X110.394 Y183.142 E43.55892
G1 X111.005 Y182.992 E43.57985
G1 X111.554 Y182.705 E43.60045
G1 X111.648 Y182.648 E43.60411
G1 X112.123 Y182.229 E43.62518
G1 X112.54 Y181.63 E43.64945
G1 X112.572 Y181.532 E43.65288
G1 X112.778 Y180.99 E43.67217
G1 X112.848 Y180.411 E43.69156
G1 X112.847 Y180.223 E43.69782
G1 X112.778 Y179.644 E43.71721
G1 X112.575 Y179.107 E43.73631
G1 X112.538 Y179.003 E43.73998
G1 X112.186 Y178.493 E43.76059
G1 X112.121 Y178.404 E43.76425
G1 X111.648 Y177.984 E43.78529
G1 X111.553 Y177.929 E43.78894
G1 X111.006 Y177.642 E43.80949
G1 X110.392 Y177.49 E43.83053
G1 X110.283 Y177.481 E43.83416
G1 X109.659 Y177.48 E43.85492
G1 X109.055 Y177.629 E43.87561
G1 X108.952 Y177.663 E43.87922
G1 X108.389 Y177.956 E43.90033
G1 X107.85 Y178.439 E43.9244
G1 X107.488 Y178.959 E43.94547
G1 X107.444 Y179.059 E43.94911
G1 X107.223 Y179.639 E43.96975
G1 X107.148 Y180.263 E43.99065
G1 X107.149 Y180.372 E43.99428
G1 X107.223 Y180.995 E44.01515
G1 X107.443 Y181.575 E44.03578
G1 X107.49 Y181.675 E44.03945
G1 X107.849 Y182.196 E44.0605
G1 X108.389 Y182.678 E44.08457
G1 X108.952 Y182.973 E44.10571
G0 F3000 X109.056 Y183.005
G0 X109.145 Y183.027
G0 X109.04 Y183.453
G1 F1800 E37.10571
G1 F300 Z0.4
G0 F3000 X109.001 Y183.609 Z0.4
G0 X112.209 Y194.249
;TYPE:WALL-INNER
G1 F300 Z0.2
G1 F1800 E44.10571
G1 F1200 X110.001 Y194.424 E44.17938
G1 X107.791 Y194.249 E44.25312
G1 X105.65 Y193.735 E44.32635
G1 X103.594 Y192.883 E44.40037
G1 X101.708 Y191.729 E44.47391
G1 X100.026 Y190.291 E44.54751
G1 X98.591 Y188.611 E44.621
G1 X97.433 Y186.721 E44.69472
G1 X96.582 Y184.668 E44.76864
G1 X96.068 Y182.526 E44.8419
G1 X95.892 Y180.299 E44.91621
G1 X95.892 Y25.575 E50.06235
G1 X124.108 Y25.575 E51.00081
G1 X124.108 Y180.299 E56.14696
