;FLAVOR:Marlin
;TIME:4295
;Filament used: 2.38661m
;Layer height: 0.2
;MINX:91.314
;MINY:75.25
;MINZ:0.2
;MAXX:128.593
;MAXY:144.728
;MAXZ:23.8
;Generated with Cura_SteamEngine master
M82 ;absolute extrusion mode
;Sliced at: Fri 06-05-2022 00:10:31
;Basic settings: Layer height: 0.2 Walls: 0.8 Fill: 20
G21 ;metric values
G90 ;absolute positioning
M82 ;set extruder to absolute mode
M107 ;start with the fan off
M117 Start heating ...
M104 S200
M117 Homing X/Y ...
G28 X0 Y0 ;move X/Y to min endstops
M117 Homing Z ...
G28 Z0 ;move Z to min endstops
G1 Z15.0 F100 ;move the platform down 15mm
M117 Heating ...
M109 S200
M117 Start cleaning ...
G92 E0 ;zero the extruded length
G1 F200 E10 ;extrude 10mm of feed stock
G92 E0 ;zero the extruded length again
M117 Intro line ...
G1 Z2.0 F3000 ; Move Z Axis up little to prevent scratching of Heat Bed
G1 X0.1 Y20 Z0.2 F5000.0 ; Move to start position
G1 X0.1 Y200.0 Z0.2 F1500.0 E15 ; Draw the first line
G1 X0.4 Y200.0 Z0.2 F5000.0 ; Move to side a little
G1 X0.4 Y20 Z0.3 F1500.0 E30 ; Draw the second line
G92 E0 ; Reset Extruder
G1 E-1 F500 ; Retract filiment by 1 mm
G1 Z2.0 F3000 ; Move Z Axis up little to prevent scratching of Heat Bed
G1 X5 Y20 Z0.3 F100 ; Move over to prevent blob squish
G1 F100
G92 E0 ; Reset Extruder
M117 Printing...

G92 E0
G92 E0
G1 F1800 E-7
;LAYER_COUNT:118
;LAYER:0
M107
G1 F300 Z0.4
G0 F3000 X93.828 Y76.837 Z0.4
;TYPE:SKIRT
G1 F300 Z0.2
G1 F1800 E0
G1 F1200 X94.201 Y76.412 E0.01881
G1 X94.631 Y76.044 E0.03763
G1 X95.108 Y75.741 E0.05643
G1 X95.623 Y75.508 E0.07523
G1 X96.165 Y75.349 E0.09401
G1 X96.898 Y75.261 E0.11857
G1 X97.33 Y75.25 E0.13294
G1 X122.35 Y75.25 E0.96511
G1 X123.048 Y75.26 E0.98833
G1 X123.612 Y75.308 E1.00716
G1 X124.162 Y75.435 E1.02593
G1 X124.69 Y75.639 E1.04476
G1 X125.184 Y75.914 E1.06356
G1 X125.633 Y76.257 E1.08235
G1 X126.03 Y76.659 E1.10115
G1 X126.367 Y77.114 E1.11998
G1 X126.635 Y77.611 E1.13876
G1 X126.831 Y78.141 E1.15755
G1 X126.976 Y78.912 E1.18365
G1 X127.009 Y79.292 E1.19633
G1 X127.16 Y81.374 E1.26576
G1 X127.431 Y84.067 E1.35578
G1 X127.776 Y86.739 E1.44539
G1 X128.319 Y90.102 E1.55869
G1 X128.52 Y91.224 E1.59661
G1 X128.581 Y91.798 E1.61581
G1 X128.593 Y92.442 E1.63723
G1 X128.593 Y96.628 E1.77646
G1 X128.582 Y97.338 E1.80007
G1 X128.533 Y97.898 E1.81877
G1 X128.443 Y98.472 E1.83809
G1 X128.156 Y100.146 E1.89458
G1 X127.776 Y102.824 E1.98455
G1 X127.472 Y105.492 E2.07386
G1 X127.241 Y108.216 E2.16479
G1 X127.087 Y110.931 E2.25523
G1 X127 Y115.039 E2.3919
G1 X127 Y127.097 E2.79295
G1 X126.991 Y127.768 E2.81527
G1 X126.981 Y128.003 E2.82309
G1 X126.916 Y128.894 E2.8528
G1 X126.843 Y129.716 E2.88025
G1 X126.776 Y130.382 E2.90251
G1 X126.675 Y130.957 E2.92193
G1 X126.461 Y131.809 E2.95115
G1 X126.247 Y132.607 E2.97863
G1 X126.064 Y133.256 E3.00105
G1 X125.864 Y133.805 E3.02049
G1 X125.501 Y134.615 E3.05001
G1 X125.152 Y135.365 E3.07752
G1 X124.869 Y135.952 E3.0992
G1 X124.58 Y136.455 E3.11849
G1 X124.07 Y137.209 E3.14877
G1 X123.62 Y137.851 E3.17485
G1 X123.207 Y138.424 E3.19834
G1 X122.834 Y138.869 E3.21765
G1 X122.268 Y139.453 E3.2447
G1 X121.634 Y140.087 E3.27452
G1 X121.16 Y140.548 E3.29651
G1 X120.719 Y140.919 E3.31568
G1 X119.958 Y141.471 E3.34695
G1 X119.382 Y141.873 E3.37031
G1 X118.757 Y142.297 E3.39543
G1 X118.264 Y142.582 E3.41437
G1 X117.437 Y142.985 E3.44497
G1 X116.788 Y143.287 E3.46878
G1 X116.099 Y143.597 E3.49391
G1 X115.556 Y143.795 E3.51313
G1 X114.704 Y144.038 E3.5426
G1 X113.925 Y144.246 E3.56942
G1 X113.263 Y144.414 E3.59213
G1 X112.69 Y144.516 E3.61149
G1 X111.816 Y144.606 E3.64071
G1 X111.011 Y144.676 E3.66759
G1 X110.324 Y144.727 E3.6905
G1 X109.743 Y144.728 E3.70982
G1 X108.799 Y144.66 E3.7413
G1 X108.07 Y144.596 E3.76564
G1 X107.35 Y144.522 E3.78972
G1 X106.79 Y144.424 E3.80863
G1 X105.963 Y144.217 E3.83698
G1 X105.083 Y143.981 E3.86728
G1 X104.505 Y143.818 E3.88726
G1 X103.957 Y143.619 E3.90665
G1 X103.091 Y143.231 E3.93821
G1 X102.415 Y142.915 E3.96303
G1 X101.786 Y142.611 E3.98627
G1 X101.286 Y142.323 E4.00546
G1 X100.508 Y141.796 E4.03671
G1 X99.918 Y141.382 E4.06068
G1 X99.335 Y140.963 E4.08456
G1 X98.885 Y140.587 E4.10407
G1 X98.221 Y139.943 E4.13483
G1 X97.633 Y139.353 E4.16254
G1 X97.199 Y138.906 E4.18326
G1 X96.832 Y138.47 E4.20221
G1 X96.301 Y137.737 E4.23232
G1 X95.836 Y137.072 E4.25931
G1 X95.46 Y136.519 E4.28155
G1 X95.172 Y136.022 E4.30066
G1 X94.758 Y135.171 E4.33213
G1 X94.446 Y134.502 E4.35668
G1 X94.15 Y133.841 E4.38077
G1 X93.956 Y133.307 E4.39967
G1 X93.71 Y132.447 E4.42942
G1 X93.496 Y131.642 E4.45712
G1 X93.338 Y131.019 E4.4785
G1 X93.237 Y130.451 E4.49769
G1 X93.137 Y129.491 E4.52979
G1 X93.068 Y128.686 E4.55666
G1 X93.024 Y128.08 E4.57687
G1 X93.014 Y127.853 E4.58443
G1 X93 Y126.971 E4.61377
G1 X93 Y115.107 E5.00837
G1 X92.96 Y112.307 E5.10151
G1 X92.847 Y109.636 E5.19042
G1 X92.655 Y106.929 E5.28068
G1 X92.385 Y104.208 E5.37163
G1 X92.04 Y101.506 E5.46223
G1 X91.493 Y98.107 E5.57673
G1 X91.386 Y97.508 E5.59697
G1 X91.326 Y96.941 E5.61594
G1 X91.314 Y96.298 E5.63733
G1 X91.314 Y92.534 E5.76252
G1 X91.325 Y91.825 E5.7861
G1 X91.392 Y91.157 E5.80843
G1 X91.635 Y89.847 E5.85274
G1 X92.093 Y87.179 E5.94278
G1 X92.478 Y84.47 E6.03379
G1 X92.779 Y81.815 E6.12266
G1 X93.025 Y78.92 E6.21929
G1 X93.113 Y78.362 E6.23808
G1 X93.278 Y77.821 E6.25689
G1 X93.518 Y77.31 E6.27567
G1 X93.828 Y76.837 E6.29448
G0 F3000 X94.214 Y76.992
G1 F1200 X94.582 Y76.602 E6.31232
G1 X95.004 Y76.27 E6.33017
G1 X95.47 Y76.005 E6.348
G1 X95.97 Y75.813 E6.36582
G1 X96.494 Y75.696 E6.38368
G1 X97.228 Y75.651 E6.40813
G1 X122.345 Y75.65 E7.24353
G1 X123.043 Y75.66 E7.26675
G1 X123.577 Y75.708 E7.28458
G1 X124.098 Y75.834 E7.30241
G1 X124.595 Y76.037 E7.32026
G1 X125.056 Y76.311 E7.3381
G1 X125.471 Y76.65 E7.35592
G1 X125.831 Y77.048 E7.37377
G1 X126.128 Y77.494 E7.3916
G1 X126.356 Y77.98 E7.40945
G1 X126.508 Y78.494 E7.42728
G1 X126.605 Y79.268 E7.45322
G1 X126.761 Y81.406 E7.52452
G1 X127.034 Y84.122 E7.61531
G1 X127.379 Y86.793 E7.70489
G1 X127.914 Y90.105 E7.81647
G1 X128.127 Y91.294 E7.85665
G1 X128.181 Y91.811 E7.87394
G1 X128.193 Y92.447 E7.89509
G1 X128.193 Y96.622 E8.03396
G1 X128.182 Y97.332 E8.05757
G1 X128.138 Y97.836 E8.0744
G1 X128.048 Y98.405 E8.09356
G1 X127.764 Y100.064 E8.14954
G1 X127.382 Y102.754 E8.23991
G1 X127.071 Y105.484 E8.3313
G1 X126.841 Y108.194 E8.42176
G1 X126.688 Y110.902 E8.51197
G1 X126.6 Y115.03 E8.6493
G1 X126.6 Y127.091 E9.05045
G1 X126.591 Y127.762 E9.07277
G1 X126.582 Y127.974 E9.07982
G1 X126.517 Y128.858 E9.10931
G1 X126.445 Y129.676 E9.13662
G1 X126.378 Y130.342 E9.15888
G1 X126.287 Y130.859 E9.17634
G1 X126.075 Y131.705 E9.20535
G1 X125.862 Y132.498 E9.23266
G1 X125.679 Y133.147 E9.25509
G1 X125.499 Y133.642 E9.2726
G1 X125.138 Y134.447 E9.30195
G1 X124.792 Y135.191 E9.32924
G1 X124.509 Y135.778 E9.35091
G1 X124.249 Y136.231 E9.36829
G1 X123.742 Y136.98 E9.39837
G1 X123.295 Y137.617 E9.42425
G1 X122.882 Y138.19 E9.44774
G1 X122.547 Y138.59 E9.4651
G1 X121.942 Y139.215 E9.49403
G1 X121.355 Y139.801 E9.52161
G1 X120.881 Y140.262 E9.54361
G1 X120.484 Y140.595 E9.56084
G1 X119.728 Y141.143 E9.5919
G1 X119.157 Y141.542 E9.61507
G1 X118.532 Y141.966 E9.64019
G1 X118.089 Y142.223 E9.65722
G1 X117.268 Y142.622 E9.68758
G1 X116.624 Y142.922 E9.71121
G1 X115.935 Y143.232 E9.73634
G1 X115.446 Y143.411 E9.75366
G1 X114.6 Y143.652 E9.78292
G1 X113.827 Y143.858 E9.80952
G1 X113.165 Y144.026 E9.83224
G1 X112.649 Y144.118 E9.84967
G1 X111.781 Y144.207 E9.87869
G1 X110.982 Y144.277 E9.90537
G1 X110.295 Y144.328 E9.92828
G1 X109.772 Y144.329 E9.94568
G1 X108.834 Y144.261 E9.97696
G1 X108.111 Y144.198 E10.0011
G1 X107.391 Y144.124 E10.02517
G1 X106.887 Y144.036 E10.04219
G1 X106.067 Y143.83 E10.07031
G1 X105.192 Y143.596 E10.10043
G1 X104.614 Y143.433 E10.12041
G1 X104.121 Y143.254 E10.13785
G1 X103.26 Y142.869 E10.16922
G1 X102.589 Y142.555 E10.19386
G1 X101.96 Y142.251 E10.2171
G1 X101.51 Y141.992 E10.23437
G1 X100.737 Y141.469 E10.26541
G1 X100.151 Y141.057 E10.28923
G1 X99.568 Y140.638 E10.31311
G1 X99.164 Y140.3 E10.33063
G1 X98.504 Y139.66 E10.36121
G1 X97.92 Y139.075 E10.3887
G1 X97.486 Y138.628 E10.40942
G1 X97.156 Y138.235 E10.42649
G1 X96.629 Y137.508 E10.45636
G1 X96.167 Y136.847 E10.48318
G1 X95.791 Y136.294 E10.50542
G1 X95.532 Y135.847 E10.5226
G1 X95.121 Y135.002 E10.55386
G1 X94.811 Y134.338 E10.57823
G1 X94.515 Y133.677 E10.60232
G1 X94.34 Y133.197 E10.61931
G1 X94.096 Y132.344 E10.64882
G1 X93.883 Y131.544 E10.67636
G1 X93.725 Y130.921 E10.69773
G1 X93.634 Y130.41 E10.715
G1 X93.535 Y129.456 E10.7469
G1 X93.466 Y128.657 E10.77357
G1 X93.422 Y128.051 E10.79378
G1 X93.413 Y127.847 E10.80057
G1 X93.4 Y127.028 E10.82781
G1 X93.4 Y115.101 E11.22451
G1 X93.361 Y112.32 E11.31701
G1 X93.245 Y109.591 E11.40786
G1 X93.051 Y106.862 E11.49886
G1 X92.786 Y104.185 E11.58833
G1 X92.437 Y101.458 E11.67977
G1 X91.887 Y98.037 E11.79502
G1 X91.78 Y97.438 E11.81525
G1 X91.726 Y96.927 E11.83234
G1 X91.714 Y96.293 E11.85343
G1 X91.714 Y92.54 E11.97826
G1 X91.725 Y91.831 E12.00184
G1 X91.785 Y91.23 E12.02193
G1 X92.028 Y89.92 E12.06625
G1 X92.489 Y87.232 E12.15696
G1 X92.872 Y84.54 E12.24739
G1 X93.18 Y81.823 E12.33834
G1 X93.424 Y78.954 E12.43411
G1 X93.509 Y78.425 E12.45193
G1 X93.672 Y77.914 E12.46977
G1 X93.909 Y77.433 E12.4876
G1 X94.214 Y76.992 E12.50544
G0 F3000 X94.6 Y77.155
G1 F1200 X94.961 Y76.802 E12.52223
G1 X95.374 Y76.51 E12.53905
G1 X95.827 Y76.286 E12.55586
G1 X96.31 Y76.137 E12.57267
G1 X96.921 Y76.06 E12.59316
G1 X97.33 Y76.05 E12.60676
G1 X122.339 Y76.05 E13.43857
G1 X123.037 Y76.06 E13.46178
G1 X123.54 Y76.107 E13.47859
G1 X124.03 Y76.233 E13.49541
G1 X124.494 Y76.435 E13.51225
G1 X124.92 Y76.707 E13.52906
G1 X125.298 Y77.042 E13.54586
G1 X125.618 Y77.433 E13.56266
G1 X125.873 Y77.87 E13.57949
G1 X126.056 Y78.341 E13.59629
G1 X126.179 Y78.982 E13.618
G1 X126.211 Y79.349 E13.63026
G1 X126.363 Y81.442 E13.70005
G1 X126.634 Y84.141 E13.79027
G1 X126.987 Y86.877 E13.88203
G1 X127.52 Y90.176 E13.99318
G1 X127.733 Y91.365 E14.03335
G1 X127.786 Y91.977 E14.05378
G1 X127.793 Y92.452 E14.06958
G1 X127.793 Y96.616 E14.20808
G1 X127.782 Y97.326 E14.2317
G1 X127.743 Y97.774 E14.24665
G1 X127.654 Y98.337 E14.26561
G1 X127.368 Y100.006 E14.32193
G1 X126.982 Y102.724 E14.41324
G1 X126.678 Y105.391 E14.50252
G1 X126.442 Y108.176 E14.59548
G1 X126.288 Y110.898 E14.68616
G1 X126.2 Y115.001 E14.82266
G1 X126.2 Y127.086 E15.22461
G1 X126.191 Y127.757 E15.24692
G1 X126.183 Y127.945 E15.25318
G1 X126.119 Y128.823 E15.28246
G1 X126.047 Y129.636 E15.30961
G1 X125.98 Y130.302 E15.33187
G1 X125.9 Y130.762 E15.3474
G1 X125.688 Y131.602 E15.37622
G1 X125.477 Y132.389 E15.40332
G1 X125.294 Y133.038 E15.42574
G1 X125.134 Y133.478 E15.44132
G1 X124.776 Y134.278 E15.47047
G1 X124.431 Y135.018 E15.49762
G1 X124.148 Y135.605 E15.5193
G1 X123.917 Y136.007 E15.53472
G1 X123.414 Y136.75 E15.56456
G1 X122.971 Y137.383 E15.59026
G1 X122.558 Y137.956 E15.61375
G1 X122.26 Y138.312 E15.62919
G1 X121.659 Y138.932 E15.65791
G1 X121.076 Y139.514 E15.68531
G1 X120.602 Y139.975 E15.7073
G1 X120.25 Y140.271 E15.7226
G1 X119.499 Y140.815 E15.75344
G1 X118.932 Y141.211 E15.77644
G1 X118.307 Y141.635 E15.80156
G1 X117.913 Y141.863 E15.8167
G1 X117.099 Y142.26 E15.84683
G1 X116.46 Y142.557 E15.87026
G1 X115.771 Y142.867 E15.89539
G1 X115.337 Y143.026 E15.91077
G1 X114.497 Y143.265 E15.93981
G1 X113.728 Y143.471 E15.96629
G1 X113.066 Y143.639 E15.98901
G1 X112.608 Y143.72 E16.00448
G1 X111.746 Y143.809 E16.0333
G1 X110.952 Y143.878 E16.05981
G1 X110.265 Y143.929 E16.08272
G1 X109.8 Y143.93 E16.09819
G1 X108.869 Y143.863 E16.12923
G1 X108.152 Y143.8 E16.15317
G1 X107.432 Y143.726 E16.17725
G1 X106.984 Y143.648 E16.19237
G1 X106.17 Y143.444 E16.22028
G1 X105.3 Y143.211 E16.25024
G1 X104.722 Y143.048 E16.27021
G1 X104.284 Y142.889 E16.28571
G1 X103.429 Y142.506 E16.31687
G1 X102.764 Y142.195 E16.34129
G1 X102.135 Y141.891 E16.36452
G1 X101.734 Y141.661 E16.3799
G1 X100.967 Y141.141 E16.41072
G1 X100.384 Y140.733 E16.43439
G1 X99.801 Y140.314 E16.45827
G1 X99.442 Y140.013 E16.47385
G1 X98.787 Y139.378 E16.50419
G1 X98.207 Y138.796 E16.53152
G1 X97.773 Y138.349 E16.55224
G1 X97.479 Y138 E16.56742
G1 X96.957 Y137.279 E16.59702
G1 X96.498 Y136.622 E16.62368
G1 X96.122 Y136.069 E16.64592
G1 X95.891 Y135.672 E16.6612
G1 X95.483 Y134.833 E16.69223
G1 X95.176 Y134.175 E16.71638
G1 X94.88 Y133.514 E16.74047
G1 X94.725 Y133.087 E16.75558
G1 X94.483 Y132.241 E16.78484
G1 X94.271 Y131.446 E16.81221
G1 X94.113 Y130.823 E16.83359
G1 X94.032 Y130.368 E16.84896
G1 X93.934 Y129.422 E16.88059
G1 X93.865 Y128.628 E16.9071
G1 X93.821 Y128.022 E16.92731
G1 X93.813 Y127.841 E16.93333
G1 X93.8 Y127.022 E16.96058
G1 X93.8 Y115.095 E17.35727
G1 X93.76 Y112.297 E17.45034
G1 X93.645 Y109.58 E17.54079
G1 X93.45 Y106.834 E17.63235
G1 X93.182 Y104.128 E17.72279
G1 X92.833 Y101.404 E17.81413
G1 X92.281 Y97.967 E17.92991
G1 X92.174 Y97.368 E17.95015
G1 X92.121 Y96.767 E17.97022
G1 X92.114 Y96.288 E17.98615
G1 X92.114 Y92.546 E18.11061
G1 X92.125 Y91.837 E18.1342
G1 X92.179 Y91.303 E18.15205
G1 X92.414 Y90.036 E18.19491
G1 X92.886 Y87.284 E18.28778
G1 X93.267 Y84.604 E18.37781
G1 X93.578 Y81.865 E18.46949
G1 X93.822 Y78.988 E18.56553
G1 X93.905 Y78.489 E18.58235
G1 X94.065 Y78.01 E18.59915
G1 X94.298 Y77.561 E18.61597
G1 X94.6 Y77.155 E18.6328
G1 F1800 E11.6328
G1 F300 Z0.4
G0 F3000 X95.621 Y91.864 Z0.4
;TYPE:SUPPORT
G1 F300 Z0.2
G1 F1800 E18.6328
G1 F1200 X96 Y91.864 E18.64541
G1 X96 Y96.836 E18.81078
G1 X95.621 Y96.836 E18.82338
G1 X95.514 Y96.729 E18.82842
G1 X95.514 Y91.971 E18.98667
G1 X95.621 Y91.864 E18.9917
G0 F3000 X95.674 Y93.345
G1 F1200 X95.84 Y93.345 E18.99722
G1 F1800 E11.99722
G1 F300 Z0.4
G0 F3000 X95.84 Y96.012 Z0.4
G1 F300 Z0.2
G1 F1800 E18.99722
G1 F1200 X95.674 Y96.012 E19.00274
G1 F1800 E12.00274
G1 F300 Z0.4
G0 F3000 X124 Y97.244 Z0.4
G1 F300 Z0.2
G1 F1800 E19.00274
G1 F1200 X124 Y91.958 E19.17856
G1 X124.34 Y91.958 E19.18987
G1 X124.393 Y92.011 E19.19236
G1 X124.393 Y97.191 E19.36465
G1 X124.34 Y97.244 E19.36714
G1 X124 Y97.244 E19.37845
G1 F1800 E12.37845
G1 F300 Z0.4
;MESH:lamp.hanger.bottom.core.cut.amf
G0 F3000 X109.235 Y97.361 Z0.4
;TYPE:WALL-INNER
G1 F300 Z0.2
G1 F1800 E19.37845
G1 F1200 X110 Y97.454 E19.40408
G1 X110.764 Y97.362 E19.42967
G1 X111.485 Y97.089 E19.45532
G1 X112.096 Y96.669 E19.47998
G1 X112.163 Y96.606 E19.48303
G1 X112.613 Y96.098 E19.50561
G1 X112.663 Y96.022 E19.50863
G1 X112.98 Y95.419 E19.53129
G1 X113.01 Y95.333 E19.53432
G1 X113.17 Y94.679 E19.55671
G1 X113.181 Y94.591 E19.55966
G1 X113.182 Y93.915 E19.58215
G1 X113.172 Y93.822 E19.58526
G1 X113.01 Y93.166 E19.60773
G1 X112.98 Y93.08 E19.61076
G1 X112.662 Y92.476 E19.63346
G1 X112.612 Y92.4 E19.63649
G1 X112.152 Y91.881 E19.65956
G1 X112.083 Y91.822 E19.66258
G1 X111.519 Y91.432 E19.68538
G1 X111.437 Y91.394 E19.68839
G1 X110.803 Y91.153 E19.71095
G1 X110.714 Y91.133 E19.71398
G1 X109.991 Y91.046 E19.7382
G1 X109.287 Y91.132 E19.76179
G1 X109.198 Y91.152 E19.76483
G1 X108.564 Y91.393 E19.78738
G1 X108.482 Y91.431 E19.79039
G1 X107.918 Y91.821 E19.8132
G1 X107.849 Y91.88 E19.81622
G1 X107.389 Y92.399 E19.83928
G1 X107.339 Y92.475 E19.84231
G1 X107.021 Y93.079 E19.86501
G1 X106.991 Y93.165 E19.86804
G1 X106.83 Y93.821 E19.89051
G1 X106.819 Y93.912 E19.89356
G1 X106.818 Y94.589 E19.91607
G1 X106.829 Y94.678 E19.91906
G1 X106.989 Y95.332 E19.94145
G1 X107.019 Y95.418 E19.94448
G1 X107.336 Y96.021 E19.96714
G1 X107.386 Y96.097 E19.97016
G1 X107.836 Y96.605 E19.99274
G1 X107.903 Y96.668 E19.99579
G1 X108.514 Y97.088 E20.02045
G1 X109.235 Y97.361 E20.0461
G0 F3000 X109.331 Y96.97
;TYPE:WALL-OUTER
G1 F1200 X110 Y97.051 E20.06851
G1 X110.668 Y96.971 E20.09089
G1 X111.298 Y96.732 E20.1133
G1 X111.845 Y96.356 E20.13537
G1 X111.876 Y96.327 E20.13679
G1 X112.295 Y95.854 E20.1578
G1 X112.318 Y95.819 E20.1592
G1 X112.612 Y95.259 E20.18023
G1 X112.626 Y95.219 E20.18164
G1 X112.776 Y94.607 E20.2026
G1 X112.781 Y94.566 E20.20397
G1 X112.782 Y93.937 E20.22489
G1 X112.777 Y93.893 E20.22637
G1 X112.626 Y93.28 E20.24737
G1 X112.612 Y93.24 E20.24877
