;FLAVOR:Marlin
;TIME:11002
;Filament used: 6.14626m
;Layer height: 0.2
;MINX:41.692
;MINY:11.424
;MINZ:0.2
;MAXX:178.308
;MAXY:208.576
;MAXZ:18.8
;Generated with Cura_SteamEngine master
M82 ;absolute extrusion mode
;Sliced at: Sun 16-04-2023 11:23:36
;Basic settings: Layer height: 0.2 Walls: 0.8 Fill: 20
G21 ;metric values
G90 ;absolute positioning
M82 ;set extruder to absolute mode
M107 ;start with the fan off
M117 Start heating ...
M104 S200
M117 Homing X/Y ...
G28 X0 Y0 ;move X/Y to min endstops
M117 Homing Z ...
G28 Z0 ;move Z to min endstops
G1 Z15.0 F100 ;move the platform down 15mm
M117 Heating ...
M109 S200
M117 Start cleaning ...
G92 E0 ;zero the extruded length
G1 F200 E10 ;extrude 10mm of feed stock
G92 E0 ;zero the extruded length again
M117 Intro line ...
G1 Z2.0 F3000 ; Move Z Axis up little to prevent scratching of Heat Bed
G1 X0.1 Y20 Z0.2 F5000.0 ; Move to start position
G1 X0.1 Y200.0 Z0.2 F1500.0 E15 ; Draw the first line
G1 X0.4 Y200.0 Z0.2 F5000.0 ; Move to side a little
G1 X0.4 Y20 Z0.3 F1500.0 E30 ; Draw the second line
G92 E0 ; Reset Extruder
G1 E-1 F500 ; Retract filiment by 1 mm
G1 Z2.0 F3000 ; Move Z Axis up little to prevent scratching of Heat Bed
G1 X5 Y20 Z0.3 F100 ; Move over to prevent blob squish
G1 F100
G92 E0 ; Reset Extruder
M117 Printing...

G92 E0
G92 E0
G1 F1800 E-7
;LAYER_COUNT:93
;LAYER:0
M107
G1 F300 Z0.4
G0 F3000 X42.083 Y16.347 Z0.4
;TYPE:SKIRT
G1 F300 Z0.2
G1 F1800 E0
G1 F1200 X42.423 Y15.759 E0.02259
G1 X42.691 Y15.375 E0.03817
G1 X43.83 Y13.788 E0.10314
G1 X44.273 Y13.15 E0.12897
G1 X44.628 Y12.71 E0.14777
G1 X45.041 Y12.324 E0.16658
G1 X45.505 Y12 E0.1854
G1 X46.009 Y11.745 E0.20419
G1 X46.545 Y11.563 E0.22301
G1 X47.1 Y11.459 E0.24179
G1 X47.771 Y11.426 E0.26414
G1 X47.882 Y11.424 E0.26783
G1 X50.352 Y11.424 E0.34998
G1 X51.053 Y11.434 E0.3733
G1 X51.616 Y11.482 E0.39209
G1 X52.167 Y11.609 E0.4109
G1 X52.695 Y11.813 E0.42973
G1 X53.272 Y12.145 E0.45187
G1 X53.734 Y12.465 E0.47056
G1 X55.14 Y13.474 E0.52812
G1 X57.402 Y15.001 E0.61889
G1 X59.689 Y16.454 E0.70901
G1 X62.023 Y17.844 E0.79937
G1 X64.388 Y19.164 E0.88945
G1 X66.81 Y20.428 E0.98032
G1 X69.235 Y21.608 E1.07001
G1 X71.715 Y22.728 E1.16052
G1 X74.245 Y23.788 E1.25175
G1 X76.738 Y24.745 E1.34057
G1 X79.317 Y25.656 E1.43154
G1 X81.892 Y26.484 E1.52151
G1 X84.524 Y27.25 E1.61268
G1 X87.144 Y27.931 E1.70272
G1 X89.777 Y28.54 E1.7926
G1 X92.434 Y29.07 E1.88272
G1 X95.139 Y29.534 E1.974
G1 X97.818 Y29.916 E2.064
G1 X100.475 Y30.218 E2.15295
G1 X103.212 Y30.451 E2.24431
G1 X105.949 Y30.606 E2.33549
G1 X108.619 Y30.682 E2.42433
G1 X111.362 Y30.682 E2.51556
G1 X114.038 Y30.606 E2.6046
G1 X116.772 Y30.452 E2.69568
G1 X119.511 Y30.219 E2.78711
G1 X122.16 Y29.918 E2.87578
G1 X124.851 Y29.535 E2.96618
G1 X127.554 Y29.072 E3.0574
G1 X130.216 Y28.539 E3.14769
G1 X132.811 Y27.942 E3.23626
G1 X135.486 Y27.246 E3.32819
G1 X138.085 Y26.491 E3.41821
G1 X140.657 Y25.665 E3.50805
G1 X143.238 Y24.753 E3.5991
G1 X145.765 Y23.78 E3.68916
G1 X148.273 Y22.731 E3.77958
G1 X150.752 Y21.612 E3.87004
G1 X153.189 Y20.427 E3.96017
G1 X155.581 Y19.179 E4.04991
G1 X157.978 Y17.841 E4.14121
G1 X160.28 Y16.47 E4.23033
G1 X162.584 Y15.008 E4.32109
G1 X164.871 Y13.463 E4.41288
G1 X166.029 Y12.644 E4.46006
G1 X166.668 Y12.185 E4.48623
G1 X167.15 Y11.889 E4.50504
G1 X167.668 Y11.663 E4.52384
G1 X168.213 Y11.513 E4.54264
G1 X168.879 Y11.436 E4.56494
G1 X169.328 Y11.424 E4.57987
G1 X171.798 Y11.424 E4.66203
G1 X172.5 Y11.434 E4.68538
G1 X173.063 Y11.482 E4.70417
G1 X173.614 Y11.609 E4.72298
G1 X174.142 Y11.813 E4.7418
G1 X174.635 Y12.088 E4.76058
G1 X175.085 Y12.431 E4.7794
G1 X175.482 Y12.833 E4.79819
G1 X175.691 Y13.099 E4.80944
G1 X176.186 Y13.788 E4.83766
G1 X176.88 Y14.782 E4.87798
G1 X177.539 Y15.702 E4.91562
G1 X177.835 Y16.183 E4.93441
G1 X178.06 Y16.702 E4.95322
G1 X178.209 Y17.247 E4.97201
G1 X178.286 Y17.95 E4.99553
G1 X178.308 Y19.071 E5.03283
G1 X178.308 Y20.411 E5.07739
G1 X178.298 Y21.115 E5.10081
G1 X178.231 Y21.79 E5.12337
G1 X178.065 Y22.677 E5.15339
G1 X177.608 Y25.343 E5.24335
G1 X177.224 Y28.045 E5.33412
G1 X176.92 Y30.719 E5.42363
G1 X176.689 Y33.44 E5.51446
G1 X176.535 Y36.154 E5.60487
G1 X176.448 Y40.25 E5.74114
G1 X176.448 Y179.659 E10.3779
G1 X176.488 Y182.459 E10.47104
G1 X176.601 Y185.13 E10.55995
G1 X176.795 Y187.869 E10.65128
G1 X177.059 Y190.525 E10.74006
G1 X177.411 Y193.277 E10.83233
G1 X177.824 Y195.905 E10.92081
G1 X177.988 Y196.771 E10.95013
G1 X178.001 Y196.881 E10.95381
G1 X178.236 Y198.197 E10.99828
G1 X178.296 Y198.769 E11.01741
G1 X178.308 Y199.413 E11.03883
G1 X178.308 Y201.222 E11.099
G1 X178.298 Y201.927 E11.12245
G1 X178.25 Y202.49 E11.14124
G1 X178.123 Y203.041 E11.16005
G1 X177.919 Y203.568 E11.17884
G1 X177.579 Y204.158 E11.20149
G1 X176.928 Y205.091 E11.23933
G1 X176.158 Y206.23 E11.28506
G1 X175.726 Y206.851 E11.31022
G1 X175.371 Y207.291 E11.32902
G1 X174.957 Y207.677 E11.34785
G1 X174.494 Y208.001 E11.36664
G1 X173.989 Y208.256 E11.38546
G1 X173.454 Y208.437 E11.40425
G1 X172.898 Y208.541 E11.42306
G1 X172.233 Y208.574 E11.4452
G1 X172.119 Y208.576 E11.449
G1 X169.615 Y208.575 E11.53228
G1 X168.942 Y208.565 E11.55467
G1 X168.378 Y208.516 E11.5735
G1 X167.827 Y208.389 E11.5923
G1 X167.3 Y208.185 E11.6111
G1 X166.715 Y207.847 E11.63357
G1 X166.244 Y207.519 E11.65266
G1 X164.802 Y206.484 E11.7117
G1 X162.572 Y204.979 E11.80118
G1 X160.279 Y203.523 E11.89152
G1 X157.909 Y202.111 E11.98327
G1 X155.57 Y200.807 E12.07234
G1 X153.175 Y199.558 E12.16218
G1 X150.722 Y198.366 E12.25289
G1 X148.21 Y197.232 E12.34456
G1 X145.711 Y196.185 E12.43468
G1 X143.229 Y195.232 E12.52311
G1 X140.628 Y194.313 E12.61486
G1 X138.056 Y193.487 E12.7047
G1 X135.449 Y192.73 E12.795
G1 X132.837 Y192.051 E12.88476
G1 X130.153 Y191.432 E12.97637
G1 X127.508 Y190.903 E13.06609
G1 X124.827 Y190.445 E13.15655
G1 X122.167 Y190.066 E13.24591
G1 X119.442 Y189.757 E13.33713
G1 X116.748 Y189.528 E13.42706
G1 X114.004 Y189.373 E13.51847
G1 X111.336 Y189.298 E13.60724
G1 X108.594 Y189.298 E13.69844
G1 X105.918 Y189.375 E13.78748
G1 X103.181 Y189.53 E13.87866
G1 X100.452 Y189.762 E13.96975
G1 X97.785 Y190.066 E14.05903
G1 X95.074 Y190.452 E14.15011
G1 X92.429 Y190.906 E14.23937
G1 X89.737 Y191.445 E14.33068
G1 X87.151 Y192.04 E14.41894
G1 X84.47 Y192.739 E14.51109
G1 X81.872 Y193.495 E14.60109
G1 X79.288 Y194.326 E14.69137
G1 X76.697 Y195.241 E14.78276
G1 X74.209 Y196.2 E14.87144
G1 X71.68 Y197.258 E14.96262
G1 X69.221 Y198.369 E15.05237
G1 X66.781 Y199.555 E15.1426
G1 X64.35 Y200.823 E15.2338
G1 X61.975 Y202.15 E15.32428
G1 X59.667 Y203.525 E15.41364
G1 X57.383 Y204.976 E15.50364
G1 X55.071 Y206.538 E15.59644
G1 X53.932 Y207.345 E15.64287
G1 X53.332 Y207.776 E15.66744
G1 X52.85 Y208.072 E15.68625
G1 X52.332 Y208.298 E15.70505
G1 X51.787 Y208.448 E15.72385
G1 X51.122 Y208.525 E15.74612
G1 X50.673 Y208.537 E15.76106
G1 X48.168 Y208.536 E15.84437
G1 X47.496 Y208.526 E15.86673
G1 X46.933 Y208.477 E15.88552
G1 X46.382 Y208.35 E15.90433
G1 X45.855 Y208.146 E15.92312
G1 X45.362 Y207.87 E15.94192
G1 X44.912 Y207.528 E15.96071
G1 X44.515 Y207.125 E15.97953
G1 X44.306 Y206.858 E15.99081
G1 X43.979 Y206.401 E16.0095
G1 X43.035 Y205.045 E16.06445
G1 X42.742 Y204.643 E16.081
G1 X42.439 Y204.214 E16.09847
G1 X42.146 Y203.73 E16.11728
G1 X41.924 Y203.21 E16.13609
G1 X41.778 Y202.664 E16.15489
G1 X41.707 Y201.973 E16.17799
G1 X41.692 Y201.07 E16.20803
G1 X41.692 Y199.545 E16.25875
G1 X41.703 Y198.839 E16.28223
G1 X41.77 Y198.172 E16.30453
G1 X41.934 Y197.287 E16.33447
G1 X42.392 Y194.618 E16.42454
G1 X42.776 Y191.916 E16.51531
G1 X43.08 Y189.242 E16.60482
G1 X43.311 Y186.521 E16.69564
G1 X43.465 Y183.807 E16.78606
G1 X43.552 Y179.698 E16.92275
G1 X43.552 Y40.25 E21.56081
G1 X43.512 Y37.45 E21.65395
G1 X43.399 Y34.779 E21.74287
G1 X43.207 Y32.072 E21.83313
G1 X42.937 Y29.351 E21.92408
G1 X42.594 Y26.666 E22.0141
G1 X42.171 Y23.976 E22.10467
G1 X41.87 Y22.355 E22.15951
G1 X41.762 Y21.729 E22.18064
G1 X41.703 Y21.138 E22.20039
G1 X41.692 Y20.711 E22.2146
G1 X41.693 Y18.66 E22.28282
G1 X41.703 Y17.988 E22.30517
G1 X41.752 Y17.425 E22.32397
G1 X41.879 Y16.874 E22.34277
G1 X42.083 Y16.347 E22.36157
G0 F3000 X42.481 Y16.443
G1 F1200 X42.751 Y15.988 E22.37917
G1 X43.016 Y15.608 E22.39457
G1 X44.168 Y14.003 E22.46028
G1 X44.602 Y13.378 E22.48559
G1 X44.94 Y12.962 E22.50342
G1 X45.336 Y12.6 E22.52126
G1 X45.782 Y12.302 E22.53911
G1 X46.266 Y12.073 E22.55691
G1 X46.78 Y11.918 E22.57477
G1 X47.458 Y11.834 E22.59749
G1 X47.882 Y11.824 E22.6116
G1 X50.346 Y11.824 E22.69355
G1 X51.047 Y11.834 E22.71687
G1 X51.582 Y11.882 E22.73474
G1 X52.103 Y12.008 E22.75256
G1 X52.599 Y12.211 E22.77039
G1 X53.045 Y12.474 E22.78761
G1 X53.501 Y12.79 E22.80606
G1 X54.929 Y13.814 E22.86451
G1 X57.169 Y15.327 E22.95441
G1 X59.466 Y16.786 E23.04492
G1 X61.829 Y18.194 E23.13641
G1 X64.214 Y19.525 E23.22725
G1 X66.601 Y20.771 E23.31681
G1 X69.074 Y21.974 E23.40828
G1 X71.574 Y23.103 E23.49951
G1 X74.073 Y24.15 E23.58963
G1 X76.643 Y25.137 E23.68119
G1 X79.177 Y26.032 E23.77058
G1 X81.762 Y26.863 E23.86089
G1 X84.417 Y27.636 E23.95286
G1 X87.024 Y28.314 E24.04245
G1 X89.738 Y28.94 E24.13509
G1 X92.366 Y29.465 E24.22423
G1 X95.046 Y29.925 E24.31467
G1 X97.754 Y30.311 E24.40565
G1 X100.467 Y30.619 E24.49646
G1 X103.189 Y30.851 E24.58732
G1 X105.88 Y31.004 E24.67697
G1 X108.644 Y31.082 E24.76894
G1 X111.337 Y31.082 E24.85851
G1 X114.108 Y31.004 E24.95071
G1 X116.793 Y30.852 E25.04016
G1 X119.518 Y30.62 E25.13112
G1 X122.225 Y30.313 E25.22173
G1 X124.944 Y29.926 E25.31307
G1 X127.595 Y29.472 E25.40253
G1 X130.313 Y28.927 E25.49473
G1 X132.897 Y28.333 E25.58292
G1 X135.594 Y27.631 E25.67561
G1 X138.214 Y26.87 E25.76635
G1 X140.796 Y26.04 E25.85656
G1 X143.347 Y25.139 E25.94654
G1 X145.927 Y24.146 E26.03849
G1 X148.43 Y23.099 E26.12873
G1 X150.897 Y21.986 E26.21875
G1 X153.37 Y20.783 E26.31021
G1 X155.782 Y19.525 E26.40069
G1 X158.172 Y18.191 E26.49173
G1 X160.52 Y16.793 E26.58262
G1 X162.801 Y15.345 E26.67248
G1 X165.061 Y13.818 E26.7632
G1 X166.285 Y12.953 E26.81305
G1 X166.902 Y12.51 E26.83831
G1 X167.359 Y12.231 E26.85612
G1 X167.854 Y12.022 E26.87399
G1 X168.373 Y11.889 E26.89181
G1 X168.892 Y11.836 E26.90916
G1 X169.328 Y11.824 E26.92367
G1 X171.792 Y11.824 E27.00562
G1 X172.494 Y11.834 E27.02897
G1 X173.028 Y11.882 E27.0468
G1 X173.55 Y12.008 E27.06467
G1 X174.046 Y12.211 E27.08249
G1 X174.507 Y12.485 E27.10033
G1 X174.923 Y12.824 E27.11818
G1 X175.366 Y13.333 E27.14062
G1 X175.858 Y14.017 E27.16864
G1 X176.549 Y15.007 E27.2088
G1 X177.214 Y15.935 E27.24677
G1 X177.493 Y16.393 E27.26461
G1 X177.7 Y16.887 E27.28242
G1 X177.832 Y17.407 E27.30027
G1 X177.886 Y17.958 E27.31868
G1 X177.908 Y19.071 E27.35571
G1 X177.908 Y20.405 E27.40007
G1 X177.898 Y21.109 E27.42349
G1 X177.837 Y21.716 E27.44378
G1 X177.672 Y22.603 E27.47379
G1 X177.212 Y25.29 E27.56446
G1 X176.83 Y27.979 E27.6548
G1 X176.519 Y30.707 E27.74612
G1 X176.289 Y33.418 E27.83661
G1 X176.136 Y36.125 E27.92679
G1 X176.048 Y40.244 E28.06382
G1 X176.048 Y179.665 E32.70098
G1 X176.087 Y182.446 E32.79348
G1 X176.203 Y185.175 E32.88433
G1 X176.397 Y187.904 E32.97533
G1 X176.662 Y190.579 E33.06474
G1 X177.012 Y193.319 E33.15661
G1 X177.43 Y195.976 E33.24607
G1 X177.595 Y196.845 E33.27549
G1 X177.607 Y196.95 E33.279
G1 X177.842 Y198.267 E33.3235
G1 X177.896 Y198.782 E33.34072
G1 X177.908 Y199.418 E33.36188
G1 X177.908 Y201.216 E33.42168
G1 X177.898 Y201.921 E33.44513
G1 X177.85 Y202.455 E33.46296
G1 X177.724 Y202.976 E33.48079
G1 X177.521 Y203.473 E33.49865
G1 X177.251 Y203.93 E33.5163
G1 X176.566 Y204.912 E33.55612
G1 X175.829 Y206.002 E33.59989
G1 X175.397 Y206.623 E33.62505
G1 X175.059 Y207.039 E33.64288
G1 X174.663 Y207.4 E33.6607
G1 X174.217 Y207.699 E33.67856
G1 X173.732 Y207.928 E33.6964
G1 X173.219 Y208.082 E33.71421
G1 X172.543 Y208.166 E33.73687
G1 X172.12 Y208.176 E33.75094
G1 X169.621 Y208.175 E33.83406
G1 X168.948 Y208.165 E33.85644
G1 X168.413 Y208.117 E33.87431
G1 X167.892 Y207.99 E33.89215
G1 X167.396 Y207.787 E33.90997
G1 X166.944 Y207.519 E33.92745
G1 X166.478 Y207.194 E33.94634
G1 X165.039 Y206.162 E34.00524
G1 X162.779 Y204.637 E34.09592
G1 X160.476 Y203.175 E34.18665
G1 X158.144 Y201.785 E34.27695
G1 X155.756 Y200.453 E34.36789
G1 X153.328 Y199.187 E34.45897
G1 X150.883 Y197.999 E34.54938
G1 X148.425 Y196.889 E34.63908
G1 X145.843 Y195.808 E34.73218
G1 X143.324 Y194.841 E34.82193
G1 X140.767 Y193.938 E34.91212
G1 X138.185 Y193.108 E35.00232
G1 X135.557 Y192.344 E35.09335
G1 X132.922 Y191.659 E35.1839
G1 X130.224 Y191.037 E35.27599
G1 X127.582 Y190.51 E35.3656
G1 X124.914 Y190.053 E35.45563
G1 X122.197 Y189.666 E35.54691
G1 X119.485 Y189.358 E35.63769
G1 X116.77 Y189.128 E35.72831
G1 X114.072 Y188.975 E35.81819
G1 X111.311 Y188.898 E35.91006
G1 X108.617 Y188.898 E35.99966
G1 X105.85 Y188.977 E36.09173
G1 X103.158 Y189.13 E36.18141
G1 X100.44 Y189.361 E36.27214
G1 X97.725 Y189.67 E36.36302
G1 X95.022 Y190.056 E36.45384
G1 X92.348 Y190.514 E36.54407
G1 X89.675 Y191.05 E36.63475
G1 X87.033 Y191.657 E36.72491
G1 X84.362 Y192.353 E36.81671
G1 X81.742 Y193.116 E36.90747
G1 X79.148 Y193.95 E36.9981
G1 X76.6 Y194.85 E37.08798
G1 X74.035 Y195.838 E37.1794
G1 X71.539 Y196.883 E37.2694
G1 X69.031 Y198.016 E37.36093
G1 X66.6 Y199.198 E37.45084
G1 X64.177 Y200.462 E37.54174
G1 X61.781 Y201.8 E37.63301
G1 X59.444 Y203.193 E37.7235
G1 X57.15 Y204.65 E37.81389
G1 X54.897 Y206.172 E37.90432
G1 X53.677 Y207.035 E37.95402
G1 X53.098 Y207.451 E37.97774
G1 X52.641 Y207.73 E37.99554
G1 X52.147 Y207.939 E38.01339
G1 X51.627 Y208.072 E38.03124
G1 X51.109 Y208.125 E38.04856
G1 X50.674 Y208.137 E38.06303
G1 X48.174 Y208.136 E38.14618
G1 X47.502 Y208.126 E38.16853
G1 X46.968 Y208.078 E38.18637
G1 X46.447 Y207.951 E38.2042
G1 X45.951 Y207.748 E38.22203
G1 X45.49 Y207.474 E38.23986
G1 X45.075 Y207.134 E38.25771
G1 X44.631 Y206.625 E38.28017
G1 X44.307 Y206.172 E38.2987
G1 X43.339 Y204.781 E38.35506
G1 X43.068 Y204.412 E38.37029
G1 X42.765 Y203.983 E38.38776
G1 X42.49 Y203.523 E38.40558
G1 X42.285 Y203.027 E38.42343
G1 X42.156 Y202.507 E38.44125
G1 X42.107 Y201.966 E38.45932
G1 X42.092 Y201.07 E38.48913
G1 X42.092 Y199.551 E38.53965
G1 X42.103 Y198.845 E38.56313
G1 X42.163 Y198.245 E38.58319
G1 X42.327 Y197.36 E38.61312
G1 X42.788 Y194.671 E38.70387
G1 X43.17 Y191.982 E38.7942
G1 X43.481 Y189.254 E38.88552
G1 X43.711 Y186.543 E38.97601
G1 X43.864 Y183.836 E39.06619
G1 X43.952 Y179.707 E39.20355
G1 X43.952 Y40.244 E43.84211
G1 X43.913 Y37.463 E43.93462
G1 X43.797 Y34.734 E44.02547
G1 X43.603 Y32.005 E44.11646
G1 X43.338 Y29.328 E44.20594
G1 X42.988 Y26.59 E44.29774
G1 X42.567 Y23.912 E44.38791
G1 X42.264 Y22.287 E44.44289
G1 X42.156 Y21.661 E44.46402
G1 X42.103 Y21.127 E44.48186
G1 X42.092 Y20.711 E44.4957
G1 X42.093 Y18.666 E44.56372
G1 X42.103 Y17.994 E44.58607
G1 X42.151 Y17.46 E44.60391
G1 X42.278 Y16.939 E44.62174
G1 X42.481 Y16.443 E44.63957
G0 F3000 X42.879 Y16.544
G1 F1200 X43.317 Y15.876 E44.66614
G1 X44.493 Y14.236 E44.73326
G1 X44.93 Y13.607 E44.75873
G1 X45.251 Y13.216 E44.77556
G1 X45.629 Y12.88 E44.79238
G1 X46.055 Y12.608 E44.80919
G1 X46.519 Y12.406 E44.82602
G1 X47.008 Y12.281 E44.84281
G1 X47.793 Y12.225 E44.86898
G1 X50.341 Y12.224 E44.95373
G1 X51.042 Y12.234 E44.97705
G1 X51.545 Y12.281 E44.99385
G1 X52.035 Y12.407 E45.01068
G1 X52.498 Y12.609 E45.02748
G1 X53.223 Y13.084 E45.05631
G1 X54.677 Y14.126 E45.1158
G1 X56.961 Y15.669 E45.20748
G1 X59.268 Y17.134 E45.29838
G1 X61.62 Y18.536 E45.38945
G1 X64.001 Y19.865 E45.48014
G1 X66.447 Y21.142 E45.57192
G1 X68.913 Y22.34 E45.6631
G1 X71.391 Y23.46 E45.75355
G1 X73.952 Y24.533 E45.8459
G1 X76.47 Y25.5 E45.93561
G1 X79.058 Y26.414 E46.0269
G1 X81.636 Y27.243 E46.11697
G1 X84.309 Y28.021 E46.20956
G1 X86.939 Y28.705 E46.29995
G1 X89.635 Y29.327 E46.39197
G1 X92.292 Y29.858 E46.48209
G1 X94.994 Y30.321 E46.57327
G1 X97.724 Y30.71 E46.66499
G1 X100.424 Y31.018 E46.75537
G1 X103.133 Y31.248 E46.8458
G1 X105.881 Y31.404 E46.93734
G1 X108.633 Y31.482 E47.02891
G1 X111.349 Y31.482 E47.11925
G1 X114.105 Y31.404 E47.21095
G1 X116.85 Y31.249 E47.30239
