;FLAVOR:Marlin
;TIME:11147
;Filament used: 5.86478m
;Layer height: 0.2
;MINX:11.424
;MINY:34.19
;MINZ:0.2
;MAXX:208.576
;MAXY:185.81
;MAXZ:18.8
;Generated with Cura_SteamEngine master
M82 ;absolute extrusion mode
;Sliced at: Sat 15-04-2023 22:26:41
;Basic settings: Layer height: 0.2 Walls: 0.8 Fill: 20
G21 ;metric values
G90 ;absolute positioning
M82 ;set extruder to absolute mode
M107 ;start with the fan off
M117 Start heating ...
M104 S200
M117 Homing X/Y ...
G28 X0 Y0 ;move X/Y to min endstops
M117 Homing Z ...
G28 Z0 ;move Z to min endstops
G1 Z15.0 F100 ;move the platform down 15mm
M117 Heating ...
M109 S200
M117 Start cleaning ...
G92 E0 ;zero the extruded length
G1 F200 E10 ;extrude 10mm of feed stock
G92 E0 ;zero the extruded length again
M117 Intro line ...
G1 Z2.0 F3000 ; Move Z Axis up little to prevent scratching of Heat Bed
G1 X0.1 Y20 Z0.2 F5000.0 ; Move to start position
G1 X0.1 Y200.0 Z0.2 F1500.0 E15 ; Draw the first line
G1 X0.4 Y200.0 Z0.2 F5000.0 ; Move to side a little
G1 X0.4 Y20 Z0.3 F1500.0 E30 ; Draw the second line
G92 E0 ; Reset Extruder
G1 E-1 F500 ; Retract filiment by 1 mm
G1 Z2.0 F3000 ; Move Z Axis up little to prevent scratching of Heat Bed
G1 X5 Y20 Z0.3 F100 ; Move over to prevent blob squish
G1 F100
G92 E0 ; Reset Extruder
M117 Printing...

G92 E0
G92 E0
G1 F1800 E-7
;LAYER_COUNT:93
;LAYER:0
M107
G1 F300 Z0.4
G0 F3000 X15.628 Y34.631 Z0.4
;TYPE:SKIRT
G1 F300 Z0.2
G1 F1800 E0
G1 F1200 X16.149 Y34.412 E0.0188
G1 X16.696 Y34.268 E0.03761
G1 X17.324 Y34.201 E0.05862
G1 X17.756 Y34.19 E0.07299
G1 X20.411 Y34.19 E0.16129
G1 X21.115 Y34.2 E0.18471
G1 X21.79 Y34.267 E0.20727
G1 X22.677 Y34.433 E0.23729
G1 X25.343 Y34.89 E0.32725
G1 X28.045 Y35.274 E0.41802
G1 X30.719 Y35.578 E0.50753
G1 X33.44 Y35.809 E0.59836
G1 X36.154 Y35.963 E0.68877
G1 X40.263 Y36.05 E0.82547
G1 X179.659 Y36.05 E5.4618
G1 X182.459 Y36.01 E5.55494
G1 X185.129 Y35.897 E5.64382
G1 X187.869 Y35.703 E5.73518
G1 X190.525 Y35.439 E5.82396
G1 X193.277 Y35.087 E5.91624
G1 X195.905 Y34.674 E6.00472
G1 X196.771 Y34.51 E6.03403
G1 X196.884 Y34.497 E6.03781
G1 X198.201 Y34.262 E6.08231
G1 X198.77 Y34.202 E6.10134
G1 X199.413 Y34.19 E6.12273
G1 X201.267 Y34.19 E6.18439
G1 X201.97 Y34.2 E6.20778
G1 X202.533 Y34.248 E6.22657
G1 X203.084 Y34.375 E6.24538
G1 X203.612 Y34.579 E6.2642
G1 X204.197 Y34.916 E6.28666
G1 X205.074 Y35.527 E6.32221
G1 X205.581 Y35.891 E6.34297
G1 X205.739 Y35.998 E6.34932
G1 X206.852 Y36.773 E6.39442
G1 X207.292 Y37.128 E6.41323
G1 X207.677 Y37.542 E6.43203
G1 X208.001 Y38.006 E6.45085
G1 X208.255 Y38.51 E6.46963
G1 X208.436 Y39.046 E6.48844
G1 X208.54 Y39.602 E6.50726
G1 X208.574 Y40.252 E6.5289
G1 X208.576 Y40.379 E6.53313
G1 X208.575 Y42.883 E6.61641
G1 X208.565 Y43.556 E6.6388
G1 X208.516 Y44.12 E6.65763
G1 X208.389 Y44.671 E6.67643
G1 X208.185 Y45.198 E6.69523
G1 X207.909 Y45.691 E6.71402
G1 X207.567 Y46.141 E6.73282
G1 X207.139 Y46.627 E6.75436
G1 X205.388 Y48.676 E6.84401
G1 X203.664 Y50.813 E6.93533
G1 X202.036 Y52.951 E7.02471
G1 X200.432 Y55.187 E7.11623
G1 X198.938 Y57.399 E7.20501
G1 X197.469 Y59.712 E7.29615
G1 X196.071 Y62.058 E7.38698
G1 X194.771 Y64.386 E7.47566
G1 X193.495 Y66.832 E7.56742
G1 X192.308 Y69.272 E7.65767
G1 X191.188 Y71.75 E7.74812
G1 X190.144 Y74.244 E7.83804
G1 X189.168 Y76.784 E7.92855
G1 X188.271 Y79.328 E8.01826
G1 X187.436 Y81.924 E8.10896
G1 X186.675 Y84.538 E8.19952
G1 X185.991 Y87.166 E8.28984
G1 X185.379 Y89.818 E8.38036
G1 X184.855 Y92.436 E8.46916
G1 X184.391 Y95.149 E8.56071
G1 X184.007 Y97.84 E8.65112
G1 X183.705 Y100.498 E8.74009
G1 X183.472 Y103.232 E8.83135
G1 X183.317 Y105.971 E8.9226
G1 X183.241 Y108.627 E9.01097
G1 X183.241 Y111.387 E9.10277
G1 X183.317 Y114.057 E9.19161
G1 X183.469 Y116.769 E9.28196
G1 X183.704 Y119.533 E9.37422
G1 X184.003 Y122.172 E9.46255
G1 X184.386 Y124.86 E9.55286
G1 X184.851 Y127.576 E9.64451
G1 X185.384 Y130.239 E9.73484
G1 X185.981 Y132.834 E9.8234
G1 X186.677 Y135.508 E9.9153
G1 X187.424 Y138.081 E10.00441
G1 X188.267 Y140.701 E10.09596
G1 X189.173 Y143.269 E10.18653
G1 X190.134 Y145.763 E10.27542
G1 X191.195 Y148.304 E10.36701
G1 X192.296 Y150.74 E10.45592
G1 X193.482 Y153.182 E10.54621
G1 X194.751 Y155.616 E10.63751
G1 X196.09 Y158.015 E10.72889
G1 X197.448 Y160.294 E10.81713
G1 X198.915 Y162.606 E10.9082
G1 X200.45 Y164.878 E10.9994
G1 X202.002 Y167.044 E11.08802
G1 X203.68 Y169.248 E11.18015
G1 X205.371 Y171.345 E11.26975
G1 X207.139 Y173.414 E11.36027
G1 X207.566 Y173.904 E11.38189
G1 X207.902 Y174.358 E11.40067
G1 X208.171 Y174.855 E11.41947
G1 X208.367 Y175.386 E11.4383
G1 X208.487 Y175.938 E11.45708
G1 X208.535 Y176.703 E11.48258
G1 X208.537 Y176.829 E11.48677
G1 X208.536 Y179.334 E11.57009
G1 X208.526 Y180.005 E11.59241
G1 X208.477 Y180.568 E11.6112
G1 X208.35 Y181.119 E11.63001
G1 X208.146 Y181.646 E11.6488
G1 X207.87 Y182.139 E11.6676
G1 X207.528 Y182.589 E11.6864
G1 X207.252 Y182.873 E11.69957
G1 X205.283 Y184.706 E11.78904
G1 X204.844 Y185.06 E11.8078
G1 X204.811 Y185.083 E11.80914
G1 X204.326 Y185.372 E11.82791
G1 X203.804 Y185.591 E11.84674
G1 X203.257 Y185.733 E11.86554
G1 X202.637 Y185.799 E11.88628
G1 X202.205 Y185.81 E11.90065
G1 X199.55 Y185.81 E11.98895
G1 X198.849 Y185.8 E12.01227
G1 X198.177 Y185.733 E12.03473
G1 X197.287 Y185.568 E12.06484
G1 X194.618 Y185.11 E12.15491
G1 X191.916 Y184.726 E12.24568
G1 X189.242 Y184.422 E12.33519
G1 X186.521 Y184.191 E12.42602
G1 X183.807 Y184.037 E12.51643
G1 X179.698 Y183.95 E12.65313
G1 X40.302 Y183.95 E17.28946
G1 X37.502 Y183.99 E17.38259
G1 X34.832 Y184.103 E17.47148
G1 X32.092 Y184.297 E17.56284
G1 X29.436 Y184.561 E17.65161
G1 X26.684 Y184.913 E17.74389
G1 X24.056 Y185.326 E17.83237
G1 X23.19 Y185.49 E17.86169
G1 X23.077 Y185.503 E17.86547
G1 X21.76 Y185.738 E17.90997
G1 X21.191 Y185.798 E17.929
G1 X20.548 Y185.81 E17.95039
G1 X18.693 Y185.81 E18.01208
G1 X17.992 Y185.8 E18.0354
G1 X17.429 Y185.752 E18.05419
G1 X16.878 Y185.625 E18.073
G1 X16.35 Y185.421 E18.09183
G1 X15.779 Y185.094 E18.11371
G1 X15.451 Y184.866 E18.127
G1 X13.74 Y183.639 E18.19703
G1 X13.149 Y183.228 E18.22097
G1 X12.709 Y182.873 E18.23977
G1 X12.323 Y182.46 E18.25858
G1 X12 Y181.996 E18.27738
G1 X11.745 Y181.492 E18.29617
G1 X11.563 Y180.956 E18.31499
G1 X11.459 Y180.401 E18.33377
G1 X11.426 Y179.731 E18.35609
G1 X11.424 Y179.62 E18.35978
G1 X11.424 Y177.15 E18.44193
G1 X11.434 Y176.447 E18.46532
G1 X11.482 Y175.884 E18.48411
G1 X11.609 Y175.333 E18.50292
G1 X11.813 Y174.805 E18.52174
G1 X12.088 Y174.312 E18.54052
G1 X12.433 Y173.86 E18.55943
G1 X12.795 Y173.449 E18.57765
G1 X14.584 Y171.357 E18.6692
G1 X16.279 Y169.258 E18.75893
G1 X17.928 Y167.092 E18.84948
G1 X19.524 Y164.871 E18.94044
G1 X21.041 Y162.626 E19.03056
G1 X22.495 Y160.338 E19.12072
G1 X23.886 Y158.006 E19.21104
G1 X25.207 Y155.641 E19.30114
G1 X26.465 Y153.233 E19.3915
G1 X27.645 Y150.81 E19.48114
G1 X28.778 Y148.304 E19.57261
G1 X29.836 Y145.781 E19.6636
G1 X30.797 Y143.281 E19.75269
G1 X31.705 Y140.715 E19.84322
G1 X32.529 Y138.155 E19.93266
G1 X33.299 Y135.51 E20.02429
G1 X33.98 Y132.898 E20.11407
G1 X34.593 Y130.246 E20.2046
G1 X35.126 Y127.585 E20.29486
G1 X35.581 Y124.934 E20.38433
G1 X35.971 Y122.207 E20.47595
G1 X36.276 Y119.528 E20.56563
G1 X36.505 Y116.853 E20.65492
G1 X36.662 Y114.084 E20.74717
G1 X36.739 Y111.413 E20.83604
G1 X36.741 Y108.669 E20.92731
G1 X36.666 Y105.998 E21.01618
G1 X36.512 Y103.257 E21.10749
G1 X36.284 Y100.56 E21.19752
G1 X35.976 Y97.838 E21.28863
G1 X35.598 Y95.176 E21.37805
G1 X35.139 Y92.492 E21.46862
G1 X34.606 Y89.828 E21.55898
G1 X34.002 Y87.195 E21.64883
G1 X33.322 Y84.578 E21.73876
G1 X32.555 Y81.935 E21.8303
G1 X31.733 Y79.374 E21.91975
G1 X30.824 Y76.795 E22.0107
G1 X29.853 Y74.273 E22.10059
G1 X28.795 Y71.74 E22.19189
G1 X27.698 Y69.307 E22.28066
G1 X26.506 Y66.855 E22.37134
G1 X25.231 Y64.407 E22.46314
G1 X23.932 Y62.077 E22.55187
G1 X22.546 Y59.749 E22.64198
G1 X21.073 Y57.428 E22.73341
G1 X19.569 Y55.199 E22.82285
G1 X17.974 Y52.974 E22.9139
G1 X16.345 Y50.83 E23.00346
G1 X14.634 Y48.707 E23.09415
G1 X12.834 Y46.599 E23.18634
G1 X12.399 Y46.101 E23.20833
G1 X12.062 Y45.647 E23.22714
G1 X11.792 Y45.15 E23.24595
G1 X11.595 Y44.62 E23.26476
G1 X11.475 Y44.068 E23.28355
G1 X11.426 Y43.293 E23.30937
G1 X11.424 Y43.17 E23.31347
G1 X11.424 Y40.7 E23.39562
G1 X11.434 Y39.998 E23.41897
G1 X11.482 Y39.435 E23.43776
G1 X11.609 Y38.884 E23.45657
G1 X11.813 Y38.356 E23.4754
G1 X12.088 Y37.863 E23.49417
G1 X12.431 Y37.413 E23.51299
G1 X12.71 Y37.126 E23.5263
G1 X14.683 Y35.291 E23.61592
G1 X15.113 Y34.943 E23.63432
G1 X15.143 Y34.922 E23.63554
G1 X15.628 Y34.631 E23.65435
G0 F3000 X15.834 Y34.976
G1 F1200 X16.33 Y34.773 E23.67218
G1 X16.851 Y34.647 E23.69
G1 X17.654 Y34.591 E23.71678
G1 X20.405 Y34.59 E23.80827
G1 X21.109 Y34.6 E23.83169
G1 X21.716 Y34.661 E23.85198
G1 X22.574 Y34.821 E23.88101
G1 X25.29 Y35.286 E23.97266
G1 X27.979 Y35.668 E24.063
G1 X30.707 Y35.979 E24.15432
G1 X33.418 Y36.209 E24.24481
G1 X36.125 Y36.362 E24.33499
G1 X40.254 Y36.45 E24.47235
G1 X179.665 Y36.45 E29.10918
G1 X182.446 Y36.411 E29.20168
G1 X185.174 Y36.295 E29.2925
G1 X187.904 Y36.101 E29.38353
G1 X190.579 Y35.836 E29.47294
G1 X193.319 Y35.486 E29.56481
G1 X195.976 Y35.068 E29.65427
G1 X196.845 Y34.903 E29.68369
G1 X196.954 Y34.891 E29.68733
G1 X198.271 Y34.656 E29.73183
G1 X198.783 Y34.602 E29.74895
G1 X199.418 Y34.59 E29.77008
G1 X201.261 Y34.59 E29.83138
G1 X201.964 Y34.6 E29.85476
G1 X202.498 Y34.648 E29.87259
G1 X203.02 Y34.774 E29.89045
G1 X203.516 Y34.977 E29.90828
G1 X203.969 Y35.245 E29.92578
G1 X204.841 Y35.852 E29.96112
G1 X205.344 Y36.213 E29.98171
G1 X206.623 Y37.102 E30.03352
G1 X207.039 Y37.44 E30.05135
G1 X207.4 Y37.836 E30.06917
G1 X207.699 Y38.282 E30.08703
G1 X207.927 Y38.767 E30.10485
G1 X208.082 Y39.281 E30.12271
G1 X208.164 Y39.944 E30.14493
G1 X208.176 Y40.378 E30.15937
G1 X208.175 Y42.877 E30.24249
G1 X208.165 Y43.55 E30.26487
G1 X208.117 Y44.085 E30.28274
G1 X207.99 Y44.606 E30.30058
G1 X207.787 Y45.102 E30.3184
G1 X207.513 Y45.563 E30.33624
G1 X207.267 Y45.876 E30.34948
G1 X206.874 Y46.322 E30.36925
G1 X205.074 Y48.429 E30.46142
G1 X203.35 Y50.565 E30.55272
G1 X201.709 Y52.722 E30.64286
G1 X200.108 Y54.952 E30.73417
G1 X198.585 Y57.207 E30.82467
G1 X197.147 Y59.472 E30.91391
G1 X195.722 Y61.864 E31.00651
G1 X194.416 Y64.201 E31.09555
G1 X193.138 Y66.651 E31.18746
G1 X191.961 Y69.071 E31.27697
G1 X190.833 Y71.567 E31.36807
G1 X189.75 Y74.152 E31.46129
G1 X188.805 Y76.612 E31.54894
G1 X187.885 Y79.22 E31.64092
G1 X187.057 Y81.794 E31.73085
G1 X186.29 Y84.43 E31.82216
G1 X185.609 Y87.046 E31.91207
G1 X184.984 Y89.754 E32.0045
G1 X184.454 Y92.401 E32.09429
G1 X184 Y95.058 E32.18394
G1 X183.615 Y97.756 E32.27459
G1 X183.306 Y100.464 E32.36524
G1 X183.072 Y103.209 E32.45687
G1 X182.919 Y105.902 E32.54659
G1 X182.841 Y108.667 E32.63859
G1 X182.841 Y111.356 E32.72802
G1 X182.919 Y114.13 E32.82032
G1 X183.07 Y116.803 E32.90937
G1 X183.303 Y119.54 E33.00073
G1 X183.61 Y122.248 E33.09138
G1 X183.996 Y124.961 E33.18252
G1 X184.452 Y127.623 E33.27235
G1 X184.996 Y130.336 E33.36438
G1 X185.59 Y132.92 E33.45256
G1 X186.292 Y135.616 E33.54522
G1 X187.043 Y138.203 E33.63482
G1 X187.877 Y140.799 E33.72551
G1 X188.785 Y143.373 E33.81629
G1 X189.768 Y145.925 E33.90725
G1 X190.826 Y148.457 E33.99852
G1 X191.951 Y150.946 E34.08937
G1 X193.127 Y153.367 E34.17889
G1 X194.404 Y155.817 E34.27078
G1 X195.725 Y158.182 E34.36088
G1 X197.13 Y160.542 E34.45223
G1 X198.57 Y162.81 E34.54159
G1 X200.109 Y165.089 E34.63305
G1 X201.698 Y167.305 E34.72375
G1 X203.343 Y169.467 E34.8141
G1 X205.071 Y171.611 E34.90569
G1 X206.817 Y173.653 E34.99505
G1 X207.262 Y174.164 E35.01759
G1 X207.579 Y174.596 E35.03541
G1 X207.829 Y175.071 E35.05326
G1 X208.005 Y175.577 E35.07108
G1 X208.105 Y176.104 E35.08892
G1 X208.135 Y176.715 E35.10927
G1 X208.137 Y176.828 E35.11303
G1 X208.136 Y179.328 E35.19618
G1 X208.126 Y179.999 E35.2185
G1 X208.078 Y180.533 E35.23633
G1 X207.951 Y181.054 E35.25416
G1 X207.748 Y181.55 E35.27199
G1 X207.474 Y182.011 E35.28983
G1 X206.979 Y182.58 E35.31491
G1 X205.01 Y184.413 E35.40439
G1 X204.615 Y184.731 E35.42125
G1 X204.582 Y184.754 E35.42259
G1 X204.121 Y185.027 E35.44041
G1 X203.624 Y185.229 E35.45825
G1 X203.102 Y185.354 E35.47611
G1 X202.307 Y185.409 E35.50261
G1 X199.556 Y185.41 E35.59411
G1 X198.855 Y185.4 E35.61743
G1 X198.25 Y185.34 E35.63765
G1 X197.36 Y185.175 E35.66775
G1 X194.671 Y184.714 E35.7585
G1 X191.982 Y184.332 E35.84883
G1 X189.254 Y184.021 E35.94015
G1 X186.543 Y183.791 E36.03064
G1 X183.836 Y183.638 E36.12082
G1 X179.707 Y183.55 E36.25818
G1 X40.296 Y183.55 E40.89501
G1 X37.515 Y183.589 E40.98752
G1 X34.787 Y183.705 E41.07833
G1 X32.057 Y183.899 E41.16936
G1 X29.382 Y184.164 E41.25877
G1 X26.642 Y184.514 E41.35064
G1 X23.985 Y184.932 E41.4401
G1 X23.116 Y185.097 E41.46952
G1 X23.007 Y185.109 E41.47317
G1 X21.69 Y185.344 E41.51766
G1 X21.178 Y185.398 E41.53479
G1 X20.543 Y185.41 E41.55591
G1 X18.699 Y185.41 E41.61724
G1 X17.998 Y185.4 E41.64056
G1 X17.463 Y185.352 E41.65843
G1 X16.942 Y185.226 E41.67625
G1 X16.446 Y185.023 E41.69408
G1 X16.006 Y184.764 E41.71106
G1 X15.684 Y184.541 E41.72409
G1 X13.969 Y183.311 E41.79428
G1 X13.378 Y182.9 E41.81823
G1 X12.961 Y182.561 E41.8361
G1 X12.6 Y182.165 E41.85392
G1 X12.301 Y181.72 E41.87175
G1 X12.072 Y181.235 E41.88959
G1 X11.918 Y180.721 E41.90744
G1 X11.834 Y180.044 E41.93013
G1 X11.824 Y179.62 E41.94424
G1 X11.824 Y177.156 E42.02619
G1 X11.834 Y176.453 E42.04957
G1 X11.882 Y175.919 E42.06741
G1 X12.008 Y175.397 E42.08527
G1 X12.211 Y174.901 E42.10309
G1 X12.485 Y174.44 E42.12093
G1 X12.733 Y174.124 E42.13429
G1 X13.099 Y173.709 E42.15269
G1 X14.898 Y171.606 E42.24474
G1 X16.597 Y169.501 E42.33471
G1 X18.252 Y167.328 E42.42556
G1 X19.836 Y165.123 E42.51586
G1 X21.383 Y162.834 E42.60775
G1 X22.827 Y160.562 E42.69729
G1 X24.236 Y158.2 E42.78877
G1 X25.553 Y155.842 E42.8786
G1 X26.821 Y153.415 E42.96967
G1 X28.025 Y150.943 E43.06112
G1 X29.135 Y148.487 E43.15077
G1 X30.202 Y145.941 E43.24258
G1 X31.176 Y143.409 E43.33281
G1 X32.076 Y140.865 E43.42257
G1 X32.921 Y138.242 E43.51422
G1 X33.684 Y135.618 E43.60511
G1 X34.368 Y132.995 E43.69527
G1 X34.988 Y130.309 E43.78696
G1 X35.519 Y127.66 E43.87682
G1 X35.978 Y124.987 E43.96702
G1 X36.365 Y122.277 E44.05807
G1 X36.673 Y119.571 E44.14865
G1 X36.906 Y116.845 E44.23965
G1 X37.06 Y114.153 E44.32933
G1 X37.139 Y111.389 E44.4213
G1 X37.141 Y108.694 E44.51094
G1 X37.064 Y105.928 E44.60297
G1 X36.912 Y103.236 E44.69265
G1 X36.683 Y100.518 E44.78337
G1 X36.376 Y97.808 E44.87408
G1 X35.994 Y95.125 E44.96422
G1 X35.531 Y92.411 E45.05579
G1 X34.996 Y89.739 E45.14643
G1 X34.393 Y87.109 E45.23617
G1 X33.707 Y84.471 E45.32683
G1 X32.927 Y81.781 E45.41998
G1 X32.108 Y79.234 E45.50897
G1 X31.209 Y76.682 E45.59896
G1 X30.224 Y74.124 E45.69013
G1 X29.17 Y71.601 E45.78108
G1 X28.044 Y69.105 E45.87215
G1 X26.863 Y66.674 E45.96204
G1 X25.592 Y64.233 E46.05358
G1 X24.267 Y61.857 E46.14406
G1 X22.889 Y59.543 E46.23364
G1 X21.4 Y57.196 E46.32608
G1 X19.906 Y54.982 E46.41492
G1 X18.285 Y52.722 E46.50742
G1 X16.66 Y50.583 E46.59677
G1 X14.951 Y48.462 E46.68736
G1 X13.153 Y46.356 E46.77946
G1 X12.702 Y45.841 E46.80223
G1 X12.384 Y45.409 E46.82007
G1 X12.134 Y44.935 E46.8379
G1 X11.957 Y44.428 E46.85576
G1 X11.857 Y43.901 E46.8736
G1 X11.826 Y43.28 E46.89428
G1 X11.824 Y43.17 E46.89794
G1 X11.824 Y40.706 E46.97989
G1 X11.834 Y40.004 E47.00324
G1 X11.882 Y39.47 E47.02107
G1 X12.008 Y38.948 E47.03894
G1 X12.211 Y38.452 E47.05676
G1 X12.485 Y37.991 E47.0746
G1 X12.982 Y37.419 E47.0998
G1 X14.955 Y35.584 E47.18942
G1 X15.373 Y35.25 E47.20721
G1 X15.834 Y34.976 E47.22505
G0 F3000 X16.038 Y35.321
G1 F1200 X16.508 Y35.137 E47.24184
G1 X17.002 Y35.029 E47.25866
G1 X17.666 Y34.991 E47.28078
G1 X20.399 Y34.99 E47.37168
G1 X21.103 Y35 E47.39509
G1 X21.643 Y35.054 E47.41314
G1 X22.499 Y35.213 E47.4421
G1 X25.238 Y35.683 E47.53453
G1 X27.949 Y36.068 E47.62561
G1 X30.63 Y36.373 E47.71535
G1 X33.397 Y36.608 E47.80771
G1 X36.121 Y36.762 E47.89846
G1 X40.246 Y36.85 E48.03569
G1 X179.671 Y36.85 E52.67298
