;FLAVOR:Marlin
;TIME:1815
;Filament used: 1.55562m
;Layer height: 0.2
;MINX:96.365
;MINY:88.2
;MINZ:0.2
;MAXX:127.635
;MAXY:135.8
;MAXZ:8
;Generated with Cura_SteamEngine 4.2.1
M140 S60
M105
M190 S60
M104 S200
M105
M109 S200
M82 ;absolute extrusion mode
G21 ;metric values
G90 ;absolute positioning
M82 ;set extruder to absolute mode
M107 ;start with the fan off
G28 X0 Y0 ;move X/Y to min endstops
G28 Z0 ;move Z to min endstops
G1 Z15.0 F100 ;move the platform down 15mm
G92 E0 ;zero the extruded length
G1 F200 E3 ;extrude 3mm of feed stock
G92 E0 ;zero the extruded length again
G1 F100
M117 Printing...
G5
M141 S28
G92 E0
G92 E0
G1 F2400 E-6
;LAYER_COUNT:40
;LAYER:0
M106 S255
M204 S3000
M205 X10 Y10
;MESH:hanger.station-sonic.sensor.frame.stl
G0 F3000 X114.042 Y108.389 Z0.2
M204 S1800
M205 X8 Y8
;TYPE:WALL-INNER
G1 F2400 E0
G1 F1500 X116.01 Y107.73 E0.09664
G1 X117.784 Y106.667 E0.19294
G1 X119.288 Y105.25 E0.28916
G1 X120.455 Y103.544 E0.3854
G1 X121.232 Y101.629 E0.48164
G1 X121.578 Y99.59 E0.57794
G1 X121.484 Y97.526 E0.67415
G1 X120.931 Y95.475 E0.77306
G1 X119.963 Y93.635 E0.86987
G1 X118.624 Y92.049 E0.96652
G1 X116.975 Y90.787 E1.06321
G1 X115.198 Y89.957 E1.15454
G1 X115.095 Y89.909 E1.15983
G1 X113.069 Y89.455 E1.25651
G1 X110.959 Y89.447 E1.35476
G1 X108.928 Y89.892 E1.45157
G1 X108.789 Y89.956 E1.4587
G1 X107.044 Y90.765 E1.54826
G1 X105.39 Y92.02 E1.64494
G1 X104.046 Y93.603 E1.74163
G1 X103.071 Y95.437 E1.83835
G1 X102.514 Y97.435 E1.93493
G1 X102.397 Y99.497 E2.0311
G1 X102.727 Y101.539 E2.12742
G1 X103.485 Y103.462 E2.22367
G1 X104.638 Y105.177 E2.3199
G1 X106.129 Y106.607 E2.41609
G1 X107.895 Y107.685 E2.51244
G1 X109.848 Y108.359 E2.60864
G1 X111.9 Y108.599 E2.70484
G1 X114.042 Y108.389 E2.80506
M204 S3000
M205 X10 Y10
G0 F3000 X108.937 Y115.889
M204 S1800
M205 X8 Y8
G1 F1500 X107.048 Y116.762 E2.90196
G1 X105.396 Y118.016 E2.99853
G1 X104.051 Y119.594 E3.09508
G1 X103.076 Y121.424 E3.19163
G1 X102.517 Y123.421 E3.2882
G1 X102.397 Y125.496 E3.38498
G1 X102.742 Y127.589 E3.48375
G1 X103.497 Y129.485 E3.57878
G1 X104.658 Y131.204 E3.67537
G1 X106.16 Y132.634 E3.77194
G1 X107.935 Y133.707 E3.86852
G1 X108.942 Y134.05 E3.91805
G1 X109.898 Y134.374 E3.96506
G1 X111.923 Y134.6 E4.05993
G1 X109.898 Y134.6 E4.07885
G1 X108.888 Y134.6 E4.11205
G1 X97.565 Y134.6 E4.63929
G1 X97.565 Y89.4 E6.744
G1 X108.774 Y89.4 E7.26593
G1 X108.928 Y89.4 E7.27268
G1 X110.959 Y89.4 E7.3179
G1 X113.069 Y89.4 E7.32685
G1 X115.095 Y89.4 E7.37407
G1 X115.209 Y89.4 E7.37914
G1 X126.435 Y89.4 E7.90187
G1 X126.435 Y134.6 E10.00657
G1 X115.108 Y134.6 E10.53401
G1 X114.052 Y134.6 E10.58318
G1 X111.998 Y134.6 E10.67882
G1 X114.052 Y134.387 E10.69743
G1 X115.053 Y134.05 E10.73157
G1 X116.02 Y133.723 E10.77911
G1 X117.798 Y132.656 E10.87566
G1 X119.306 Y131.232 E10.97224
G1 X120.472 Y129.517 E11.06881
G1 X121.245 Y127.592 E11.1654
G1 X121.591 Y125.498 E11.26423
G1 X121.482 Y123.517 E11.35661
G1 X120.944 Y121.522 E11.45282
G1 X119.989 Y119.682 E11.54935
G1 X118.661 Y118.09 E11.64589
G1 X117.022 Y116.822 E11.74238
G1 X115.149 Y115.933 E11.83892
G1 X113.13 Y115.469 E11.93539
G1 X111.058 Y115.445 E12.03187
G1 X108.937 Y115.889 E12.13278
M204 S3000
M205 X10 Y10
G0 F3000 X109.114 Y116.424
M204 S1800
M205 X8 Y8
G1 F1500 X107.338 Y117.245 E12.22388
G1 X105.783 Y118.425 E12.31478
G1 X104.517 Y119.911 E12.40568
G1 X103.599 Y121.634 E12.49659
G1 X103.073 Y123.514 E12.58749
G1 X102.96 Y125.466 E12.67853
G1 X103.285 Y127.438 E12.7716
G1 X103.995 Y129.222 E12.86101
G1 X105.088 Y130.84 E12.95193
G1 X106.502 Y132.186 E13.04283
G1 X108.173 Y133.196 E13.13375
G1 X110.021 Y133.824 E13.22463
G1 X111.961 Y134.041 E13.31553
G1 X113.932 Y133.836 E13.4078
G1 X115.784 Y133.212 E13.4988
G1 X117.458 Y132.207 E13.58972
G1 X118.877 Y130.867 E13.6806
G1 X119.975 Y129.252 E13.77153
G1 X120.702 Y127.44 E13.86245
G1 X121.028 Y125.467 E13.95556
G1 X120.926 Y123.606 E14.04235
G1 X120.419 Y121.726 E14.13302
G1 X119.52 Y119.994 E14.22388
G1 X118.27 Y118.496 E14.31473
G1 X116.727 Y117.302 E14.40558
G1 X114.964 Y116.465 E14.49645
G1 X113.063 Y116.028 E14.58728
G1 X111.113 Y116.006 E14.67809
G1 X109.114 Y116.424 E14.77318
M204 S3000
M205 X10 Y10
G0 F3000 X109.083 Y116.33
G0 X113.944 Y107.935
G0 X113.924 Y107.838
M204 S1800
M205 X8 Y8
G1 F1500 X115.774 Y107.218 E14.86403
G1 X117.444 Y106.218 E14.95467
G1 X118.86 Y104.884 E15.04526
G1 X119.959 Y103.278 E15.13587
G1 X120.69 Y101.475 E15.22647
G1 X121.016 Y99.556 E15.3171
G1 X120.927 Y97.613 E15.40767
G1 X120.406 Y95.681 E15.50085
G1 X119.496 Y93.95 E15.59191
G1 X118.235 Y92.457 E15.68291
G1 X116.683 Y91.269 E15.77392
G1 X114.913 Y90.442 E15.86489
G1 X113.006 Y90.015 E15.95589
G1 X111.019 Y90.007 E16.04841
G1 X109.108 Y90.426 E16.13951
G1 X107.334 Y91.248 E16.23055
G1 X105.777 Y92.429 E16.32155
G1 X104.512 Y93.919 E16.41256
G1 X103.594 Y95.646 E16.50363
G1 X103.07 Y97.527 E16.59455
G1 X102.96 Y99.468 E16.68508
G1 X103.27 Y101.39 E16.77573
G1 X103.984 Y103.2 E16.86633
G1 X105.069 Y104.815 E16.95693
G1 X106.473 Y106.161 E17.0475
G1 X108.135 Y107.175 E17.13815
G1 X109.973 Y107.81 E17.2287
G1 X111.905 Y108.036 E17.31928
G1 X113.924 Y107.838 E17.41374
M204 S3000
M205 X10 Y10
G0 F3000 X113.944 Y107.935
G0 X104.484 Y119.889
G0 X103.962 Y120.869
G0 X97.075 Y135.09
G0 X97.005 Y135.16
M204 S1800
M205 X8 Y8
G1 F1500 X97.005 Y88.84 E19.57059
G1 X126.995 Y88.84 E20.96705
G1 X126.995 Y135.16 E23.12391
G1 X97.005 Y135.16 E24.52037
M204 S3000
M205 X10 Y10
G0 F3000 X96.445 Y135.72
M204 S1800
M205 X8 Y8
;TYPE:WALL-OUTER
G1 F1500 X96.445 Y88.28 E26.72937
G1 X127.555 Y88.28 E28.17798
G1 X127.555 Y135.72 E30.38699
G1 X96.445 Y135.72 E31.8356
M204 S3000
M205 X10 Y10
G0 F3000 X96.445 Y135.52
G0 X97.075 Y135.09
G0 X103.562 Y121.62
G0 X104.484 Y119.889
G0 X105.756 Y118.396
G0 X107.161 Y117.33
G0 X109.016 Y116.36
G0 X109.291 Y116.959
M204 S1800
M205 X8 Y8
G1 F1500 X107.628 Y117.728 E31.92092
G1 X106.17 Y118.834 E32.00613
G1 X104.983 Y120.228 E32.09138
G1 X104.122 Y121.844 E32.17665
G1 X103.629 Y123.607 E32.26189
G1 X103.523 Y125.436 E32.3472
G1 X103.828 Y127.287 E32.43455
G1 X104.493 Y128.959 E32.51834
G1 X105.518 Y130.476 E32.60359
G1 X106.844 Y131.738 E32.68883
G1 X108.411 Y132.685 E32.77408
G1 X110.144 Y133.274 E32.85931
G1 X111.963 Y133.478 E32.94454
G1 X113.812 Y133.285 E33.03111
G1 X115.548 Y132.701 E33.11639
G1 X117.118 Y131.758 E33.20167
G1 X118.448 Y130.502 E33.28685
G1 X119.478 Y128.987 E33.37216
G1 X120.159 Y127.288 E33.45739
G1 X120.465 Y125.436 E33.54479
G1 X120.37 Y123.695 E33.62598
G1 X119.894 Y121.93 E33.71111
G1 X119.051 Y120.306 E33.79631
G1 X117.879 Y118.902 E33.88147
G1 X116.432 Y117.782 E33.96667
G1 X114.779 Y116.997 E34.05188
G1 X112.996 Y116.587 E34.13707
G1 X111.168 Y116.567 E34.2222
G1 X109.291 Y116.959 E34.31148
M204 S3000
M205 X10 Y10
G0 F3000 X109.11 Y117.042
G0 X108.835 Y116.444
G0 X114.014 Y107.912
G0 X113.806 Y107.287
M204 S1800
M205 X8 Y8
G1 F1500 X115.538 Y106.706 E34.39655
G1 X117.104 Y105.769 E34.48152
G1 X118.432 Y104.518 E34.56648
G1 X119.463 Y103.012 E34.65146
G1 X120.148 Y101.321 E34.73642
G1 X120.454 Y99.522 E34.82139
G1 X120.37 Y97.7 E34.90632
G1 X119.881 Y95.887 E34.99376
G1 X119.029 Y94.265 E35.07907
G1 X117.846 Y92.865 E35.16442
G1 X116.391 Y91.751 E35.24975
G1 X114.731 Y90.975 E35.33507
G1 X112.943 Y90.575 E35.42039
G1 X111.079 Y90.567 E35.50718
G1 X109.288 Y90.96 E35.59256
G1 X107.624 Y91.731 E35.67796
G1 X106.164 Y92.838 E35.76327
G1 X104.978 Y94.235 E35.8486
G1 X104.117 Y95.855 E35.93403
G1 X103.626 Y97.619 E36.01929
G1 X103.523 Y99.439 E36.10418
G1 X103.813 Y101.241 E36.18916
G1 X104.483 Y102.938 E36.27412
G1 X105.5 Y104.453 E36.35908
G1 X106.817 Y105.715 E36.44402
G1 X108.375 Y106.665 E36.52899
G1 X110.099 Y107.261 E36.61393
G1 X111.91 Y107.473 E36.69883
G1 X113.806 Y107.287 E36.78754
M204 S3000
M205 X10 Y10
G0 F3000 X113.995 Y107.224
G0 X114.203 Y107.849
G0 X114.158 Y108.931
M204 S1800
M205 X8 Y8
;TYPE:SKIN
G1 F1500 X116.242 Y108.233 E36.88988
G1 X118.118 Y107.109 E36.99171
G1 X119.708 Y105.609 E37.0935
G1 X120.942 Y103.805 E37.19527
G1 X121.764 Y101.78 E37.29704
G1 X122.13 Y99.624 E37.39886
G1 X122.03 Y97.441 E37.50062
G1 X121.446 Y95.273 E37.60517
G1 X120.422 Y93.326 E37.7076
G1 X119.005 Y91.648 E37.80987
G1 X117.262 Y90.314 E37.91208
G1 X116.483 Y89.95 E37.95211
G1 X125.885 Y89.95 E38.38991
G1 X125.885 Y134.05 E40.44339
G1 X116.545 Y134.05 E40.8783
G1 X118.132 Y133.096 E40.96452
G1 X119.727 Y131.591 E41.06664
G1 X120.961 Y129.777 E41.16879
G1 X121.778 Y127.741 E41.27095
G1 X122.143 Y125.528 E41.37539
G1 X122.028 Y123.429 E41.47327
G1 X121.459 Y121.322 E41.5749
G1 X120.45 Y119.376 E41.67697
G1 X119.044 Y117.691 E41.77915
G1 X117.311 Y116.351 E41.88116
G1 X115.33 Y115.41 E41.98328
G1 X113.195 Y114.919 E42.08529
G1 X111.005 Y114.895 E42.18727
G1 X108.763 Y115.363 E42.29392
G1 X106.763 Y116.288 E42.39653
G1 X105.016 Y117.614 E42.49865
G1 X103.593 Y119.283 E42.60078
G1 X102.563 Y121.218 E42.70285
G1 X101.971 Y123.33 E42.80499
G1 X101.845 Y125.525 E42.90736
G1 X102.209 Y127.737 E43.01175
G1 X103.008 Y129.744 E43.11234
G1 X104.236 Y131.561 E43.21445
G1 X105.824 Y133.074 E43.31659
G1 X107.439 Y134.05 E43.40445
G1 X98.115 Y134.05 E43.83862
G1 X98.115 Y89.95 E45.8921
G1 X107.494 Y89.95 E46.32882
G1 X106.759 Y90.291 E46.36655
G1 X105.009 Y91.618 E46.46882
G1 X103.588 Y93.292 E46.57106
G1 X102.557 Y95.231 E46.67332
G1 X101.968 Y97.345 E46.77551
G1 X101.845 Y99.526 E46.87723
G1 X102.193 Y101.686 E46.9791
G1 X102.996 Y103.719 E47.08088
G1 X104.214 Y105.533 E47.18262
G1 X105.791 Y107.045 E47.28435
G1 X107.659 Y108.186 E47.38628
G1 X109.725 Y108.899 E47.48805
G1 X111.894 Y109.153 E47.58974
G1 X114.158 Y108.931 E47.69566
M204 S3000
M205 X10 Y10
G0 F3000 X117.468 Y106.249
G0 X118.89 Y104.91
G0 X119.994 Y103.296
G0 X125.056 Y90.21
M204 S1800
M205 X8 Y8
G1 F1500 X125.625 Y90.779 E47.73313
M204 S3000
M205 X10 Y10
G0 F3000 X125.625 Y91.571
M204 S1800
M205 X8 Y8
G1 F1500 X124.264 Y90.21 E47.82276
M204 S3000
M205 X10 Y10
G0 F3000 X123.472 Y90.21
M204 S1800
M205 X8 Y8
G1 F1500 X125.625 Y92.362 E47.9645
M204 S3000
M205 X10 Y10
G0 F3000 X125.625 Y93.154
M204 S1800
M205 X8 Y8
G1 F1500 X122.68 Y90.21 E48.1584
M204 S3000
M205 X10 Y10
G0 F3000 X121.888 Y90.21
M204 S1800
M205 X8 Y8
G1 F1500 X125.625 Y93.946 E48.40446
M204 S3000
M205 X10 Y10
G0 F3000 X125.625 Y94.738
M204 S1800
M205 X8 Y8
G1 F1500 X121.096 Y90.21 E48.70267
M204 S3000
M205 X10 Y10
G0 F3000 X120.305 Y90.21
M204 S1800
M205 X8 Y8
G1 F1500 X125.625 Y95.53 E49.053
M204 S3000
M205 X10 Y10
G0 F3000 X125.625 Y96.322
M204 S1800
M205 X8 Y8
G1 F1500 X119.513 Y90.21 E49.45548
M204 S3000
M205 X10 Y10
G0 F3000 X118.721 Y90.21
M204 S1800
M205 X8 Y8
G1 F1500 X125.625 Y97.114 E49.91012
M204 S3000
M205 X10 Y10
G0 F3000 X125.625 Y97.906
M204 S1800
M205 X8 Y8
G1 F1500 X119.223 Y91.505 E50.33167
M204 S3000
M205 X10 Y10
G0 F3000 X119.155 Y91.436
M204 S1800
M205 X8 Y8
G1 F1500 X117.929 Y90.21 E50.41241
G1 X117.859 Y90.14
M204 S3000
M205 X10 Y10
G0 F3000 X121.228 Y94.301
M204 S1800
M205 X8 Y8
G1 F1500 X125.625 Y98.698 E50.70196
M204 S3000
M205 X10 Y10
G0 F3000 X125.625 Y99.49
M204 S1800
M205 X8 Y8
G1 F1500 X121.828 Y95.693 E50.952
G1 X121.758 Y95.623
M204 S3000
M205 X10 Y10
G0 F3000 X122.12 Y96.777
M204 S1800
M205 X8 Y8
G1 F1500 X125.625 Y100.282 E51.18281
M204 S3000
M205 X10 Y10
G0 F3000 X125.625 Y101.074
M204 S1800
M205 X8 Y8
G1 F1500 X122.303 Y97.752 E51.40157
M204 S3000
M205 X10 Y10
G0 F3000 X122.341 Y98.582
M204 S1800
M205 X8 Y8
G1 F1500 X125.625 Y101.866 E51.61782
M204 S3000
M205 X10 Y10
G0 F3000 X125.625 Y102.658
M204 S1800
M205 X8 Y8
G1 F1500 X122.379 Y99.412 E51.83158
M204 S3000
M205 X10 Y10
G0 F3000 X122.306 Y100.131
M204 S1800
M205 X8 Y8
G1 F1500 X125.625 Y103.45 E52.05014
M204 S3000
M205 X10 Y10
G0 F3000 X125.625 Y104.242
M204 S1800
M205 X8 Y8
G1 F1500 X122.191 Y100.808 E52.27628
M204 S3000
M205 X10 Y10
G0 F3000 X122.076 Y101.485
M204 S1800
M205 X8 Y8
G1 F1500 X125.625 Y105.034 E52.50998
M204 S3000
M205 X10 Y10
G0 F3000 X125.625 Y105.826
M204 S1800
M205 X8 Y8
G1 F1500 X121.908 Y102.109 E52.75475
M204 S3000
M205 X10 Y10
G0 F3000 X121.68 Y102.673
M204 S1800
M205 X8 Y8
G1 F1500 X125.625 Y106.618 E53.01454
M204 S3000
M205 X10 Y10
G0 F3000 X125.625 Y107.41
M204 S1800
M205 X8 Y8
G1 F1500 X121.451 Y103.236 E53.2894
M204 S3000
M205 X10 Y10
G0 F3000 X121.222 Y103.799
M204 S1800
M205 X8 Y8
G1 F1500 X125.625 Y108.202 E53.57935
M204 S3000
M205 X10 Y10
G0 F3000 X125.625 Y108.994
M204 S1800
M205 X8 Y8
G1 F1500 X120.922 Y104.291 E53.88905
M204 S3000
M205 X10 Y10
G0 F3000 X120.601 Y104.762
M204 S1800
M205 X8 Y8
G1 F1500 X125.625 Y109.786 E54.21989
M204 S3000
M205 X10 Y10
G0 F3000 X125.625 Y110.578
M204 S1800
M205 X8 Y8
G1 F1500 X120.279 Y105.232 E54.57193
M204 S3000
M205 X10 Y10
G0 F3000 X119.957 Y105.702
M204 S1800
M205 X8 Y8
G1 F1500 X125.625 Y111.37 E54.94518
M204 S3000
M205 X10 Y10
G0 F3000 X125.625 Y112.161
M204 S1800
M205 X8 Y8
G1 F1500 X119.564 Y106.101 E55.34427
M204 S3000
M205 X10 Y10
G0 F3000 X119.157 Y106.486
M204 S1800
M205 X8 Y8
G1 F1500 X125.625 Y112.953 E55.77017
M204 S3000
M205 X10 Y10
G0 F3000 X125.625 Y113.745
M204 S1800
M205 X8 Y8
G1 F1500 X118.749 Y106.869 E56.22297
M204 S3000
M205 X10 Y10
G0 F3000 X118.342 Y107.254
M204 S1800
M205 X8 Y8
G1 F1500 X125.625 Y114.537 E56.70256
M204 S3000
M205 X10 Y10
G0 F3000 X125.625 Y115.329
M204 S1800
M205 X8 Y8
G1 F1500 X117.861 Y107.566 E57.2138
M204 S3000
M205 X10 Y10
G0 F3000 X117.366 Y107.862
M204 S1800
M205 X8 Y8
G1 F1500 X125.625 Y116.121 E57.75767
M204 S3000
M205 X10 Y10
G0 F3000 X125.625 Y116.913
M204 S1800
M205 X8 Y8
G1 F1500 X116.871 Y108.159 E58.33414
M204 S3000
M205 X10 Y10
G0 F3000 X116.376 Y108.456
M204 S1800
M205 X8 Y8
G1 F1500 X125.625 Y117.705 E58.9432
M204 S3000
M205 X10 Y10
G0 F3000 X125.625 Y118.497
M204 S1800
M205 X8 Y8
G1 F1500 X115.788 Y108.66 E59.59098
M204 S3000
M205 X10 Y10
G0 F3000 X115.194 Y108.859
M204 S1800
M205 X8 Y8
G1 F1500 X125.625 Y119.289 E60.27785
M204 S3000
M205 X10 Y10
G0 F3000 X125.625 Y120.081
M204 S1800
M205 X8 Y8
G1 F1500 X114.601 Y109.057 E61.0038
M204 S3000
M205 X10 Y10
G0 F3000 X113.963 Y109.211
M204 S1800
M205 X8 Y8
G1 F1500 X125.625 Y120.873 E61.77176
M204 S3000
M205 X10 Y10
G0 F3000 X125.625 Y121.665
M204 S1800
M205 X8 Y8
G1 F1500 X113.242 Y109.282 E62.5872
M204 S3000
M205 X10 Y10
G0 F3000 X112.521 Y109.353
M204 S1800
M205 X8 Y8
G1 F1500 X125.625 Y122.457 E63.45012
M204 S3000
M205 X10 Y10
G0 F3000 X125.625 Y123.249
M204 S1800
M205 X8 Y8
G1 F1500 X111.778 Y109.402 E64.36197
M204 S3000
M205 X10 Y10
G0 F3000 X110.88 Y109.296
M204 S1800
M205 X8 Y8
G1 F1500 X118.615 Y117.031 E64.87134
G1 X118.685 Y117.101
M204 S3000
M205 X10 Y10
G0 F3000 X119.924 Y118.34
M204 S1800
M205 X8 Y8
G1 F1500 X125.625 Y124.041 E65.24676
M204 S3000
M205 X10 Y10
G0 F3000 X125.625 Y124.833
M204 S1800
M205 X8 Y8
G1 F1500 X121.359 Y120.567 E65.52768
G1 X121.289 Y120.497
M204 S3000
M205 X10 Y10
G0 F3000 X121.877 Y121.877
M204 S1800
M205 X8 Y8
G1 F1500 X125.625 Y125.625 E65.77449
M204 S3000
M205 X10 Y10
G0 F3000 X125.625 Y126.417
M204 S1800
M205 X8 Y8
G1 F1500 X122.171 Y122.963 E66.00194
M204 S3000
M205 X10 Y10
G0 F3000 X122.313 Y123.897
M204 S1800
M205 X8 Y8
G1 F1500 X125.625 Y127.209 E66.22005
M204 S3000
M205 X10 Y10
G0 F3000 X125.625 Y128.001
M204 S1800
M205 X8 Y8
G1 F1500 X122.359 Y124.735 E66.43512
M204 S3000
M205 X10 Y10
G0 F3000 X122.398 Y125.566
M204 S1800
M205 X8 Y8
G1 F1500 X125.625 Y128.793 E66.64762
M204 S3000
M205 X10 Y10
