;FLAVOR:Marlin
;TIME:2031
;Filament used: 1.72837m
;Layer height: 0.2
;MINX:102.55
;MINY:103.7
;MINZ:0.2
;MAXX:121.45
;MAXY:120.3
;MAXZ:31.4
;Generated with Cura_SteamEngine 4.2.1
M140 S60
M105
M190 S60
M104 S200
M105
M109 S200
M82 ;absolute extrusion mode
G21 ;metric values
G90 ;absolute positioning
M82 ;set extruder to absolute mode
M107 ;start with the fan off
G28 X0 Y0 ;move X/Y to min endstops
G28 Z0 ;move Z to min endstops
G1 Z15.0 F100 ;move the platform down 15mm
G92 E0 ;zero the extruded length
G1 F200 E3 ;extrude 3mm of feed stock
G92 E0 ;zero the extruded length again
G1 F100
M117 Printing...
G5
M141 S28
G92 E0
G92 E0
G1 F2400 E-6
;LAYER_COUNT:157
;LAYER:0
M106 S255
M204 S3000
M205 X10 Y10
;MESH:hanger.station-temerature.sensore.frame.stl
G0 F3000 X117.05 Y107.8 Z0.2
M204 S1800
M205 X8 Y8
;TYPE:WALL-INNER
G1 F2400 E0
G1 F1500 X117.05 Y107.52 E0.01304
G1 X117.05 Y104.908 E0.13466
G1 X119.97 Y104.902 E0.27063
G1 X120.25 Y104.902 E0.28367
G1 X120.25 Y105.182 E0.29211
G1 X120.25 Y119.1 E0.94019
G1 X117.06 Y119.1 E1.08873
G1 X117.04 Y116.2 E1.22377
G1 X105.261 Y116.2 E1.77225
G1 X103.95 Y116.431 E1.83423
G1 X103.95 Y116.932 E1.85756
G1 X103.95 Y117.087 E1.86478
G1 X103.757 Y116.932 E1.86926
G1 X103.756 Y116.432 E1.87729
G1 X103.755 Y116.011 E1.89284
G1 X103.949 Y116.011 E1.89555
G1 X105.26 Y116.01 E1.92869
G1 X117.039 Y116.001 E2.11922
G1 X117.05 Y116 E2.11973
G1 X117.05 Y108.019 E2.49136
G1 X116.77 Y108.018 E2.5044
G1 X103.95 Y108.003 E3.10135
G1 X103.75 Y108.002 E3.11067
G1 X103.75 Y107.793 E3.1204
G1 X103.75 Y107.073 E3.15393
G1 X103.95 Y106.913 E3.16585
G1 X103.95 Y107.073 E3.16609
G1 X103.95 Y107.793 E3.17807
G1 X116.77 Y107.8 E3.58849
G1 X117.05 Y107.8 E3.59693
M204 S3000
M205 X10 Y10
G0 F3000 X116.49 Y107.24
M204 S1800
M205 X8 Y8
G1 F1500 X116.49 Y106.96 E3.60996
G1 X116.49 Y104.349 E3.73154
G1 X120.53 Y104.341 E3.91966
G1 X120.81 Y104.341 E3.9327
G1 X120.81 Y104.621 E3.94114
G1 X120.81 Y119.66 E4.64142
G1 X116.504 Y119.66 E4.84192
G1 X116.484 Y116.76 E4.97696
G1 X105.31 Y116.76 E5.49727
G1 X104.51 Y116.901 E5.5351
G1 X104.51 Y117.67 E5.57091
G1 X104.51 Y117.671 E5.57095
G1 X104.51 Y118.252 E5.59801
G1 X104.056 Y117.889 E5.61288
G1 X103.198 Y117.202 E5.66406
G1 X103.193 Y115.731 E5.73256
G1 X103.193 Y115.451 E5.74559
G1 X103.473 Y115.451 E5.75403
G1 X116.49 Y115.44 E6.36016
G1 X116.49 Y108.578 E6.67968
G1 X103.19 Y108.561 E7.29899
G1 X103.19 Y106.804 E7.3808
G1 X104.056 Y106.111 E7.43245
G1 X104.51 Y105.748 E7.45951
G1 X104.51 Y106.329 E7.47438
G1 X104.51 Y106.33 E7.47443
G1 X104.51 Y107.233 E7.51647
G1 X116.21 Y107.24 E8.06127
G1 X116.49 Y107.24 E8.06971
M204 S3000
M205 X10 Y10
G0 F3000 X115.93 Y106.68
M204 S1800
M205 X8 Y8
;TYPE:WALL-OUTER
G1 F1500 X115.93 Y106.4 E8.08275
G1 X115.93 Y103.79 E8.20429
G1 X121.09 Y103.78 E8.44456
G1 X121.37 Y103.78 E8.45759
G1 X121.37 Y104.06 E8.46603
G1 X121.37 Y120.22 E9.21851
G1 X115.948 Y120.22 E9.47098
G1 X115.928 Y117.32 E9.60602
G1 X105.359 Y117.32 E10.09816
G1 X105.07 Y117.371 E10.11182
G1 X105.07 Y118.864 E10.18134
G1 X105.07 Y119.32 E10.20258
G1 X104.949 Y119.32 E10.20821
G1 X104.593 Y119.036 E10.22192
G1 X102.639 Y117.472 E10.33846
G1 X102.631 Y115.171 E10.44561
G1 X102.631 Y114.891 E10.45864
G1 X102.911 Y114.891 E10.46708
G1 X115.93 Y114.88 E11.0733
G1 X115.93 Y109.137 E11.34072
G1 X102.63 Y109.12 E11.96003
G1 X102.63 Y106.535 E12.08039
G1 X104.593 Y104.964 E12.19747
G1 X104.949 Y104.68 E12.21867
G1 X105.07 Y104.68 E12.22431
G1 X105.07 Y105.136 E12.23805
G1 X105.07 Y106.673 E12.30962
G1 X115.65 Y106.68 E12.80227
G1 X115.93 Y106.68 E12.81071
M204 S3000
M205 X10 Y10
G0 F3000 X115.93 Y106.48
G0 X116.59 Y106.48
G0 X117.6 Y105.457
M204 S1800
M205 X8 Y8
;TYPE:SKIN
G1 F1500 X119.7 Y105.453 E12.90849
G1 X119.7 Y118.55 E13.51834
G1 X117.606 Y118.55 E13.61585
G1 X117.592 Y116.55 E13.70898
G1 X117.6 Y116.55 E13.70935
G1 X117.6 Y105.457 E14.22589
M204 S3000
M205 X10 Y10
G0 F3000 X119.439 Y105.976
M204 S1800
M205 X8 Y8
G1 F1500 X119.177 Y105.714 E14.24314
M204 S3000
M205 X10 Y10
G0 F3000 X118.386 Y105.715
M204 S1800
M205 X8 Y8
G1 F1500 X119.439 Y106.768 E14.31248
M204 S3000
M205 X10 Y10
G0 F3000 X119.439 Y107.56
M204 S1800
M205 X8 Y8
G1 F1500 X117.859 Y105.979 E14.41656
M204 S3000
M205 X10 Y10
G0 F3000 X117.859 Y106.771
M204 S1800
M205 X8 Y8
G1 F1500 X119.439 Y108.352 E14.52064
M204 S3000
M205 X10 Y10
G0 F3000 X119.439 Y109.144
M204 S1800
M205 X8 Y8
G1 F1500 X117.859 Y107.563 E14.62472
M204 S3000
M205 X10 Y10
G0 F3000 X117.859 Y108.355
M204 S1800
M205 X8 Y8
G1 F1500 X119.439 Y109.936 E14.7288
M204 S3000
M205 X10 Y10
G0 F3000 X119.439 Y110.727
M204 S1800
M205 X8 Y8
G1 F1500 X117.859 Y109.147 E14.83284
M204 S3000
M205 X10 Y10
G0 F3000 X117.859 Y109.939
M204 S1800
M205 X8 Y8
G1 F1500 X119.439 Y111.519 E14.93689
M204 S3000
M205 X10 Y10
G0 F3000 X119.439 Y112.311
M204 S1800
M205 X8 Y8
G1 F1500 X117.859 Y110.731 E15.04093
M204 S3000
M205 X10 Y10
G0 F3000 X117.859 Y111.523
M204 S1800
M205 X8 Y8
G1 F1500 X119.439 Y113.103 E15.14498
M204 S3000
M205 X10 Y10
G0 F3000 X119.439 Y113.895
M204 S1800
M205 X8 Y8
G1 F1500 X117.859 Y112.315 E15.24903
M204 S3000
M205 X10 Y10
G0 F3000 X117.859 Y113.107
M204 S1800
M205 X8 Y8
G1 F1500 X119.439 Y114.687 E15.35307
M204 S3000
M205 X10 Y10
G0 F3000 X119.439 Y115.479
M204 S1800
M205 X8 Y8
G1 F1500 X117.859 Y113.899 E15.45712
M204 S3000
M205 X10 Y10
G0 F3000 X117.859 Y114.691
M204 S1800
M205 X8 Y8
G1 F1500 X119.439 Y116.271 E15.56116
M204 S3000
M205 X10 Y10
G0 F3000 X119.439 Y117.063
M204 S1800
M205 X8 Y8
G1 F1500 X117.859 Y115.483 E15.66521
M204 S3000
M205 X10 Y10
G0 F3000 X117.859 Y116.275
M204 S1800
M205 X8 Y8
G1 F1500 X119.439 Y117.855 E15.76925
M204 S3000
M205 X10 Y10
G0 F3000 X119.081 Y118.289
M204 S1800
M205 X8 Y8
G1 F1500 X117.854 Y117.062 E15.85005
M204 S3000
M205 X10 Y10
G0 F3000 X117.86 Y117.86
M204 S1800
M205 X8 Y8
G1 F1500 X118.289 Y118.289 E15.87831
M204 S3000
M205 X10 Y10
;MESH:NONMESH
G0 F600 X118.289 Y118.289 Z0.4
G0 F3000 X116.65 Y116.6
;TIME_ELAPSED:20.351496
;LAYER:1
M140 S60
M204 S1800
M205 X8 Y8
;TYPE:WALL-INNER
;MESH:hanger.station-temerature.sensore.frame.stl
G1 F2250 X105.354 Y116.6 E16.25401
G1 X104.35 Y116.794 E16.28802
G1 X104.35 Y117.505 E16.31167
G1 X104.35 Y117.506 E16.3117
G1 X104.35 Y117.92 E16.32547
G1 X104.026 Y117.661 E16.33305
G1 X103.37 Y117.137 E16.36098
G1 X103.358 Y115.801 E16.40542
G1 X103.357 Y115.8 E16.40546
G1 X103.357 Y115.6 E16.41212
G1 X103.557 Y115.6 E16.41642
G1 X103.558 Y115.6 E16.41646
G1 X116.65 Y115.6 E16.8519
G1 X116.65 Y108.4 E17.09137
G1 X103.35 Y108.4 E17.53373
G1 X103.35 Y106.88 E17.58429
G1 X104.025 Y106.34 E17.61304
G1 X104.35 Y106.08 E17.62688
G1 X104.35 Y106.496 E17.63448
G1 X104.35 Y107.378 E17.66382
G1 X116.45 Y107.402 E18.06626
G1 X116.65 Y107.402 E18.07292
G1 X116.65 Y107.202 E18.07722
G1 X116.65 Y104.5 E18.16709
G1 X120.65 Y104.5 E18.30013
G1 X120.65 Y119.5 E18.79903
G1 X116.65 Y119.5 E18.93207
G1 X116.65 Y116.6 E19.02853
M204 S3000
M205 X10 Y10
G0 F4500 X116.25 Y117
M204 S1800
M205 X8 Y8
G1 F2250 X105.392 Y117 E19.38967
G1 X104.75 Y117.124 E19.41142
G1 X104.75 Y118.336 E19.45173
G1 X104.75 Y118.338 E19.45179
G1 X104.75 Y118.752 E19.46556
G1 X104.426 Y118.493 E19.47314
G1 X102.972 Y117.33 E19.53507
G1 X102.955 Y115.401 E19.59923
G1 X102.954 Y115.4 E19.59928
G1 X102.954 Y115.2 E19.60593
G1 X103.154 Y115.2 E19.61024
G1 X103.155 Y115.2 E19.61027
G1 X116.25 Y115.2 E20.04581
G1 X116.25 Y108.8 E20.25868
G1 X102.95 Y108.8 E20.70104
G1 X102.95 Y106.688 E20.77128
G1 X104.426 Y105.507 E20.83416
G1 X104.75 Y105.248 E20.84795
G1 X104.75 Y105.662 E20.85552
G1 X104.75 Y105.664 E20.85559
G1 X104.75 Y106.979 E20.89932
G1 X116.05 Y107.001 E21.27516
G1 X116.25 Y107.001 E21.28182
G1 X116.25 Y106.801 E21.28612
G1 X116.25 Y104.1 E21.37596
G1 X121.05 Y104.1 E21.53561
G1 X121.05 Y119.9 E22.06112
G1 X116.25 Y119.9 E22.22077
G1 X116.25 Y117 E22.31722
M204 S3000
M205 X10 Y10
G0 F4500 X115.85 Y117.4
M204 S1800
M205 X8 Y8
;TYPE:WALL-OUTER
G1 F2250 X105.43 Y117.4 E22.66379
G1 X105.15 Y117.454 E22.67327
G1 X105.15 Y119.224 E22.73215
G1 X105.15 Y119.4 E22.738
G1 X104.92 Y119.4 E22.74565
G1 X104.783 Y119.291 E22.75035
G1 X102.574 Y117.523 E22.84446
G1 X102.552 Y115.001 E22.92835
G1 X102.551 Y115 E22.92839
G1 X102.551 Y114.8 E22.93505
G1 X102.751 Y114.8 E22.93935
G1 X102.752 Y114.8 E22.93939
G1 X115.85 Y114.8 E23.37503
G1 X115.85 Y109.2 E23.56128
G1 X102.55 Y109.2 E24.00364
G1 X102.55 Y106.496 E24.09358
G1 X104.783 Y104.709 E24.1887
G1 X104.92 Y104.6 E24.19453
G1 X105.15 Y104.6 E24.20218
G1 X105.15 Y104.776 E24.20691
G1 X105.15 Y106.58 E24.26691
G1 X115.65 Y106.6 E24.61615
G1 X115.85 Y106.6 E24.6228
G1 X115.85 Y106.4 E24.62711
G1 X115.85 Y103.7 E24.71691
G1 X121.45 Y103.7 E24.90316
G1 X121.45 Y120.3 E25.45528
G1 X115.85 Y120.3 E25.64154
G1 X115.85 Y117.4 E25.73799
M204 S3000
M205 X10 Y10
G0 F4500 X115.65 Y117.4
G0 X115.65 Y116.9
G0 X117.04 Y116.21
M204 S1800
M205 X8 Y8
;TYPE:SKIN
G1 F1350 X105.317 Y116.21 E26.1279
G1 X103.96 Y116.472 E26.17387
G1 X103.96 Y117.109 E26.19506
G1 X103.758 Y116.948 E26.20365
G1 X103.751 Y115.99 E26.23551
G1 X117.04 Y115.99 E26.67751
G1 X117.04 Y108.01 E26.94292
G1 X103.74 Y108.01 E27.38528
G1 X103.74 Y107.067 E27.41665
G1 X103.96 Y106.891 E27.42602
G1 X103.96 Y107.768 E27.45519
G1 X117.04 Y107.792 E27.89023
G1 X117.04 Y104.89 E27.98675
G1 X120.26 Y104.89 E28.09385
G1 X120.26 Y119.11 E28.56681
G1 X117.04 Y119.11 E28.6739
G1 X117.04 Y116.21 E28.77036
M204 S3000
M205 X10 Y10
G0 F4500 X119.789 Y118.929
M204 S1800
M205 X8 Y8
G1 F1350 X120.079 Y118.639 E28.784
M204 S3000
M205 X10 Y10
G0 F4500 X120.079 Y118.074
M204 S1800
M205 X8 Y8
G1 F1350 X119.223 Y118.929 E28.82424
M204 S3000
M205 X10 Y10
G0 F4500 X118.658 Y118.929
M204 S1800
M205 X8 Y8
G1 F1350 X120.079 Y117.508 E28.89108
M204 S3000
M205 X10 Y10
G0 F4500 X120.079 Y116.942
M204 S1800
M205 X8 Y8
G1 F1350 X118.092 Y118.929 E28.98454
M204 S3000
M205 X10 Y10
G0 F4500 X117.526 Y118.929
M204 S1800
M205 X8 Y8
G1 F1350 X120.079 Y116.377 E29.1046
M204 S3000
M205 X10 Y10
G0 F4500 X120.079 Y115.811
M204 S1800
M205 X8 Y8
G1 F1350 X117.219 Y118.67 E29.23911
M204 S3000
M205 X10 Y10
G0 F4500 X117.219 Y118.105
M204 S1800
M205 X8 Y8
G1 F1350 X120.079 Y115.245 E29.37363
M204 S3000
M205 X10 Y10
G0 F4500 X120.079 Y114.679
M204 S1800
M205 X8 Y8
G1 F1350 X117.219 Y117.539 E29.50816
M204 S3000
M205 X10 Y10
G0 F4500 X117.219 Y116.973
M204 S1800
M205 X8 Y8
G1 F1350 X120.079 Y114.114 E29.64266
M204 S3000
M205 X10 Y10
G0 F4500 X120.079 Y113.548
M204 S1800
M205 X8 Y8
G1 F1350 X117.219 Y116.408 E29.77718
M204 S3000
M205 X10 Y10
G0 F4500 X117.219 Y115.842
M204 S1800
M205 X8 Y8
G1 F1350 X120.079 Y112.982 E29.91171
M204 S3000
M205 X10 Y10
G0 F4500 X120.079 Y112.417
M204 S1800
M205 X8 Y8
G1 F1350 X117.219 Y115.276 E30.04621
M204 S3000
M205 X10 Y10
G0 F4500 X117.219 Y114.711
M204 S1800
M205 X8 Y8
G1 F1350 X120.079 Y111.851 E30.18074
M204 S3000
M205 X10 Y10
G0 F4500 X120.079 Y111.285
M204 S1800
M205 X8 Y8
G1 F1350 X117.219 Y114.145 E30.31526
M204 S3000
M205 X10 Y10
G0 F4500 X117.219 Y113.579
M204 S1800
M205 X8 Y8
G1 F1350 X120.079 Y110.72 E30.44977
M204 S3000
M205 X10 Y10
G0 F4500 X120.079 Y110.154
M204 S1800
M205 X8 Y8
G1 F1350 X117.219 Y113.014 E30.58429
M204 S3000
M205 X10 Y10
G0 F4500 X117.219 Y112.448
M204 S1800
M205 X8 Y8
G1 F1350 X120.079 Y109.588 E30.71882
M204 S3000
M205 X10 Y10
G0 F4500 X120.079 Y109.023
M204 S1800
M205 X8 Y8
G1 F1350 X117.219 Y111.882 E30.85332
M204 S3000
M205 X10 Y10
G0 F4500 X117.219 Y111.316
M204 S1800
M205 X8 Y8
G1 F1350 X120.079 Y108.457 E30.98782
M204 S3000
M205 X10 Y10
G0 F4500 X120.079 Y107.891
M204 S1800
M205 X8 Y8
G1 F1350 X117.219 Y110.751 E31.12235
M204 S3000
M205 X10 Y10
G0 F4500 X117.219 Y110.185
M204 S1800
M205 X8 Y8
G1 F1350 X120.079 Y107.326 E31.25685
M204 S3000
M205 X10 Y10
G0 F4500 X120.079 Y106.76
M204 S1800
M205 X8 Y8
G1 F1350 X117.219 Y109.619 E31.39135
M204 S3000
M205 X10 Y10
G0 F4500 X117.219 Y109.054
M204 S1800
M205 X8 Y8
G1 F1350 X120.079 Y106.194 E31.52588
M204 S3000
M205 X10 Y10
G0 F4500 X120.079 Y105.629
M204 S1800
M205 X8 Y8
G1 F1350 X117.219 Y108.488 E31.66038
M204 S3000
M205 X10 Y10
G0 F4500 X117.219 Y107.922
M204 S1800
M205 X8 Y8
G1 F1350 X120.073 Y105.069 E31.7946
M204 S3000
M205 X10 Y10
G0 F4500 X119.507 Y105.069
M204 S1800
M205 X8 Y8
G1 F1350 X117.219 Y107.357 E31.90222
M204 S3000
M205 X10 Y10
G0 F4500 X117.219 Y106.791
M204 S1800
M205 X8 Y8
G1 F1350 X118.941 Y105.069 E31.98322
M204 S3000
M205 X10 Y10
G0 F4500 X118.376 Y105.069
M204 S1800
M205 X8 Y8
G1 F1350 X117.219 Y106.225 E32.03761
M204 S3000
M205 X10 Y10
G0 F4500 X117.219 Y105.66
M204 S1800
M205 X8 Y8
G1 F1350 X117.81 Y105.069 E32.06541
G1 X117.88 Y104.999
M204 S3000
M205 X10 Y10
;MESH:NONMESH
G0 F600 X117.88 Y104.999 Z0.6
G0 F4500 X116.65 Y116.6
;TIME_ELAPSED:38.901296
;LAYER:2
M204 S1800
M205 X8 Y8
;TYPE:WALL-INNER
;MESH:hanger.station-temerature.sensore.frame.stl
G1 F3000 X104.35 Y116.6 E32.47451
G1 X104.35 Y117.504 E32.50458
G1 X104.35 Y117.92 E32.51842
G1 X104.025 Y117.66 E32.52602
G1 X103.35 Y117.12 E32.55477
G1 X103.35 Y115.6 E32.60533
G1 X116.65 Y115.6 E33.04769
G1 X116.65 Y108.4 E33.28716
G1 X103.35 Y108.4 E33.72952
G1 X103.35 Y106.88 E33.78007
G1 X104.025 Y106.34 E33.80883
G1 X104.35 Y106.08 E33.82267
G1 X104.35 Y106.496 E33.83027
G1 X104.35 Y107.4 E33.86034
G1 X116.65 Y107.4 E34.26944
G1 X116.65 Y104.5 E34.36589
G1 X120.65 Y104.5 E34.49893
G1 X120.65 Y119.5 E34.99783
G1 X116.65 Y119.5 E35.13087
G1 X116.65 Y116.6 E35.22733
M204 S3000
M205 X10 Y10
G0 F6000 X116.25 Y117
M204 S1800
M205 X8 Y8
G1 F3000 X104.75 Y117 E35.60982
G1 X104.75 Y118.336 E35.65425
G1 X104.75 Y118.338 E35.65432
G1 X104.75 Y118.752 E35.66809
G1 X104.426 Y118.493 E35.67567
G1 X102.95 Y117.312 E35.73854
G1 X102.95 Y115.2 E35.80879
G1 X116.25 Y115.2 E36.25115
G1 X116.25 Y108.8 E36.46401
G1 X102.95 Y108.8 E36.90637
G1 X102.95 Y106.688 E36.97662
G1 X104.426 Y105.507 E37.03949
G1 X104.75 Y105.248 E37.05329
G1 X104.75 Y105.662 E37.06085
G1 X104.75 Y105.664 E37.06092
G1 X104.75 Y107 E37.10536
G1 X116.25 Y107 E37.48785
G1 X116.25 Y104.1 E37.5843
G1 X121.05 Y104.1 E37.74395
G1 X121.05 Y119.9 E38.26946
G1 X116.25 Y119.9 E38.42911
G1 X116.25 Y117 E38.52556
M204 S3000
M205 X10 Y10
G0 F6000 X115.85 Y117.4
M204 S1800
M205 X8 Y8
;TYPE:WALL-OUTER
G1 F3000 X105.15 Y117.4 E38.88145
G1 X105.15 Y119.224 E38.94211
G1 X105.15 Y119.4 E38.94797
G1 X104.92 Y119.4 E38.95562
G1 X104.783 Y119.291 E38.96032
G1 X102.55 Y117.504 E39.05545
G1 X102.55 Y114.8 E39.14538
G1 X115.85 Y114.8 E39.58774
G1 X115.85 Y109.2 E39.774
G1 X102.55 Y109.2 E40.21636
G1 X102.55 Y106.496 E40.3063
G1 X104.783 Y104.709 E40.40142
G1 X104.92 Y104.6 E40.40724
G1 X105.15 Y104.6 E40.41489
G1 X105.15 Y104.776 E40.41963
G1 X105.15 Y106.6 E40.4803
G1 X115.85 Y106.6 E40.83618
G1 X115.85 Y103.7 E40.93263
G1 X121.45 Y103.7 E41.11889
G1 X121.45 Y120.3 E41.67101
G1 X115.85 Y120.3 E41.85727
G1 X115.85 Y117.4 E41.95372
M204 S3000
M205 X10 Y10
G0 F6000 X115.65 Y117.4
G0 X115.65 Y116.9
G0 X117.04 Y116.21
M204 S1800
M205 X8 Y8
;TYPE:SKIN
G1 F1200 X103.96 Y116.21 E42.38876
G1 X103.96 Y117.109 E42.41866
G1 X103.74 Y116.933 E42.42803
G1 X103.74 Y115.99 E42.4594
G1 X117.04 Y115.99 E42.90176
G1 X117.04 Y108.01 E43.16717
G1 X103.74 Y108.01 E43.60953
G1 X103.74 Y107.067 E43.6409
G1 X103.96 Y106.891 E43.65027
G1 X103.96 Y107.79 E43.68017
G1 X117.04 Y107.79 E44.11521
G1 X117.04 Y104.89 E44.21167
G1 X120.26 Y104.89 E44.31876
G1 X120.26 Y119.11 E44.79172
