;FLAVOR:Marlin
;TIME:15493
;Filament used: 11.29m
;Layer height: 0.2
;MINX:37.2
;MINY:74.65
;MINZ:0.2
;MAXX:186.8
;MAXY:149.35
;MAXZ:3
;Generated with Cura_SteamEngine 4.2.1
M140 S60
M105
M190 S60
M104 S200
M105
M109 S200
M82 ;absolute extrusion mode
G21 ;metric values
G90 ;absolute positioning
M82 ;set extruder to absolute mode
M107 ;start with the fan off
G28 X0 Y0 ;move X/Y to min endstops
G28 Z0 ;move Z to min endstops
G1 Z15.0 F100 ;move the platform down 15mm
G92 E0 ;zero the extruded length
G1 F200 E3 ;extrude 3mm of feed stock
G92 E0 ;zero the extruded length again
G1 F100
M117 Printing...
G5
M141 S28
G92 E0
G92 E0
G1 F2400 E-6
;LAYER_COUNT:15
;LAYER:0
M106 S255
M204 S3000
M205 X10 Y10
;MESH:controlbox-back (1).stl
G0 F3000 X38.455 Y78.052 Z0.2
M204 S1800
M205 X8 Y8
;TYPE:WALL-INNER
G1 F2400 E0
G1 F1500 X38.4 Y78.197 E0.00722
G1 X38.4 Y78.052 E0.00744
G1 X38.4 Y77.251 E0.04474
G1 X38.4 Y75.85 E0.10998
G1 X39.821 Y75.85 E0.17614
G1 X40.082 Y75.85 E0.1883
G1 X40.776 Y75.85 E0.22061
G1 X40.082 Y76.212 E0.23444
G1 X39.887 Y76.385 E0.24457
G1 X39.19 Y77.002 E0.28792
G1 X38.914 Y77.396 E0.31032
G1 X38.455 Y78.052 E0.33156
M204 S3000
M205 X10 Y10
G0 F3000 X38.39 Y80.441
G0 X38.519 Y81.499
G0 X38.914 Y82.585
G0 X39.52 Y83.463
G0 X40.373 Y84.241
G0 X41.315 Y84.738
G0 X42.218 Y84.978
G0 X44.804 Y85.279
M204 S1800
M205 X8 Y8
G1 F1500 X45.955 Y84.678 E0.39202
G1 X46.847 Y83.89 E0.44744
G1 X47.583 Y82.837 E0.50726
G1 X48.024 Y81.668 E0.56544
G1 X48.157 Y80.563 E0.61726
G1 X48.029 Y79.24 E0.67916
G1 X47.588 Y78.059 E0.73786
G1 X46.91 Y77.082 E0.79323
G1 X46.147 Y76.384 E0.84138
G1 X45.967 Y76.219 E0.85275
G1 X45.266 Y75.85 E0.88964
G1 X45.967 Y75.85 E0.89966
G1 X46.212 Y75.85 E0.90926
G1 X177.784 Y75.85 E7.03581
G1 X178.045 Y75.85 E7.04796
G1 X178.739 Y75.85 E7.08028
G1 X178.045 Y76.212 E7.09411
G1 X177.85 Y76.385 E7.10423
G1 X177.153 Y77.002 E7.14758
G1 X176.418 Y78.052 E7.20726
G1 X175.995 Y79.166 E7.26275
G1 X175.83 Y80.438 E7.32247
G1 X175.972 Y81.621 E7.37795
G1 X176.41 Y82.826 E7.43765
G1 X177.088 Y83.808 E7.49322
G1 X178.033 Y84.671 E7.55281
G1 X179.087 Y85.226 E7.60828
G1 X180.327 Y85.556 E7.66803
G1 X181.52 Y85.556 E7.72358
G1 X182.767 Y85.279 E7.78306
G1 X183.918 Y84.678 E7.84352
G1 X184.81 Y83.89 E7.89894
G1 X185.086 Y83.495 E7.92138
G1 X185.546 Y82.838 E7.95873
G1 X185.6 Y82.695 E7.96584
G1 X185.6 Y82.838 E7.96605
G1 X185.6 Y83.64 E7.98732
G1 X185.6 Y140.306 E10.62592
G1 X185.6 Y141.122 E10.66392
G1 X185.6 Y141.253 E10.67002
G1 X185.551 Y141.122 E10.67057
G1 X185.086 Y140.452 E10.692
G1 X184.873 Y140.145 E10.7094
G1 X183.93 Y139.281 E10.76895
G1 X182.876 Y138.726 E10.82442
G1 X181.637 Y138.396 E10.88412
G1 X180.34 Y138.396 E10.94452
G1 X179.183 Y138.68 E10.99999
G1 X178.045 Y139.274 E11.05976
G1 X177.153 Y140.065 E11.11528
G1 X176.418 Y141.115 E11.17496
G1 X175.995 Y142.227 E11.23036
G1 X175.83 Y143.5 E11.29013
G1 X175.972 Y144.683 E11.34561
G1 X176.41 Y145.888 E11.40531
G1 X177.088 Y146.868 E11.4608
G1 X177.897 Y147.609 E11.51189
G1 X178.033 Y147.734 E11.52049
G1 X178.823 Y148.15 E11.56206
G1 X178.033 Y148.15 E11.57495
G1 X177.848 Y148.15 E11.58253
G1 X46.153 Y148.15 E17.7148
G1 X45.955 Y148.15 E17.72402
G1 X45.172 Y148.15 E17.76048
G1 X45.955 Y147.741 E17.77769
G1 X46.103 Y147.61 E17.78574
G1 X46.847 Y146.95 E17.83205
G1 X47.583 Y145.9 E17.89175
G1 X48.024 Y144.73 E17.94997
G1 X48.157 Y143.625 E18.0018
G1 X48.029 Y142.302 E18.06369
G1 X47.588 Y141.122 E18.12235
G1 X46.91 Y140.145 E18.17772
G1 X45.967 Y139.281 E18.23728
G1 X44.913 Y138.726 E18.29274
G1 X43.673 Y138.396 E18.35249
G1 X42.376 Y138.396 E18.41289
G1 X41.22 Y138.68 E18.46832
G1 X40.082 Y139.274 E18.52809
G1 X39.19 Y140.065 E18.5836
G1 X38.914 Y140.459 E18.606
G1 X38.455 Y141.115 E18.64329
G1 X38.4 Y141.26 E18.65051
G1 X38.4 Y141.115 E18.65073
G1 X38.4 Y140.314 E18.672
G1 X38.4 Y83.648 E21.3106
G1 X38.4 Y82.826 E21.34888
G1 X38.4 Y82.697 E21.35488
G1 X38.447 Y82.826 E21.35542
G1 X38.914 Y83.502 E21.37693
G1 X39.125 Y83.808 E21.39424
G1 X40.07 Y84.671 E21.45383
G1 X41.124 Y85.226 E21.5093
G1 X42.363 Y85.556 E21.569
G1 X43.555 Y85.556 E21.62451
G1 X44.804 Y85.279 E21.68408
M204 S3000
M205 X10 Y10
G0 F3000 X38.39 Y143.503
G0 X38.519 Y144.561
G0 X38.838 Y145.44
G0 X40.07 Y147.734
M204 S1800
M205 X8 Y8
G1 F1500 X40.86 Y148.15 E21.72566
G1 X40.07 Y148.15 E21.73854
G1 X39.885 Y148.15 E21.74716
G1 X38.4 Y148.15 E21.81631
G1 X38.4 Y146.709 E21.8834
G1 X38.4 Y145.888 E21.92163
G1 X38.4 Y145.759 E21.92764
G1 X38.447 Y145.888 E21.92818
G1 X38.914 Y146.563 E21.94967
G1 X39.125 Y146.868 E21.96694
G1 X39.934 Y147.609 E22.01802
G1 X40.07 Y147.734 E22.02559
M204 S3000
M205 X10 Y10
G0 F3000 X42.431 Y148.098
G0 X181.462 Y148.098
G0 X182.586 Y147.848
G0 X183.423 Y147.411
G0 X185.546 Y145.9
M204 S1800
M205 X8 Y8
G1 F1500 X185.6 Y145.757 E22.03271
G1 X185.6 Y145.9 E22.03292
G1 X185.6 Y146.701 E22.07022
G1 X185.6 Y148.15 E22.13769
G1 X184.116 Y148.15 E22.20679
G1 X183.918 Y148.15 E22.21601
G1 X183.135 Y148.15 E22.25247
G1 X183.918 Y147.741 E22.26968
G1 X184.066 Y147.61 E22.27772
G1 X184.81 Y146.95 E22.32403
G1 X185.087 Y146.556 E22.34646
G1 X185.546 Y145.9 E22.36766
M204 S3000
M205 X10 Y10
G0 F3000 X185.597 Y143.618
G0 X185.597 Y80.556
G0 X185.48 Y79.357
G0 X185.162 Y78.504
G0 X183.93 Y76.219
M204 S1800
M205 X8 Y8
G1 F1500 X183.229 Y75.85 E22.40455
G1 X183.93 Y75.85 E22.41457
G1 X184.175 Y75.85 E22.42598
G1 X185.6 Y75.85 E22.49233
G1 X185.6 Y77.243 E22.5572
G1 X185.6 Y78.059 E22.59519
G1 X185.6 Y78.19 E22.60129
G1 X185.551 Y78.059 E22.60185
G1 X185.086 Y77.389 E22.62327
G1 X184.873 Y77.082 E22.64067
G1 X184.11 Y76.384 E22.68882
G1 X183.93 Y76.219 E22.69839
M204 S3000
M205 X10 Y10
G0 F3000 X185.086 Y78.303
G0 X185.48 Y79.357
G0 X185.597 Y80.556
G0 X185.477 Y81.544
G0 X185.082 Y82.592
G0 X184.418 Y83.54
G0 X183.772 Y84.11
G0 X182.607 Y84.841
G0 X182.573 Y84.748
M204 S1800
M205 X8 Y8
G1 F1500 X183.598 Y84.213 E22.75223
G1 X184.389 Y83.514 E22.80138
G1 X185.047 Y82.574 E22.85481
G1 X185.439 Y81.535 E22.90652
G1 X185.558 Y80.556 E22.95244
G1 X185.442 Y79.366 E23.00811
G1 X185.051 Y78.321 E23.06007
G1 X184.449 Y77.453 E23.10925
G1 X183.605 Y76.681 E23.16251
G1 X182.671 Y76.189 E23.21167
G1 X181.564 Y75.894 E23.26501
G1 X180.408 Y75.894 E23.31884
G1 X179.382 Y76.146 E23.36804
G1 X178.365 Y76.677 E23.42146
G1 X177.574 Y77.377 E23.47064
G1 X176.917 Y78.316 E23.52401
G1 X176.542 Y79.303 E23.57317
G1 X176.394 Y80.441 E23.62661
G1 X176.52 Y81.49 E23.67581
G1 X176.912 Y82.567 E23.72917
G1 X177.513 Y83.437 E23.77841
G1 X178.358 Y84.209 E23.83171
G1 X179.292 Y84.701 E23.88086
G1 X180.4 Y84.996 E23.93425
G1 X181.458 Y84.996 E23.98352
G1 X182.573 Y84.748 E24.0367
M204 S3000
M205 X10 Y10
G0 F3000 X182.607 Y84.841
G0 X185.597 Y143.618
G0 X185.477 Y144.606
G0 X185.082 Y145.654
G0 X184.418 Y146.601
G0 X183.772 Y147.173
G0 X182.607 Y147.904
G0 X182.573 Y147.811
M204 S1800
M205 X8 Y8
G1 F1500 X183.598 Y147.276 E24.09054
G1 X184.389 Y146.575 E24.13976
G1 X185.047 Y145.636 E24.19315
G1 X185.439 Y144.597 E24.24486
G1 X185.558 Y143.618 E24.29078
G1 X185.442 Y142.428 E24.34645
G1 X185.051 Y141.384 E24.39836
G1 X184.449 Y140.516 E24.44755
G1 X183.605 Y139.743 E24.50084
G1 X182.671 Y139.251 E24.55
G1 X181.564 Y138.956 E24.60334
G1 X180.408 Y138.956 E24.65717
G1 X179.382 Y139.208 E24.70637
G1 X178.365 Y139.739 E24.75979
G1 X177.574 Y140.44 E24.809
G1 X176.917 Y141.379 E24.86237
G1 X176.542 Y142.365 E24.91149
G1 X176.394 Y143.503 E24.96493
G1 X176.52 Y144.552 E25.01412
G1 X176.912 Y145.629 E25.06749
G1 X177.513 Y146.498 E25.11669
G1 X178.358 Y147.272 E25.17005
G1 X179.292 Y147.764 E25.2192
G1 X180.4 Y148.059 E25.27259
G1 X181.458 Y148.059 E25.32186
G1 X182.573 Y147.811 E25.37505
M204 S3000
M205 X10 Y10
G0 F3000 X182.607 Y147.904
G0 X181.577 Y148.078
G0 X44.644 Y147.904
G0 X44.61 Y147.811
M204 S1800
M205 X8 Y8
G1 F1500 X45.635 Y147.276 E25.42889
G1 X46.426 Y146.575 E25.4781
G1 X47.084 Y145.636 E25.53149
G1 X47.476 Y144.596 E25.58324
G1 X47.594 Y143.618 E25.62911
G1 X47.479 Y142.429 E25.68474
G1 X47.088 Y141.384 E25.73669
G1 X46.486 Y140.516 E25.78588
G1 X45.642 Y139.743 E25.83917
G1 X44.708 Y139.251 E25.88833
G1 X43.6 Y138.956 E25.94172
G1 X42.444 Y138.956 E25.99554
G1 X41.419 Y139.208 E26.04469
G1 X40.402 Y139.739 E26.09812
G1 X39.611 Y140.44 E26.14733
G1 X38.954 Y141.379 E26.20069
G1 X38.579 Y142.365 E26.24981
G1 X38.43 Y143.503 E26.30326
G1 X38.557 Y144.552 E26.35246
G1 X38.949 Y145.629 E26.40583
G1 X39.55 Y146.498 E26.45503
G1 X40.395 Y147.272 E26.50838
G1 X41.329 Y147.764 E26.55754
G1 X42.436 Y148.059 E26.61089
G1 X43.494 Y148.059 E26.66015
G1 X44.61 Y147.811 E26.71338
M204 S3000
M205 X10 Y10
G0 F3000 X44.644 Y147.904
G0 X37.91 Y148.64
G0 X37.84 Y148.71
M204 S1800
M205 X8 Y8
G1 F1500 X37.84 Y75.29 E30.13213
G1 X186.16 Y75.29 E37.03853
G1 X186.16 Y148.71 E40.45727
G1 X37.84 Y148.71 E47.36367
M204 S3000
M205 X10 Y10
G0 F3000 X37.91 Y148.64
G0 X38.181 Y145.728
G0 X44.644 Y84.841
G0 X44.61 Y84.748
M204 S1800
M205 X8 Y8
G1 F1500 X45.635 Y84.213 E47.41751
G1 X46.426 Y83.514 E47.46666
G1 X47.084 Y82.574 E47.52009
G1 X47.476 Y81.534 E47.57184
G1 X47.594 Y80.556 E47.61771
G1 X47.479 Y79.367 E47.67334
G1 X47.088 Y78.321 E47.72533
G1 X46.486 Y77.453 E47.77452
G1 X45.642 Y76.681 E47.82778
G1 X44.708 Y76.189 E47.87694
G1 X43.6 Y75.894 E47.93033
G1 X42.444 Y75.894 E47.98416
G1 X41.419 Y76.146 E48.03331
G1 X40.402 Y76.677 E48.08673
G1 X39.611 Y77.377 E48.13591
G1 X38.954 Y78.316 E48.18928
G1 X38.579 Y79.303 E48.23844
G1 X38.43 Y80.441 E48.29188
G1 X38.557 Y81.49 E48.34109
G1 X38.949 Y82.567 E48.39445
G1 X39.55 Y83.437 E48.44369
G1 X40.395 Y84.209 E48.49699
G1 X41.329 Y84.701 E48.54614
G1 X42.436 Y84.996 E48.59949
G1 X43.494 Y84.996 E48.64875
G1 X44.61 Y84.748 E48.70199
M204 S3000
M205 X10 Y10
G0 F3000 X44.416 Y84.217
M204 S1800
M205 X8 Y8
;TYPE:WALL-OUTER
G1 F1500 X45.315 Y83.748 E48.7492
G1 X46.005 Y83.138 E48.79209
G1 X46.585 Y82.31 E48.83916
G1 X46.928 Y81.4 E48.88444
G1 X47.031 Y80.549 E48.92436
G1 X46.929 Y79.494 E48.97371
G1 X46.588 Y78.583 E49.01901
G1 X46.062 Y77.824 E49.06201
G1 X45.317 Y77.143 E49.10901
G1 X44.503 Y76.714 E49.15185
G1 X43.527 Y76.454 E49.19888
G1 X42.512 Y76.454 E49.24614
G1 X41.618 Y76.674 E49.28902
G1 X40.722 Y77.142 E49.33609
G1 X40.032 Y77.752 E49.37897
G1 X39.453 Y78.58 E49.42602
G1 X39.126 Y79.441 E49.4689
G1 X38.994 Y80.444 E49.51601
G1 X39.105 Y81.359 E49.55893
G1 X39.451 Y82.308 E49.60596
G1 X39.975 Y83.066 E49.64887
G1 X40.72 Y83.747 E49.69587
G1 X41.534 Y84.176 E49.73872
G1 X42.509 Y84.436 E49.7857
G1 X43.432 Y84.436 E49.82868
G1 X44.416 Y84.217 E49.87562
M204 S3000
M205 X10 Y10
G0 F3000 X44.593 Y84.125
G0 X44.898 Y84.71
G0 X47.547 Y142.326
G0 X46.929 Y142.556
M204 S1800
M205 X8 Y8
G1 F1500 X46.588 Y141.646 E49.92087
G1 X46.062 Y140.887 E49.96387
G1 X45.317 Y140.205 E50.0109
G1 X44.503 Y139.776 E50.05375
G1 X43.527 Y139.516 E50.10078
G1 X42.512 Y139.516 E50.14804
G1 X41.618 Y139.736 E50.19091
G1 X40.722 Y140.204 E50.23798
G1 X40.032 Y140.815 E50.2809
G1 X39.453 Y141.643 E50.32794
G1 X39.126 Y142.503 E50.37079
G1 X38.994 Y143.506 E50.41789
G1 X39.105 Y144.421 E50.46081
G1 X39.451 Y145.37 E50.50785
G1 X39.975 Y146.128 E50.55075
G1 X40.72 Y146.81 E50.59779
G1 X41.534 Y147.239 E50.64063
G1 X42.509 Y147.499 E50.68762
G1 X43.432 Y147.499 E50.7306
G1 X44.416 Y147.28 E50.77754
G1 X45.315 Y146.811 E50.82475
G1 X46.005 Y146.2 E50.86767
G1 X46.585 Y145.372 E50.91474
G1 X46.928 Y144.462 E50.96002
G1 X47.031 Y143.611 E50.99994
G1 X46.929 Y142.556 E51.04929
M204 S3000
M205 X10 Y10
G0 F3000 X46.859 Y142.369
G0 X47.477 Y142.139
G0 X47.633 Y143.618
G0 X47.514 Y144.605
G0 X47.119 Y145.654
G0 X46.455 Y146.601
G0 X45.657 Y147.308
G0 X44.623 Y147.848
G0 X43.713 Y148.05
G0 X37.91 Y148.64
G0 X37.28 Y149.27
M204 S1800
M205 X8 Y8
G1 F1500 X37.28 Y74.73 E54.52019
G1 X186.72 Y74.73 E61.47874
G1 X186.72 Y149.27 E64.94963
G1 X37.28 Y149.27 E71.90819
M204 S3000
M205 X10 Y10
G0 F3000 X37.28 Y149.07
G0 X37.91 Y148.64
G0 X181.462 Y148.098
G0 X182.683 Y147.866
G0 X182.379 Y147.28
M204 S1800
M205 X8 Y8
G1 F1500 X183.278 Y146.811 E71.9554
G1 X183.968 Y146.2 E71.99832
G1 X184.548 Y145.372 E72.04539
G1 X184.891 Y144.462 E72.09067
G1 X184.995 Y143.611 E72.1306
G1 X184.892 Y142.556 E72.17995
G1 X184.551 Y141.646 E72.2252
G1 X184.025 Y140.887 E72.2682
G1 X183.28 Y140.205 E72.31524
G1 X182.466 Y139.776 E72.35808
G1 X181.491 Y139.516 E72.40507
G1 X180.476 Y139.516 E72.45233
G1 X179.581 Y139.736 E72.49525
G1 X178.685 Y140.204 E72.54232
G1 X177.995 Y140.815 E72.58523
G1 X177.416 Y141.643 E72.63228
G1 X177.089 Y142.503 E72.67512
G1 X176.958 Y143.506 E72.72222
G1 X177.068 Y144.421 E72.76513
G1 X177.414 Y145.37 E72.81217
G1 X177.938 Y146.128 E72.85508
G1 X178.683 Y146.81 E72.90211
G1 X179.497 Y147.239 E72.94495
G1 X180.473 Y147.499 E72.99198
G1 X181.396 Y147.499 E73.03496
G1 X182.379 Y147.28 E73.08186
M204 S3000
M205 X10 Y10
G0 F3000 X182.556 Y147.188
G0 X182.861 Y147.773
G0 X183.62 Y147.308
G0 X184.418 Y146.601
G0 X185.082 Y145.654
G0 X185.477 Y144.606
G0 X185.574 Y143.806
G0 X182.683 Y84.803
G0 X182.379 Y84.217
M204 S1800
M205 X8 Y8
G1 F1500 X183.278 Y83.748 E73.12907
G1 X183.968 Y83.138 E73.17196
G1 X184.548 Y82.31 E73.21903
G1 X184.891 Y81.4 E73.26431
G1 X184.995 Y80.549 E73.30424
G1 X184.892 Y79.494 E73.35359
G1 X184.551 Y78.583 E73.39889
G1 X184.025 Y77.824 E73.44189
G1 X183.28 Y77.143 E73.48889
G1 X182.466 Y76.714 E73.53173
G1 X181.491 Y76.454 E73.57872
G1 X180.476 Y76.454 E73.62598
G1 X179.581 Y76.674 E73.6689
G1 X178.685 Y77.142 E73.71597
G1 X177.995 Y77.752 E73.75885
G1 X177.416 Y78.58 E73.8059
G1 X177.089 Y79.441 E73.84878
G1 X176.958 Y80.444 E73.89588
G1 X177.068 Y81.359 E73.9388
G1 X177.414 Y82.308 E73.98583
G1 X177.938 Y83.066 E74.02874
G1 X178.683 Y83.747 E74.07574
G1 X179.497 Y84.176 E74.11859
G1 X180.473 Y84.436 E74.16562
G1 X181.396 Y84.436 E74.2086
G1 X182.379 Y84.217 E74.25549
M204 S3000
M205 X10 Y10
G0 F3000 X182.556 Y84.125
G0 X182.861 Y84.71
G0 X182.957 Y85.8
M204 S1800
M205 X8 Y8
;TYPE:SKIN
G1 F1500 X184.232 Y85.134 E74.32247
G1 X185.05 Y84.412 E74.37328
G1 X185.05 Y139.561 E76.94124
G1 X184.249 Y138.828 E76.9918
G1 X184.203 Y138.803 E76.99424
G1 X183.078 Y138.211 E77.05343
G1 X181.709 Y137.846 E77.11941
G1 X180.273 Y137.846 E77.18627
G1 X178.987 Y138.162 E77.24794
G1 X177.731 Y138.818 E77.31392
G1 X176.74 Y139.696 E77.37557
G1 X175.929 Y140.856 E77.44148
G1 X175.458 Y142.092 E77.50307
G1 X175.276 Y143.498 E77.56908
G1 X175.434 Y144.811 E77.63066
G1 X175.917 Y146.143 E77.69664
G1 X176.671 Y147.232 E77.75831
G1 X177.073 Y147.6 E77.78369
G1 X46.943 Y147.6 E83.84309
G1 X47.26 Y147.319 E83.86281
G1 X48.074 Y146.159 E83.9288
G1 X48.562 Y144.862 E83.99333
G1 X48.711 Y143.631 E84.05107
G1 X48.569 Y142.177 E84.11909
G1 X48.079 Y140.865 E84.18431
G1 X47.327 Y139.781 E84.24574
G1 X46.286 Y138.827 E84.31149
G1 X45.115 Y138.211 E84.3731
G1 X43.745 Y137.846 E84.43912
G1 X42.309 Y137.846 E84.50598
G1 X41.024 Y138.162 E84.5676
G1 X39.768 Y138.818 E84.63358
G1 X38.95 Y139.543 E84.68448
G1 X38.95 Y84.393 E87.25249
G1 X39.752 Y85.125 E87.30306
G1 X40.922 Y85.741 E87.36462
G1 X42.291 Y86.106 E87.4306
G1 X43.616 Y86.106 E87.4923
G1 X44.994 Y85.8 E87.55802
G1 X46.269 Y85.134 E87.62501
G1 X47.26 Y84.259 E87.68656
G1 X48.074 Y83.096 E87.75266
G1 X48.562 Y81.8 E87.81715
G1 X48.711 Y80.569 E87.87489
G1 X48.569 Y79.115 E87.94291
G1 X48.079 Y77.802 E88.00817
G1 X47.327 Y76.718 E88.0696
G1 X46.979 Y76.4 E88.09155
G1 X177.003 Y76.4 E94.14602
G1 X176.74 Y76.633 E94.16238
G1 X175.929 Y77.793 E94.22828
