;FLAVOR:Marlin
;TIME:1087
;Filament used: 0.55973m
;Layer height: 0.2
;MINX:94.5
;MINY:94.201
;MINZ:0.2
;MAXX:125.5
;MAXY:125.799
;MAXZ:8
;Generated with Cura_SteamEngine master
M82 ;absolute extrusion mode
;Sliced at: Tue 12-04-2022 22:56:56
;Basic settings: Layer height: 0.2 Walls: 0.8 Fill: 20
G21 ;metric values
G90 ;absolute positioning
M82 ;set extruder to absolute mode
M107 ;start with the fan off
M117 Start heating ...
M104 S200
M117 Homing X/Y ...
G28 X0 Y0 ;move X/Y to min endstops
M117 Homing Z ...
G28 Z0 ;move Z to min endstops
G1 Z15.0 F100 ;move the platform down 15mm
M117 Heating ...
M109 S200
M117 Start cleaning ...
G92 E0 ;zero the extruded length
G1 F200 E10 ;extrude 10mm of feed stock
G92 E0 ;zero the extruded length again
M117 Intro line ...
G1 Z2.0 F3000 ; Move Z Axis up little to prevent scratching of Heat Bed
G1 X0.1 Y20 Z0.2 F5000.0 ; Move to start position
G1 X0.1 Y200.0 Z0.2 F1500.0 E15 ; Draw the first line
G1 X0.4 Y200.0 Z0.2 F5000.0 ; Move to side a little
G1 X0.4 Y20 Z0.3 F1500.0 E30 ; Draw the second line
G92 E0 ; Reset Extruder
G1 E-1 F500 ; Retract filiment by 1 mm
G1 Z2.0 F3000 ; Move Z Axis up little to prevent scratching of Heat Bed
G1 X5 Y20 Z0.3 F100 ; Move over to prevent blob squish
G1 F100
G92 E0 ; Reset Extruder
M117 Printing...

G92 E0
G92 E0
G1 F1800 E-7
;LAYER_COUNT:40
;LAYER:0
M107
G1 F300 Z0.4
G0 F3000 X98.801 Y98.86 Z0.4
;TYPE:SKIRT
G1 F300 Z0.2
G1 F1800 E0
G1 F1200 X99.292 Y98.4 E0.02238
G1 X99.365 Y98.339 E0.02554
G1 X99.858 Y97.987 E0.04569
G1 X100.903 Y97.354 E0.08633
G1 X103.995 Y95.569 E0.20507
G1 X104.505 Y95.284 E0.2245
G1 X105.041 Y95.034 E0.24418
G1 X105.783 Y94.775 E0.27032
G1 X106.246 Y94.655 E0.28622
G1 X106.996 Y94.491 E0.31176
G1 X107.633 Y94.378 E0.33328
G1 X107.888 Y94.346 E0.34182
G1 X108.413 Y94.294 E0.35937
G1 X109.463 Y94.216 E0.39439
G1 X110.108 Y94.201 E0.41585
G1 X110.762 Y94.231 E0.43762
G1 X111.47 Y94.284 E0.46124
G1 X112.261 Y94.364 E0.48768
G1 X113.016 Y94.491 E0.51314
G1 X113.567 Y94.61 E0.53189
G1 X114.159 Y94.76 E0.55221
G1 X114.68 Y94.921 E0.57034
G1 X114.799 Y94.965 E0.57456
G1 X115.336 Y95.21 E0.59419
G1 X116.366 Y95.777 E0.6333
G1 X119.478 Y97.575 E0.75284
G1 X120.04 Y97.91 E0.7746
G1 X120.569 Y98.287 E0.79621
G1 X121.038 Y98.698 E0.81695
G1 X121.426 Y99.092 E0.83534
G1 X121.911 Y99.624 E0.85928
G1 X122.356 Y100.151 E0.88222
G1 X122.455 Y100.283 E0.88771
G1 X122.867 Y100.858 E0.91124
G1 X123.398 Y101.639 E0.94265
G1 X123.73 Y102.183 E0.96385
G1 X123.989 Y102.679 E0.98246
G1 X124.047 Y102.795 E0.98677
G1 X124.388 Y103.506 E1.013
G1 X124.667 Y104.127 E1.03564
G1 X124.933 Y104.839 E1.06092
G1 X125.118 Y105.416 E1.08108
G1 X125.272 Y105.961 E1.09991
G1 X125.413 Y106.607 E1.1219
G1 X125.479 Y107.259 E1.1437
G1 X125.5 Y108.369 E1.18063
G1 X125.5 Y111.956 E1.29993
G1 X125.491 Y112.611 E1.32172
G1 X125.44 Y113.191 E1.34108
G1 X125.31 Y113.895 E1.36489
G1 X125.164 Y114.427 E1.38324
G1 X124.926 Y115.175 E1.40935
G1 X124.703 Y115.787 E1.43101
G1 X124.63 Y115.959 E1.43723
G1 X124.37 Y116.532 E1.45816
G1 X123.956 Y117.392 E1.4899
G1 X123.649 Y117.954 E1.5112
G1 X123.303 Y118.5 E1.5327
G1 X123.229 Y118.612 E1.53717
G1 X122.845 Y119.173 E1.55978
G1 X122.425 Y119.759 E1.58376
G1 X121.909 Y120.384 E1.61071
G1 X121.566 Y120.76 E1.62764
G1 X121.199 Y121.14 E1.64521
G1 X120.704 Y121.604 E1.66778
G1 X120.632 Y121.664 E1.6709
G1 X120.144 Y122.012 E1.69083
G1 X119.11 Y122.638 E1.73103
G1 X116.026 Y124.419 E1.84948
G1 X115.497 Y124.715 E1.86964
G1 X114.961 Y124.965 E1.88932
G1 X114.228 Y125.222 E1.91515
G1 X113.754 Y125.345 E1.93144
G1 X113.004 Y125.509 E1.95697
G1 X112.367 Y125.622 E1.97849
G1 X112.112 Y125.654 E1.98704
G1 X111.587 Y125.706 E2.00459
G1 X110.537 Y125.784 E2.0396
G1 X109.892 Y125.799 E2.06106
G1 X109.238 Y125.769 E2.08284
G1 X108.53 Y125.716 E2.10645
G1 X107.739 Y125.636 E2.1329
G1 X106.984 Y125.509 E2.15836
G1 X106.433 Y125.39 E2.17711
G1 X105.841 Y125.24 E2.19742
G1 X105.309 Y125.075 E2.21595
G1 X105.191 Y125.031 E2.22013
G1 X104.666 Y124.79 E2.23935
G1 X103.634 Y124.223 E2.27851
G1 X100.523 Y122.425 E2.39802
G1 X99.959 Y122.089 E2.41986
G1 X99.429 Y121.712 E2.44149
G1 X98.95 Y121.291 E2.4627
G1 X98.572 Y120.906 E2.48065
G1 X98.088 Y120.375 E2.50454
G1 X97.582 Y119.766 E2.53088
G1 X97.118 Y119.121 E2.55731
G1 X96.601 Y118.36 E2.5879
G1 X96.268 Y117.812 E2.60923
G1 X95.955 Y117.208 E2.63186
G1 X95.65 Y116.575 E2.65523
G1 X95.335 Y115.877 E2.6807
G1 X95.066 Y115.159 E2.7062
G1 X94.883 Y114.586 E2.72621
G1 X94.724 Y114.025 E2.7456
G1 X94.587 Y113.394 E2.76708
G1 X94.521 Y112.741 E2.78891
G1 X94.5 Y111.631 E2.82583
G1 X94.5 Y108.044 E2.94514
G1 X94.509 Y107.389 E2.96692
G1 X94.56 Y106.805 E2.98642
G1 X94.691 Y106.101 E3.01024
G1 X94.836 Y105.573 E3.02845
G1 X95.074 Y104.825 E3.05456
G1 X95.293 Y104.22 E3.07596
G1 X95.371 Y104.039 E3.08251
G1 X95.67 Y103.384 E3.10646
G1 X96.044 Y102.608 E3.13511
G1 X96.355 Y102.039 E3.15668
G1 X96.778 Y101.377 E3.18281
G1 X97.18 Y100.79 E3.20647
G1 X97.579 Y100.236 E3.22918
G1 X98.084 Y99.624 E3.25557
G1 X98.434 Y99.24 E3.27285
G1 X98.801 Y98.86 E3.29042
G0 F3000 X99.089 Y99.138
G1 F1200 X99.549 Y98.707 E3.31139
G1 X99.622 Y98.646 E3.31455
G1 X100.065 Y98.329 E3.33267
G1 X101.103 Y97.701 E3.37302
G1 X104.19 Y95.918 E3.49159
G1 X104.7 Y95.633 E3.51102
G1 X105.183 Y95.409 E3.52873
G1 X105.886 Y95.161 E3.55352
G1 X106.331 Y95.046 E3.56881
G1 X107.081 Y94.882 E3.59435
G1 X107.685 Y94.774 E3.61475
G1 X107.927 Y94.745 E3.62286
G1 X108.542 Y94.685 E3.64341
G1 X109.594 Y94.609 E3.67849
G1 X110.09 Y94.6 E3.69499
G1 X110.619 Y94.623 E3.7126
G1 X111.44 Y94.683 E3.73998
G1 X112.22 Y94.762 E3.76606
G1 X112.942 Y94.885 E3.79042
G1 X113.47 Y94.998 E3.80838
G1 X114.049 Y95.145 E3.82825
G1 X114.541 Y95.296 E3.84536
G1 X114.66 Y95.34 E3.84958
G1 X115.144 Y95.561 E3.86728
G1 X116.166 Y96.123 E3.90607
G1 X119.273 Y97.919 E4.02544
G1 X119.835 Y98.254 E4.0472
G1 X120.311 Y98.593 E4.06663
G1 X120.767 Y98.992 E4.08679
G1 X121.13 Y99.362 E4.10403
G1 X121.687 Y99.974 E4.13155
G1 X122.038 Y100.393 E4.14973
G1 X122.131 Y100.517 E4.15488
G1 X122.482 Y101.005 E4.17488
G1 X123.067 Y101.864 E4.20944
G1 X123.375 Y102.368 E4.22909
G1 X123.687 Y102.969 E4.25161
G1 X124.023 Y103.67 E4.27747
G1 X124.302 Y104.291 E4.30011
G1 X124.556 Y104.972 E4.32428
G1 X124.733 Y105.526 E4.34363
G1 X124.884 Y106.059 E4.36205
G1 X125.02 Y106.68 E4.3832
G1 X125.079 Y107.266 E4.40279
G1 X125.1 Y108.369 E4.43948
G1 X125.1 Y111.95 E4.55858
G1 X125.091 Y112.605 E4.58037
G1 X125.045 Y113.128 E4.59783
G1 X124.922 Y113.795 E4.62039
G1 X124.783 Y114.306 E4.63801
G1 X124.545 Y115.054 E4.66411
G1 X124.334 Y115.633 E4.68461
G1 X124.265 Y115.794 E4.69044
G1 X123.97 Y116.442 E4.71412
G1 X123.596 Y117.218 E4.74277
G1 X123.311 Y117.74 E4.76255
G1 X122.965 Y118.286 E4.78405
G1 X122.568 Y118.871 E4.80756
G1 X122.1 Y119.526 E4.83434
G1 X121.606 Y120.123 E4.86011
G1 X121.278 Y120.482 E4.87628
G1 X120.911 Y120.862 E4.89385
G1 X120.448 Y121.297 E4.91498
G1 X120.376 Y121.357 E4.9181
G1 X119.937 Y121.67 E4.93603
G1 X118.91 Y122.291 E4.97595
G1 X115.831 Y124.07 E5.09422
G1 X115.302 Y124.366 E5.11439
G1 X114.819 Y124.591 E5.13211
G1 X114.124 Y124.835 E5.15661
G1 X113.669 Y124.954 E5.17225
G1 X112.919 Y125.118 E5.19778
G1 X112.315 Y125.226 E5.21819
G1 X112.073 Y125.255 E5.2263
G1 X111.458 Y125.315 E5.24685
G1 X110.406 Y125.391 E5.28193
G1 X109.91 Y125.4 E5.29843
G1 X109.381 Y125.377 E5.31604
G1 X108.56 Y125.317 E5.34342
G1 X107.78 Y125.238 E5.3695
G1 X107.058 Y125.115 E5.39386
G1 X106.53 Y125.002 E5.41182
G1 X105.951 Y124.855 E5.43168
G1 X105.449 Y124.7 E5.44916
G1 X105.331 Y124.656 E5.45335
G1 X104.858 Y124.44 E5.47064
G1 X103.834 Y123.877 E5.50951
G1 X100.728 Y122.082 E5.62883
G1 X100.164 Y121.746 E5.65066
G1 X99.687 Y121.406 E5.67014
G1 X99.222 Y120.998 E5.69072
G1 X98.867 Y120.636 E5.70758
G1 X98.312 Y120.025 E5.73504
G1 X97.907 Y119.532 E5.75626
G1 X97.449 Y118.896 E5.78233
G1 X96.88 Y118.057 E5.81604
G1 X96.622 Y117.627 E5.83272
G1 X96.362 Y117.128 E5.85144
G1 X96.056 Y116.499 E5.8747
G1 X95.7 Y115.713 E5.9034
G1 X95.443 Y115.026 E5.9278
G1 X95.267 Y114.475 E5.94703
G1 X95.113 Y113.929 E5.9659
G1 X94.98 Y113.321 E5.9866
G1 X94.921 Y112.734 E6.00623
G1 X94.9 Y111.631 E6.04292
G1 X94.9 Y108.05 E6.16202
G1 X94.909 Y107.395 E6.18381
G1 X94.955 Y106.869 E6.20137
G1 X95.079 Y106.201 E6.22397
G1 X95.217 Y105.694 E6.24145
G1 X95.455 Y104.946 E6.26755
G1 X95.662 Y104.374 E6.28779
G1 X95.735 Y104.205 E6.29391
G1 X96.03 Y103.558 E6.31756
G1 X96.404 Y102.782 E6.34621
G1 X96.692 Y102.254 E6.36621
G1 X97.046 Y101.698 E6.38814
G1 X97.452 Y101.1 E6.41218
G1 X97.904 Y100.47 E6.43797
G1 X98.388 Y99.884 E6.46324
G1 X98.722 Y99.518 E6.47972
G1 X99.089 Y99.138 E6.4973
G0 F3000 X99.376 Y99.416
G1 F1200 X99.805 Y99.013 E6.51687
G1 X100.272 Y98.671 E6.53612
G1 X101.304 Y98.047 E6.57624
G1 X104.385 Y96.268 E6.69457
G1 X104.895 Y95.983 E6.714
G1 X105.689 Y95.645 E6.7427
G1 X106.269 Y95.473 E6.76282
G1 X106.416 Y95.437 E6.76785
G1 X107.166 Y95.273 E6.79339
G1 X107.737 Y95.171 E6.81268
G1 X107.967 Y95.143 E6.82039
G1 X108.572 Y95.084 E6.84061
G1 X109.613 Y95.008 E6.87532
G1 X110.073 Y95 E6.89062
G1 X110.702 Y95.029 E6.91157
G1 X111.498 Y95.09 E6.93812
G1 X112.179 Y95.16 E6.96089
G1 X112.868 Y95.278 E6.98414
G1 X113.374 Y95.386 E7.00135
G1 X113.939 Y95.529 E7.02073
G1 X114.522 Y95.716 E7.0411
G1 X114.952 Y95.912 E7.05681
G1 X115.966 Y96.469 E7.09529
G1 X119.068 Y98.262 E7.21446
G1 X119.63 Y98.597 E7.23622
G1 X120.054 Y98.899 E7.25354
G1 X120.495 Y99.286 E7.27305
G1 X120.835 Y99.631 E7.28916
G1 X121.32 Y100.163 E7.3131
G1 X121.72 Y100.635 E7.33368
G1 X121.806 Y100.75 E7.33846
G1 X122.157 Y101.238 E7.35845
G1 X122.781 Y102.156 E7.39537
G1 X123.021 Y102.553 E7.4108
G1 X123.28 Y103.049 E7.42941
G1 X123.622 Y103.757 E7.45556
G1 X123.937 Y104.455 E7.48103
G1 X124.179 Y105.106 E7.50413
G1 X124.349 Y105.637 E7.52268
G1 X124.497 Y106.156 E7.54063
G1 X124.626 Y106.753 E7.56094
G1 X124.679 Y107.274 E7.57836
G1 X124.7 Y108.369 E7.61479
G1 X124.7 Y111.945 E7.73372
G1 X124.691 Y112.6 E7.75551
G1 X124.595 Y113.406 E7.78251
G1 X124.482 Y113.901 E7.7994
G1 X124.401 Y114.184 E7.80919
G1 X124.163 Y114.932 E7.83529
G1 X123.964 Y115.48 E7.85469
G1 X123.901 Y115.628 E7.86003
G1 X123.61 Y116.268 E7.88342
G1 X123.236 Y117.044 E7.91207
G1 X122.973 Y117.526 E7.93033
G1 X122.627 Y118.072 E7.95183
G1 X122.568 Y118.162 E7.95541
G1 X122.195 Y118.707 E7.97738
G1 X121.775 Y119.293 E8.00136
G1 X121.302 Y119.862 E8.02597
G1 X120.991 Y120.204 E8.04134
G1 X120.624 Y120.584 E8.05891
G1 X120.192 Y120.989 E8.07861
G1 X119.73 Y121.328 E8.09767
G1 X118.71 Y121.945 E8.13732
G1 X115.636 Y123.721 E8.25539
G1 X115.107 Y124.017 E8.27556
G1 X114.319 Y124.352 E8.30404
G1 X113.735 Y124.526 E8.3243
G1 X113.584 Y124.563 E8.32947
G1 X112.834 Y124.727 E8.35501
G1 X112.263 Y124.829 E8.3743
G1 X112.033 Y124.857 E8.38201
G1 X111.428 Y124.916 E8.40222
G1 X110.387 Y124.992 E8.43694
G1 X109.927 Y125 E8.45224
G1 X109.298 Y124.971 E8.47319
G1 X108.502 Y124.91 E8.49974
G1 X107.821 Y124.84 E8.52251
G1 X107.132 Y124.722 E8.54576
G1 X106.626 Y124.614 E8.56297
G1 X106.061 Y124.471 E8.58235
G1 X105.471 Y124.281 E8.60297
G1 X105.051 Y124.089 E8.61833
G1 X104.034 Y123.531 E8.65691
G1 X100.932 Y121.738 E8.77608
G1 X100.368 Y121.402 E8.79791
G1 X99.944 Y121.1 E8.81523
G1 X99.494 Y120.705 E8.83514
G1 X99.163 Y120.367 E8.85088
G1 X98.679 Y119.836 E8.87477
G1 X98.231 Y119.298 E8.89806
G1 X97.78 Y118.671 E8.92375
G1 X97.217 Y117.841 E8.9571
G1 X96.977 Y117.443 E8.97256
G1 X96.717 Y116.944 E8.99128
G1 X96.379 Y116.246 E9.01707
G1 X96.064 Y115.548 E9.04254
G1 X95.821 Y114.892 E9.06581
G1 X95.652 Y114.364 E9.08425
G1 X95.501 Y113.833 E9.10261
G1 X95.374 Y113.248 E9.12252
G1 X95.321 Y112.726 E9.13997
G1 X95.3 Y111.631 E9.1764
G1 X95.3 Y108.055 E9.29534
G1 X95.309 Y107.4 E9.31712
G1 X95.406 Y106.587 E9.34436
G1 X95.518 Y106.098 E9.36104
G1 X95.599 Y105.816 E9.3708
G1 X95.87 Y104.967 E9.40044
G1 X96.059 Y104.461 E9.41841
G1 X96.36 Y103.796 E9.44268
G1 X96.764 Y102.956 E9.47369
G1 X97.03 Y102.468 E9.49217
G1 X97.439 Y101.828 E9.51743
G1 X97.829 Y101.258 E9.5404
G1 X98.228 Y100.704 E9.56311
G1 X98.692 Y100.144 E9.5873
G1 X99.009 Y99.796 E9.60296
G1 X99.376 Y99.416 E9.62053
G1 F1800 E2.62053
G1 F300 Z0.4
;MESH:nut.amf
G0 F3000 X110.496 Y120.368 Z0.4
;TYPE:WALL-INNER
G1 F300 Z0.2
G1 F1800 E9.62053
G1 F1200 X112.262 Y120.217 E9.67948
G1 X112.422 Y120.189 E9.68488
G1 X114.123 Y119.694 E9.74381
G1 X114.283 Y119.639 E9.74943
G1 X115.997 Y118.744 E9.81374
G1 X116.346 Y118.462 E9.82867
G1 X117.534 Y117.503 E9.87945
G1 X117.671 Y117.343 E9.88645
G1 X118.803 Y115.98 E9.94538
G1 X119.743 Y114.24 E10.01116
G1 X120.322 Y112.351 E10.07688
G1 X120.348 Y112.11 E10.08494
G1 X120.515 Y110.412 E10.14169
G1 X120.515 Y110.311 E10.14504
G1 X120.341 Y108.517 E10.20499
G1 X120.299 Y108.335 E10.21121
G1 X119.833 Y106.768 E10.26558
G1 X119.759 Y106.569 E10.27264
G1 X119.006 Y105.125 E10.32681
G1 X118.861 Y104.875 E10.33642
G1 X117.862 Y103.619 E10.3898
G1 X117.648 Y103.377 E10.40054
G1 X116.462 Y102.365 E10.4524
G1 X116.183 Y102.147 E10.46417
G1 X114.876 Y101.409 E10.5141
G1 X114.501 Y101.215 E10.52814
G1 X113.155 Y100.766 E10.57533
G1 X112.668 Y100.623 E10.59221
G1 X111.392 Y100.457 E10.63501
G1 X110.757 Y100.393 E10.65624
G1 X109.695 Y100.46 E10.69163
G1 X108.837 Y100.533 E10.72027
G1 X108.254 Y100.685 E10.74031
G1 X107.801 Y100.809 E10.75593
G1 X107.261 Y100.884 E10.77406
G1 X106.993 Y100.938 E10.78316
G1 X105.956 Y101.298 E10.81967
G1 X105.268 Y101.556 E10.84411
G1 X104.756 Y101.839 E10.86356
G1 X103.807 Y102.444 E10.901
G1 X103.427 Y102.765 E10.91754
G1 X102.274 Y104.248 E10.98002
G1 X102.157 Y104.427 E10.98713
G1 X101.648 Y105.399 E11.02362
G1 X101.545 Y105.606 E11.03131
G1 X101.215 Y106.548 E11.06451
G1 X101.095 Y106.899 E11.07685
G1 X100.973 Y107.534 E11.09836
G1 X100.781 Y108.173 E11.12055
G1 X100.554 Y109.943 E11.1799
G1 X100.537 Y110.129 E11.18611
G1 X100.673 Y112.048 E11.2501
G1 X100.709 Y112.196 E11.25517
G1 X101.179 Y113.903 E11.31405
G1 X101.236 Y114.051 E11.31933
G1 X102.035 Y115.635 E11.37834
G1 X102.115 Y115.774 E11.38367
G1 X103.301 Y117.285 E11.44756
G1 X103.419 Y117.392 E11.45286
G1 X104.765 Y118.542 E11.51174
G1 X104.897 Y118.631 E11.51703
G1 X106.444 Y119.496 E11.57598
G1 X106.589 Y119.564 E11.58131
G1 X108.293 Y120.112 E11.64085
G1 X108.563 Y120.169 E11.65002
G1 X110.334 Y120.369 E11.7093
G1 X110.496 Y120.368 E11.71469
G0 F3000 X110.477 Y119.968
;TYPE:WALL-OUTER
G1 F1200 X112.211 Y119.82 E11.77257
G1 X112.332 Y119.799 E11.77666
G1 X114.002 Y119.313 E11.83451
G1 X114.124 Y119.271 E11.8388
G1 X115.777 Y118.408 E11.90082
G1 X117.254 Y117.215 E11.96397
G1 X117.365 Y117.085 E11.96965
G1 X118.47 Y115.755 E12.02716
G1 X119.372 Y114.085 E12.09029
G1 X119.928 Y112.27 E12.15343
G1 X119.95 Y112.069 E12.16015
G1 X120.115 Y110.392 E12.2162
G1 X120.115 Y110.33 E12.21826
G1 X119.945 Y108.581 E12.27671
G1 X119.912 Y108.436 E12.28165
G1 X119.454 Y106.895 E12.33512
G1 X119.393 Y106.732 E12.34091
G1 X118.656 Y105.318 E12.39395
G1 X118.53 Y105.101 E12.40229
G1 X117.555 Y103.876 E12.45437
G1 X117.367 Y103.663 E12.46382
G1 X116.209 Y102.675 E12.51444
G1 X115.96 Y102.481 E12.52494
G1 X114.686 Y101.761 E12.57362
G1 X114.345 Y101.585 E12.58638
G1 X113.035 Y101.148 E12.63231
G1 X112.585 Y101.016 E12.64791
G1 X111.346 Y100.854 E12.68947
G1 X110.75 Y100.794 E12.70939
G1 X109.725 Y100.859 E12.74355
G1 X108.905 Y100.929 E12.77092
G1 X108.357 Y101.071 E12.78975
G1 X107.887 Y101.201 E12.80597
G1 X107.328 Y101.279 E12.82474
G1 X107.098 Y101.325 E12.83255
G1 X106.092 Y101.674 E12.86796
G1 X105.436 Y101.92 E12.89126
G1 X104.961 Y102.183 E12.90932
G1 X104.045 Y102.767 E12.94545
G1 X103.717 Y103.044 E12.95973
G1 X102.6 Y104.48 E13.02024
G1 X102.503 Y104.629 E13.02616
G1 X102.004 Y105.581 E13.06191
G1 X101.914 Y105.762 E13.06863
G1 X101.593 Y106.678 E13.10091
G1 X101.483 Y107.002 E13.11229
G1 X101.363 Y107.623 E13.13333
G1 X101.174 Y108.256 E13.1553
G1 X100.952 Y109.987 E13.21335
G1 X100.938 Y110.134 E13.21826
G1 X101.07 Y111.987 E13.28004
G1 X101.096 Y112.096 E13.28377
G1 X101.559 Y113.777 E13.34176
