;FLAVOR:Marlin
;TIME:1727
;Filament used: 0.932228m
;Layer height: 0.2
;MINX:93.019
;MINY:93.044
;MINZ:0.2
;MAXX:126.981
;MAXY:126.956
;MAXZ:17.2
;Generated with Cura_SteamEngine master
M82 ;absolute extrusion mode
;Sliced at: Tue 12-04-2022 21:53:18
;Basic settings: Layer height: 0.2 Walls: 0.8 Fill: 20
G21 ;metric values
G90 ;absolute positioning
M82 ;set extruder to absolute mode
M107 ;start with the fan off
M117 Start heating ...
M104 S200
M117 Homing X/Y ...
G28 X0 Y0 ;move X/Y to min endstops
M117 Homing Z ...
G28 Z0 ;move Z to min endstops
G1 Z15.0 F100 ;move the platform down 15mm
M117 Heating ...
M109 S200
M117 Start cleaning ...
G92 E0 ;zero the extruded length
G1 F200 E10 ;extrude 10mm of feed stock
G92 E0 ;zero the extruded length again
M117 Intro line ...
G1 Z2.0 F3000 ; Move Z Axis up little to prevent scratching of Heat Bed
G1 X0.1 Y20 Z0.2 F5000.0 ; Move to start position
G1 X0.1 Y200.0 Z0.2 F1500.0 E15 ; Draw the first line
G1 X0.4 Y200.0 Z0.2 F5000.0 ; Move to side a little
G1 X0.4 Y20 Z0.3 F1500.0 E30 ; Draw the second line
G92 E0 ; Reset Extruder
G1 E-1 F500 ; Retract filiment by 1 mm
G1 Z2.0 F3000 ; Move Z Axis up little to prevent scratching of Heat Bed
G1 X5 Y20 Z0.3 F100 ; Move over to prevent blob squish
G1 F100
G92 E0 ; Reset Extruder
M117 Printing...

G92 E0
G92 E0
G1 F1800 E-7
;LAYER_COUNT:85
;LAYER:0
M107
G1 F300 Z0.4
G0 F3000 X98.314 Y97.678 Z0.4
;TYPE:SKIRT
G1 F300 Z0.2
G1 F1800 E0
G1 F1200 X98.685 Y97.334 E0.01683
G1 X98.77 Y97.264 E0.02049
G1 X99.247 Y96.884 E0.04077
G1 X99.884 Y96.388 E0.06763
G1 X100.49 Y95.93 E0.09289
G1 X100.966 Y95.619 E0.1118
G1 X101.524 Y95.308 E0.13305
G1 X102.319 Y94.879 E0.1631
G1 X102.94 Y94.555 E0.18639
G1 X103.442 Y94.334 E0.20463
G1 X103.987 Y94.137 E0.22391
G1 X104.871 Y93.834 E0.25499
G1 X105.573 Y93.605 E0.27955
G1 X106.095 Y93.471 E0.29747
G1 X106.693 Y93.362 E0.31769
G1 X107.653 Y93.202 E0.35006
G1 X108.335 Y93.099 E0.373
G1 X108.87 Y93.053 E0.39086
G1 X109.487 Y93.044 E0.41139
G1 X110.428 Y93.044 E0.44268
G1 X111.145 Y93.055 E0.46653
G1 X111.714 Y93.103 E0.48553
G1 X112.273 Y93.189 E0.50434
G1 X113.24 Y93.351 E0.53695
G1 X113.906 Y93.473 E0.55947
G1 X114.429 Y93.605 E0.57741
G1 X114.542 Y93.64 E0.58134
G1 X115.103 Y93.825 E0.60099
G1 X115.893 Y94.097 E0.62878
G1 X116.588 Y94.347 E0.65335
G1 X117.085 Y94.565 E0.6714
G1 X117.635 Y94.853 E0.69205
G1 X118.435 Y95.286 E0.7223
G1 X119.063 Y95.639 E0.74626
G1 X119.486 Y95.912 E0.76301
G1 X119.604 Y95.997 E0.76784
G1 X120.045 Y96.333 E0.78628
G1 X120.749 Y96.881 E0.81596
G1 X121.308 Y97.329 E0.83978
G1 X121.709 Y97.698 E0.85791
G1 X122.165 Y98.18 E0.87998
G1 X122.765 Y98.832 E0.90945
G1 X123.233 Y99.355 E0.93279
G1 X123.569 Y99.785 E0.95094
G1 X123.904 Y100.282 E0.97088
G1 X124.403 Y101.045 E1.0012
G1 X124.817 Y101.701 E1.027
G1 X125.076 Y102.179 E1.04508
G1 X125.329 Y102.737 E1.06546
G1 X125.663 Y103.498 E1.0931
G1 X125.974 Y104.232 E1.11961
G1 X126.155 Y104.758 E1.13812
G1 X126.33 Y105.412 E1.16063
G1 X126.533 Y106.215 E1.18818
G1 X126.705 Y106.935 E1.2128
G1 X126.795 Y107.472 E1.23091
G1 X126.86 Y108.143 E1.25333
G1 X126.931 Y108.997 E1.28184
G1 X126.981 Y109.727 E1.30617
G1 X126.979 Y110.319 E1.32586
G1 X126.943 Y110.861 E1.34393
G1 X126.86 Y111.844 E1.37674
G1 X126.794 Y112.523 E1.39943
G1 X126.7 Y113.086 E1.41842
G1 X126.559 Y113.676 E1.43859
G1 X126.333 Y114.574 E1.46939
G1 X126.149 Y115.259 E1.49298
G1 X125.943 Y115.85 E1.5138
G1 X125.703 Y116.411 E1.53409
G1 X125.378 Y117.151 E1.56097
G1 X125.053 Y117.86 E1.58692
G1 X124.803 Y118.325 E1.60447
G1 X124.493 Y118.816 E1.62379
G1 X124.011 Y119.556 E1.65316
G1 X123.568 Y120.213 E1.67952
G1 X123.238 Y120.639 E1.69744
G1 X122.737 Y121.199 E1.72243
G1 X122.203 Y121.778 E1.74863
G1 X121.706 Y122.303 E1.77267
G1 X121.32 Y122.662 E1.79021
G1 X120.79 Y123.087 E1.8128
G1 X120.116 Y123.612 E1.84122
G1 X119.51 Y124.07 E1.86648
G1 X119.034 Y124.381 E1.88539
G1 X118.476 Y124.692 E1.90664
G1 X117.681 Y125.121 E1.93669
G1 X117.06 Y125.445 E1.95998
G1 X116.558 Y125.666 E1.97823
G1 X116.013 Y125.863 E1.9975
G1 X115.129 Y126.166 E2.02858
G1 X114.427 Y126.395 E2.05314
G1 X113.905 Y126.529 E2.07107
G1 X113.307 Y126.638 E2.09128
G1 X112.347 Y126.798 E2.12365
G1 X111.665 Y126.901 E2.14659
G1 X111.13 Y126.947 E2.16445
G1 X110.513 Y126.956 E2.18498
G1 X109.572 Y126.956 E2.21628
G1 X108.855 Y126.945 E2.24013
G1 X108.286 Y126.897 E2.25912
G1 X107.727 Y126.811 E2.27793
G1 X106.76 Y126.649 E2.31054
G1 X106.094 Y126.527 E2.33306
G1 X105.571 Y126.395 E2.351
G1 X105.456 Y126.359 E2.35501
G1 X104.897 Y126.175 E2.37458
G1 X104.107 Y125.903 E2.40237
G1 X103.412 Y125.653 E2.42694
G1 X102.913 Y125.434 E2.44506
G1 X102.356 Y125.142 E2.46598
G1 X101.565 Y124.714 E2.49589
G1 X100.93 Y124.357 E2.52012
G1 X100.488 Y124.07 E2.53765
G1 X99.91 Y123.633 E2.56175
G1 X99.25 Y123.118 E2.58959
G1 X98.689 Y122.668 E2.61351
G1 X98.285 Y122.296 E2.63178
G1 X97.801 Y121.783 E2.65524
G1 X97.233 Y121.166 E2.68313
G1 X96.765 Y120.642 E2.7065
G1 X96.454 Y120.248 E2.72319
G1 X96.378 Y120.138 E2.72764
G1 X96.031 Y119.619 E2.7484
G1 X95.589 Y118.942 E2.7753
G1 X95.179 Y118.29 E2.80091
G1 X94.934 Y117.84 E2.81795
G1 X94.641 Y117.195 E2.84152
G1 X94.317 Y116.455 E2.86839
G1 X94.026 Y115.768 E2.8932
G1 X93.845 Y115.241 E2.91173
G1 X93.67 Y114.586 E2.93428
G1 X93.467 Y113.782 E2.96186
G1 X93.296 Y113.068 E2.98628
G1 X93.205 Y112.528 E3.0045
G1 X93.14 Y111.855 E3.02698
G1 X93.066 Y110.961 E3.05682
G1 X93.019 Y110.268 E3.07992
G1 X93.021 Y109.676 E3.09961
G1 X93.057 Y109.139 E3.11751
G1 X93.139 Y108.16 E3.15019
G1 X93.204 Y107.485 E3.17274
G1 X93.294 Y106.936 E3.19125
G1 X93.44 Y106.325 E3.21214
G1 X93.675 Y105.397 E3.24398
G1 X93.849 Y104.747 E3.26636
G1 X94.03 Y104.221 E3.28486
G1 X94.3 Y103.585 E3.30784
G1 X94.624 Y102.846 E3.33468
G1 X94.938 Y102.156 E3.3599
G1 X95.195 Y101.678 E3.37795
G1 X95.507 Y101.183 E3.39741
G1 X96.043 Y100.363 E3.42999
G1 X96.437 Y99.78 E3.45339
G1 X96.754 Y99.369 E3.47066
G1 X97.264 Y98.8 E3.49607
G1 X97.845 Y98.171 E3.52455
G1 X98.314 Y97.678 E3.54718
G0 F3000 X98.604 Y97.954
G1 F1200 X99.02 Y97.577 E3.56586
G1 X99.492 Y97.2 E3.58595
G1 X100.125 Y96.707 E3.61263
G1 X100.731 Y96.249 E3.6379
G1 X101.168 Y95.964 E3.65525
G1 X101.679 Y95.679 E3.67471
G1 X102.504 Y95.233 E3.7059
G1 X103.125 Y94.909 E3.7292
G1 X103.586 Y94.706 E3.74595
G1 X104.163 Y94.5 E3.76633
G1 X104.996 Y94.214 E3.79563
G1 X105.698 Y93.985 E3.82018
G1 X106.298 Y93.839 E3.84072
G1 X106.801 Y93.749 E3.85772
G1 X107.712 Y93.597 E3.88844
G1 X108.394 Y93.494 E3.91138
G1 X108.988 Y93.45 E3.93119
G1 X109.492 Y93.444 E3.94795
G1 X110.422 Y93.444 E3.97889
G1 X111.139 Y93.455 E4.00274
G1 X111.661 Y93.5 E4.02016
G1 X112.16 Y93.576 E4.03695
G1 X113.168 Y93.745 E4.07094
G1 X113.834 Y93.867 E4.09346
G1 X114.417 Y94.02 E4.11351
G1 X114.973 Y94.203 E4.13298
G1 X115.758 Y94.473 E4.16059
G1 X116.453 Y94.723 E4.18516
G1 X116.9 Y94.92 E4.2014
G1 X117.445 Y95.205 E4.22186
G1 X118.239 Y95.635 E4.25189
G1 X118.867 Y95.988 E4.27585
G1 X119.362 Y96.316 E4.2956
G1 X119.799 Y96.648 E4.31386
G1 X120.498 Y97.193 E4.34334
G1 X121.057 Y97.641 E4.36716
G1 X121.419 Y97.974 E4.38352
G1 X121.871 Y98.451 E4.40538
G1 X122.467 Y99.098 E4.43464
G1 X122.935 Y99.621 E4.45798
G1 X123.286 Y100.079 E4.47717
G1 X123.596 Y100.541 E4.49568
G1 X124.064 Y101.259 E4.52418
G1 X124.478 Y101.915 E4.54998
G1 X124.747 Y102.422 E4.56907
G1 X124.98 Y102.937 E4.58787
G1 X125.295 Y103.655 E4.61395
G1 X125.606 Y104.389 E4.64046
G1 X125.768 Y104.861 E4.65706
G1 X125.942 Y105.51 E4.67941
G1 X126.143 Y106.308 E4.70678
G1 X126.315 Y107.028 E4.7314
G1 X126.397 Y107.512 E4.74773
G1 X126.462 Y108.177 E4.76995
G1 X126.532 Y109.024 E4.79822
G1 X126.582 Y109.754 E4.82256
G1 X126.58 Y110.299 E4.84068
G1 X126.544 Y110.833 E4.85848
G1 X126.462 Y111.805 E4.89093
G1 X126.396 Y112.484 E4.91362
G1 X126.309 Y113.002 E4.93109
G1 X126.17 Y113.582 E4.95093
G1 X125.947 Y114.47 E4.98138
G1 X125.763 Y115.155 E5.00497
G1 X125.575 Y115.693 E5.02392
G1 X125.336 Y116.25 E5.04408
G1 X125.015 Y116.984 E5.07073
G1 X124.69 Y117.693 E5.09667
G1 X124.399 Y118.218 E5.11663
G1 X124.135 Y118.633 E5.13299
G1 X123.646 Y119.383 E5.16277
G1 X123.237 Y119.99 E5.18712
G1 X122.878 Y120.444 E5.20637
G1 X122.443 Y120.928 E5.22801
G1 X121.912 Y121.503 E5.25404
G1 X121.415 Y122.028 E5.27809
G1 X120.983 Y122.421 E5.29751
G1 X120.508 Y122.8 E5.31772
G1 X119.875 Y123.293 E5.34441
G1 X119.269 Y123.751 E5.36967
G1 X118.832 Y124.036 E5.38703
G1 X118.321 Y124.321 E5.40649
G1 X117.496 Y124.767 E5.43768
G1 X116.875 Y125.091 E5.46098
G1 X116.414 Y125.294 E5.47773
G1 X115.837 Y125.5 E5.49811
G1 X115.004 Y125.786 E5.5274
G1 X114.302 Y126.015 E5.55196
G1 X113.702 Y126.161 E5.5725
G1 X113.199 Y126.251 E5.58949
G1 X112.288 Y126.403 E5.62021
G1 X111.606 Y126.506 E5.64315
G1 X111.012 Y126.55 E5.66296
G1 X110.508 Y126.556 E5.67973
G1 X109.578 Y126.556 E5.71066
G1 X108.861 Y126.545 E5.73451
G1 X108.339 Y126.5 E5.75194
G1 X107.84 Y126.424 E5.76873
G1 X106.832 Y126.255 E5.80272
G1 X106.166 Y126.133 E5.82524
G1 X105.581 Y125.979 E5.84536
G1 X105.027 Y125.796 E5.86476
G1 X104.242 Y125.527 E5.89236
G1 X103.547 Y125.277 E5.91693
G1 X103.098 Y125.079 E5.93325
G1 X102.546 Y124.791 E5.95396
G1 X101.761 Y124.365 E5.98367
G1 X101.126 Y124.008 E6.00789
G1 X100.636 Y123.682 E6.02747
G1 X100.156 Y123.317 E6.04753
G1 X99.5 Y122.806 E6.07518
G1 X98.939 Y122.356 E6.0991
G1 X98.576 Y122.021 E6.11553
G1 X98.095 Y121.512 E6.13882
G1 X97.531 Y120.899 E6.16653
G1 X97.063 Y120.375 E6.1899
G1 X96.71 Y119.916 E6.20916
G1 X96.365 Y119.4 E6.2298
G1 X95.927 Y118.729 E6.25645
G1 X95.517 Y118.077 E6.28207
G1 X95.252 Y117.577 E6.30089
G1 X95.007 Y117.034 E6.3207
G1 X94.685 Y116.299 E6.34739
G1 X94.394 Y115.612 E6.37221
G1 X94.231 Y115.138 E6.38888
G1 X94.058 Y114.488 E6.41125
G1 X93.856 Y113.688 E6.4387
G1 X93.685 Y112.974 E6.46311
G1 X93.603 Y112.488 E6.47951
G1 X93.538 Y111.822 E6.50176
G1 X93.465 Y110.934 E6.5314
G1 X93.418 Y110.241 E6.5545
G1 X93.421 Y109.696 E6.57263
G1 X93.456 Y109.167 E6.59026
G1 X93.538 Y108.198 E6.62261
G1 X93.603 Y107.523 E6.64516
G1 X93.686 Y107.018 E6.66218
G1 X93.711 Y106.907 E6.66597
G1 X93.838 Y106.382 E6.68393
G1 X94.061 Y105.5 E6.71419
G1 X94.235 Y104.85 E6.73657
G1 X94.398 Y104.377 E6.75321
G1 X94.666 Y103.746 E6.77601
G1 X94.988 Y103.012 E6.80267
G1 X95.302 Y102.322 E6.82788
G1 X95.539 Y101.881 E6.84454
G1 X95.845 Y101.398 E6.86355
G1 X96.374 Y100.587 E6.89576
G1 X96.768 Y100.004 E6.91916
G1 X97.122 Y99.556 E6.93815
G1 X97.558 Y99.071 E6.95984
G1 X98.135 Y98.447 E6.98811
G1 X98.604 Y97.954 E7.01074
G0 F3000 X98.894 Y98.229
G1 F1200 X99.269 Y97.889 E7.02758
G1 X99.738 Y97.515 E7.04753
G1 X100.367 Y97.026 E7.07403
G1 X100.973 Y96.568 E7.09929
G1 X101.434 Y96.273 E7.1175
G1 X101.905 Y96.012 E7.13541
G1 X102.689 Y95.588 E7.16505
G1 X103.31 Y95.264 E7.18835
G1 X103.813 Y95.049 E7.20654
G1 X104.292 Y94.878 E7.22346
G1 X105.12 Y94.595 E7.25256
G1 X105.822 Y94.366 E7.27712
G1 X106.369 Y94.233 E7.29585
G1 X106.868 Y94.144 E7.3127
G1 X107.772 Y93.993 E7.34319
G1 X108.454 Y93.89 E7.36613
G1 X108.993 Y93.85 E7.38411
G1 X109.497 Y93.844 E7.40087
G1 X110.416 Y93.844 E7.43144
G1 X111.133 Y93.855 E7.45529
G1 X111.677 Y93.906 E7.47346
G1 X112.141 Y93.978 E7.48908
G1 X113.096 Y94.138 E7.52128
G1 X113.762 Y94.26 E7.5438
G1 X114.292 Y94.4 E7.56204
G1 X114.842 Y94.581 E7.58129
G1 X115.622 Y94.85 E7.60874
G1 X116.317 Y95.1 E7.6333
G1 X116.715 Y95.274 E7.64775
G1 X117.255 Y95.557 E7.66803
G1 X118.043 Y95.983 E7.69782
G1 X118.671 Y96.336 E7.72178
G1 X119.12 Y96.635 E7.73972
G1 X119.554 Y96.964 E7.75784
G1 X120.248 Y97.505 E7.7871
G1 X120.807 Y97.953 E7.81093
G1 X121.129 Y98.249 E7.82548
G1 X121.577 Y98.722 E7.84715
G1 X122.169 Y99.365 E7.87622
G1 X122.637 Y99.888 E7.89956
G1 X122.954 Y100.302 E7.9169
G1 X123.261 Y100.76 E7.93524
G1 X123.726 Y101.472 E7.96352
G1 X124.14 Y102.128 E7.98933
G1 X124.383 Y102.587 E8.0066
G1 X124.614 Y103.098 E8.02525
G1 X124.926 Y103.811 E8.05114
G1 X125.237 Y104.545 E8.07765
G1 X125.382 Y104.965 E8.09243
G1 X125.554 Y105.608 E8.11457
G1 X125.754 Y106.4 E8.14174
G1 X125.926 Y107.12 E8.16636
G1 X125.999 Y107.551 E8.1809
G1 X126.063 Y108.21 E8.20292
G1 X126.133 Y109.051 E8.23099
G1 X126.183 Y109.781 E8.25532
G1 X126.176 Y110.341 E8.27395
G1 X126.141 Y110.853 E8.29102
G1 X126.064 Y111.767 E8.32153
G1 X125.998 Y112.446 E8.34422
G1 X125.899 Y113 E8.36293
G1 X125.775 Y113.516 E8.38059
G1 X125.56 Y114.366 E8.40975
G1 X125.376 Y115.051 E8.43334
G1 X125.207 Y115.535 E8.45039
G1 X124.97 Y116.09 E8.47046
G1 X124.651 Y116.817 E8.49687
G1 X124.326 Y117.526 E8.52281
G1 X124.062 Y118.003 E8.54094
G1 X123.8 Y118.415 E8.55718
G1 X123.314 Y119.159 E8.58674
G1 X122.905 Y119.766 E8.61108
G1 X122.58 Y120.177 E8.62851
G1 X122.149 Y120.657 E8.64996
G1 X121.622 Y121.228 E8.67581
G1 X121.125 Y121.753 E8.69985
G1 X120.733 Y122.108 E8.71744
G1 X120.262 Y122.485 E8.73751
G1 X119.633 Y122.974 E8.76401
G1 X119.027 Y123.432 E8.78927
G1 X118.566 Y123.727 E8.80748
G1 X118.095 Y123.988 E8.82539
G1 X117.311 Y124.412 E8.85503
G1 X116.69 Y124.736 E8.87833
G1 X116.187 Y124.951 E8.89652
G1 X115.708 Y125.122 E8.91344
G1 X114.88 Y125.405 E8.94254
G1 X114.178 Y125.634 E8.9671
G1 X113.631 Y125.767 E8.98582
G1 X113.132 Y125.856 E9.00268
G1 X112.228 Y126.007 E9.03317
G1 X111.546 Y126.11 E9.05611
G1 X111.007 Y126.15 E9.07408
G1 X110.503 Y126.156 E9.09085
G1 X109.584 Y126.156 E9.12141
G1 X108.867 Y126.145 E9.14526
G1 X108.323 Y126.094 E9.16344
G1 X107.859 Y126.022 E9.17906
G1 X106.904 Y125.862 E9.21126
G1 X106.238 Y125.74 E9.23378
G1 X105.706 Y125.599 E9.25209
G1 X105.157 Y125.418 E9.27131
G1 X104.378 Y125.15 E9.29871
G1 X103.683 Y124.9 E9.32328
G1 X103.284 Y124.725 E9.33777
G1 X102.737 Y124.439 E9.3583
G1 X101.957 Y124.016 E9.38781
G1 X101.322 Y123.659 E9.41204
G1 X100.877 Y123.363 E9.42982
G1 X100.402 Y123.002 E9.44966
G1 X99.751 Y122.494 E9.47713
G1 X99.19 Y122.044 E9.50105
G1 X98.867 Y121.746 E9.51566
G1 X98.39 Y121.241 E9.53877
G1 X97.829 Y120.633 E9.56628
G1 X97.361 Y120.109 E9.58965
G1 X97.043 Y119.693 E9.60707
G1 X96.7 Y119.181 E9.62756
G1 X96.266 Y118.516 E9.65397
G1 X95.856 Y117.864 E9.67959
G1 X95.617 Y117.412 E9.6966
G1 X95.374 Y116.874 E9.71623
G1 X95.053 Y116.143 E9.74279
G1 X94.762 Y115.456 E9.7676
G1 X94.618 Y115.035 E9.7824
G1 X94.445 Y114.39 E9.80461
G1 X94.245 Y113.595 E9.83188
G1 X94.074 Y112.881 E9.8563
G1 X94.001 Y112.449 E9.87087
G1 X93.937 Y111.789 E9.89292
G1 X93.864 Y110.907 E9.92236
G1 X93.817 Y110.214 E9.94546
G1 X93.824 Y109.659 E9.96392
G1 X93.859 Y109.147 E9.98099
G1 X93.936 Y108.236 E10.0114
G1 X94.001 Y107.561 E10.03395
G1 X94.1 Y107.001 E10.05287
G1 X94.226 Y106.48 E10.0707
G1 X94.448 Y105.604 E10.10075
G1 X94.622 Y104.954 E10.12313
G1 X94.766 Y104.533 E10.13793
G1 X95.032 Y103.906 E10.16058
G1 X95.352 Y103.178 E10.18703
G1 X95.666 Y102.488 E10.21225
G1 X95.938 Y101.996 E10.23095
G1 X96.202 Y101.582 E10.24728
G1 X96.706 Y100.811 E10.27791
G1 X97.1 Y100.228 E10.30132
G1 X97.42 Y99.823 E10.31848
G1 X97.852 Y99.343 E10.33996
G1 X98.425 Y98.722 E10.36807
G1 X98.894 Y98.229 E10.3907
G1 F1800 E3.3907
G1 F300 Z0.4
;MESH:screw.amf
G0 F3000 X108.368 Y114.305 Z0.4
;TYPE:WALL-INNER
G1 F300 Z0.2
G1 F1800 E10.3907
G1 F1200 X109.445 Y114.571 E10.4276
G1 X110.555 Y114.571 E10.46452
G1 X111.632 Y114.305 E10.50141
G1 X112.615 Y113.79 E10.53832
G1 X113.447 Y113.053 E10.57529
G1 X114.077 Y112.14 E10.61219
G1 X114.471 Y111.101 E10.64914
G1 X114.604 Y110 E10.68603
G1 X114.471 Y108.899 E10.72292
G1 X114.077 Y107.86 E10.75987
G1 X113.447 Y106.947 E10.79677
G1 X112.615 Y106.21 E10.83374
G1 X111.632 Y105.695 E10.87065
G1 X110.555 Y105.429 E10.90754
G1 X109.445 Y105.429 E10.94446
G1 X108.368 Y105.695 E10.98136
G1 X107.385 Y106.21 E11.01827
G1 X106.553 Y106.947 E11.05524
G1 X105.923 Y107.86 E11.09213
G1 X105.529 Y108.899 E11.12909
G1 X105.396 Y110 E11.16598
G1 X105.529 Y111.101 E11.20286
G1 X105.923 Y112.14 E11.23982
G1 X106.553 Y113.053 E11.27671
G1 X107.385 Y113.79 E11.31368
G1 X108.368 Y114.305 E11.35059
G0 F3000 X108.511 Y113.928
;TYPE:WALL-OUTER
G1 F1200 X109.494 Y114.171 E11.38427
G1 X110.506 Y114.171 E11.41793
G1 X111.489 Y113.928 E11.45161
