;FLAVOR:Marlin
;TIME:2638
;Filament used: 1.31431m
;Layer height: 0.2
;MINX:82.705
;MINY:79.659
;MINZ:0.2
;MAXX:137.234
;MAXY:141.414
;MAXZ:10.2
;Generated with Cura_SteamEngine master
M82 ;absolute extrusion mode
;Sliced at: Tue 12-04-2022 01:46:53
;Basic settings: Layer height: 0.2 Walls: 0.8 Fill: 20
G21 ;metric values
G90 ;absolute positioning
M82 ;set extruder to absolute mode
M107 ;start with the fan off
M117 Start heating ...
M104 S200
M117 Homing X/Y ...
G28 X0 Y0 ;move X/Y to min endstops
M117 Homing Z ...
G28 Z0 ;move Z to min endstops
G1 Z15.0 F100 ;move the platform down 15mm
M117 Heating ...
M109 S200
M117 Start cleaning ...
G92 E0 ;zero the extruded length
G1 F200 E10 ;extrude 10mm of feed stock
G92 E0 ;zero the extruded length again
M117 Intro line ...
G1 Z2.0 F3000 ; Move Z Axis up little to prevent scratching of Heat Bed
G1 X0.1 Y20 Z0.2 F5000.0 ; Move to start position
G1 X0.1 Y200.0 Z0.2 F1500.0 E15 ; Draw the first line
G1 X0.4 Y200.0 Z0.2 F5000.0 ; Move to side a little
G1 X0.4 Y20 Z0.3 F1500.0 E30 ; Draw the second line
G92 E0 ; Reset Extruder
G1 E-1 F500 ; Retract filiment by 1 mm
G1 Z2.0 F3000 ; Move Z Axis up little to prevent scratching of Heat Bed
G1 X5 Y20 Z0.3 F100 ; Move over to prevent blob squish
G1 F100
G92 E0 ; Reset Extruder
M117 Printing...

G92 E0
G92 E0
G1 F1800 E-7
;LAYER_COUNT:50
;LAYER:0
M107
G1 F300 Z0.4
G0 F3000 X84.114 Y112.75 Z0.4
;TYPE:SKIRT
G1 F300 Z0.2
G1 F1800 E0
G1 F1200 X84.666 Y112.354 E0.0226
G1 X85.337 Y111.954 E0.04858
G1 X86.078 Y111.526 E0.07704
G1 X88.451 Y110.112 E0.16891
G1 X90.728 Y108.665 E0.25865
G1 X92.982 Y107.141 E0.34914
G1 X95.191 Y105.556 E0.43957
G1 X97.347 Y103.914 E0.52971
G1 X99.469 Y102.202 E0.62039
G1 X101.525 Y100.443 E0.71039
G1 X103.535 Y98.624 E0.80055
G1 X105.504 Y96.737 E0.89126
G1 X107.427 Y94.788 E0.98232
G1 X109.261 Y92.819 E1.07182
G1 X111.033 Y90.805 E1.16104
G1 X112.788 Y88.696 E1.2523
G1 X114.501 Y86.514 E1.34457
G1 X115.412 Y85.298 E1.3951
G1 X115.876 Y84.67 E1.42107
G1 X116.493 Y83.87 E1.45467
G1 X116.956 Y83.366 E1.47744
G1 X117.452 Y82.911 E1.49982
G1 X117.651 Y82.734 E1.50868
G1 X118.154 Y82.298 E1.53082
G1 X118.65 Y81.925 E1.55146
G1 X119.618 Y81.274 E1.59026
G1 X120.043 Y81.025 E1.60665
G1 X120.577 Y80.755 E1.62655
G1 X121.381 Y80.407 E1.65569
G1 X121.926 Y80.214 E1.67492
G1 X122.545 Y80.039 E1.69631
G1 X123.457 Y79.845 E1.72732
G1 X124.241 Y79.719 E1.75373
G1 X125.13 Y79.664 E1.78336
G1 X125.311 Y79.659 E1.78938
G1 X125.91 Y79.672 E1.80931
G1 X126.621 Y79.72 E1.83301
G1 X126.989 Y79.766 E1.84534
G1 X127.82 Y79.912 E1.87341
G1 X128.463 Y80.062 E1.89537
G1 X129.235 Y80.297 E1.92221
G1 X129.76 Y80.484 E1.94074
G1 X130.372 Y80.753 E1.96298
G1 X130.889 Y81.005 E1.98211
G1 X131.204 Y81.177 E1.99405
G1 X131.751 Y81.508 E2.01531
G1 X132.35 Y81.908 E2.03927
G1 X132.539 Y82.049 E2.04711
G1 X132.951 Y82.375 E2.06458
G1 X133.558 Y82.904 E2.09136
G1 X134.066 Y83.415 E2.11533
G1 X134.412 Y83.785 E2.13218
G1 X134.783 Y84.23 E2.15145
G1 X135.132 Y84.695 E2.17078
G1 X135.537 Y85.298 E2.19494
G1 X135.711 Y85.595 E2.20639
G1 X136.19 Y86.498 E2.24039
G1 X136.573 Y87.341 E2.27119
G1 X136.804 Y88.047 E2.29589
G1 X137.004 Y88.847 E2.32332
G1 X137.118 Y89.501 E2.3454
G1 X137.196 Y90.335 E2.37326
G1 X137.234 Y90.925 E2.39293
G1 X137.234 Y91.397 E2.40862
G1 X137.187 Y92.217 E2.43594
G1 X137.172 Y92.403 E2.44215
G1 X137.108 Y93.017 E2.46268
G1 X137.021 Y93.541 E2.48035
G1 X136.981 Y93.721 E2.48648
G1 X136.702 Y94.845 E2.525
G1 X136.405 Y95.708 E2.55536
G1 X136.235 Y96.123 E2.57027
G1 X135.959 Y96.742 E2.59281
G1 X135.725 Y97.194 E2.60974
G1 X135.339 Y97.841 E2.6348
G1 X134.982 Y98.412 E2.6572
G1 X134.541 Y99.004 E2.68175
G1 X133.957 Y99.671 E2.71124
G1 X132.162 Y101.784 E2.80345
G1 X130.466 Y103.9 E2.89365
G1 X128.83 Y106.064 E2.98387
G1 X127.246 Y108.287 E3.07466
G1 X125.735 Y110.54 E3.16489
G1 X124.292 Y112.828 E3.25486
G1 X122.916 Y115.154 E3.34474
G1 X121.58 Y117.563 E3.43637
G1 X120.351 Y119.938 E3.52531
G1 X119.165 Y122.398 E3.61614
G1 X118.043 Y124.904 E3.70746
G1 X117.014 Y127.388 E3.79689
G1 X116.04 Y129.936 E3.88762
G1 X115.638 Y131.083 E3.92804
G1 X115.449 Y131.595 E3.94619
G1 X115.217 Y132.11 E3.96498
G1 X114.914 Y132.588 E3.9838
G1 X114.546 Y133.017 E4.0026
G1 X114.122 Y133.391 E4.02141
G1 X113.749 Y133.643 E4.03638
G1 X113.088 Y134.038 E4.06199
G1 X101.784 Y140.563 E4.4961
G1 X101.147 Y140.917 E4.52034
G1 X100.635 Y141.156 E4.53914
G1 X100.094 Y141.321 E4.55795
G1 X99.535 Y141.407 E4.57676
G1 X98.97 Y141.414 E4.59555
G1 X98.409 Y141.341 E4.61437
G1 X97.864 Y141.19 E4.63318
G1 X97.256 Y140.915 E4.65537
G1 X96.569 Y140.531 E4.68155
G1 X85.268 Y134.006 E5.11558
G1 X84.666 Y133.647 E5.13889
G1 X84.202 Y133.324 E5.15769
G1 X83.789 Y132.939 E5.17647
G1 X83.433 Y132.499 E5.1953
G1 X83.144 Y132.014 E5.21407
G1 X82.925 Y131.492 E5.2329
G1 X82.783 Y130.945 E5.2517
G1 X82.715 Y130.267 E5.27436
G1 X82.705 Y129.545 E5.29838
G1 X82.705 Y116.433 E5.73449
G1 X82.715 Y115.732 E5.7578
G1 X82.763 Y115.169 E5.7766
G1 X82.89 Y114.618 E5.7954
G1 X83.094 Y114.09 E5.81423
G1 X83.369 Y113.597 E5.83301
G1 X83.712 Y113.147 E5.85182
G1 X84.114 Y112.75 E5.87062
G0 F3000 X84.502 Y112.949
G1 F1200 X84.871 Y112.697 E5.88548
G1 X85.537 Y112.301 E5.91125
G1 X86.277 Y111.874 E5.93967
G1 X88.639 Y110.466 E6.03112
G1 X90.97 Y108.985 E6.12298
G1 X93.193 Y107.482 E6.21223
G1 X95.438 Y105.871 E6.30413
G1 X97.6 Y104.224 E6.39453
G1 X99.714 Y102.519 E6.48486
G1 X101.79 Y100.743 E6.57573
G1 X103.814 Y98.91 E6.66655
G1 X105.783 Y97.025 E6.75721
G1 X107.705 Y95.076 E6.84826
G1 X109.553 Y93.092 E6.93843
G1 X111.358 Y91.041 E7.02931
G1 X113.103 Y88.944 E7.12004
G1 X114.793 Y86.79 E7.2111
G1 X115.747 Y85.517 E7.26401
G1 X116.192 Y84.914 E7.28894
G1 X116.809 Y84.114 E7.32254
G1 X117.226 Y83.66 E7.34305
G1 X117.717 Y83.21 E7.3652
G1 X117.913 Y83.037 E7.37389
G1 X118.416 Y82.601 E7.39603
G1 X118.88 Y82.253 E7.41532
G1 X119.841 Y81.606 E7.45386
G1 X120.224 Y81.382 E7.46861
G1 X120.758 Y81.112 E7.48851
G1 X121.533 Y80.777 E7.5166
G1 X122.055 Y80.592 E7.53502
G1 X122.628 Y80.43 E7.55482
G1 X123.54 Y80.236 E7.58583
G1 X124.276 Y80.117 E7.61063
G1 X125.149 Y80.064 E7.63972
G1 X125.502 Y80.059 E7.65146
G1 X126.184 Y80.087 E7.67417
G1 X126.92 Y80.16 E7.69876
G1 X127.628 Y80.283 E7.72267
G1 X128.346 Y80.445 E7.74715
G1 X129.118 Y80.68 E7.77399
G1 X129.621 Y80.859 E7.79174
G1 X130.204 Y81.117 E7.81295
G1 X130.713 Y81.364 E7.83177
G1 X130.997 Y81.519 E7.84253
G1 X131.544 Y81.85 E7.86379
G1 X132.121 Y82.236 E7.88688
G1 X132.291 Y82.363 E7.89394
G1 X132.787 Y82.757 E7.91501
G1 X133.274 Y83.186 E7.93659
G1 X133.846 Y83.763 E7.96362
G1 X134.284 Y84.249 E7.98538
G1 X134.748 Y84.847 E8.01055
G1 X135.201 Y85.515 E8.0374
G1 X135.357 Y85.782 E8.04768
G1 X135.836 Y86.685 E8.08168
G1 X136.196 Y87.474 E8.11052
G1 X136.416 Y88.144 E8.13398
G1 X136.616 Y88.944 E8.16141
G1 X136.719 Y89.538 E8.18146
G1 X136.797 Y90.372 E8.20932
G1 X136.834 Y90.95 E8.22858
G1 X136.835 Y91.374 E8.24268
G1 X136.788 Y92.194 E8.27
G1 X136.775 Y92.361 E8.27557
G1 X136.711 Y92.975 E8.29611
G1 X136.593 Y93.624 E8.31805
G1 X136.314 Y94.748 E8.35656
G1 X136.031 Y95.566 E8.38535
G1 X135.87 Y95.96 E8.39951
G1 X135.594 Y96.579 E8.42205
G1 X135.328 Y97.08 E8.44092
G1 X134.999 Y97.628 E8.46218
G1 X134.642 Y98.199 E8.48457
G1 X134.24 Y98.741 E8.50702
G1 X133.617 Y99.453 E8.53849
G1 X131.847 Y101.537 E8.62943
G1 X130.163 Y103.637 E8.71896
G1 X128.5 Y105.837 E8.81068
G1 X126.92 Y108.054 E8.90123
G1 X125.397 Y110.325 E8.99218
G1 X123.952 Y112.616 E9.08227
G1 X122.56 Y114.971 E9.17325
G1 X121.248 Y117.336 E9.26321
G1 X119.987 Y119.774 E9.3545
G1 X118.798 Y122.239 E9.44552
G1 X117.686 Y124.723 E9.53604
G1 X116.643 Y127.241 E9.62669
G1 X115.654 Y129.829 E9.71884
G1 X115.263 Y130.945 E9.75817
G1 X115.074 Y131.457 E9.77632
G1 X114.852 Y131.945 E9.79416
G1 X114.559 Y132.394 E9.81199
G1 X114.203 Y132.795 E9.82982
G1 X113.791 Y133.138 E9.84765
G1 X113.544 Y133.3 E9.85748
G1 X112.888 Y133.692 E9.8829
G1 X101.59 Y140.214 E10.31679
G1 X100.953 Y140.568 E10.34102
G1 X100.466 Y140.793 E10.35887
G1 X99.951 Y140.943 E10.37671
G1 X99.42 Y141.015 E10.39453
G1 X98.883 Y141.007 E10.41239
G1 X98.354 Y140.919 E10.43023
G1 X97.844 Y140.754 E10.44806
G1 X97.451 Y140.565 E10.46256
G1 X96.769 Y140.185 E10.48853
G1 X85.473 Y133.663 E10.92236
G1 X84.871 Y133.304 E10.94567
G1 X84.432 Y132.996 E10.96351
G1 X84.044 Y132.626 E10.98134
G1 X83.715 Y132.202 E10.99919
G1 X83.453 Y131.734 E11.01703
G1 X83.263 Y131.233 E11.03485
G1 X83.149 Y130.709 E11.05269
G1 X83.115 Y130.262 E11.0676
G1 X83.105 Y129.54 E11.09162
G1 X83.105 Y116.439 E11.52736
G1 X83.115 Y115.738 E11.55067
G1 X83.163 Y115.203 E11.56854
G1 X83.289 Y114.682 E11.58637
G1 X83.492 Y114.186 E11.60419
G1 X83.766 Y113.725 E11.62203
G1 X84.105 Y113.309 E11.63988
G1 X84.502 Y112.949 E11.6577
G0 F3000 X84.497 Y113.482
G1 F1200 X85.076 Y113.041 E11.68191
G1 X85.737 Y112.647 E11.7075
G1 X86.472 Y112.222 E11.73574
G1 X88.878 Y110.788 E11.8289
G1 X91.178 Y109.326 E11.91955
G1 X93.428 Y107.805 E12.00988
G1 X95.668 Y106.198 E12.10157
G1 X97.848 Y104.538 E12.19271
G1 X99.997 Y102.804 E12.28455
G1 X102.036 Y101.06 E12.37379
G1 X104.078 Y99.211 E12.46541
G1 X106.079 Y97.294 E12.55758
G1 X108 Y95.347 E12.64855
G1 X109.845 Y93.365 E12.73861
G1 X111.649 Y91.317 E12.82939
G1 X113.419 Y89.19 E12.92142
G1 X115.102 Y87.044 E13.01213
G1 X116.07 Y85.753 E13.0658
G1 X116.509 Y85.159 E13.09036
G1 X117.126 Y84.359 E13.12397
G1 X117.496 Y83.955 E13.14219
G1 X117.983 Y83.509 E13.16415
G1 X118.175 Y83.339 E13.17268
G1 X118.678 Y82.903 E13.19482
G1 X119.109 Y82.58 E13.21274
G1 X120.064 Y81.938 E13.25101
G1 X120.404 Y81.739 E13.26411
G1 X120.938 Y81.469 E13.28401
G1 X121.685 Y81.148 E13.31106
G1 X122.185 Y80.971 E13.3287
G1 X122.711 Y80.821 E13.34689
G1 X123.623 Y80.627 E13.3779
G1 X124.312 Y80.516 E13.40111
G1 X125.167 Y80.463 E13.42961
G1 X125.491 Y80.459 E13.44038
G1 X126.163 Y80.487 E13.46275
G1 X126.852 Y80.554 E13.48578
G1 X127.56 Y80.677 E13.50968
G1 X128.23 Y80.828 E13.53252
G1 X129.002 Y81.063 E13.55936
G1 X129.482 Y81.234 E13.57631
G1 X130.036 Y81.48 E13.59647
G1 X130.538 Y81.724 E13.61503
G1 X130.79 Y81.861 E13.62457
G1 X131.337 Y82.192 E13.64584
G1 X131.891 Y82.564 E13.66803
G1 X132.043 Y82.677 E13.67433
G1 X132.529 Y83.063 E13.69498
G1 X132.99 Y83.468 E13.71539
G1 X133.555 Y84.038 E13.74208
G1 X133.981 Y84.511 E13.76325
G1 X134.428 Y85.087 E13.7875
G1 X134.865 Y85.732 E13.81341
G1 X135.004 Y85.969 E13.82255
G1 X135.483 Y86.872 E13.85655
G1 X135.819 Y87.607 E13.88343
G1 X136.027 Y88.241 E13.90562
G1 X136.252 Y89.147 E13.93667
G1 X136.321 Y89.575 E13.95109
G1 X136.399 Y90.409 E13.97895
G1 X136.435 Y90.974 E13.99778
G1 X136.436 Y91.351 E14.01032
G1 X136.389 Y92.171 E14.03764
G1 X136.377 Y92.32 E14.04261
G1 X136.313 Y92.934 E14.06314
G1 X136.205 Y93.528 E14.08322
G1 X135.926 Y94.652 E14.12174
G1 X135.657 Y95.424 E14.14893
G1 X135.505 Y95.797 E14.16233
G1 X135.229 Y96.416 E14.18487
G1 X134.985 Y96.875 E14.20216
G1 X134.66 Y97.416 E14.22315
G1 X134.303 Y97.987 E14.24555
G1 X133.939 Y98.477 E14.26585
G1 X133.316 Y99.189 E14.29732
G1 X131.546 Y101.274 E14.38828
G1 X129.848 Y103.391 E14.47855
G1 X128.171 Y105.609 E14.57103
G1 X126.595 Y107.821 E14.66137
G1 X125.071 Y110.094 E14.75239
G1 X123.597 Y112.431 E14.84428
G1 X122.225 Y114.75 E14.9339
G1 X120.886 Y117.164 E15.02572
G1 X119.628 Y119.595 E15.11676
G1 X118.45 Y122.038 E15.20696
G1 X117.309 Y124.586 E15.29982
G1 X116.271 Y127.093 E15.39007
G1 X115.29 Y129.66 E15.48147
G1 X114.888 Y130.806 E15.52186
G1 X114.699 Y131.318 E15.54001
G1 X114.487 Y131.777 E15.55683
G1 X114.205 Y132.197 E15.57366
G1 X113.861 Y132.567 E15.59046
G1 X113.339 Y132.957 E15.61213
G1 X112.688 Y133.345 E15.63734
G1 X101.395 Y139.864 E16.07104
G1 X100.758 Y140.218 E16.09527
G1 X100.298 Y140.428 E16.11209
G1 X99.811 Y140.563 E16.1289
G1 X99.309 Y140.619 E16.1457
G1 X98.804 Y140.596 E16.16251
G1 X98.309 Y140.493 E16.17933
G1 X97.646 Y140.216 E16.20323
G1 X96.969 Y139.838 E16.22902
G1 X85.678 Y133.319 E16.66266
G1 X85.076 Y132.96 E16.68597
G1 X84.664 Y132.668 E16.70277
G1 X84.302 Y132.314 E16.71961
G1 X84.001 Y131.908 E16.73642
G1 X83.768 Y131.459 E16.75324
G1 X83.608 Y130.98 E16.77004
G1 X83.515 Y130.256 E16.79432
G1 X83.505 Y129.534 E16.81833
G1 X83.505 Y116.444 E17.25371
G1 X83.515 Y115.743 E17.27703
G1 X83.562 Y115.24 E17.29383
G1 X83.688 Y114.75 E17.31066
G1 X83.89 Y114.287 E17.32746
G1 X84.162 Y113.86 E17.3443
G1 X84.497 Y113.482 E17.36109
G1 F1800 E10.36109
G1 F300 Z0.4
;MESH:screw.bolt.amf 1
G0 F3000 X119.691 Y87.973 Z0.4
;TYPE:WALL-INNER
G1 F300 Z0.2
G1 F1800 E17.36109
G1 F1200 X119.371 Y88.61 E17.3848
G1 X119.076 Y89.197 E17.40665
G1 X118.929 Y89.817 E17.42785
G1 X118.759 Y90.532 E17.45229
G1 X118.759 Y91.127 E17.47208
G1 X118.759 Y91.902 E17.49786
G1 X119.076 Y93.237 E17.5435
G1 X119.691 Y94.461 E17.58906
G1 X120.572 Y95.511 E17.63464
G1 X121.671 Y96.33 E17.68023
G1 X122.929 Y96.873 E17.7258
G1 X124.28 Y97.111 E17.77143
G1 X125.648 Y97.031 E17.81701
G1 X126.961 Y96.638 E17.86259
G1 X128.148 Y95.953 E17.90817
G1 X129.146 Y95.012 E17.9538
G1 X129.899 Y93.867 E17.99938
G1 X130.368 Y92.578 E18.045
G1 X130.527 Y91.217 E18.09057
G1 X130.368 Y89.856 E18.13615
G1 X129.899 Y88.567 E18.18177
G1 X129.146 Y87.422 E18.22735
G1 X128.149 Y86.481 E18.27295
G1 X126.962 Y85.795 E18.31855
G1 X125.648 Y85.402 E18.36416
G1 X124.28 Y85.323 E18.40974
G1 X122.929 Y85.56 E18.45536
G1 X121.67 Y86.104 E18.50098
G1 X120.572 Y86.923 E18.54654
G1 X119.691 Y87.973 E18.59212
G0 F3000 X120.027 Y88.194
;TYPE:WALL-OUTER
G1 F1200 X119.454 Y89.335 E18.63459
G1 X119.159 Y90.579 E18.67711
G1 X119.159 Y91.855 E18.71955
G1 X119.454 Y93.099 E18.76208
G1 X120.027 Y94.24 E18.80454
G1 X120.848 Y95.218 E18.84701
G1 X121.872 Y95.981 E18.88949
G1 X123.045 Y96.487 E18.93197
G1 X124.303 Y96.709 E18.97446
G1 X125.578 Y96.634 E19.01694
G1 X126.802 Y96.268 E19.05943
G1 X127.908 Y95.63 E19.1019
G1 X128.837 Y94.753 E19.14439
G1 X129.539 Y93.686 E19.18687
G1 X129.976 Y92.485 E19.22938
G1 X130.124 Y91.217 E19.27184
G1 X129.976 Y89.949 E19.3143
G1 X129.539 Y88.748 E19.35681
G1 X128.837 Y87.681 E19.39929
G1 X127.908 Y86.804 E19.44178
G1 X126.802 Y86.165 E19.48427
G1 X125.578 Y85.799 E19.52676
G1 X124.303 Y85.725 E19.56924
G1 X123.045 Y85.946 E19.61172
G1 X121.872 Y86.453 E19.65422
G1 X120.848 Y87.216 E19.69669
G1 X120.027 Y88.194 E19.73916
G0 F3000 X119.938 Y88.372
G0 X119.545 Y88.174
G0 X119.678 Y87.316
;TYPE:WALL-INNER
G1 F1200 X120.045 Y86.798 E19.76028
G1 X120.104 Y86.708 E19.76386
G1 X121.122 Y85.8 E19.80923
G1 X121.86 Y85.284 E19.83918
G1 X122.198 Y85.066 E19.85256
G1 X122.577 Y84.885 E19.86653
G1 X123.11 Y84.659 E19.88578
G1 X123.652 Y84.483 E19.90473
G1 X124.658 Y84.291 E19.9388
G1 X125.327 Y84.25 E19.96109
G1 X125.607 Y84.254 E19.9704
G1 X126.339 Y84.303 E19.99481
G1 X127.055 Y84.441 E20.01906
G1 X127.3 Y84.495 E20.0274
G1 X128.023 Y84.731 E20.0527
G1 X128.179 Y84.803 E20.05841
G1 X128.923 Y85.155 E20.08579
G1 X129.593 Y85.577 E20.11212
G1 X129.723 Y85.671 E20.11746
G1 X130.373 Y86.202 E20.14538
G1 X130.954 Y86.81 E20.17335
G1 X131.056 Y86.921 E20.17836
G1 X131.39 Y87.353 E20.19652
G1 X131.706 Y87.829 E20.21553
G1 X131.766 Y87.93 E20.21943
G1 X132.268 Y88.926 E20.25653
G1 X132.407 Y89.342 E20.27112
G1 X132.562 Y90.024 E20.29438
G1 X132.652 Y91.217 E20.33417
G1 X132.605 Y91.849 E20.35525
G1 X132.55 Y92.486 E20.37652
G1 X132.373 Y93.27 E20.40325
G1 X132.265 Y93.674 E20.41716
G1 X131.94 Y94.506 E20.44687
G1 X131.796 Y94.813 E20.45814
G1 X131.098 Y95.962 E20.50286
G1 X131.016 Y96.057 E20.50703
G1 X130.143 Y96.881 E20.54696
G1 X129.694 Y97.188 E20.56505
G1 X129.016 Y97.622 E20.59183
G1 X128.44 Y97.887 E20.61291
G1 X128.304 Y97.945 E20.61783
G1 X127.824 Y98.139 E20.63505
G1 X126.988 Y98.36 E20.66381
G1 X126.429 Y98.463 E20.68272
G1 X125.771 Y98.516 E20.70467
G1 X125.175 Y98.523 E20.7245
G1 X124.361 Y98.445 E20.7517
G1 X123.795 Y98.334 E20.77088
G1 X123.149 Y98.154 E20.79318
G1 X122.678 Y97.973 E20.80997
G1 X121.88 Y97.578 E20.83958
G1 X121.453 Y97.305 E20.85644
G1 X120.939 Y96.922 E20.87776
G1 X120.36 Y96.371 E20.90434
