;FLAVOR:Marlin
;TIME:17843
;Filament used: 3.4224m
;Layer height: 0.1
;MINX:99.352
;MINY:66
;MINZ:0.1
;MAXX:120.648
;MAXY:155.306
;MAXZ:20.2
;Generated with Cura_SteamEngine master
M82 ;absolute extrusion mode
;Sliced at: Sun 11-12-2022 02:10:14
;Basic settings: Layer height: 0.1 Walls: 0.8 Fill: 30
G21 ;metric values
G90 ;absolute positioning
M82 ;set extruder to absolute mode
M107 ;start with the fan off
M117 Start heating ...
M104 S200
M117 Homing X/Y ...
G28 X0 Y0 ;move X/Y to min endstops
M117 Homing Z ...
G28 Z0 ;move Z to min endstops
G1 Z15.0 F50 ;move the platform down 15mm
M117 Heating ...
M109 S200
M117 Start cleaning ...
G92 E0 ;zero the extruded length
G1 F200 E10 ;extrude 10mm of feed stock
G92 E0 ;zero the extruded length again
M117 Intro line ...
G1 Z2.0 F3000 ; Move Z Axis up little to prevent scratching of Heat Bed
G1 X0.1 Y20 Z0.1 F5000.0 ; Move to start position
G1 X0.1 Y200.0 Z0.1 F1500.0 E15 ; Draw the first line
G1 X0.4 Y200.0 Z0.1 F5000.0 ; Move to side a little
G1 X0.4 Y20 Z0.3 F1500.0 E30 ; Draw the second line
G92 E0 ; Reset Extruder
G1 E-1 F500 ; Retract filiment by 1 mm
G1 Z2.0 F3000 ; Move Z Axis up little to prevent scratching of Heat Bed
G1 X5 Y20 Z0.3 F50 ; Move over to prevent blob squish
G1 F50
G92 E0 ; Reset Extruder
M117 Printing...

G92 E0
G92 E0
G1 F1800 E-7
;LAYER_COUNT:200
;LAYER:0
M107
G1 F300 Z0.3
G0 F1500 X103.016 Y67.814 Z0.3
;TYPE:SKIRT
G1 F300 Z0.1
G1 F1800 E0
G1 F900 X103.359 Y67.365 E0.0094
G1 X103.762 Y66.968 E0.0188
G1 X104.216 Y66.632 E0.0282
G1 X104.714 Y66.363 E0.03761
G1 X105.244 Y66.168 E0.047
G1 X105.797 Y66.049 E0.05641
G1 X106.568 Y66.002 E0.06925
G1 X106.68 Y66 E0.07112
G1 X112.995 Y66 E0.17614
G1 X113.693 Y66.009 E0.18774
G1 X114.256 Y66.057 E0.19714
G1 X114.807 Y66.183 E0.20654
G1 X115.335 Y66.385 E0.21594
G1 X115.829 Y66.66 E0.22534
G1 X116.279 Y67.002 E0.23474
G1 X116.677 Y67.404 E0.24415
G1 X117.013 Y67.858 E0.25354
G1 X117.283 Y68.355 E0.26295
G1 X117.48 Y68.885 E0.27235
G1 X117.6 Y69.437 E0.28175
G1 X117.648 Y70.218 E0.29476
G1 X117.65 Y70.33 E0.29662
G1 X117.65 Y118.644 E1.10009
G1 X117.69 Y121.444 E1.14666
G1 X117.803 Y124.114 E1.1911
G1 X117.995 Y126.821 E1.23623
G1 X118.265 Y129.542 E1.2817
G1 X118.608 Y132.228 E1.32673
G1 X119.031 Y134.919 E1.37203
G1 X119.523 Y137.566 E1.41681
G1 X120.418 Y141.589 E1.48535
G1 X120.576 Y142.277 E1.49709
G1 X120.585 Y142.331 E1.498
G1 X120.639 Y142.933 E1.50805
G1 X120.648 Y143.581 E1.51883
G1 X120.648 Y146.78 E1.57202
G1 X120.638 Y147.484 E1.58373
G1 X120.59 Y148.047 E1.59313
G1 X120.463 Y148.598 E1.60253
G1 X120.259 Y149.126 E1.61195
G1 X119.918 Y149.717 E1.62329
G1 X119.645 Y150.108 E1.63122
G1 X118.319 Y152.07 E1.67061
G1 X118.072 Y152.407 E1.67755
G1 X117.7 Y152.833 E1.68696
G1 X117.271 Y153.202 E1.69637
G1 X116.795 Y153.507 E1.70577
G1 X116.281 Y153.742 E1.71517
G1 X116.001 Y153.835 E1.72008
G1 X114.832 Y154.176 E1.74033
G1 X114.659 Y154.214 E1.74327
G1 X112.197 Y154.887 E1.78572
G1 X111.619 Y155.035 E1.79564
G1 X110.937 Y155.199 E1.80731
G1 X110.38 Y155.292 E1.8167
G1 X109.814 Y155.306 E1.82611
G1 X109.142 Y155.216 E1.83739
G1 X107.143 Y154.776 E1.87143
G1 X106.896 Y154.709 E1.87568
G1 X105.798 Y154.373 E1.89478
G1 X104.844 Y154.095 E1.9113
G1 X103.932 Y153.815 E1.92717
G1 X103.405 Y153.611 E1.93657
G1 X102.911 Y153.335 E1.94598
G1 X102.462 Y152.992 E1.95537
G1 X102.065 Y152.59 E1.96477
G1 X101.793 Y152.232 E1.97225
G1 X101.121 Y151.238 E1.9922
G1 X100.058 Y149.68 E2.02357
G1 X99.773 Y149.192 E2.03296
G1 X99.56 Y148.668 E2.04237
G1 X99.423 Y148.119 E2.05178
G1 X99.364 Y147.554 E2.06123
G1 X99.352 Y146.947 E2.07132
G1 X99.352 Y143.616 E2.12672
G1 X99.363 Y142.909 E2.13848
G1 X99.412 Y142.346 E2.14788
G1 X99.574 Y141.621 E2.16023
G1 X100.199 Y138.916 E2.2064
G1 X100.734 Y136.259 E2.25147
G1 X101.188 Y133.597 E2.29638
G1 X101.572 Y130.901 E2.34167
G1 X101.876 Y128.235 E2.38629
G1 X102.108 Y125.507 E2.43182
G1 X102.263 Y122.769 E2.47743
G1 X102.34 Y120.088 E2.52203
G1 X102.35 Y118.678 E2.54548
G1 X102.35 Y70.614 E3.34479
G1 X102.36 Y69.949 E3.35585
G1 X102.409 Y69.386 E3.36525
G1 X102.536 Y68.835 E3.37465
G1 X102.74 Y68.307 E3.38406
G1 X103.016 Y67.814 E3.39346
G0 F1500 X103.412 Y67.942
G1 F900 X103.752 Y67.527 E3.40238
G1 X104.15 Y67.168 E3.41129
G1 X104.596 Y66.871 E3.4202
G1 X105.082 Y66.643 E3.42913
G1 X105.596 Y66.491 E3.43805
G1 X106.259 Y66.41 E3.44915
G1 X106.68 Y66.4 E3.45616
G1 X112.989 Y66.4 E3.56108
G1 X113.687 Y66.409 E3.57268
G1 X114.222 Y66.456 E3.58162
G1 X114.743 Y66.582 E3.59053
G1 X115.24 Y66.784 E3.59945
G1 X115.701 Y67.057 E3.60836
G1 X116.117 Y67.396 E3.61729
G1 X116.478 Y67.792 E3.6262
G1 X116.776 Y68.238 E3.63512
G1 X117.004 Y68.724 E3.64404
G1 X117.157 Y69.238 E3.65296
G1 X117.24 Y69.908 E3.66419
G1 X117.25 Y70.33 E3.67121
G1 X117.25 Y118.65 E4.47478
G1 X117.289 Y121.431 E4.52103
G1 X117.405 Y124.159 E4.56644
G1 X117.599 Y126.888 E4.61193
G1 X117.864 Y129.565 E4.65667
G1 X118.214 Y132.304 E4.70259
G1 X118.635 Y134.982 E4.74767
G1 X119.13 Y137.642 E4.79267
G1 X120.017 Y141.629 E4.86059
G1 X120.181 Y142.343 E4.87278
G1 X120.19 Y142.397 E4.87369
G1 X120.239 Y142.939 E4.88274
G1 X120.248 Y143.587 E4.89351
G1 X120.248 Y146.774 E4.94651
G1 X120.238 Y147.478 E4.95822
G1 X120.19 Y148.012 E4.96714
G1 X120.064 Y148.533 E4.97605
G1 X119.861 Y149.03 E4.98498
G1 X119.59 Y149.488 E4.99383
G1 X119.317 Y149.879 E5.00176
G1 X117.988 Y151.846 E5.04124
G1 X117.753 Y152.166 E5.04784
G1 X117.398 Y152.569 E5.05677
G1 X116.988 Y152.914 E5.06568
G1 X116.531 Y153.195 E5.07461
G1 X115.889 Y153.451 E5.0861
G1 X114.72 Y153.792 E5.10635
G1 X114.556 Y153.827 E5.10914
G1 X112.097 Y154.5 E5.15154
G1 X111.526 Y154.646 E5.16134
G1 X110.844 Y154.81 E5.173
G1 X110.314 Y154.896 E5.18193
G1 X109.778 Y154.903 E5.19085
G1 X109.228 Y154.826 E5.20008
G1 X107.236 Y154.387 E5.234
G1 X107.013 Y154.326 E5.23785
G1 X105.945 Y153.999 E5.25642
G1 X104.961 Y153.712 E5.27347
G1 X104.049 Y153.432 E5.28934
G1 X103.55 Y153.237 E5.29825
G1 X103.085 Y152.97 E5.30716
G1 X102.665 Y152.637 E5.31608
G1 X102.299 Y152.245 E5.32499
G1 X102.124 Y152.008 E5.32989
G1 X101.448 Y151.008 E5.34997
G1 X101.184 Y150.622 E5.35774
G1 X100.388 Y149.455 E5.38124
G1 X100.12 Y148.99 E5.39016
G1 X99.923 Y148.491 E5.39908
G1 X99.803 Y147.969 E5.40799
G1 X99.757 Y147.324 E5.41874
G1 X99.752 Y146.943 E5.42508
G1 X99.752 Y143.622 E5.48031
G1 X99.763 Y142.915 E5.49207
G1 X99.865 Y142.121 E5.50538
G1 X99.961 Y141.726 E5.51214
G1 X100.587 Y139.013 E5.55844
G1 X101.125 Y136.34 E5.60379
G1 X101.585 Y133.649 E5.64919
G1 X101.968 Y130.962 E5.69432
G1 X102.277 Y128.247 E5.73977
G1 X102.508 Y125.53 E5.78511
G1 X102.661 Y122.837 E5.82997
G1 X102.741 Y120.036 E5.87657
G1 X102.75 Y118.681 E5.8991
G1 X102.75 Y70.62 E6.69836
G1 X102.76 Y69.955 E6.70942
G1 X102.808 Y69.421 E6.71834
G1 X102.935 Y68.9 E6.72726
G1 X103.138 Y68.403 E6.73619
G1 X103.412 Y67.942 E6.7451
G0 F1500 X103.808 Y68.078
G1 F900 X104.144 Y67.701 E6.7535
G1 X104.535 Y67.38 E6.76191
G1 X104.972 Y67.126 E6.77032
G1 X105.443 Y66.943 E6.77872
G1 X105.938 Y66.837 E6.78714
G1 X106.59 Y66.801 E6.798
G1 X112.984 Y66.8 E6.90433
G1 X113.682 Y66.809 E6.91594
G1 X114.186 Y66.856 E6.92436
G1 X114.676 Y66.981 E6.93277
G1 X115.14 Y67.182 E6.94118
G1 X115.566 Y67.453 E6.94958
G1 X115.945 Y67.788 E6.95799
G1 X116.266 Y68.179 E6.9664
G1 X116.521 Y68.615 E6.9748
G1 X116.705 Y69.086 E6.98321
G1 X116.812 Y69.58 E6.99162
G1 X116.849 Y70.24 E7.00261
G1 X116.85 Y118.656 E7.80777
G1 X116.89 Y121.453 E7.85429
G1 X117.005 Y124.17 E7.89951
G1 X117.2 Y126.916 E7.94529
G1 X117.468 Y129.622 E7.99052
G1 X117.816 Y132.345 E8.03617
G1 X118.241 Y135.046 E8.08164
G1 X118.737 Y137.718 E8.12683
G1 X119.636 Y141.759 E8.19568
G1 X119.786 Y142.409 E8.20677
G1 X119.839 Y142.945 E8.21573
G1 X119.848 Y143.593 E8.22651
G1 X119.848 Y146.768 E8.27931
G1 X119.838 Y147.472 E8.29102
G1 X119.791 Y147.976 E8.29943
G1 X119.665 Y148.465 E8.30783
G1 X119.463 Y148.929 E8.31625
G1 X118.989 Y149.65 E8.3306
G1 X117.657 Y151.622 E8.37017
G1 X117.434 Y151.925 E8.37643
G1 X117.098 Y152.303 E8.38484
G1 X116.707 Y152.623 E8.39324
G1 X116.27 Y152.878 E8.40165
G1 X115.777 Y153.067 E8.41043
G1 X114.608 Y153.408 E8.43069
G1 X114.448 Y153.441 E8.4334
G1 X111.998 Y154.112 E8.47565
G1 X111.432 Y154.257 E8.48536
G1 X110.75 Y154.421 E8.49703
G1 X110.251 Y154.5 E8.50543
G1 X109.745 Y154.5 E8.51384
G1 X109.314 Y154.435 E8.52109
G1 X107.328 Y153.998 E8.55491
G1 X107.13 Y153.944 E8.55832
G1 X106.026 Y153.606 E8.57752
G1 X105.079 Y153.33 E8.59393
G1 X104.167 Y153.05 E8.60979
G1 X103.697 Y152.864 E8.6182
G1 X103.262 Y152.606 E8.62661
G1 X102.873 Y152.283 E8.63502
G1 X102.456 Y151.784 E8.64583
G1 X101.761 Y150.756 E8.66647
G1 X101.518 Y150.402 E8.67361
G1 X100.718 Y149.229 E8.69722
G1 X100.467 Y148.79 E8.70563
G1 X100.289 Y148.317 E8.71404
G1 X100.187 Y147.822 E8.72244
G1 X100.157 Y147.311 E8.73095
G1 X100.152 Y146.939 E8.73714
G1 X100.152 Y143.628 E8.7922
G1 X100.163 Y142.921 E8.80396
G1 X100.254 Y142.215 E8.8158
G1 X100.351 Y141.815 E8.82264
G1 X100.977 Y139.103 E8.86893
G1 X101.525 Y136.382 E8.91509
G1 X101.976 Y133.737 E8.95971
G1 X102.367 Y130.997 E9.00574
G1 X102.675 Y128.292 E9.05101
G1 X102.905 Y125.583 E9.09623
G1 X103.061 Y122.837 E9.14197
G1 X103.14 Y120.071 E9.18798
G1 X103.15 Y118.684 E9.21105
G1 X103.15 Y70.626 E10.01026
G1 X103.16 Y69.961 E10.02132
G1 X103.208 Y69.458 E10.02972
G1 X103.334 Y68.968 E10.03814
G1 X103.536 Y68.504 E10.04655
G1 X103.808 Y68.078 E10.05496
G1 F1800 E3.05496
G1 F300 Z0.3
G0 F1500 X104.1 Y142.878 Z0.3
;TYPE:SUPPORT
G1 F300 Z0.1
G1 F1800 E10.05496
G1 F900 X104.1 Y147.522 E10.13219
G1 X103.552 Y147.295 E10.14205
G1 X103.552 Y143.105 E10.21173
G1 X104.1 Y142.878 E10.2216
G0 F1500 X103.939 Y144.018
G1 F900 X103.711 Y144.018 E10.22539
G1 F1800 E3.22539
G1 F300 Z0.3
G0 F1500 X103.711 Y146.685 Z0.3
G1 F300 Z0.1
G1 F1800 E10.22539
G1 F900 X103.939 Y146.685 E10.22918
G1 F1800 E3.22918
G1 F300 Z0.3
G0 F1500 X109.546 Y151 Z0.3
G1 F300 Z0.1
G1 F1800 E10.22918
G1 F900 X110.445 Y151 E10.24413
G1 X110 Y151.114 E10.25177
G1 X109.546 Y151 E10.25955
G1 F1800 E3.25955
G1 F300 Z0.3
G0 F1500 X115.9 Y147.522 Z0.3
G1 F300 Z0.1
G1 F1800 E10.25955
G1 F900 X115.9 Y142.883 E10.3367
G1 X116.448 Y143.104 E10.34653
G1 X116.448 Y147.296 E10.41624
G1 X115.9 Y147.522 E10.4261
G0 F1500 X116.059 Y146.685
G1 F900 X116.287 Y146.685 E10.42989
G1 F1800 E3.42989
G1 F300 Z0.3
G0 F1500 X116.287 Y144.018 Z0.3
G1 F300 Z0.1
G1 F1800 E10.42989
G1 F900 X116.059 Y144.018 E10.43368
G1 F1800 E3.43368
G1 F300 Z0.3
;MESH:station.sensor-capacitor.stl
G0 F1500 X114.3 Y141 Z0.3
;TYPE:WALL-INNER
G1 F300 Z0.1
G1 F1800 E10.43368
G1 F900 X114.3 Y149.4 E10.57337
G1 X111.8 Y149.4 E10.61495
G1 X111.8 Y70.6 E11.9254
G1 X113.05 Y70.6 E11.94619
G1 X113.05 Y141 E13.11694
G1 X114.3 Y141 E13.13773
G1 F1800 E6.13773
G0 F1500 X114.118 Y149.218
G0 X111.982 Y149.218
G0 X111.628 Y70.572
G0 X108.372 Y70.572
G0 X108.2 Y149.4
G1 F1800 E13.13773
G1 F900 X105.7 Y149.4 E13.17931
G1 X105.7 Y141 E13.319
G1 X106.95 Y141 E13.33979
G1 X106.95 Y70.6 E14.51054
G1 X108.2 Y70.6 E14.53133
G1 X108.2 Y149.4 E15.84178
G1 F1800 E8.84178
G0 F1500 X108.372 Y70.572
G0 X109.3 Y70.5
G1 F1800 E15.84178
G0 F1500 X109.3 Y70.8
;TYPE:WALL-OUTER
G1 F900 X109.301 Y148.049 E17.12644
G1 X109.584 Y148.615 E17.13696
G1 X109.876 Y149.2 E17.14783
G1 X110.124 Y149.2 E17.15196
G1 X110.417 Y148.615 E17.16284
G1 X110.7 Y148.047 E17.17339
G1 X110.7 Y70.8 E18.45801
G1 X109.3 Y70.8 E18.4813
G0 F1500 X109.3 Y71
G0 X108.6 Y70.8
G1 F900 X108.6 Y149.8 E19.79507
G1 X105.3 Y149.8 E19.84995
G1 X105.3 Y140.6 E20.00295
G1 X106.55 Y140.6 E20.02373
G1 X106.55 Y70.2 E21.19449
G1 X113.45 Y70.2 E21.30924
G1 X113.45 Y140.6 E22.47999
G1 X114.7 Y140.6 E22.50078
G1 X114.7 Y149.8 E22.65378
G1 X111.4 Y149.8 E22.70866
G1 X111.4 Y70.8 E24.02243
G1 X110.8 Y70.8 E24.03241
G1 X110.8 Y148.047 E24.35357
G1 X110.8 Y148.682 E24.36028
G1 X110.8 Y149.8 E24.37887
G1 X109.2 Y149.8 E24.40548
G1 X109.2 Y148.682 E24.42407
G1 X109.2 Y148.049 E24.43077
G1 X109.2 Y70.8 E24.75354
G1 X108.6 Y70.8 E24.76352
G0 F1500 X108.6 Y71
G0 X108.16 Y71
G0 X107.81 Y70.99
;TYPE:SKIN
G1 F900 X107.81 Y149.01 E26.061
G1 X106.09 Y149.01 E26.0896
G1 X106.09 Y141.39 E26.21632
G1 X107.34 Y141.39 E26.23711
G1 X107.34 Y70.99 E27.40787
G1 X107.81 Y70.99 E27.41568
G0 F1500 X107.519 Y71.315
G1 F900 X107.63 Y71.426 E27.41829
G0 F1500 X107.519 Y71.88
G1 F900 X107.63 Y71.991 E27.4209
G0 F1500 X107.519 Y72.446
G1 F900 X107.63 Y72.557 E27.42351
G0 F1500 X107.519 Y73.012
G1 F900 X107.63 Y73.123 E27.42612
G0 F1500 X107.519 Y73.577
G1 F900 X107.63 Y73.689 E27.42875
G0 F1500 X107.519 Y74.143
G1 F900 X107.63 Y74.254 E27.43136
G0 F1500 X107.519 Y74.709
G1 F900 X107.63 Y74.82 E27.43397
G0 F1500 X107.519 Y75.275
G1 F900 X107.63 Y75.386 E27.43658
G0 F1500 X107.519 Y75.84
G1 F900 X107.63 Y75.951 E27.43919
G0 F1500 X107.519 Y76.406
G1 F900 X107.63 Y76.517 E27.4418
G0 F1500 X107.519 Y76.972
G1 F900 X107.63 Y77.083 E27.44441
G0 F1500 X107.519 Y77.537
G1 F900 X107.63 Y77.648 E27.44702
G0 F1500 X107.519 Y78.103
G1 F900 X107.63 Y78.214 E27.44963
G0 F1500 X107.519 Y78.669
G1 F900 X107.63 Y78.78 E27.45224
G0 F1500 X107.519 Y79.234
G1 F900 X107.63 Y79.345 E27.45485
G0 F1500 X107.519 Y79.8
G1 F900 X107.63 Y79.911 E27.45746
G0 F1500 X107.519 Y80.366
G1 F900 X107.63 Y80.477 E27.46007
G0 F1500 X107.519 Y80.931
G1 F900 X107.63 Y81.042 E27.46268
G0 F1500 X107.519 Y81.497
G1 F900 X107.63 Y81.608 E27.46529
G0 F1500 X107.519 Y82.063
G1 F900 X107.63 Y82.174 E27.4679
G0 F1500 X107.519 Y82.628
G1 F900 X107.63 Y82.739 E27.47052
G0 F1500 X107.519 Y83.194
G1 F900 X107.63 Y83.305 E27.47313
G0 F1500 X107.519 Y83.76
G1 F900 X107.63 Y83.871 E27.47574
G0 F1500 X107.519 Y84.326
G1 F900 X107.63 Y84.437 E27.47835
G0 F1500 X107.519 Y84.891
G1 F900 X107.63 Y85.002 E27.48096
G0 F1500 X107.519 Y85.457
G1 F900 X107.63 Y85.568 E27.48357
G0 F1500 X107.519 Y86.023
G1 F900 X107.63 Y86.134 E27.48618
G0 F1500 X107.519 Y86.588
G1 F900 X107.63 Y86.699 E27.48879
G0 F1500 X107.519 Y87.154
G1 F900 X107.63 Y87.265 E27.4914
G0 F1500 X107.519 Y87.72
G1 F900 X107.63 Y87.831 E27.49401
G0 F1500 X107.519 Y88.285
G1 F900 X107.63 Y88.396 E27.49662
G0 F1500 X107.519 Y88.851
G1 F900 X107.63 Y88.962 E27.49923
G0 F1500 X107.519 Y89.417
G1 F900 X107.63 Y89.528 E27.50184
G0 F1500 X107.519 Y89.982
G1 F900 X107.63 Y90.093 E27.50445
G0 F1500 X107.519 Y90.548
G1 F900 X107.63 Y90.659 E27.50706
G0 F1500 X107.519 Y91.114
G1 F900 X107.63 Y91.225 E27.50967
G0 F1500 X107.519 Y91.679
G1 F900 X107.63 Y91.79 E27.51228
G0 F1500 X107.519 Y92.245
G1 F900 X107.63 Y92.356 E27.51489
G0 F1500 X107.519 Y92.811
G1 F900 X107.63 Y92.922 E27.5175
G0 F1500 X107.519 Y93.376
G1 F900 X107.63 Y93.488 E27.52013
G0 F1500 X107.519 Y93.942
G1 F900 X107.63 Y94.053 E27.52274
G0 F1500 X107.519 Y94.508
G1 F900 X107.63 Y94.619 E27.52535
G0 F1500 X107.519 Y95.074
G1 F900 X107.63 Y95.185 E27.52796
G0 F1500 X107.519 Y95.639
G1 F900 X107.63 Y95.75 E27.53057
G0 F1500 X107.519 Y96.205
G1 F900 X107.63 Y96.316 E27.53318
G0 F1500 X107.519 Y96.771
G1 F900 X107.63 Y96.882 E27.53579
G0 F1500 X107.519 Y97.336
G1 F900 X107.63 Y97.447 E27.5384
G0 F1500 X107.519 Y97.902
G1 F900 X107.63 Y98.013 E27.54101
G0 F1500 X107.519 Y98.468
G1 F900 X107.63 Y98.579 E27.54362
G0 F1500 X107.519 Y99.033
G1 F900 X107.63 Y99.144 E27.54623
G0 F1500 X107.519 Y99.599
G1 F900 X107.63 Y99.71 E27.54884
G0 F1500 X107.519 Y100.165
G1 F900 X107.63 Y100.276 E27.55145
G0 F1500 X107.519 Y100.73
G1 F900 X107.63 Y100.841 E27.55406
G0 F1500 X107.519 Y101.296
G1 F900 X107.63 Y101.407 E27.55667
G0 F1500 X107.519 Y101.862
G1 F900 X107.63 Y101.973 E27.55929
G0 F1500 X107.519 Y102.427
G1 F900 X107.63 Y102.538 E27.5619
G0 F1500 X107.519 Y102.993
G1 F900 X107.63 Y103.104 E27.56451
G0 F1500 X107.519 Y103.559
G1 F900 X107.63 Y103.67 E27.56712
G0 F1500 X107.519 Y104.125
G1 F900 X107.63 Y104.236 E27.56973
G0 F1500 X107.519 Y104.69
G1 F900 X107.63 Y104.801 E27.57234
G0 F1500 X107.519 Y105.256
G1 F900 X107.63 Y105.367 E27.57495
G0 F1500 X107.519 Y105.822
G1 F900 X107.63 Y105.933 E27.57756
G0 F1500 X107.519 Y106.388
G1 F900 X107.63 Y106.498 E27.58016
G0 F1500 X107.519 Y106.954
