;FLAVOR:Marlin
;TIME:2141
;Filament used: 0.313721m
;Layer height: 0.1
;MINX:99.65
;MINY:99.8
;MINZ:0.1
;MAXX:120.35
;MAXY:120.3
;MAXZ:20.2
;Generated with Cura_SteamEngine master
M82 ;absolute extrusion mode
;Sliced at: Sun 11-12-2022 17:43:34
;Basic settings: Layer height: 0.1 Walls: 0.8 Fill: 30
G21 ;metric values
G90 ;absolute positioning
M82 ;set extruder to absolute mode
M107 ;start with the fan off
M117 Start heating ...
M104 S200
M117 Homing X/Y ...
G28 X0 Y0 ;move X/Y to min endstops
M117 Homing Z ...
G28 Z0 ;move Z to min endstops
G1 Z15.0 F50 ;move the platform down 15mm
M117 Heating ...
M109 S200
M117 Start cleaning ...
G92 E0 ;zero the extruded length
G1 F200 E10 ;extrude 10mm of feed stock
G92 E0 ;zero the extruded length again
M117 Intro line ...
G1 Z2.0 F3000 ; Move Z Axis up little to prevent scratching of Heat Bed
G1 X0.1 Y20 Z0.1 F5000.0 ; Move to start position
G1 X0.1 Y200.0 Z0.1 F1500.0 E15 ; Draw the first line
G1 X0.4 Y200.0 Z0.1 F5000.0 ; Move to side a little
G1 X0.4 Y20 Z0.3 F1500.0 E30 ; Draw the second line
G92 E0 ; Reset Extruder
G1 E-1 F500 ; Retract filiment by 1 mm
G1 Z2.0 F3000 ; Move Z Axis up little to prevent scratching of Heat Bed
G1 X5 Y20 Z0.3 F50 ; Move over to prevent blob squish
G1 F50
G92 E0 ; Reset Extruder
M117 Printing...

G92 E0
G92 E0
G1 F1800 E-7
;LAYER_COUNT:200
;LAYER:0
M107
G1 F300 Z0.3
G0 F1500 X101.066 Y100.984 Z0.3
;TYPE:SKIRT
G1 F300 Z0.1
G1 F1800 E0
G1 F900 X101.527 Y100.611 E0.00986
G1 X102.034 Y100.303 E0.01973
G1 X102.577 Y100.066 E0.02958
G1 X103.148 Y99.904 E0.03945
G1 X103.936 Y99.811 E0.05265
G1 X104.38 Y99.8 E0.06003
G1 X106.794 Y99.8 E0.10018
G1 X108.763 Y99.828 E0.13292
G1 X111.484 Y99.828 E0.17818
G1 X112.863 Y99.8 E0.20111
G1 X115.306 Y99.8 E0.24174
G1 X116.004 Y99.81 E0.25335
G1 X116.595 Y99.859 E0.26321
G1 X117.174 Y99.986 E0.27307
G1 X117.731 Y100.19 E0.28293
G1 X118.255 Y100.468 E0.2928
G1 X118.737 Y100.813 E0.30266
G1 X119.169 Y101.22 E0.31253
G1 X119.541 Y101.681 E0.32238
G1 X119.849 Y102.188 E0.33224
G1 X120.085 Y102.732 E0.3421
G1 X120.246 Y103.302 E0.35195
G1 X120.339 Y104.086 E0.36508
G1 X120.35 Y104.53 E0.37247
G1 X120.35 Y115.218 E0.55021
G1 X120.341 Y115.945 E0.5623
G1 X120.293 Y116.537 E0.57218
G1 X120.167 Y117.116 E0.58203
G1 X119.964 Y117.673 E0.59189
G1 X119.688 Y118.198 E0.60176
G1 X119.344 Y118.681 E0.61162
G1 X118.938 Y119.113 E0.62148
G1 X118.477 Y119.486 E0.63134
G1 X117.971 Y119.795 E0.6412
G1 X117.428 Y120.032 E0.65105
G1 X116.857 Y120.195 E0.66093
G1 X116.064 Y120.289 E0.67421
G1 X115.62 Y120.3 E0.68159
G1 X104.7 Y120.3 E0.86319
G1 X104.002 Y120.291 E0.8748
G1 X103.411 Y120.243 E0.88466
G1 X102.832 Y120.116 E0.89452
G1 X102.275 Y119.913 E0.90438
G1 X101.75 Y119.637 E0.91424
G1 X101.268 Y119.292 E0.9241
G1 X100.836 Y118.886 E0.93396
G1 X100.462 Y118.425 E0.94383
G1 X100.154 Y117.919 E0.95368
G1 X99.917 Y117.375 E0.96355
G1 X99.755 Y116.805 E0.9734
G1 X99.661 Y116.01 E0.98672
G1 X99.65 Y115.558 E0.99424
G1 X99.65 Y104.814 E1.17291
G1 X99.659 Y104.149 E1.18397
G1 X99.707 Y103.558 E1.19383
G1 X99.834 Y102.979 E1.20369
G1 X100.038 Y102.422 E1.21355
G1 X100.315 Y101.898 E1.22341
G1 X100.66 Y101.416 E1.23327
G1 X101.066 Y100.984 E1.24313
G0 F1500 X101.456 Y101.172
G1 F900 X101.91 Y100.835 E1.25253
G1 X102.407 Y100.566 E1.26193
G1 X102.937 Y100.369 E1.27133
G1 X103.49 Y100.25 E1.28074
G1 X104.268 Y100.202 E1.2937
G1 X104.38 Y100.2 E1.29556
G1 X106.788 Y100.2 E1.33561
G1 X108.757 Y100.228 E1.36836
G1 X111.492 Y100.228 E1.41384
G1 X112.863 Y100.2 E1.43664
G1 X115.3 Y100.2 E1.47717
G1 X115.998 Y100.21 E1.48878
G1 X116.562 Y100.258 E1.49819
G1 X117.112 Y100.385 E1.50758
G1 X117.64 Y100.589 E1.51699
G1 X118.134 Y100.864 E1.5264
G1 X118.583 Y101.207 E1.53579
G1 X118.98 Y101.609 E1.54519
G1 X119.317 Y102.064 E1.5546
G1 X119.585 Y102.561 E1.56399
G1 X119.781 Y103.091 E1.57339
G1 X119.901 Y103.644 E1.5828
G1 X119.948 Y104.418 E1.5957
G1 X119.95 Y104.53 E1.59756
G1 X119.95 Y115.214 E1.77524
G1 X119.941 Y115.941 E1.78733
G1 X119.894 Y116.504 E1.79672
G1 X119.768 Y117.055 E1.80612
G1 X119.566 Y117.583 E1.81552
G1 X119.291 Y118.077 E1.82493
G1 X118.949 Y118.527 E1.83433
G1 X118.547 Y118.925 E1.84373
G1 X118.094 Y119.262 E1.85312
G1 X117.597 Y119.532 E1.86253
G1 X117.067 Y119.729 E1.87193
G1 X116.515 Y119.85 E1.88133
G1 X115.732 Y119.898 E1.89438
G1 X115.62 Y119.9 E1.89624
G1 X104.705 Y119.9 E2.07776
G1 X104.007 Y119.891 E2.08936
G1 X103.444 Y119.843 E2.09876
G1 X102.893 Y119.717 E2.10816
G1 X102.365 Y119.515 E2.11756
G1 X101.871 Y119.24 E2.12696
G1 X101.421 Y118.898 E2.13636
G1 X101.023 Y118.496 E2.14577
G1 X100.687 Y118.042 E2.15516
G1 X100.417 Y117.545 E2.16457
G1 X100.22 Y117.015 E2.17397
G1 X100.1 Y116.463 E2.18337
G1 X100.051 Y115.666 E2.19665
G1 X100.05 Y104.82 E2.37702
G1 X100.059 Y104.155 E2.38808
G1 X100.107 Y103.592 E2.39747
G1 X100.233 Y103.041 E2.40687
G1 X100.436 Y102.513 E2.41628
G1 X100.712 Y102.019 E2.42569
G1 X101.054 Y101.569 E2.43509
G1 X101.456 Y101.172 E2.44449
G0 F1500 X101.447 Y101.731
G1 F900 X101.844 Y101.371 E2.4534
G1 X102.291 Y101.073 E2.46233
G1 X102.776 Y100.845 E2.47124
G1 X103.29 Y100.692 E2.48016
G1 X103.958 Y100.61 E2.49136
G1 X104.38 Y100.6 E2.49838
G1 X106.782 Y100.6 E2.53832
G1 X108.751 Y100.628 E2.57107
G1 X111.501 Y100.628 E2.6168
G1 X112.863 Y100.6 E2.63946
G1 X115.295 Y100.6 E2.6799
G1 X115.993 Y100.61 E2.69151
G1 X116.527 Y100.658 E2.70043
G1 X117.048 Y100.784 E2.70934
G1 X117.545 Y100.987 E2.71827
G1 X118.006 Y101.261 E2.72719
G1 X118.421 Y101.6 E2.7361
G1 X118.781 Y101.998 E2.74502
G1 X119.078 Y102.444 E2.75393
G1 X119.306 Y102.93 E2.76286
G1 X119.458 Y103.444 E2.77177
G1 X119.54 Y104.109 E2.78292
G1 X119.55 Y104.53 E2.78992
G1 X119.55 Y115.209 E2.96751
G1 X119.541 Y115.936 E2.9796
G1 X119.494 Y116.47 E2.98852
G1 X119.369 Y116.991 E2.99743
G1 X119.167 Y117.488 E3.00635
G1 X118.894 Y117.95 E3.01528
G1 X118.556 Y118.366 E3.02419
G1 X118.159 Y118.727 E3.03311
G1 X117.713 Y119.025 E3.04203
G1 X117.228 Y119.253 E3.05094
G1 X116.714 Y119.407 E3.05987
G1 X116.042 Y119.49 E3.07113
G1 X115.62 Y119.5 E3.07815
G1 X104.711 Y119.5 E3.25957
G1 X104.013 Y119.491 E3.27117
G1 X103.478 Y119.444 E3.28011
G1 X102.957 Y119.318 E3.28902
G1 X102.46 Y119.116 E3.29794
G1 X101.999 Y118.843 E3.30685
G1 X101.583 Y118.504 E3.31578
G1 X101.222 Y118.108 E3.32469
G1 X100.924 Y117.662 E3.33361
G1 X100.696 Y117.176 E3.34253
G1 X100.543 Y116.662 E3.35145
G1 X100.46 Y115.988 E3.36275
G1 X100.45 Y115.558 E3.3699
G1 X100.45 Y104.825 E3.54839
G1 X100.459 Y104.16 E3.55945
G1 X100.507 Y103.626 E3.56837
G1 X100.633 Y103.105 E3.57728
G1 X100.835 Y102.608 E3.5862
G1 X101.108 Y102.147 E3.59511
G1 X101.447 Y101.731 E3.60404
G0 F1500 X101.839 Y101.904
G1 F900 X102.23 Y101.583 E3.61245
G1 X102.667 Y101.328 E3.62086
G1 X103.138 Y101.144 E3.62927
G1 X103.632 Y101.038 E3.63767
G1 X104.29 Y101.001 E3.64863
G1 X106.777 Y101 E3.68999
G1 X108.746 Y101.028 E3.72274
G1 X111.509 Y101.028 E3.76869
G1 X112.863 Y101 E3.79121
G1 X115.289 Y101 E3.83156
G1 X115.987 Y101.01 E3.84317
G1 X116.49 Y101.057 E3.85157
G1 X116.98 Y101.183 E3.85998
G1 X117.444 Y101.385 E3.8684
G1 X117.87 Y101.657 E3.8768
G1 X118.248 Y101.992 E3.8852
G1 X118.568 Y102.383 E3.8936
G1 X118.823 Y102.82 E3.90202
G1 X119.006 Y103.291 E3.91042
G1 X119.113 Y103.785 E3.91883
G1 X119.149 Y104.44 E3.92974
G1 X119.15 Y115.204 E4.10874
G1 X119.141 Y115.931 E4.12083
G1 X119.095 Y116.434 E4.12923
G1 X118.97 Y116.924 E4.13764
G1 X118.769 Y117.388 E4.14605
G1 X118.498 Y117.815 E4.15446
G1 X118.163 Y118.194 E4.16287
G1 X117.773 Y118.515 E4.17127
G1 X117.337 Y118.771 E4.17968
G1 X116.866 Y118.954 E4.18809
G1 X116.372 Y119.062 E4.1965
G1 X115.71 Y119.099 E4.20752
G1 X104.716 Y119.1 E4.39035
G1 X104.018 Y119.091 E4.40196
G1 X103.514 Y119.044 E4.41038
G1 X103.024 Y118.919 E4.41879
G1 X102.56 Y118.718 E4.4272
G1 X102.134 Y118.447 E4.43559
G1 X101.755 Y118.112 E4.44401
G1 X101.434 Y117.721 E4.45242
G1 X101.179 Y117.285 E4.46082
G1 X100.995 Y116.814 E4.46923
G1 X100.888 Y116.32 E4.47763
G1 X100.851 Y115.644 E4.48889
G1 X100.85 Y104.831 E4.66871
G1 X100.859 Y104.166 E4.67977
G1 X100.906 Y103.662 E4.68819
G1 X101.032 Y103.173 E4.69659
G1 X101.233 Y102.709 E4.705
G1 X101.504 Y102.282 E4.71341
G1 X101.839 Y101.904 E4.72181
G1 F1800 E-2.27819
G1 F300 Z0.3
;MESH:station.sensor-capacitor.cap.stl
G0 F1500 X115.15 Y105 Z0.3
;TYPE:WALL-OUTER
G1 F300 Z0.1
G1 F1800 E4.72181
G1 F900 X112.75 Y105 E4.76172
G1 X112.75 Y104.4 E4.7717
G1 X115.75 Y104.4 E4.82159
G1 X115.75 Y115.7 E5.00951
G1 X104.25 Y115.7 E5.20076
G1 X104.25 Y104.4 E5.38867
G1 X107.25 Y104.4 E5.43857
G1 X107.25 Y105 E5.44854
G1 X104.85 Y105 E5.48846
G1 X104.85 Y115.1 E5.65642
G1 X115.15 Y115.1 E5.82771
G1 X115.15 Y105 E5.99567
G0 F1500 X114.95 Y105
G0 X114.882 Y104.7
;TYPE:SKIN
G1 F900 X114.599 Y104.7 E5.99845
G1 X113.185 Y104.7 E6.01235
G1 X112.975 Y104.773 E6.01453
G0 F1500 X113.007 Y104.8
G0 X115.06 Y104.6
G0 X115.06 Y104.595
G1 F900 X115.27 Y104.805 E6.017
G0 F1500 X115.448 Y104.983
G1 F900 X115.448 Y105.266 E6.01951
G1 X115.448 Y115.166 E6.10724
G1 X115.399 Y115.399 E6.10935
G1 X104.934 Y115.399 E6.2021
G1 X104.6 Y115.348 E6.20509
G1 X104.549 Y114.166 E6.21558
G1 X104.549 Y104.832 E6.2983
G1 X104.699 Y104.699 E6.30007
G1 X106.955 Y104.693 E6.32007
G1 F1800 E-0.67993
G0 F1500 X107.05 Y104.791
G0 X104.722 Y104.872
G0 X104.722 Y115.228
G0 X115.278 Y115.228
G0 X115.343 Y104.6
G1 F1800 E6.32007
G0 F1500 X115.343 Y104.595
G1 F900 X115.554 Y104.806 E6.32255
G0 F1500 X115.55 Y104.806
G0 X115.278 Y115.228
G0 X104.473 Y115.5
G0 X104.473 Y115.504
M104 S200
G1 F900 X104.444 Y115.475 E6.32289
;MESH:NONMESH
G0 F300 X104.444 Y115.475 Z0.2
G0 F1500 X104.45 Y115.475
G0 X115.278 Y115.228
G0 X115.278 Y104.872
G0 X115.15 Y105
;TIME_ELAPSED:42.122898
;LAYER:1
M106 S255
;TYPE:WALL-OUTER
;MESH:station.sensor-capacitor.cap.stl
G1 F900 X112.75 Y105 E6.3628
G1 X112.75 Y104.4 E6.37278
G1 X115.75 Y104.4 E6.42267
G1 X115.75 Y115.7 E6.61059
G1 X104.25 Y115.7 E6.80183
G1 X104.25 Y104.4 E6.98975
G1 X107.25 Y104.4 E7.03964
G1 X107.25 Y105 E7.04962
G1 X104.85 Y105 E7.08953
G1 X104.85 Y115.1 E7.2575
G1 X115.15 Y115.1 E7.42879
G1 X115.15 Y105 E7.59675
G0 F2250 X114.95 Y105
G0 X115.068 Y104.7
;TYPE:SKIN
G1 F900 X115.351 Y104.7 E7.59923
G1 X115.448 Y105.167 E7.6034
G1 X115.448 Y115.067 E7.68998
G1 X115.116 Y115.399 E7.69409
G1 X104.651 Y115.399 E7.78561
G1 X104.549 Y114.935 E7.78976
G1 X104.549 Y105.036 E7.87634
G1 X104.886 Y104.699 E7.88051
G1 X106.866 Y104.699 E7.89782
G0 F2250 X106.971 Y104.6
G0 X104.709 Y104.6
G0 X104.709 Y104.594
G1 F900 X104.445 Y104.858 E7.90093
G1 F1800 E0.90093
G0 F2250 X104.45 Y104.858
G0 X104.722 Y115.228
G0 X115.278 Y115.228
G0 X115.278 Y104.872
G0 X112.983 Y104.8
G1 F1800 E7.90093
G0 F2250 X113.088 Y104.7
G1 F900 X113.371 Y104.7 E7.90393
G1 X114.785 Y104.7 E7.91895
G0 F2250 X114.89 Y104.6
G0 X115.55 Y115.245
G0 X115.553 Y115.245
G1 F900 X115.294 Y115.505 E7.922
G0 F2250 X115.532 Y115.482
;MESH:NONMESH
G0 F300 X115.532 Y115.482 Z0.3
G0 F2250 X115.278 Y104.872
G0 X115.15 Y105
;TIME_ELAPSED:52.503121
;LAYER:2
;TYPE:WALL-OUTER
;MESH:station.sensor-capacitor.cap.stl
G1 F900 X112.75 Y105 E7.96191
G1 X112.75 Y104.4 E7.97189
G1 X115.75 Y104.4 E8.02178
G1 X115.75 Y115.7 E8.2097
G1 X104.25 Y115.7 E8.40095
G1 X104.25 Y104.4 E8.58887
G1 X107.25 Y104.4 E8.63876
G1 X107.25 Y105 E8.64873
G1 X104.85 Y105 E8.68865
G1 X104.85 Y115.1 E8.85661
G1 X115.15 Y115.1 E9.0279
G1 X115.15 Y105 E9.19586
G0 F3000 X114.95 Y105
G0 X114.882 Y104.7
;TYPE:SKIN
G1 F900 X114.599 Y104.7 E9.19864
G1 X113.185 Y104.7 E9.21254
G1 X112.975 Y104.773 E9.21472
G0 F3000 X113.007 Y104.8
G0 X115.06 Y104.6
G0 X115.06 Y104.595
G1 F900 X115.27 Y104.805 E9.21719
G0 F3000 X115.448 Y104.983
G1 F900 X115.448 Y105.266 E9.2197
G1 X115.448 Y115.166 E9.30743
G1 X115.399 Y115.399 E9.30954
G1 X104.934 Y115.399 E9.40229
G1 X104.6 Y115.348 E9.40528
G1 X104.549 Y114.166 E9.41577
G1 X104.549 Y104.832 E9.49849
G1 X104.699 Y104.699 E9.50026
G1 X106.955 Y104.693 E9.52026
G1 F1800 E2.52026
G0 F3000 X107.05 Y104.791
G0 X104.722 Y104.872
G0 X104.722 Y115.228
G0 X115.278 Y115.228
G0 X115.343 Y104.6
G1 F1800 E9.52026
G0 F3000 X115.343 Y104.595
G1 F900 X115.554 Y104.806 E9.52274
G0 F3000 X115.55 Y104.806
G0 X115.278 Y115.228
G0 X104.473 Y115.5
G0 X104.473 Y115.504
G1 F900 X104.444 Y115.475 E9.52308
;MESH:NONMESH
G0 F300 X104.444 Y115.475 Z0.4
G0 F3000 X104.45 Y115.475
G0 X115.278 Y115.228
G0 X115.278 Y104.872
G0 X115.15 Y105
;TIME_ELAPSED:63.190646
;LAYER:3
;TYPE:WALL-OUTER
;MESH:station.sensor-capacitor.cap.stl
G1 F900 X112.75 Y105 E9.56299
G1 X112.75 Y104.4 E9.57297
G1 X115.75 Y104.4 E9.62286
G1 X115.75 Y115.7 E9.81078
G1 X104.25 Y115.7 E10.00202
G1 X104.25 Y104.4 E10.18994
G1 X107.25 Y104.4 E10.23983
G1 X107.25 Y105 E10.24981
G1 X104.85 Y105 E10.28972
G1 X104.85 Y115.1 E10.45769
G1 X115.15 Y115.1 E10.62898
G1 X115.15 Y105 E10.79694
G0 F3000 X114.95 Y105
G0 X115.068 Y104.7
;TYPE:SKIN
G1 F900 X115.351 Y104.7 E10.79942
G1 X115.448 Y105.167 E10.80359
G1 X115.448 Y115.067 E10.89017
G1 X115.116 Y115.399 E10.89428
G1 X104.651 Y115.399 E10.9858
G1 X104.549 Y114.935 E10.98996
G1 X104.549 Y105.036 E11.07653
G1 X104.886 Y104.699 E11.0807
G1 X106.866 Y104.699 E11.09801
G0 F3000 X106.971 Y104.6
G0 X104.709 Y104.6
G0 X104.709 Y104.594
G1 F900 X104.445 Y104.858 E11.10112
G1 F1800 E4.10112
G0 F3000 X104.45 Y104.858
G0 X104.722 Y115.228
G0 X115.278 Y115.228
G0 X115.278 Y104.872
G0 X112.983 Y104.8
G1 F1800 E11.10112
G0 F3000 X113.088 Y104.7
G1 F900 X113.371 Y104.7 E11.10412
G1 X114.785 Y104.7 E11.11914
G0 F3000 X114.89 Y104.6
G0 X115.55 Y115.245
G0 X115.553 Y115.245
G1 F900 X115.294 Y115.505 E11.12219
G0 F3000 X115.532 Y115.482
;MESH:NONMESH
G0 F300 X115.532 Y115.482 Z0.5
G0 F3000 X115.278 Y104.872
G0 X115.15 Y105
;TIME_ELAPSED:73.342923
;LAYER:4
;TYPE:WALL-OUTER
;MESH:station.sensor-capacitor.cap.stl
G1 F900 X112.75 Y105 E11.1621
G1 X112.75 Y104.4 E11.17208
G1 X115.75 Y104.4 E11.22197
G1 X115.75 Y115.7 E11.40989
G1 X104.25 Y115.7 E11.60114
G1 X104.25 Y104.4 E11.78906
G1 X107.25 Y104.4 E11.83895
G1 X107.25 Y105 E11.84892
G1 X104.85 Y105 E11.88884
G1 X104.85 Y115.1 E12.0568
G1 X115.15 Y115.1 E12.22809
G1 X115.15 Y105 E12.39605
G0 F3000 X114.95 Y105
G0 X114.882 Y104.7
;TYPE:SKIN
G1 F900 X114.599 Y104.7 E12.39883
G1 X113.185 Y104.7 E12.41273
G1 X112.975 Y104.773 E12.41491
G0 F3000 X113.007 Y104.8
G0 X115.06 Y104.6
G0 X115.06 Y104.595
G1 F900 X115.27 Y104.805 E12.41738
G0 F3000 X115.448 Y104.983
G1 F900 X115.448 Y105.266 E12.41989
G1 X115.448 Y115.166 E12.50762
G1 X115.399 Y115.399 E12.50973
G1 X104.934 Y115.399 E12.60248
G1 X104.6 Y115.348 E12.60547
G1 X104.549 Y114.166 E12.61596
G1 X104.549 Y104.832 E12.69868
G1 X104.699 Y104.699 E12.70045
G1 X106.955 Y104.693 E12.72045
G1 F1800 E5.72045
G0 F3000 X107.05 Y104.791
G0 X104.722 Y104.872
G0 X104.722 Y115.228
G0 X115.278 Y115.228
G0 X115.343 Y104.6
G1 F1800 E12.72045
G0 F3000 X115.343 Y104.595
G1 F900 X115.554 Y104.806 E12.72293
G0 F3000 X115.55 Y104.806
G0 X115.278 Y115.228
G0 X104.473 Y115.5
G0 X104.473 Y115.504
G1 F900 X104.444 Y115.475 E12.72327
;MESH:NONMESH
G0 F300 X104.444 Y115.475 Z0.6
G0 F3000 X104.45 Y115.475
G0 X115.278 Y115.228
G0 X115.278 Y104.872
G0 X115.15 Y105
;TIME_ELAPSED:84.030449
;LAYER:5
;TYPE:WALL-OUTER
;MESH:station.sensor-capacitor.cap.stl
G1 F900 X112.75 Y105 E12.76318
G1 X112.75 Y104.4 E12.77316
G1 X115.75 Y104.4 E12.82305
G1 X115.75 Y115.7 E13.01097
G1 X104.25 Y115.7 E13.20221
G1 X104.25 Y104.4 E13.39013
G1 X107.25 Y104.4 E13.44002
G1 X107.25 Y105 E13.45
G1 X104.85 Y105 E13.48991
G1 X104.85 Y115.1 E13.65788
G1 X115.15 Y115.1 E13.82917
G1 X115.15 Y105 E13.99713
G0 F3000 X114.95 Y105
G0 X115.068 Y104.7
;TYPE:SKIN
G1 F900 X115.351 Y104.7 E13.99961
G1 X115.448 Y105.167 E14.00378
G1 X115.448 Y115.067 E14.09036
G1 X115.116 Y115.399 E14.09447
G1 X104.651 Y115.399 E14.18599
G1 X104.549 Y114.935 E14.19015
G1 X104.549 Y105.036 E14.27672
G1 X104.886 Y104.699 E14.28089
G1 X106.866 Y104.699 E14.2982
G0 F3000 X106.971 Y104.6
G0 X104.709 Y104.6
G0 X104.709 Y104.594
G1 F900 X104.445 Y104.858 E14.30131
G1 F1800 E7.30131
G0 F3000 X104.45 Y104.858
G0 X104.722 Y115.228
