;FLAVOR:Marlin
;TIME:15516
;Filament used: 2.60542m
;Layer height: 0.1
;MINX:99.352
;MINY:66
;MINZ:0.1
;MAXX:120.648
;MAXY:154.004
;MAXZ:20.2
;Generated with Cura_SteamEngine master
M82 ;absolute extrusion mode
;Sliced at: Sun 11-12-2022 17:42:07
;Basic settings: Layer height: 0.1 Walls: 0.8 Fill: 30
G21 ;metric values
G90 ;absolute positioning
M82 ;set extruder to absolute mode
M107 ;start with the fan off
M117 Start heating ...
M104 S200
M117 Homing X/Y ...
G28 X0 Y0 ;move X/Y to min endstops
M117 Homing Z ...
G28 Z0 ;move Z to min endstops
G1 Z15.0 F50 ;move the platform down 15mm
M117 Heating ...
M109 S200
M117 Start cleaning ...
G92 E0 ;zero the extruded length
G1 F200 E10 ;extrude 10mm of feed stock
G92 E0 ;zero the extruded length again
M117 Intro line ...
G1 Z2.0 F3000 ; Move Z Axis up little to prevent scratching of Heat Bed
G1 X0.1 Y20 Z0.1 F5000.0 ; Move to start position
G1 X0.1 Y200.0 Z0.1 F1500.0 E15 ; Draw the first line
G1 X0.4 Y200.0 Z0.1 F5000.0 ; Move to side a little
G1 X0.4 Y20 Z0.3 F1500.0 E30 ; Draw the second line
G92 E0 ; Reset Extruder
G1 E-1 F500 ; Retract filiment by 1 mm
G1 Z2.0 F3000 ; Move Z Axis up little to prevent scratching of Heat Bed
G1 X5 Y20 Z0.3 F50 ; Move over to prevent blob squish
G1 F50
G92 E0 ; Reset Extruder
M117 Printing...

G92 E0
G92 E0
G1 F1800 E-7
;LAYER_COUNT:200
;LAYER:0
M107
G1 F300 Z0.3
G0 F1500 X104.22 Y67.809 Z0.3
;TYPE:SKIRT
G1 F300 Z0.1
G1 F1800 E0
G1 F900 X104.564 Y67.36 E0.00941
G1 X104.967 Y66.964 E0.0188
G1 X105.422 Y66.629 E0.0282
G1 X105.92 Y66.361 E0.0376
G1 X106.451 Y66.166 E0.04701
G1 X107.004 Y66.048 E0.05641
G1 X107.767 Y66.002 E0.06913
G1 X107.88 Y66 E0.07101
G1 X111.8 Y66 E0.1362
G1 X112.498 Y66.01 E0.1478
G1 X113.062 Y66.058 E0.15722
G1 X113.612 Y66.185 E0.1666
G1 X114.14 Y66.389 E0.17602
G1 X114.634 Y66.664 E0.18542
G1 X115.083 Y67.007 E0.19482
G1 X115.48 Y67.409 E0.20421
G1 X115.817 Y67.864 E0.21363
G1 X116.085 Y68.361 E0.22302
G1 X116.281 Y68.891 E0.23242
G1 X116.401 Y69.444 E0.24183
G1 X116.448 Y70.218 E0.25472
G1 X116.45 Y70.33 E0.25659
G1 X116.45 Y114.27 E0.98731
G1 X116.49 Y117.07 E1.03388
G1 X116.603 Y119.74 E1.07832
G1 X116.795 Y122.447 E1.12345
G1 X117.065 Y125.168 E1.16892
G1 X117.408 Y127.854 E1.21396
G1 X117.831 Y130.545 E1.25926
G1 X118.333 Y133.243 E1.30489
G1 X118.893 Y135.847 E1.34919
G1 X119.531 Y138.452 E1.39379
G1 X120.122 Y140.538 E1.42985
G1 X120.139 Y140.618 E1.43121
G1 X120.494 Y141.906 E1.45343
G1 X120.605 Y142.46 E1.46282
G1 X120.638 Y142.91 E1.47032
G1 X120.648 Y143.576 E1.4814
G1 X120.648 Y146.78 E1.53468
G1 X120.638 Y147.484 E1.54639
G1 X120.59 Y148.047 E1.55579
G1 X120.463 Y148.598 E1.56519
G1 X120.259 Y149.126 E1.57461
G1 X119.918 Y149.717 E1.58595
G1 X119.662 Y150.084 E1.5934
G1 X118.304 Y152.093 E1.63372
G1 X118.179 Y152.273 E1.63737
G1 X117.825 Y152.713 E1.64676
G1 X117.412 Y153.099 E1.65616
G1 X116.949 Y153.423 E1.66556
G1 X116.444 Y153.678 E1.67496
G1 X115.909 Y153.86 E1.68436
G1 X115.353 Y153.965 E1.69377
G1 X114.681 Y153.998 E1.70496
G1 X114.571 Y154 E1.70679
G1 X111.26 Y154.001 E1.76185
G1 X110.992 Y154.004 E1.76631
G1 X109.044 Y154 E1.79871
G1 X108.78 Y154.004 E1.8031
G1 X105.75 Y154 E1.85349
G1 X105.049 Y153.99 E1.86514
G1 X104.486 Y153.942 E1.87454
G1 X103.935 Y153.815 E1.88394
G1 X103.407 Y153.611 E1.89336
G1 X102.914 Y153.336 E1.90275
G1 X102.464 Y152.993 E1.91215
G1 X102.067 Y152.591 E1.92155
G1 X101.794 Y152.233 E1.92904
G1 X101.1 Y151.207 E1.94964
G1 X100.058 Y149.68 E1.98038
G1 X99.773 Y149.192 E1.98978
G1 X99.56 Y148.668 E1.99918
G1 X99.423 Y148.119 E2.00859
G1 X99.364 Y147.554 E2.01804
G1 X99.352 Y146.947 E2.02814
G1 X99.352 Y143.616 E2.08353
G1 X99.363 Y142.909 E2.09529
G1 X99.388 Y142.52 E2.10177
G1 X99.509 Y141.895 E2.11236
G1 X99.694 Y141.227 E2.12389
G1 X100.106 Y139.811 E2.14841
G1 X100.789 Y137.182 E2.19358
G1 X101.398 Y134.549 E2.23853
G1 X101.928 Y131.892 E2.28358
G1 X102.392 Y129.187 E2.32923
G1 X102.774 Y126.508 E2.37423
G1 X103.076 Y123.851 E2.4187
G1 X103.309 Y121.114 E2.46438
G1 X103.464 Y118.377 E2.50997
G1 X103.54 Y115.702 E2.55447
G1 X103.55 Y114.299 E2.57781
G1 X103.551 Y70.608 E3.30439
G1 X103.562 Y69.943 E3.31545
G1 X103.611 Y69.38 E3.32485
G1 X103.739 Y68.829 E3.33426
G1 X103.944 Y68.302 E3.34366
G1 X104.22 Y67.809 E3.35305
G0 F1500 X104.616 Y67.938
G1 F900 X104.957 Y67.523 E3.36199
G1 X105.355 Y67.164 E3.3709
G1 X105.802 Y66.868 E3.37982
G1 X106.288 Y66.642 E3.38873
G1 X106.802 Y66.49 E3.39764
G1 X107.459 Y66.41 E3.40865
G1 X107.88 Y66.4 E3.41565
G1 X111.795 Y66.4 E3.48076
G1 X112.493 Y66.41 E3.49237
G1 X113.027 Y66.458 E3.50129
G1 X113.548 Y66.584 E3.5102
G1 X114.045 Y66.787 E3.51913
G1 X114.506 Y67.061 E3.52805
G1 X114.921 Y67.4 E3.53696
G1 X115.281 Y67.798 E3.54588
G1 X115.578 Y68.244 E3.55479
G1 X115.806 Y68.73 E3.56372
G1 X115.958 Y69.244 E3.57263
G1 X116.04 Y69.909 E3.58378
G1 X116.05 Y70.33 E3.59078
G1 X116.05 Y114.276 E4.32161
G1 X116.089 Y117.057 E4.36786
G1 X116.205 Y119.785 E4.41327
G1 X116.399 Y122.514 E4.45876
G1 X116.664 Y125.191 E4.5035
G1 X117.014 Y127.93 E4.54942
G1 X117.435 Y130.608 E4.5945
G1 X117.935 Y133.294 E4.63994
G1 X118.496 Y135.905 E4.68435
G1 X119.149 Y138.573 E4.73003
G1 X119.737 Y140.647 E4.76588
G1 X119.753 Y140.725 E4.7672
G1 X120.108 Y142.012 E4.78941
G1 X120.212 Y142.539 E4.79834
G1 X120.238 Y142.916 E4.80462
G1 X120.248 Y143.582 E4.8157
G1 X120.248 Y146.774 E4.86878
G1 X120.238 Y147.478 E4.88049
G1 X120.19 Y148.012 E4.88941
G1 X120.064 Y148.533 E4.89832
G1 X119.861 Y149.03 E4.90725
G1 X119.59 Y149.488 E4.9161
G1 X119.317 Y149.879 E4.92403
G1 X117.976 Y151.864 E4.96387
G1 X117.851 Y152.044 E4.96751
G1 X117.513 Y152.461 E4.97644
G1 X117.117 Y152.823 E4.98536
G1 X116.672 Y153.121 E4.99427
G1 X116.187 Y153.351 E5.00319
G1 X115.674 Y153.506 E5.01211
G1 X114.994 Y153.59 E5.0235
G1 X114.571 Y153.6 E5.03054
G1 X111.254 Y153.601 E5.0857
G1 X110.993 Y153.604 E5.09004
G1 X109.114 Y153.6 E5.12129
G1 X108.782 Y153.604 E5.12681
G1 X105.756 Y153.6 E5.17713
G1 X105.055 Y153.59 E5.18879
G1 X104.52 Y153.542 E5.19772
G1 X103.999 Y153.416 E5.20664
G1 X103.503 Y153.213 E5.21555
G1 X103.042 Y152.939 E5.22447
G1 X102.626 Y152.6 E5.23339
G1 X102.125 Y152.008 E5.24629
G1 X101.448 Y151.008 E5.26637
G1 X101.184 Y150.622 E5.27415
G1 X100.388 Y149.455 E5.29764
G1 X100.12 Y148.99 E5.30657
G1 X99.923 Y148.491 E5.31549
G1 X99.803 Y147.969 E5.3244
G1 X99.757 Y147.324 E5.33515
G1 X99.752 Y146.943 E5.34149
G1 X99.752 Y143.622 E5.39672
G1 X99.763 Y142.915 E5.40847
G1 X99.786 Y142.564 E5.41432
G1 X99.894 Y142.002 E5.42384
G1 X100.078 Y141.338 E5.4353
G1 X100.494 Y139.909 E5.46005
G1 X101.172 Y137.302 E5.50485
G1 X101.798 Y134.588 E5.55117
G1 X102.323 Y131.96 E5.59573
G1 X102.783 Y129.28 E5.64095
G1 X103.169 Y126.572 E5.68644
G1 X103.477 Y123.859 E5.73185
G1 X103.709 Y121.137 E5.77728
G1 X103.862 Y118.446 E5.82211
G1 X103.941 Y115.647 E5.86867
G1 X103.95 Y114.302 E5.89104
G1 X103.95 Y70.614 E6.61757
G1 X103.961 Y69.949 E6.62863
G1 X104.01 Y69.415 E6.63755
G1 X104.138 Y68.895 E6.64646
G1 X104.341 Y68.398 E6.65539
G1 X104.616 Y67.938 E6.6643
G0 F1500 X105.012 Y68.075
G1 F900 X105.348 Y67.697 E6.67271
G1 X105.74 Y67.378 E6.68111
G1 X106.177 Y67.124 E6.68952
G1 X106.649 Y66.942 E6.69793
G1 X107.143 Y66.836 E6.70634
G1 X107.79 Y66.801 E6.71711
G1 X111.789 Y66.8 E6.78361
G1 X112.487 Y66.81 E6.79522
G1 X112.99 Y66.857 E6.80362
G1 X113.48 Y66.983 E6.81204
G1 X113.944 Y67.185 E6.82045
G1 X114.37 Y67.457 E6.82886
G1 X114.748 Y67.792 E6.83726
G1 X115.068 Y68.183 E6.84566
G1 X115.323 Y68.62 E6.85408
G1 X115.506 Y69.091 E6.86248
G1 X115.613 Y69.585 E6.87088
G1 X115.649 Y70.24 E6.88179
G1 X115.65 Y114.282 E7.61422
G1 X115.69 Y117.079 E7.66073
G1 X115.805 Y119.796 E7.70596
G1 X116 Y122.542 E7.75174
G1 X116.268 Y125.248 E7.79696
G1 X116.616 Y127.971 E7.84261
G1 X117.041 Y130.672 E7.88808
G1 X117.544 Y133.38 E7.93389
G1 X118.116 Y136.037 E7.97909
G1 X118.758 Y138.66 E8.02399
G1 X119.352 Y140.756 E8.06022
G1 X119.365 Y140.822 E8.06134
G1 X119.723 Y142.119 E8.08372
G1 X119.818 Y142.615 E8.09212
G1 X119.838 Y142.922 E8.09723
G1 X119.848 Y143.588 E8.10831
G1 X119.848 Y146.768 E8.16119
G1 X119.838 Y147.472 E8.1729
G1 X119.791 Y147.976 E8.18132
G1 X119.665 Y148.465 E8.18972
G1 X119.463 Y148.929 E8.19813
G1 X118.989 Y149.65 E8.21248
G1 X117.647 Y151.636 E8.25234
G1 X117.522 Y151.816 E8.25599
G1 X117.202 Y152.207 E8.26439
G1 X116.824 Y152.543 E8.2728
G1 X116.398 Y152.815 E8.28121
G1 X115.935 Y153.017 E8.28961
G1 X115.445 Y153.143 E8.29802
G1 X114.659 Y153.199 E8.31113
G1 X111.248 Y153.201 E8.36785
G1 X110.994 Y153.204 E8.37207
G1 X109.052 Y153.2 E8.40437
G1 X108.784 Y153.204 E8.40883
G1 X105.761 Y153.2 E8.4591
G1 X105.06 Y153.19 E8.47076
G1 X104.557 Y153.143 E8.47916
G1 X104.067 Y153.017 E8.48757
G1 X103.604 Y152.815 E8.49598
G1 X103.177 Y152.543 E8.50439
G1 X102.799 Y152.208 E8.51279
G1 X102.456 Y151.784 E8.52186
G1 X101.745 Y150.734 E8.54295
G1 X100.718 Y149.229 E8.57325
G1 X100.467 Y148.79 E8.58166
G1 X100.289 Y148.317 E8.59007
G1 X100.187 Y147.822 E8.59847
G1 X100.157 Y147.311 E8.60698
G1 X100.152 Y146.939 E8.61317
G1 X100.152 Y143.628 E8.66823
G1 X100.163 Y142.921 E8.67999
G1 X100.184 Y142.609 E8.68519
G1 X100.28 Y142.109 E8.69366
G1 X100.462 Y141.45 E8.70503
G1 X100.879 Y140.017 E8.72985
G1 X101.563 Y137.387 E8.77504
G1 X102.185 Y134.691 E8.82105
G1 X102.716 Y132.034 E8.86611
G1 X103.179 Y129.332 E8.9117
G1 X103.568 Y126.602 E8.95756
G1 X103.876 Y123.902 E9.00275
G1 X104.106 Y121.193 E9.04797
G1 X104.262 Y118.445 E9.09374
G1 X104.34 Y115.683 E9.13969
G1 X104.35 Y114.304 E9.16262
G1 X104.35 Y70.621 E9.88907
G1 X104.361 Y69.956 E9.90013
G1 X104.41 Y69.453 E9.90854
G1 X104.537 Y68.963 E9.91696
G1 X104.739 Y68.5 E9.92536
G1 X105.012 Y68.075 E9.93376
G1 F1800 E2.93376
G1 F300 Z0.3
G0 F1500 X109.55 Y72 Z0.3
;TYPE:SUPPORT
G1 F300 Z0.1
G1 F1800 E9.93376
G1 F900 X110.45 Y72 E9.94872
G1 X110.45 Y139.4 E11.06959
G1 X110.203 Y139.4 E11.0737
G1 X110.001 Y139.603 E11.07846
G1 X109.798 Y139.4 E11.08324
G1 X109.55 Y139.4 E11.08736
G1 X109.55 Y72 E12.20823
G1 F1800 E5.20823
G1 F300 Z0.3
G0 F1500 X109.71 Y74.676 Z0.3
G1 F300 Z0.1
G1 F1800 E12.20823
G1 F900 X110.29 Y74.676 E12.21787
G1 F1800 E5.21787
G1 F300 Z0.3
G0 F1500 X110.29 Y77.343 Z0.3
G1 F300 Z0.1
G1 F1800 E12.21787
G1 F900 X109.71 Y77.343 E12.22752
G1 F1800 E5.22752
G1 F300 Z0.3
G0 F1500 X109.71 Y80.01 Z0.3
G1 F300 Z0.1
G1 F1800 E12.22752
G1 F900 X110.29 Y80.01 E12.23716
G1 F1800 E5.23716
G1 F300 Z0.3
G0 F1500 X110.29 Y82.677 Z0.3
G1 F300 Z0.1
G1 F1800 E12.23716
G1 F900 X109.71 Y82.677 E12.24681
G1 F1800 E5.24681
G1 F300 Z0.3
G0 F1500 X109.71 Y85.344 Z0.3
G1 F300 Z0.1
G1 F1800 E12.24681
G1 F900 X110.29 Y85.344 E12.25645
G1 F1800 E5.25645
G1 F300 Z0.3
G0 F1500 X110.29 Y88.011 Z0.3
G1 F300 Z0.1
G1 F1800 E12.25645
G1 F900 X109.71 Y88.011 E12.2661
G1 F1800 E5.2661
G1 F300 Z0.3
G0 F1500 X109.71 Y90.678 Z0.3
G1 F300 Z0.1
G1 F1800 E12.2661
G1 F900 X110.29 Y90.678 E12.27574
G1 F1800 E5.27574
G1 F300 Z0.3
G0 F1500 X110.29 Y93.345 Z0.3
G1 F300 Z0.1
G1 F1800 E12.27574
G1 F900 X109.71 Y93.345 E12.28539
G1 F1800 E5.28539
G1 F300 Z0.3
G0 F1500 X109.71 Y96.012 Z0.3
G1 F300 Z0.1
G1 F1800 E12.28539
G1 F900 X110.29 Y96.012 E12.29504
G1 F1800 E5.29504
G1 F300 Z0.3
G0 F1500 X110.29 Y98.679 Z0.3
G1 F300 Z0.1
G1 F1800 E12.29504
G1 F900 X109.71 Y98.679 E12.30468
G1 F1800 E5.30468
G1 F300 Z0.3
G0 F1500 X109.71 Y101.346 Z0.3
G1 F300 Z0.1
G1 F1800 E12.30468
G1 F900 X110.29 Y101.346 E12.31433
G1 F1800 E5.31433
G1 F300 Z0.3
G0 F1500 X110.29 Y104.013 Z0.3
G1 F300 Z0.1
G1 F1800 E12.31433
G1 F900 X109.71 Y104.013 E12.32397
G1 F1800 E5.32397
G1 F300 Z0.3
G0 F1500 X109.71 Y106.68 Z0.3
G1 F300 Z0.1
G1 F1800 E12.32397
G1 F900 X110.29 Y106.68 E12.33362
G1 F1800 E5.33362
G1 F300 Z0.3
G0 F1500 X110.29 Y109.347 Z0.3
G1 F300 Z0.1
G1 F1800 E12.33362
G1 F900 X109.71 Y109.347 E12.34326
G1 F1800 E5.34326
G1 F300 Z0.3
G0 F1500 X109.71 Y112.014 Z0.3
G1 F300 Z0.1
G1 F1800 E12.34326
G1 F900 X110.29 Y112.014 E12.35291
G1 F1800 E5.35291
G1 F300 Z0.3
G0 F1500 X110.29 Y114.681 Z0.3
G1 F300 Z0.1
G1 F1800 E12.35291
G1 F900 X109.71 Y114.681 E12.36255
G1 F1800 E5.36255
G1 F300 Z0.3
G0 F1500 X109.71 Y117.348 Z0.3
G1 F300 Z0.1
G1 F1800 E12.36255
G1 F900 X110.29 Y117.348 E12.3722
G1 F1800 E5.3722
G1 F300 Z0.3
G0 F1500 X110.289 Y120.015 Z0.3
G1 F300 Z0.1
G1 F1800 E12.3722
G1 F900 X109.709 Y120.015 E12.38184
G1 F1800 E5.38184
G1 F300 Z0.3
G0 F1500 X109.709 Y122.682 Z0.3
G1 F300 Z0.1
G1 F1800 E12.38184
G1 F900 X110.289 Y122.682 E12.39149
G1 F1800 E5.39149
G1 F300 Z0.3
G0 F1500 X110.289 Y125.349 Z0.3
G1 F300 Z0.1
G1 F1800 E12.39149
G1 F900 X109.709 Y125.349 E12.40114
G1 F1800 E5.40114
G1 F300 Z0.3
G0 F1500 X109.709 Y128.016 Z0.3
G1 F300 Z0.1
G1 F1800 E12.40114
G1 F900 X110.289 Y128.016 E12.41078
G1 F1800 E5.41078
G1 F300 Z0.3
G0 F1500 X110.289 Y130.683 Z0.3
G1 F300 Z0.1
G1 F1800 E12.41078
G1 F900 X109.709 Y130.683 E12.42043
G1 F1800 E5.42043
G1 F300 Z0.3
G0 F1500 X109.709 Y133.35 Z0.3
G1 F300 Z0.1
G1 F1800 E12.42043
G1 F900 X110.289 Y133.35 E12.43007
G1 F1800 E5.43007
G1 F300 Z0.3
G0 F1500 X110.289 Y136.017 Z0.3
G1 F300 Z0.1
G1 F1800 E12.43007
G1 F900 X109.709 Y136.017 E12.43972
G1 F1800 E5.43972
G1 F300 Z0.3
G0 F1500 X109.709 Y138.684 Z0.3
G1 F300 Z0.1
G1 F1800 E12.43972
G1 F900 X110.289 Y138.684 E12.44936
G1 F1800 E5.44936
G1 F300 Z0.3
G0 F1500 X104.1 Y142.878 Z0.3
G1 F300 Z0.1
G1 F1800 E12.44936
G1 F900 X104.1 Y147.522 E12.52659
G1 X103.552 Y147.295 E12.53646
G1 X103.552 Y143.105 E12.60614
G1 X104.1 Y142.878 E12.616
G0 F1500 X103.939 Y144.018
G1 F900 X103.711 Y144.018 E12.61979
G1 F1800 E5.61979
G1 F300 Z0.3
G0 F1500 X103.711 Y146.685 Z0.3
G1 F300 Z0.1
G1 F1800 E12.61979
G1 F900 X103.939 Y146.685 E12.62358
G1 F1800 E5.62358
G1 F300 Z0.3
G0 F1500 X115.9 Y147.522 Z0.3
G1 F300 Z0.1
G1 F1800 E12.62358
G1 F900 X115.9 Y142.883 E12.70073
G1 X116.448 Y143.104 E12.71056
G1 X116.448 Y147.296 E12.78027
G1 X115.9 Y147.522 E12.79013
G0 F1500 X116.059 Y146.685
G1 F900 X116.287 Y146.685 E12.79392
G1 F1800 E5.79392
G1 F300 Z0.3
G0 F1500 X116.287 Y144.018 Z0.3
G1 F300 Z0.1
G1 F1800 E12.79392
G1 F900 X116.059 Y144.018 E12.79771
G1 F1800 E5.79771
G1 F300 Z0.3
;MESH:station.sensor-capacitor.electrode.stl
G0 F1500 X114.3 Y141 Z0.3
;TYPE:WALL-INNER
G1 F300 Z0.1
G1 F1800 E12.79771
G1 F900 X114.3 Y149.4 E12.9374
G1 X111.8 Y149.4 E12.97898
G1 X111.8 Y141 E13.11867
G1 X114.3 Y141 E13.16025
G1 F1800 E6.16025
G0 F1500 X111.878 Y140.828
G0 X111.878 Y70.572
G0 X108.122 Y70.572
G0 X108.122 Y140.828
G0 X108.2 Y141
G1 F1800 E13.16025
G1 F900 X108.2 Y149.4 E13.29994
G1 X105.7 Y149.4 E13.34152
G1 X105.7 Y141 E13.48121
G1 X108.2 Y141 E13.52278
G0 F1500 X109.2 Y140.6
;TYPE:WALL-OUTER
G1 F900 X109.301 Y140.6 E13.52446
G1 X109.301 Y148.049 E13.64834
G1 X109.584 Y148.615 E13.65886
G1 X109.876 Y149.2 E13.66974
G1 X110.124 Y149.2 E13.67386
G1 X110.417 Y148.615 E13.68474
G1 X110.7 Y148.047 E13.69529
G1 X110.7 Y140.6 E13.81914
G1 X110.8 Y140.6 E13.8208
G1 X110.8 Y148.047 E13.85176
G1 X110.8 Y148.682 E13.85847
G1 X110.8 Y149.8 E13.87706
G1 X109.2 Y149.8 E13.90367
G1 X109.2 Y148.682 E13.92227
G1 X109.2 Y148.049 E13.92897
G1 X109.2 Y140.6 E13.96025
G0 F1500 X109.301 Y140.6
G0 X109.301 Y140.699
G0 X108.35 Y140.6
G1 F900 X108.6 Y140.6 E13.9644
G1 X108.6 Y149.8 E14.1174
G1 X105.3 Y149.8 E14.17228
G1 X105.3 Y140.6 E14.32528
G1 X107.75 Y140.6 E14.36602
G1 X107.75 Y70.2 E15.53678
G1 X112.25 Y70.2 E15.61161
G1 X112.25 Y140.6 E16.78237
G1 X114.7 Y140.6 E16.82311
G1 X114.7 Y149.8 E16.97611
G1 X111.4 Y149.8 E17.03099
G1 X111.4 Y140.6 E17.18398
G1 X111.65 Y140.6 E17.18814
G1 X111.65 Y70.8 E18.34892
G1 X108.35 Y70.8 E18.4038
G1 X108.35 Y140.6 E19.56458
G0 F1500 X108.55 Y140.6
G0 X108.16 Y141.04
G0 X107.81 Y141.39
;TYPE:SKIN
G1 F900 X107.81 Y149.01 E19.6913
G1 X106.09 Y149.01 E19.7199
G1 X106.09 Y141.39 E19.84662
G1 X107.81 Y141.39 E19.87523
G0 F1500 X107.63 Y142.136
G1 F900 X107.063 Y141.569 E19.88856
G0 F1500 X106.497 Y141.569
G1 F900 X107.63 Y142.702 E19.91521
G0 F1500 X107.63 Y143.268
G1 F900 X106.269 Y141.907 E19.94722
G0 F1500 X106.269 Y142.473
G1 F900 X107.63 Y143.834 E19.97923
G0 F1500 X107.63 Y144.399
G1 F900 X106.269 Y143.039 E20.01122
