;FLAVOR:Marlin
;TIME:18823
;Filament used: 21.2099m
;Layer height: 0.3
;MINX:12.563
;MINY:69.45
;MINZ:0.3
;MAXX:206.354
;MAXY:152.546
;MAXZ:26.3
;Generated with Cura_SteamEngine master
M82 ;absolute extrusion mode
;Sliced at: Fri 09-08-2024 12:04:20
;Basic settings: Layer height: 0.3 Walls: 0.8 Fill: 20
G21 ;metric values
G90 ;absolute positioning
M82 ;set extruder to absolute mode
M107 ;start with the fan off
M117 Start heating ...
M104 S200
M117 Homing X/Y ...
G28 X0 Y0 ;move X/Y to min endstops
M117 Homing Z ...
G28 Z0 ;move Z to min endstops
G1 Z15.0 F100 ;move the platform down 15mm
M117 Heating ...
M109 S200
M117 Start cleaning ...
G92 E0 ;zero the extruded length
G1 F200 E10 ;extrude 10mm of feed stock
G92 E0 ;zero the extruded length again
M117 Intro line ...
G1 Z2.0 F3000 ; Move Z Axis up little to prevent scratching of Heat Bed
G1 X0.1 Y20 Z0.3 F5000.0 ; Move to start position
G1 X0.1 Y200.0 Z0.3 F1500.0 E15 ; Draw the first line
G1 X0.4 Y200.0 Z0.3 F5000.0 ; Move to side a little
G1 X0.4 Y20 Z0.3 F1500.0 E30 ; Draw the second line
G92 E0 ; Reset Extruder
G1 E-1 F500 ; Retract filiment by 1 mm
G1 Z2.0 F3000 ; Move Z Axis up little to prevent scratching of Heat Bed
G1 X5 Y20 Z0.3 F100 ; Move over to prevent blob squish
G1 F100
G92 E0 ; Reset Extruder
M117 Printing...

G92 E0
G92 E0
G1 F1800 E-7
;LAYER_COUNT:87
;LAYER:0
M107
G1 F300 Z0.5
G0 F3000 X17.513 Y69.618 Z0.5
;TYPE:SKIRT
G1 F300 Z0.3
G1 F1800 E0
G1 X18.066 Y69.499 E0.02822
G1 X18.837 Y69.452 E0.06676
G1 X18.949 Y69.45 E0.07235
G1 X199.731 Y69.45 E9.0916
G1 X200.429 Y69.46 E9.12642
G1 X200.993 Y69.508 E9.15466
G1 X201.543 Y69.635 E9.18283
G1 X202.071 Y69.839 E9.21106
G1 X202.565 Y70.114 E9.23927
G1 X203.014 Y70.457 E9.26746
G1 X203.411 Y70.859 E9.29565
G1 X203.748 Y71.314 E9.3239
G1 X204.016 Y71.811 E9.35207
G1 X204.212 Y72.341 E9.38026
G1 X204.357 Y73.116 E9.4196
G1 X204.454 Y74.244 E9.47608
G1 X204.483 Y74.654 E9.49659
G1 X204.746 Y77.31 E9.62974
G1 X205.209 Y80.822 E9.80647
G1 X205.344 Y81.73 E9.85227
G1 X205.425 Y82.398 E9.88584
G1 X205.804 Y85.184 E10.02612
G1 X205.962 Y86.171 E10.07598
G1 X206.065 Y87.07 E10.12113
G1 X206.096 Y88.137 E10.17438
G1 X206.257 Y91.571 E10.3459
G1 X206.336 Y92.805 E10.40759
G1 X206.354 Y93.583 E10.44641
G1 X206.354 Y94.514 E10.49286
G1 X206.332 Y96.09 E10.57149
G1 X206.332 Y98.813 E10.70734
G1 X206.349 Y99.563 E10.74477
G1 X206.354 Y100.147 E10.77391
G1 X206.354 Y104.262 E10.97921
G1 X206.344 Y104.963 E11.01418
G1 X206.277 Y105.637 E11.04797
G1 X206.023 Y106.997 E11.117
G1 X206.009 Y107.065 E11.12046
G1 X205.553 Y109.724 E11.25506
G1 X205.161 Y112.459 E11.3929
G1 X204.856 Y115.139 E11.52747
G1 X204.625 Y117.839 E11.66267
G1 X204.469 Y120.547 E11.79799
G1 X204.392 Y123.235 E11.93215
G1 X204.381 Y124.7 E12.00524
G1 X204.381 Y143.869 E12.96159
G1 X204.371 Y144.596 E12.99786
G1 X204.323 Y145.159 E13.02605
G1 X204.196 Y145.71 E13.05426
G1 X203.993 Y146.238 E13.08248
G1 X203.718 Y146.732 E13.11069
G1 X203.376 Y147.182 E13.13889
G1 X202.973 Y147.579 E13.16711
G1 X202.519 Y147.915 E13.19529
G1 X202.022 Y148.184 E13.22349
G1 X201.492 Y148.381 E13.2517
G1 X200.939 Y148.5 E13.27992
G1 X200.163 Y148.548 E13.31871
G1 X200.051 Y148.55 E13.32429
G1 X130.106 Y148.55 E16.81386
G1 X127.306 Y148.59 E16.95357
G1 X124.636 Y148.703 E17.0869
G1 X121.929 Y148.895 E17.22229
G1 X119.208 Y149.165 E17.35871
G1 X116.522 Y149.508 E17.4938
G1 X113.831 Y149.931 E17.6297
G1 X111.133 Y150.433 E17.76662
G1 X108.529 Y150.993 E17.8995
G1 X108.135 Y151.09 E17.91975
G1 X106.86 Y151.384 E17.98502
G1 X106.083 Y151.484 E18.02411
G1 X105.634 Y151.496 E18.04652
G1 X104.202 Y151.496 E18.11796
G1 X103.505 Y151.486 E18.15274
G1 X103.281 Y151.476 E18.16392
G1 X102.557 Y151.425 E18.20013
G1 X99.763 Y151.268 E18.33975
G1 X97.093 Y151.192 E18.47301
G1 X93.72 Y151.203 E18.64129
G1 X92.948 Y151.218 E18.67981
G1 X91.993 Y151.218 E18.72746
G1 X91.304 Y151.213 E18.76183
G1 X89.786 Y151.193 E18.83757
G1 X89.344 Y151.162 E18.85968
G1 X87.995 Y150.992 E18.92751
G1 X87.939 Y150.984 E18.93033
G1 X85.223 Y150.68 E19.06668
G1 X82.536 Y150.456 E19.2012
G1 X79.827 Y150.308 E19.33656
G1 X77.087 Y150.236 E19.4733
G1 X74.378 Y150.241 E19.60845
G1 X71.671 Y150.322 E19.74357
G1 X68.969 Y150.48 E19.8786
G1 X66.24 Y150.717 E20.01526
G1 X63.575 Y151.026 E20.14911
G1 X62.081 Y151.251 E20.22449
G1 X61.887 Y151.266 E20.2342
G1 X60.635 Y151.446 E20.2973
G1 X60.028 Y151.504 E20.32772
G1 X58.778 Y151.634 E20.39042
G1 X57.385 Y151.762 E20.46021
G1 X56.845 Y151.781 E20.48717
G1 X54.429 Y151.769 E20.6077
G1 X51.721 Y151.833 E20.74285
G1 X48.982 Y151.975 E20.87968
G1 X46.31 Y152.189 E21.01341
G1 X43.587 Y152.484 E21.15006
G1 X43.317 Y152.517 E21.16363
G1 X42.753 Y152.546 E21.1918
G1 X42.19 Y152.495 E21.22001
G1 X41.75 Y152.398 E21.24249
G1 X40.484 Y152.043 E21.30808
G1 X37.813 Y151.333 E21.44597
G1 X35.147 Y150.706 E21.5826
G1 X32.483 Y150.155 E21.71832
G1 X29.828 Y149.69 E21.8528
G1 X27.142 Y149.293 E21.98826
G1 X24.458 Y148.975 E22.1231
G1 X21.743 Y148.73 E22.2591
G1 X18.424 Y148.532 E22.42498
G1 X18.293 Y148.521 E22.43154
G1 X17.735 Y148.434 E22.45972
G1 X17.194 Y148.269 E22.48793
G1 X16.682 Y148.03 E22.51612
G1 X16.209 Y147.72 E22.54434
G1 X15.784 Y147.347 E22.57255
G1 X15.416 Y146.918 E22.60075
G1 X15.112 Y146.442 E22.62893
G1 X14.878 Y145.927 E22.65715
G1 X14.719 Y145.384 E22.68538
G1 X14.635 Y144.766 E22.71649
G1 X14.578 Y143.786 E22.76547
G1 X14.379 Y141.011 E22.90427
G1 X14.109 Y138.318 E23.0393
G1 X13.763 Y135.629 E23.17456
G1 X13.341 Y132.957 E23.30951
G1 X12.827 Y130.213 E23.44879
G1 X12.65 Y129.33 E23.49372
G1 X12.574 Y128.657 E23.52751
G1 X12.563 Y128.226 E23.54902
G1 X12.563 Y125.089 E23.70553
G1 X12.574 Y124.383 E23.74076
G1 X12.641 Y123.715 E23.77425
G1 X12.83 Y122.699 E23.82581
G1 X13.003 Y121.839 E23.86957
G1 X13.465 Y119.138 E24.00628
G1 X13.846 Y116.457 E24.14138
G1 X14.147 Y113.799 E24.27484
G1 X14.379 Y111.069 E24.41153
G1 X14.533 Y108.354 E24.5472
G1 X14.619 Y104.262 E24.75139
G1 X14.619 Y74.064 E26.25798
G1 X14.629 Y73.399 E26.29116
G1 X14.678 Y72.836 E26.31935
G1 X14.805 Y72.285 E26.34756
G1 X15.009 Y71.757 E26.3758
G1 X15.285 Y71.264 E26.40399
G1 X15.628 Y70.815 E26.43218
G1 X16.031 Y70.418 E26.4604
G1 X16.485 Y70.082 E26.48858
G1 X16.983 Y69.813 E26.51682
G1 X17.513 Y69.618 E26.545
G0 F3000 X17.865 Y69.941
G1 F1800 X18.528 Y69.86 E26.57832
G1 X18.949 Y69.85 E26.59933
G1 X199.726 Y69.85 E35.61833
G1 X200.424 Y69.86 E35.65316
G1 X200.958 Y69.908 E35.67991
G1 X201.479 Y70.034 E35.70665
G1 X201.976 Y70.237 E35.73343
G1 X202.437 Y70.511 E35.76019
G1 X202.852 Y70.85 E35.78692
G1 X203.212 Y71.248 E35.8137
G1 X203.509 Y71.694 E35.84043
G1 X203.737 Y72.18 E35.86721
G1 X203.889 Y72.694 E35.89395
G1 X203.959 Y73.15 E35.91697
G1 X204.055 Y74.272 E35.97315
G1 X204.084 Y74.688 E35.99395
G1 X204.35 Y77.368 E36.12832
G1 X204.813 Y80.877 E36.3049
G1 X204.947 Y81.779 E36.35039
G1 X205.035 Y82.503 E36.38678
G1 X205.405 Y85.222 E36.52368
G1 X205.566 Y86.228 E36.57451
G1 X205.665 Y87.082 E36.6174
G1 X205.696 Y88.156 E36.67101
G1 X205.855 Y91.556 E36.84082
G1 X205.937 Y92.831 E36.90456
G1 X205.954 Y93.588 E36.94234
G1 X205.954 Y94.508 E36.98824
G1 X205.932 Y96.084 E37.06687
G1 X205.932 Y98.822 E37.20347
G1 X205.949 Y99.566 E37.2406
G1 X205.954 Y100.15 E37.26973
G1 X205.954 Y104.256 E37.47458
G1 X205.944 Y104.957 E37.50956
G1 X205.883 Y105.564 E37.54
G1 X205.617 Y106.991 E37.61242
G1 X205.155 Y109.677 E37.74839
G1 X204.766 Y112.394 E37.88532
G1 X204.459 Y115.092 E38.02079
G1 X204.226 Y117.818 E38.15729
G1 X204.071 Y120.513 E38.29197
G1 X203.991 Y123.308 E38.43147
G1 X203.981 Y124.697 E38.50077
G1 X203.981 Y143.864 E39.45701
G1 X203.971 Y144.591 E39.49329
G1 X203.923 Y145.125 E39.52003
G1 X203.797 Y145.646 E39.54678
G1 X203.595 Y146.143 E39.57354
G1 X203.321 Y146.604 E39.6003
G1 X202.982 Y147.019 E39.62703
G1 X202.585 Y147.38 E39.6538
G1 X202.139 Y147.677 E39.68054
G1 X201.653 Y147.905 E39.70732
G1 X201.139 Y148.058 E39.73407
G1 X200.472 Y148.14 E39.7676
G1 X200.051 Y148.15 E39.78861
G1 X130.1 Y148.15 E43.27848
G1 X127.319 Y148.189 E43.41724
G1 X124.591 Y148.305 E43.55346
G1 X121.862 Y148.499 E43.68996
G1 X119.185 Y148.764 E43.82416
G1 X116.446 Y149.114 E43.96192
G1 X113.768 Y149.535 E44.09717
G1 X111.082 Y150.035 E44.23348
G1 X108.447 Y150.602 E44.36795
G1 X108.045 Y150.7 E44.38859
G1 X106.77 Y150.994 E44.45387
G1 X106.071 Y151.084 E44.48903
G1 X105.634 Y151.096 E44.51084
G1 X104.207 Y151.096 E44.58204
G1 X103.51 Y151.086 E44.61681
G1 X103.309 Y151.077 E44.62685
G1 X102.538 Y151.023 E44.66541
G1 X99.834 Y150.87 E44.80053
G1 X97.071 Y150.792 E44.93843
G1 X93.709 Y150.803 E45.10616
G1 X92.948 Y150.818 E45.14414
G1 X91.999 Y150.818 E45.19148
G1 X91.303 Y150.813 E45.22621
G1 X89.791 Y150.793 E45.30165
G1 X89.393 Y150.765 E45.32155
G1 X88.051 Y150.596 E45.38903
G1 X88.003 Y150.589 E45.39145
G1 X85.268 Y150.283 E45.52875
G1 X82.555 Y150.057 E45.66458
G1 X79.824 Y149.907 E45.80103
G1 X77.097 Y149.836 E45.93713
G1 X74.366 Y149.841 E46.07338
G1 X71.671 Y149.922 E46.20789
G1 X68.912 Y150.083 E46.34577
G1 X66.228 Y150.317 E46.48019
G1 X63.531 Y150.629 E46.61564
G1 X62.022 Y150.856 E46.69177
G1 X61.832 Y150.87 E46.70128
G1 X60.578 Y151.05 E46.76448
G1 X60.007 Y151.104 E46.79309
G1 X58.741 Y151.236 E46.8566
G1 X57.348 Y151.364 E46.92639
G1 X56.841 Y151.381 E46.95169
G1 X54.421 Y151.369 E47.07243
G1 X51.691 Y151.434 E47.20867
G1 X48.965 Y151.575 E47.34485
G1 X46.267 Y151.791 E47.47989
G1 X43.561 Y152.084 E47.61568
G1 X43.268 Y152.12 E47.63041
G1 X42.733 Y152.146 E47.65713
G1 X42.199 Y152.091 E47.68391
G1 X41.858 Y152.013 E47.70136
G1 X40.556 Y151.648 E47.76882
G1 X37.91 Y150.945 E47.90541
G1 X35.24 Y150.316 E48.04227
G1 X32.568 Y149.764 E48.17839
G1 X29.883 Y149.293 E48.31439
G1 X27.211 Y148.899 E48.44914
G1 X24.469 Y148.574 E48.58689
G1 X21.802 Y148.333 E48.72049
G1 X18.546 Y148.14 E48.88322
G1 X18.327 Y148.122 E48.89418
G1 X17.797 Y148.038 E48.92096
G1 X17.286 Y147.876 E48.9477
G1 X16.805 Y147.639 E48.97445
G1 X16.364 Y147.334 E49.0012
G1 X15.973 Y146.966 E49.02799
G1 X15.641 Y146.545 E49.05474
G1 X15.376 Y146.079 E49.08148
G1 X15.183 Y145.579 E49.10822
G1 X15.066 Y145.055 E49.13501
G1 X15.034 Y144.743 E49.15066
G1 X14.977 Y143.757 E49.19993
G1 X14.778 Y140.979 E49.33888
G1 X14.506 Y138.263 E49.47506
G1 X14.16 Y135.582 E49.60993
G1 X13.735 Y132.892 E49.74579
G1 X13.22 Y130.139 E49.88553
G1 X13.042 Y129.251 E49.93071
G1 X12.973 Y128.646 E49.96109
G1 X12.963 Y128.226 E49.98205
G1 X12.963 Y125.095 E50.13825
G1 X12.974 Y124.389 E50.17348
G1 X13.034 Y123.788 E50.20361
G1 X13.222 Y122.778 E50.25487
G1 X13.402 Y121.88 E50.30056
G1 X13.856 Y119.226 E50.43489
G1 X14.24 Y116.527 E50.5709
G1 X14.549 Y113.807 E50.70748
G1 X14.779 Y111.091 E50.84346
G1 X14.932 Y108.385 E50.97868
G1 X15.019 Y104.256 E51.18472
G1 X15.019 Y74.07 E52.69071
G1 X15.029 Y73.405 E52.72389
G1 X15.077 Y72.871 E52.75064
G1 X15.204 Y72.35 E52.77739
G1 X15.407 Y71.853 E52.80418
G1 X15.681 Y71.392 E52.83093
G1 X16.021 Y70.977 E52.8577
G1 X16.419 Y70.618 E52.88444
G1 X16.865 Y70.321 E52.91117
G1 X17.351 Y70.093 E52.93795
G1 X17.865 Y69.941 E52.9647
G0 F3000 X17.712 Y70.393
G1 F1800 X18.207 Y70.287 E52.98995
G1 X18.859 Y70.251 E53.02253
G1 X199.72 Y70.25 E62.04572
G1 X200.418 Y70.26 E62.08055
G1 X200.921 Y70.307 E62.10575
G1 X201.411 Y70.433 E62.13099
G1 X201.875 Y70.635 E62.15624
G1 X202.301 Y70.907 E62.18146
G1 X202.679 Y71.242 E62.20666
G1 X202.999 Y71.633 E62.23186
G1 X203.254 Y72.07 E62.25711
G1 X203.437 Y72.541 E62.28232
G1 X203.56 Y73.185 E62.31503
G1 X203.656 Y74.3 E62.37086
G1 X203.686 Y74.72 E62.39187
G1 X203.952 Y77.402 E62.52633
G1 X204.412 Y80.898 E62.70225
G1 X204.55 Y81.827 E62.7491
G1 X204.637 Y82.543 E62.78509
G1 X205.011 Y85.294 E62.9236
G1 X205.17 Y86.285 E62.97367
G1 X205.266 Y87.093 E63.01427
G1 X205.297 Y88.174 E63.06822
G1 X205.459 Y91.637 E63.24118
G1 X205.537 Y92.857 E63.30217
G1 X205.554 Y93.593 E63.3389
G1 X205.554 Y94.503 E63.3843
G1 X205.532 Y96.079 E63.46293
G1 X205.532 Y98.831 E63.60023
G1 X205.549 Y99.57 E63.63711
G1 X205.554 Y100.154 E63.66625
G1 X205.554 Y104.251 E63.87065
G1 X205.544 Y104.952 E63.90562
G1 X205.49 Y105.491 E63.93265
G1 X205.223 Y106.923 E64.00532
G1 X204.759 Y109.624 E64.14205
G1 X204.367 Y112.358 E64.27985
G1 X204.061 Y115.049 E64.41496
G1 X203.829 Y117.762 E64.55081
G1 X203.671 Y120.512 E64.68824
G1 X203.591 Y123.297 E64.82724
G1 X203.581 Y124.694 E64.89694
G1 X203.581 Y143.858 E65.85303
G1 X203.571 Y144.585 E65.8893
G1 X203.524 Y145.088 E65.91451
G1 X203.398 Y145.578 E65.93975
G1 X203.197 Y146.042 E65.96498
G1 X202.925 Y146.468 E65.99019
G1 X202.59 Y146.847 E66.01543
G1 X202.199 Y147.167 E66.04064
G1 X201.763 Y147.422 E66.06584
G1 X201.292 Y147.606 E66.09106
G1 X200.797 Y147.712 E66.11632
G1 X200.141 Y147.749 E66.1491
G1 X130.094 Y147.75 E69.64376
G1 X127.297 Y147.79 E69.78332
G1 X124.58 Y147.905 E69.91899
G1 X121.834 Y148.1 E70.05633
G1 X119.128 Y148.368 E70.192
G1 X116.405 Y148.716 E70.32895
G1 X113.704 Y149.141 E70.46536
G1 X110.996 Y149.644 E70.60278
G1 X108.34 Y150.216 E70.73832
G1 X107.955 Y150.31 E70.7581
G1 X106.68 Y150.604 E70.82337
G1 X106.059 Y150.685 E70.85462
G1 X105.634 Y150.696 E70.87583
G1 X104.213 Y150.696 E70.94672
G1 X103.516 Y150.686 E70.9815
G1 X103.337 Y150.678 E70.99044
G1 X102.59 Y150.625 E71.0278
G1 X99.83 Y150.47 E71.16572
G1 X97.082 Y150.392 E71.30287
G1 X93.7 Y150.403 E71.4716
G1 X92.948 Y150.418 E71.50912
G1 X92.005 Y150.418 E71.55617
G1 X91.302 Y150.413 E71.59124
G1 X89.797 Y150.393 E71.66633
G1 X89.443 Y150.368 E71.68404
G1 X88.033 Y150.19 E71.75494
G1 X85.313 Y149.885 E71.89149
G1 X82.574 Y149.657 E72.02862
G1 X79.857 Y149.508 E72.16437
G1 X77.106 Y149.436 E72.30167
G1 X74.388 Y149.441 E72.43727
G1 X71.636 Y149.524 E72.57463
G1 X68.888 Y149.684 E72.71196
G1 X66.183 Y149.919 E72.84742
G1 X63.453 Y150.235 E72.98453
G1 X61.962 Y150.46 E73.05976
G1 X61.787 Y150.472 E73.06851
G1 X60.521 Y150.654 E73.13232
G1 X59.979 Y150.705 E73.15948
G1 X58.705 Y150.838 E73.22339
G1 X57.312 Y150.966 E73.29318
G1 X56.791 Y150.981 E73.31918
G1 X54.414 Y150.969 E73.43777
G1 X51.695 Y151.034 E73.57346
G1 X48.948 Y151.176 E73.71069
G1 X46.193 Y151.396 E73.84858
G1 X43.546 Y151.683 E73.98141
G1 X43.22 Y151.723 E73.9978
G1 X42.715 Y151.745 E74.02301
G1 X42.212 Y151.687 E74.04828
G1 X41.966 Y151.628 E74.0609
G1 X40.689 Y151.27 E74.12706
G1 X37.991 Y150.553 E74.26634
G1 X35.342 Y149.93 E74.4021
G1 X32.62 Y149.367 E74.54078
G1 X29.97 Y148.902 E74.67501
G1 X27.25 Y148.501 E74.81218
G1 X24.516 Y148.177 E74.94953
G1 X21.798 Y147.932 E75.08568
G1 X18.491 Y147.735 E75.25096
G1 X18.36 Y147.724 E75.25752
G1 X17.861 Y147.642 E75.28275
G1 X17.382 Y147.482 E75.30794
G1 X16.933 Y147.249 E75.33318
G1 X16.527 Y146.948 E75.3584
G1 X16.173 Y146.587 E75.38362
G1 X15.88 Y146.175 E75.40884
G1 X15.656 Y145.722 E75.43406
G1 X15.506 Y145.239 E75.45929
G1 X15.433 Y144.72 E75.48544
G1 X15.373 Y143.685 E75.53716
G1 X15.177 Y140.944 E75.67426
G1 X14.906 Y138.243 E75.80969
G1 X14.553 Y135.505 E75.94742
G1 X14.125 Y132.794 E76.08434
G1 X13.621 Y130.106 E76.22079
G1 X13.434 Y129.173 E76.26826
G1 X13.373 Y128.635 E76.29527
G1 X13.363 Y128.226 E76.31568
G1 X13.363 Y125.101 E76.47159
G1 X13.374 Y124.395 E76.50682
G1 X13.428 Y123.861 E76.5336
G1 X13.615 Y122.856 E76.5846
G1 X13.789 Y121.988 E76.62876
G1 X14.253 Y119.278 E76.76593
G1 X14.635 Y116.591 E76.90133
G1 X14.946 Y113.85 E77.03896
G1 X15.178 Y111.112 E77.17605
G1 X15.332 Y108.388 E77.31217
G1 X15.419 Y104.3 E77.51616
G1 X15.419 Y74.076 E79.02405
G1 X15.429 Y73.411 E79.05723
G1 X15.477 Y72.908 E79.08244
G1 X15.603 Y72.418 E79.10768
G1 X15.805 Y71.954 E79.13292
G1 X16.077 Y71.528 E79.15814
G1 X16.413 Y71.151 E79.18334
G1 X16.804 Y70.83 E79.20857
G1 X17.241 Y70.576 E79.23379
G1 X17.712 Y70.393 E79.259
G1 F1800 E72.259
G1 F300 Z0.5
G0 F3000 X17.619 Y124.644 Z0.5
;TYPE:SUPPORT
G1 F300 Z0.3
G1 F1800 E79.259
G1 X17.619 Y128.356 E79.44419
G1 X16.763 Y128.356 E79.4869
G1 X16.763 Y124.644 E79.67209
G1 X17.619 Y124.644 E79.7148
G0 F3000 X17.458 Y125.349
G1 F1800 X16.922 Y125.349 E79.74154
G1 F1800 E72.74154
G1 F300 Z0.5
G0 F3000 X16.922 Y128.016 Z0.5
