;FLAVOR:Marlin
;TIME:22796
;Filament used: 27.2279m
;Layer height: 0.3
;MINX:12.924
;MINY:50.45
;MINZ:0.3
;MAXX:204.881
;MAXY:169.55
;MAXZ:26.3
;Generated with Cura_SteamEngine master
M82 ;absolute extrusion mode
;Sliced at: Thu 09-05-2024 18:25:41
;Basic settings: Layer height: 0.3 Walls: 0.8 Fill: 20
G21 ;metric values
G90 ;absolute positioning
M82 ;set extruder to absolute mode
M107 ;start with the fan off
M117 Start heating ...
M104 S200
M117 Homing X/Y ...
G28 X0 Y0 ;move X/Y to min endstops
M117 Homing Z ...
G28 Z0 ;move Z to min endstops
G1 Z15.0 F100 ;move the platform down 15mm
M117 Heating ...
M109 S200
M117 Start cleaning ...
G92 E0 ;zero the extruded length
G1 F200 E10 ;extrude 10mm of feed stock
G92 E0 ;zero the extruded length again
M117 Intro line ...
G1 Z2.0 F3000 ; Move Z Axis up little to prevent scratching of Heat Bed
G1 X0.1 Y20 Z0.3 F5000.0 ; Move to start position
G1 X0.1 Y200.0 Z0.3 F1500.0 E15 ; Draw the first line
G1 X0.4 Y200.0 Z0.3 F5000.0 ; Move to side a little
G1 X0.4 Y20 Z0.3 F1500.0 E30 ; Draw the second line
G92 E0 ; Reset Extruder
G1 E-1 F500 ; Retract filiment by 1 mm
G1 Z2.0 F3000 ; Move Z Axis up little to prevent scratching of Heat Bed
G1 X5 Y20 Z0.3 F100 ; Move over to prevent blob squish
G1 F100
G92 E0 ; Reset Extruder
M117 Printing...

G92 E0
G92 E0
G1 F1800 E-7
;LAYER_COUNT:87
;LAYER:0
M107
G1 F300 Z0.5
G0 F3000 X18.013 Y50.618 Z0.5
;TYPE:SKIRT
G1 F300 Z0.3
G1 F1800 E0
G1 X18.566 Y50.499 E0.02822
G1 X19.337 Y50.452 E0.06676
G1 X19.449 Y50.45 E0.07235
G1 X56.469 Y50.45 E1.91928
G1 X57.171 Y50.46 E1.95431
G1 X57.734 Y50.508 E1.9825
G1 X58.285 Y50.635 E2.01071
G1 X58.861 Y50.861 E2.04158
G1 X61.424 Y52.105 E2.18371
G1 X63.87 Y53.208 E2.31758
G1 X66.429 Y54.278 E2.45596
G1 X68.878 Y55.218 E2.58683
G1 X71.488 Y56.138 E2.7249
G1 X74.062 Y56.964 E2.85976
G1 X76.661 Y57.717 E2.99476
G1 X79.323 Y58.409 E3.13198
G1 X81.959 Y59.015 E3.26692
G1 X84.611 Y59.544 E3.40184
G1 X87.292 Y60.002 E3.53753
G1 X89.954 Y60.38 E3.67167
G1 X92.677 Y60.688 E3.80839
G1 X95.375 Y60.916 E3.94347
G1 X98.111 Y61.069 E4.08019
G1 X100.786 Y61.144 E4.21369
G1 X103.528 Y61.142 E4.35049
G1 X106.233 Y61.065 E4.4855
G1 X108.94 Y60.909 E4.62078
G1 X111.637 Y60.679 E4.75582
G1 X114.334 Y60.37 E4.89125
G1 X117.04 Y59.984 E5.02762
G1 X119.717 Y59.524 E5.16314
G1 X122.361 Y58.992 E5.29769
G1 X124.977 Y58.39 E5.43161
G1 X127.674 Y57.686 E5.57068
G1 X130.247 Y56.937 E5.70437
G1 X132.819 Y56.108 E5.83919
G1 X135.388 Y55.2 E5.97513
G1 X137.937 Y54.217 E6.11143
G1 X140.434 Y53.17 E6.24651
G1 X142.911 Y52.051 E6.38211
G1 X144.183 Y51.442 E6.45247
G1 X145.371 Y50.864 E6.51839
G1 X145.896 Y50.653 E6.54661
G1 X146.347 Y50.537 E6.56985
G1 X147.018 Y50.461 E6.60354
G1 X147.449 Y50.45 E6.62505
G1 X200.226 Y50.45 E9.2581
G1 X200.924 Y50.459 E9.29293
G1 X201.487 Y50.507 E9.32112
G1 X202.038 Y50.633 E9.34932
G1 X202.566 Y50.835 E9.37752
G1 X203.06 Y51.11 E9.40573
G1 X203.51 Y51.452 E9.43393
G1 X203.908 Y51.854 E9.46215
G1 X204.244 Y52.308 E9.49033
G1 X204.514 Y52.805 E9.51855
G1 X204.711 Y53.335 E9.54676
G1 X204.831 Y53.887 E9.57494
G1 X204.879 Y54.668 E9.61398
G1 X204.881 Y54.78 E9.61957
G1 X204.881 Y162.864 E15.0119
G1 X204.872 Y163.591 E15.04817
G1 X204.825 Y164.154 E15.07636
G1 X204.699 Y164.705 E15.10456
G1 X204.497 Y165.233 E15.13276
G1 X204.222 Y165.727 E15.16097
G1 X203.88 Y166.177 E15.18917
G1 X203.478 Y166.575 E15.21739
G1 X203.025 Y166.912 E15.24556
G1 X202.528 Y167.182 E15.27377
G1 X201.998 Y167.379 E15.30198
G1 X201.446 Y167.5 E15.33018
G1 X200.663 Y167.548 E15.36931
G1 X200.551 Y167.55 E15.3749
G1 X75.375 Y167.55 E21.61996
G1 X72.575 Y167.59 E21.75967
G1 X69.905 Y167.703 E21.89299
G1 X67.198 Y167.895 E22.02838
G1 X64.477 Y168.165 E22.1648
G1 X61.791 Y168.508 E22.2999
G1 X59.107 Y168.93 E22.43545
G1 X56.3 Y169.455 E22.57792
G1 X56.13 Y169.484 E22.58652
G1 X55.578 Y169.539 E22.6142
G1 X55.194 Y169.549 E22.63336
G1 X47.423 Y169.55 E23.02106
G1 X46.722 Y169.54 E23.05603
G1 X46.047 Y169.473 E23.08987
G1 X44.749 Y169.231 E23.15575
G1 X44.402 Y169.162 E23.1734
G1 X41.697 Y168.699 E23.31031
G1 X39.066 Y168.326 E23.44289
G1 X36.335 Y168.017 E23.58001
G1 X33.633 Y167.788 E23.71529
G1 X30.923 Y167.635 E23.85071
G1 X26.853 Y167.55 E24.05381
G1 X20.035 Y167.55 E24.39396
G1 X19.377 Y167.54 E24.42679
G1 X18.814 Y167.491 E24.45499
G1 X18.263 Y167.364 E24.4832
G1 X17.736 Y167.16 E24.51139
G1 X17.243 Y166.884 E24.53958
G1 X16.679 Y166.437 E24.57548
G1 X16.637 Y166.397 E24.57838
G1 X16.257 Y165.979 E24.60656
G1 X15.938 Y165.511 E24.63482
G1 X15.689 Y165.004 E24.663
G1 X15.514 Y164.466 E24.69122
G1 X15.411 Y163.847 E24.72253
G1 X15.307 Y162.652 E24.78237
G1 X15.035 Y159.947 E24.91801
G1 X14.687 Y157.259 E25.05323
G1 X14.262 Y154.571 E25.189
G1 X13.758 Y151.881 E25.32554
G1 X13.187 Y149.24 E25.46034
G1 X13.035 Y148.581 E25.49409
G1 X12.935 Y147.797 E25.53352
G1 X12.924 Y147.365 E25.55508
G1 X12.924 Y143.95 E25.72545
G1 X12.935 Y143.244 E25.76068
G1 X13.002 Y142.578 E25.79407
G1 X13.073 Y142.195 E25.81351
G1 X13.502 Y140.053 E25.92249
G1 X13.965 Y137.352 E26.05921
G1 X14.346 Y134.671 E26.19431
G1 X14.647 Y132.013 E26.32777
G1 X14.879 Y129.283 E26.46446
G1 X15.033 Y126.568 E26.60013
G1 X15.119 Y122.478 E26.80422
G1 X15.119 Y55.064 E30.16752
G1 X15.129 Y54.399 E30.2007
G1 X15.178 Y53.836 E30.2289
G1 X15.305 Y53.285 E30.25711
G1 X15.509 Y52.757 E30.28535
G1 X15.785 Y52.264 E30.31353
G1 X16.128 Y51.815 E30.34172
G1 X16.531 Y51.418 E30.36995
G1 X16.985 Y51.082 E30.39813
G1 X17.483 Y50.813 E30.42636
G1 X18.013 Y50.618 E30.45454
G0 F3000 X18.365 Y50.941
G1 F1800 X19.028 Y50.86 E30.48786
G1 X19.449 Y50.85 E30.50887
G1 X56.463 Y50.85 E32.35551
G1 X57.165 Y50.86 E32.39053
G1 X57.699 Y50.908 E32.41728
G1 X58.221 Y51.034 E32.44407
G1 X58.686 Y51.221 E32.46908
G1 X61.234 Y52.458 E32.61039
G1 X63.717 Y53.578 E32.74628
G1 X66.268 Y54.644 E32.88422
G1 X68.785 Y55.61 E33.01872
G1 X71.339 Y56.51 E33.15382
G1 X73.933 Y57.343 E33.28975
G1 X76.596 Y58.115 E33.42807
G1 X79.204 Y58.792 E33.5625
G1 X81.856 Y59.403 E33.69827
G1 X84.538 Y59.937 E33.83471
G1 X87.24 Y60.398 E33.97146
G1 X89.924 Y60.78 E34.10671
G1 X92.635 Y61.087 E34.24283
G1 X95.353 Y61.316 E34.37891
G1 X98.042 Y61.467 E34.51328
G1 X100.811 Y61.544 E34.65148
G1 X103.504 Y61.542 E34.78583
G1 X106.267 Y61.463 E34.92373
G1 X108.961 Y61.308 E35.05836
G1 X111.679 Y61.076 E35.19446
G1 X114.399 Y60.765 E35.33104
G1 X117.098 Y60.38 E35.46706
G1 X119.792 Y59.917 E35.60343
G1 X122.45 Y59.382 E35.7387
G1 X125.07 Y58.779 E35.87283
G1 X127.772 Y58.074 E36.01215
G1 X130.343 Y57.325 E36.14575
G1 X132.981 Y56.476 E36.284
G1 X135.518 Y55.578 E36.41827
G1 X138.087 Y54.587 E36.55564
G1 X140.587 Y53.539 E36.69089
G1 X143.107 Y52.401 E36.82883
G1 X144.356 Y51.803 E36.89792
G1 X145.546 Y51.224 E36.96394
G1 X146.045 Y51.026 E36.99073
G1 X146.425 Y50.929 E37.01029
G1 X147.029 Y50.86 E37.04062
G1 X147.449 Y50.85 E37.06158
G1 X200.22 Y50.85 E39.69434
G1 X200.918 Y50.859 E39.72917
G1 X201.453 Y50.906 E39.75596
G1 X201.974 Y51.032 E39.7827
G1 X202.471 Y51.234 E39.80947
G1 X202.932 Y51.507 E39.8362
G1 X203.348 Y51.846 E39.86297
G1 X203.709 Y52.242 E39.8897
G1 X204.007 Y52.688 E39.91646
G1 X204.235 Y53.174 E39.94325
G1 X204.388 Y53.688 E39.97
G1 X204.471 Y54.358 E40.00368
G1 X204.481 Y54.78 E40.02474
G1 X204.481 Y162.859 E45.41683
G1 X204.472 Y163.586 E45.4531
G1 X204.425 Y164.12 E45.47984
G1 X204.3 Y164.641 E45.50657
G1 X204.098 Y165.138 E45.53334
G1 X203.825 Y165.6 E45.56011
G1 X203.487 Y166.016 E45.58685
G1 X203.09 Y166.377 E45.61362
G1 X202.644 Y166.675 E45.64038
G1 X202.159 Y166.903 E45.66712
G1 X201.645 Y167.057 E45.69389
G1 X200.973 Y167.14 E45.72767
G1 X200.551 Y167.15 E45.74873
G1 X75.369 Y167.15 E51.99409
G1 X72.588 Y167.189 E52.13285
G1 X69.86 Y167.305 E52.26907
G1 X67.131 Y167.499 E52.40556
G1 X64.454 Y167.764 E52.53977
G1 X61.715 Y168.114 E52.67753
G1 X59.037 Y168.535 E52.81278
G1 X56.232 Y169.061 E52.95516
G1 X55.566 Y169.139 E52.98861
G1 X55.193 Y169.149 E53.00723
G1 X47.429 Y169.15 E53.39458
G1 X46.728 Y169.14 E53.42955
G1 X46.121 Y169.079 E53.45999
G1 X44.828 Y168.838 E53.52561
G1 X44.476 Y168.768 E53.54351
G1 X41.789 Y168.308 E53.67952
G1 X39.096 Y167.926 E53.81522
G1 X36.378 Y167.619 E53.95168
G1 X33.654 Y167.388 E54.08807
G1 X30.954 Y167.236 E54.22299
G1 X26.862 Y167.15 E54.42718
G1 X20.041 Y167.15 E54.76749
G1 X19.383 Y167.14 E54.80032
G1 X18.849 Y167.092 E54.82707
G1 X18.328 Y166.965 E54.85382
G1 X17.832 Y166.762 E54.88056
G1 X17.371 Y166.487 E54.90734
G1 X16.955 Y166.147 E54.93414
G1 X16.913 Y166.107 E54.93704
G1 X16.554 Y165.709 E54.96378
G1 X16.257 Y165.262 E54.99055
G1 X16.03 Y164.776 E55.01731
G1 X15.878 Y164.262 E55.04405
G1 X15.81 Y163.812 E55.06676
G1 X15.71 Y162.665 E55.1242
G1 X15.431 Y159.893 E55.26319
G1 X15.085 Y157.217 E55.39781
G1 X14.656 Y154.508 E55.53465
G1 X14.154 Y151.821 E55.67102
G1 X13.577 Y149.155 E55.80711
G1 X13.425 Y148.492 E55.84105
G1 X13.334 Y147.786 E55.87656
G1 X13.324 Y147.365 E55.89757
G1 X13.324 Y143.956 E56.06764
G1 X13.335 Y143.25 E56.10287
G1 X13.395 Y142.65 E56.13296
G1 X13.465 Y142.274 E56.15204
G1 X13.902 Y140.094 E56.26296
G1 X14.356 Y137.44 E56.39729
G1 X14.74 Y134.741 E56.5333
G1 X15.049 Y132.021 E56.66988
G1 X15.279 Y129.305 E56.80586
G1 X15.432 Y126.599 E56.94108
G1 X15.519 Y122.486 E57.14633
G1 X15.519 Y55.07 E60.50972
G1 X15.529 Y54.405 E60.5429
G1 X15.577 Y53.871 E60.56965
G1 X15.704 Y53.35 E60.59641
G1 X15.907 Y52.853 E60.62319
G1 X16.181 Y52.392 E60.64995
G1 X16.521 Y51.977 E60.67671
G1 X16.919 Y51.618 E60.70345
G1 X17.365 Y51.321 E60.73019
G1 X17.851 Y51.093 E60.75697
G1 X18.365 Y50.941 E60.78371
G0 F3000 X18.212 Y51.393
G1 F1800 X18.707 Y51.287 E60.80897
G1 X19.359 Y51.251 E60.84154
G1 X56.458 Y51.25 E62.69242
G1 X57.16 Y51.26 E62.72745
G1 X57.663 Y51.307 E62.75265
G1 X58.153 Y51.433 E62.77789
G1 X58.511 Y51.581 E62.79722
G1 X61.06 Y52.818 E62.93857
G1 X63.548 Y53.94 E63.07474
G1 X66.137 Y55.023 E63.21475
G1 X68.625 Y55.978 E63.34771
G1 X71.22 Y56.892 E63.48497
G1 X73.847 Y57.735 E63.62261
G1 X76.447 Y58.489 E63.75767
G1 X79.12 Y59.183 E63.89545
G1 X81.793 Y59.799 E64.0323
G1 X84.47 Y60.332 E64.16848
G1 X87.153 Y60.79 E64.30427
G1 X89.854 Y61.174 E64.44038
G1 X92.592 Y61.484 E64.57785
G1 X95.33 Y61.715 E64.71493
G1 X98.046 Y61.867 E64.85065
G1 X100.799 Y61.944 E64.98805
G1 X103.516 Y61.942 E65.1236
G1 X106.267 Y61.863 E65.26091
G1 X109.017 Y61.705 E65.39833
G1 X111.726 Y61.474 E65.53397
G1 X114.43 Y61.165 E65.66975
G1 X117.151 Y60.776 E65.80688
G1 X119.867 Y60.309 E65.94438
G1 X122.548 Y59.77 E66.08081
G1 X125.188 Y59.162 E66.21597
G1 X127.847 Y58.469 E66.35305
G1 X130.473 Y57.704 E66.48951
G1 X133.089 Y56.861 E66.62663
G1 X135.658 Y55.953 E66.76257
G1 X138.249 Y54.953 E66.90113
G1 X140.744 Y53.908 E67.03608
G1 X143.245 Y52.777 E67.17303
G1 X144.529 Y52.163 E67.24403
G1 X145.721 Y51.583 E67.31017
G1 X146.192 Y51.399 E67.33539
G1 X146.503 Y51.321 E67.35139
G1 X147.04 Y51.26 E67.37835
G1 X147.449 Y51.25 E67.39877
G1 X200.215 Y51.25 E70.03127
G1 X200.913 Y51.259 E70.0661
G1 X201.417 Y51.306 E70.09135
G1 X201.907 Y51.431 E70.11658
G1 X202.371 Y51.632 E70.14181
G1 X202.797 Y51.903 E70.167
G1 X203.176 Y52.238 E70.19223
G1 X203.497 Y52.629 E70.21747
G1 X203.752 Y53.065 E70.24267
G1 X203.936 Y53.536 E70.2679
G1 X204.043 Y54.03 E70.29312
G1 X204.08 Y54.69 E70.3261
G1 X204.081 Y162.854 E75.72242
G1 X204.072 Y163.581 E75.75869
G1 X204.026 Y164.084 E75.78389
G1 X203.901 Y164.574 E75.80912
G1 X203.7 Y165.038 E75.83435
G1 X203.429 Y165.465 E75.85958
G1 X203.094 Y165.844 E75.88482
G1 X202.704 Y166.165 E75.91002
G1 X202.268 Y166.421 E75.93524
G1 X201.797 Y166.604 E75.96045
G1 X201.303 Y166.712 E75.98568
G1 X200.641 Y166.749 E76.01876
G1 X75.363 Y166.75 E82.2689
G1 X72.566 Y166.79 E82.40846
G1 X69.849 Y166.905 E82.54413
G1 X67.103 Y167.1 E82.68148
G1 X64.397 Y167.368 E82.81714
G1 X61.674 Y167.716 E82.9541
G1 X58.967 Y168.142 E83.09081
G1 X56.165 Y168.666 E83.23303
G1 X55.554 Y168.74 E83.26373
G1 X55.193 Y168.749 E83.28175
G1 X47.434 Y168.75 E83.66885
G1 X46.733 Y168.74 E83.70382
G1 X46.194 Y168.686 E83.73085
G1 X44.906 Y168.446 E83.79621
G1 X44.55 Y168.375 E83.81432
G1 X41.841 Y167.911 E83.95144
G1 X39.16 Y167.532 E84.08653
G1 X36.42 Y167.221 E84.22411
G1 X33.677 Y166.989 E84.36144
G1 X30.956 Y166.836 E84.49741
G1 X26.87 Y166.75 E84.70131
G1 X20.047 Y166.75 E85.04171
G1 X19.389 Y166.74 E85.07454
G1 X18.886 Y166.692 E85.09975
G1 X18.397 Y166.566 E85.12494
G1 X17.933 Y166.364 E85.15019
G1 X17.507 Y166.092 E85.1754
G1 X17.189 Y165.817 E85.19638
G1 X16.852 Y165.441 E85.22157
G1 X16.578 Y165.016 E85.2468
G1 X16.374 Y164.553 E85.27204
G1 X16.246 Y164.064 E85.29726
G1 X16.208 Y163.777 E85.3117
G1 X16.104 Y162.582 E85.37155
G1 X15.831 Y159.873 E85.50738
G1 X15.477 Y157.135 E85.64512
G1 X15.043 Y154.392 E85.78367
G1 X14.556 Y151.788 E85.91584
G1 X13.968 Y149.071 E86.05453
G1 X13.814 Y148.402 E86.08878
G1 X13.734 Y147.775 E86.12031
G1 X13.724 Y147.365 E86.14077
G1 X13.724 Y143.962 E86.31055
G1 X13.735 Y143.256 E86.34577
G1 X13.788 Y142.723 E86.3725
G1 X13.857 Y142.353 E86.39127
G1 X14.294 Y140.175 E86.5021
G1 X14.753 Y137.492 E86.6379
G1 X15.135 Y134.805 E86.7733
G1 X15.446 Y132.064 E86.91093
G1 X15.678 Y129.326 E87.04802
G1 X15.832 Y126.602 E87.18414
G1 X15.919 Y122.515 E87.38808
G1 X15.919 Y55.076 E90.75263
G1 X15.929 Y54.411 E90.78581
G1 X15.977 Y53.908 E90.81102
G1 X16.103 Y53.418 E90.83626
G1 X16.305 Y52.954 E90.86151
G1 X16.577 Y52.528 E90.88672
G1 X16.913 Y52.151 E90.91192
G1 X17.304 Y51.83 E90.93716
G1 X17.741 Y51.576 E90.96238
G1 X18.212 Y51.393 E90.98759
G1 F1800 E83.98759
G1 F300 Z0.5
G0 F3000 X19.319 Y133.45 Z0.5
;TYPE:SUPPORT
G1 F300 Z0.3
G1 F1800 E90.98759
G1 X56.119 Y133.45 E92.82354
G1 X56.119 Y157.55 E94.0259
G1 X19.319 Y157.55 E95.86186
G1 X19.319 Y147.894 E96.3436
G1 X18.92 Y147.495 E96.37175
G1 X17.124 Y147.495 E96.46135
G1 X17.124 Y143.505 E96.66041
G1 X18.92 Y143.505 E96.75002
G1 X19.319 Y143.106 E96.77817
G1 X19.319 Y133.45 E97.25991
G1 F1800 E90.25991
G1 F300 Z0.5
G0 F3000 X27.106 Y136.693 Z0.5
G1 F300 Z0.3
G1 F1800 E97.25991
G1 X26.544 Y136.853 E97.28906
G1 X26.013 Y137.126 E97.31885
G1 X25.561 Y137.488 E97.34774
G1 X25.184 Y137.936 E97.37695
G1 X24.9 Y138.458 E97.4066
G1 X24.73 Y139.011 E97.43546
G1 X24.671 Y139.594 E97.4647
G1 X24.72 Y140.129 E97.4915
G1 X24.903 Y140.751 E97.52385
G1 X25.158 Y141.217 E97.55035
G1 X25.56 Y141.714 E97.58224
G1 X26.022 Y142.078 E97.61158
G1 X26.541 Y142.343 E97.64066
G1 X27.097 Y142.505 E97.66955
G1 X27.697 Y142.549 E97.69956
G1 X28.28 Y142.475 E97.72888
G1 X28.786 Y142.307 E97.75548
G1 X29.299 Y142.023 E97.78474
G1 X29.786 Y141.604 E97.81679
G1 X30.139 Y141.133 E97.84615
G1 X30.39 Y140.614 E97.87492
G1 X30.535 Y140.039 E97.9045
G1 X30.567 Y139.459 E97.93348
G1 X30.479 Y138.87 E97.96319
G1 X30.272 Y138.314 E97.99279
G1 X30 Y137.864 E98.01902
G1 X29.572 Y137.39 E98.05089
G1 X29.095 Y137.044 E98.08029
G1 X28.557 Y136.802 E98.10972
G1 X27.843 Y136.64 E98.14624
G1 X27.106 Y136.693 E98.18311
G0 F3000 X26.67 Y136.651
G1 F1800 X26.67 Y133.61 E98.33482
G1 F1800 E91.33482
G1 F300 Z0.5
G0 F3000 X24.003 Y133.61 Z0.5
G1 F300 Z0.3
G1 F1800 E98.33482
G1 X24.003 Y157.39 E99.52121
G1 F1800 E92.52121
G1 F300 Z0.5
G0 F3000 X21.336 Y157.39 Z0.5
G1 F300 Z0.3
G1 F1800 E99.52121
G1 X21.336 Y133.61 E100.7076
G1 F1800 E93.7076
G1 F300 Z0.5
G0 F3000 X19.478 Y136.017 Z0.5
G1 F300 Z0.3
G1 F1800 E100.7076
G1 X55.958 Y136.017 E102.5276
G1 F1800 E95.5276
G1 F300 Z0.5
G0 F3000 X55.958 Y138.684 Z0.5
G1 F300 Z0.3
G1 F1800 E102.5276
G1 X30.58 Y138.684 E103.79371
G1 F1800 E96.79371
G1 F300 Z0.5
G0 F3000 X29.337 Y137.02 Z0.5
G1 F300 Z0.3
G1 F1800 E103.79371
G1 X29.337 Y133.61 E103.96384
G1 F1800 E96.96384
G1 F300 Z0.5
G0 F3000 X32.004 Y133.61 Z0.5
G1 F300 Z0.3
G1 F1800 E103.96384
G1 X32.004 Y157.39 E105.15022
G1 F1800 E98.15022
G1 F300 Z0.5
G0 F3000 X29.337 Y157.39 Z0.5
G1 F300 Z0.3
G1 F1800 E105.15022
G1 X29.337 Y142.185 E105.90881
G0 F3000 X30.175 Y141.351
G1 F1800 X55.958 Y141.351 E107.19512
G1 F1800 E100.19512
G1 F300 Z0.5
G0 F3000 X55.958 Y144.018 Z0.5
G1 F300 Z0.3
G1 F1800 E107.19512
G1 X17.283 Y144.018 E109.12463
