;FLAVOR:Marlin
;TIME:712
;Filament used: 0.780425m
;Layer height: 0.3
;MINX:98.6
;MINY:80.55
;MINZ:0.3
;MAXX:121.4
;MAXY:139.45
;MAXZ:6.9
;Generated with Cura_SteamEngine master
M82 ;absolute extrusion mode
;Sliced at: Fri 09-08-2024 12:11:40
;Basic settings: Layer height: 0.3 Walls: 0.8 Fill: 20
G21 ;metric values
G90 ;absolute positioning
M82 ;set extruder to absolute mode
M107 ;start with the fan off
M117 Start heating ...
M104 S200
M117 Homing X/Y ...
G28 X0 Y0 ;move X/Y to min endstops
M117 Homing Z ...
G28 Z0 ;move Z to min endstops
G1 Z15.0 F100 ;move the platform down 15mm
M117 Heating ...
M109 S200
M117 Start cleaning ...
G92 E0 ;zero the extruded length
G1 F200 E10 ;extrude 10mm of feed stock
G92 E0 ;zero the extruded length again
M117 Intro line ...
G1 Z2.0 F3000 ; Move Z Axis up little to prevent scratching of Heat Bed
G1 X0.1 Y20 Z0.3 F5000.0 ; Move to start position
G1 X0.1 Y200.0 Z0.3 F1500.0 E15 ; Draw the first line
G1 X0.4 Y200.0 Z0.3 F5000.0 ; Move to side a little
G1 X0.4 Y20 Z0.3 F1500.0 E30 ; Draw the second line
G92 E0 ; Reset Extruder
G1 E-1 F500 ; Retract filiment by 1 mm
G1 Z2.0 F3000 ; Move Z Axis up little to prevent scratching of Heat Bed
G1 X5 Y20 Z0.3 F100 ; Move over to prevent blob squish
G1 F100
G92 E0 ; Reset Extruder
M117 Printing...

G92 E0
G92 E0
G1 F1800 E-7
;LAYER_COUNT:23
;LAYER:0
M107
G1 F300 Z0.5
G0 F3000 X99.604 Y81.919 Z0.5
;TYPE:SKIRT
G1 F300 Z0.3
G1 F1800 E0
G1 X100.006 Y81.522 E0.02819
G1 X100.46 Y81.185 E0.0564
G1 X100.957 Y80.916 E0.08459
G1 X101.487 Y80.719 E0.1128
G1 X102.04 Y80.6 E0.14102
G1 X102.818 Y80.552 E0.17991
G1 X102.93 Y80.55 E0.1855
G1 X116.75 Y80.55 E0.87498
G1 X117.448 Y80.56 E0.90981
G1 X118.012 Y80.608 E0.93805
G1 X118.562 Y80.735 E0.96621
G1 X119.09 Y80.939 E0.99445
G1 X119.584 Y81.214 E1.02266
G1 X120.033 Y81.557 E1.05084
G1 X120.43 Y81.959 E1.07903
G1 X120.767 Y82.414 E1.10728
G1 X121.035 Y82.911 E1.13545
G1 X121.231 Y83.441 E1.16364
G1 X121.351 Y83.994 E1.19187
G1 X121.398 Y84.768 E1.23056
G1 X121.4 Y84.88 E1.23615
G1 X121.4 Y134.764 E3.72487
G1 X121.391 Y135.491 E3.76114
G1 X121.344 Y136.054 E3.78933
G1 X121.218 Y136.605 E3.81753
G1 X121.016 Y137.133 E3.84573
G1 X120.741 Y137.627 E3.87394
G1 X120.399 Y138.077 E3.90214
G1 X119.997 Y138.475 E3.93036
G1 X119.544 Y138.812 E3.95853
G1 X119.047 Y139.082 E3.98675
G1 X118.517 Y139.279 E4.01496
G1 X117.965 Y139.4 E4.04315
G1 X117.182 Y139.448 E4.08229
G1 X117.07 Y139.45 E4.08788
G1 X103.255 Y139.45 E4.77711
G1 X102.557 Y139.441 E4.81194
G1 X101.994 Y139.393 E4.84013
G1 X101.443 Y139.267 E4.86833
G1 X100.915 Y139.065 E4.89653
G1 X100.421 Y138.79 E4.92474
G1 X99.971 Y138.448 E4.95293
G1 X99.573 Y138.046 E4.98116
G1 X99.237 Y137.592 E5.00934
G1 X98.967 Y137.095 E5.03755
G1 X98.77 Y136.565 E5.06576
G1 X98.65 Y136.013 E5.09395
G1 X98.601 Y135.216 E5.13378
G1 X98.6 Y85.17 E7.63059
G1 X98.609 Y84.505 E7.66377
G1 X98.657 Y83.942 E7.69196
G1 X98.783 Y83.391 E7.72016
G1 X98.986 Y82.863 E7.74838
G1 X99.262 Y82.369 E7.77661
G1 X99.604 Y81.919 E7.80481
G0 F3000 X99.997 Y82.081
G1 F1800 X100.394 Y81.721 E7.83155
G1 X100.841 Y81.423 E7.85835
G1 X101.326 Y81.195 E7.88509
G1 X101.84 Y81.042 E7.91184
G1 X102.508 Y80.96 E7.94542
G1 X102.93 Y80.95 E7.96648
G1 X116.745 Y80.95 E8.65571
G1 X117.443 Y80.96 E8.69054
G1 X117.977 Y81.008 E8.71729
G1 X118.498 Y81.134 E8.74403
G1 X118.995 Y81.337 E8.77081
G1 X119.456 Y81.611 E8.79757
G1 X119.871 Y81.95 E8.8243
G1 X120.231 Y82.348 E8.85108
G1 X120.528 Y82.794 E8.87781
G1 X120.756 Y83.28 E8.90459
G1 X120.908 Y83.794 E8.93133
G1 X120.99 Y84.459 E8.96476
G1 X121 Y84.88 E8.98577
G1 X121 Y134.759 E11.47424
G1 X120.991 Y135.486 E11.51052
G1 X120.944 Y136.02 E11.53726
G1 X120.819 Y136.541 E11.56399
G1 X120.617 Y137.038 E11.59076
G1 X120.344 Y137.5 E11.61753
G1 X120.006 Y137.916 E11.64427
G1 X119.609 Y138.277 E11.67104
G1 X119.163 Y138.575 E11.6978
G1 X118.678 Y138.803 E11.72454
G1 X118.164 Y138.957 E11.75131
G1 X117.492 Y139.04 E11.78509
G1 X117.07 Y139.05 E11.80615
G1 X103.261 Y139.05 E12.49508
G1 X102.563 Y139.041 E12.52991
G1 X102.028 Y138.994 E12.5567
G1 X101.507 Y138.868 E12.58345
G1 X101.01 Y138.666 E12.61021
G1 X100.549 Y138.393 E12.63694
G1 X100.133 Y138.054 E12.66371
G1 X99.772 Y137.658 E12.69045
G1 X99.474 Y137.212 E12.71721
G1 X99.246 Y136.726 E12.74399
G1 X99.093 Y136.212 E12.77075
G1 X99.01 Y135.538 E12.80463
G1 X99 Y135.108 E12.82609
G1 X99 Y85.175 E15.31725
G1 X99.009 Y84.51 E15.35043
G1 X99.057 Y83.976 E15.37718
G1 X99.183 Y83.455 E15.40392
G1 X99.385 Y82.958 E15.43069
G1 X99.658 Y82.497 E15.45742
G1 X99.997 Y82.081 E15.48419
G0 F3000 X100.054 Y82.632
G1 F1800 X100.389 Y82.254 E15.50939
G1 X100.78 Y81.933 E15.53463
G1 X101.217 Y81.678 E15.55987
G1 X101.688 Y81.494 E15.5851
G1 X102.182 Y81.388 E15.61031
G1 X102.84 Y81.351 E15.64319
G1 X116.739 Y81.35 E16.33661
G1 X117.437 Y81.36 E16.37144
G1 X117.94 Y81.407 E16.39664
G1 X118.43 Y81.533 E16.42188
G1 X118.894 Y81.735 E16.44713
G1 X119.32 Y82.007 E16.47235
G1 X119.698 Y82.342 E16.49754
G1 X120.018 Y82.733 E16.52275
G1 X120.273 Y83.17 E16.54799
G1 X120.456 Y83.641 E16.5732
G1 X120.563 Y84.135 E16.59842
G1 X120.599 Y84.79 E16.63115
G1 X120.6 Y134.754 E19.12386
G1 X120.591 Y135.481 E19.16014
G1 X120.545 Y135.984 E19.18534
G1 X120.42 Y136.474 E19.21056
G1 X120.219 Y136.938 E19.23579
G1 X119.948 Y137.365 E19.26102
G1 X119.613 Y137.744 E19.28626
G1 X119.223 Y138.065 E19.31146
G1 X118.787 Y138.321 E19.33668
G1 X118.316 Y138.504 E19.36189
G1 X117.822 Y138.612 E19.38712
G1 X117.16 Y138.649 E19.4202
G1 X103.266 Y138.65 E20.11337
G1 X102.568 Y138.641 E20.1482
G1 X102.064 Y138.594 E20.17345
G1 X101.574 Y138.469 E20.19868
G1 X101.11 Y138.268 E20.22391
G1 X100.684 Y137.997 E20.2491
G1 X100.305 Y137.662 E20.27434
G1 X99.984 Y137.271 E20.29958
G1 X99.729 Y136.835 E20.32478
G1 X99.545 Y136.364 E20.35
G1 X99.438 Y135.87 E20.37522
G1 X99.401 Y135.194 E20.409
G1 X99.4 Y85.181 E22.90416
G1 X99.409 Y84.516 E22.93734
G1 X99.456 Y84.012 E22.96259
G1 X99.582 Y83.523 E22.98778
G1 X99.783 Y83.059 E23.01301
G1 X100.054 Y82.632 E23.03824
G1 F1800 E16.03824
G1 F300 Z0.5
;MESH:station.lamp.1X42v-Separator.stl
G0 F3000 X116.8 Y134.85 Z0.5
;TYPE:WALL-INNER
G1 F300 Z0.3
G1 F1800 E23.03824
G1 X103.2 Y134.85 E23.71675
G1 X103.2 Y85.15 E26.19629
G1 X116.8 Y85.15 E26.8748
G1 X116.8 Y134.85 E29.35434
G0 F3000 X117.2 Y135.25
;TYPE:WALL-OUTER
G1 F1800 X102.8 Y135.25 E30.07276
G1 X102.8 Y84.75 E32.59221
G1 X117.2 Y84.75 E33.31063
G1 X117.2 Y135.25 E35.83009
G0 F3000 X117 Y135.25
G0 X116.76 Y134.81
G0 X116.41 Y134.46
;TYPE:SKIN
G1 F1800 X103.59 Y134.46 E36.46968
G1 X103.59 Y85.54 E38.91031
G1 X116.41 Y85.54 E39.5499
G1 X116.41 Y134.46 E41.99053
G0 F3000 X116.69 Y134.46
G0 X104.297 Y134.74
G0 X104.297 Y134.278
G1 F1800 X103.769 Y133.75 E42.02778
G0 F3000 X103.769 Y133.184
G1 F1800 X104.863 Y134.278 E42.10497
G0 F3000 X105.428 Y134.278
G1 F1800 X103.769 Y132.619 E42.22202
G0 F3000 X103.769 Y132.053
G1 F1800 X105.994 Y134.278 E42.37901
G0 F3000 X106.56 Y134.278
G1 F1800 X103.769 Y131.487 E42.57593
G0 F3000 X103.769 Y130.922
G1 F1800 X107.125 Y134.278 E42.81271
G0 F3000 X107.691 Y134.278
G1 F1800 X103.769 Y130.356 E43.08943
G0 F3000 X103.769 Y129.79
G1 F1800 X108.257 Y134.278 E43.40608
G0 F3000 X108.823 Y134.278
G1 F1800 X103.769 Y129.225 E43.76264
G0 F3000 X103.769 Y128.659
G1 F1800 X109.388 Y134.278 E44.15909
G0 F3000 X109.954 Y134.278
G1 F1800 X103.769 Y128.093 E44.59547
G0 F3000 X103.769 Y127.528
G1 F1800 X110.52 Y134.278 E45.07176
G0 F3000 X111.085 Y134.278
G1 F1800 X103.769 Y126.962 E45.58794
G0 F3000 X103.769 Y126.396
G1 F1800 X111.651 Y134.278 E46.14406
G0 F3000 X112.217 Y134.278
G1 F1800 X103.769 Y125.831 E46.74007
G0 F3000 X103.769 Y125.265
G1 F1800 X112.782 Y134.278 E47.37599
G0 F3000 X113.348 Y134.278
G1 F1800 X103.769 Y124.699 E48.05184
G0 F3000 X103.769 Y124.134
G1 F1800 X113.914 Y134.278 E48.76759
G0 F3000 X114.479 Y134.278
G1 F1800 X103.769 Y123.568 E49.52324
G0 F3000 X103.769 Y123.002
G1 F1800 X115.045 Y134.278 E50.31882
G0 F3000 X115.611 Y134.278
G1 F1800 X103.769 Y122.436 E51.15434
G0 F3000 X103.769 Y121.871
G1 F1800 X116.176 Y134.278 E52.02972
G0 F3000 X116.229 Y133.766
G1 F1800 X103.769 Y121.305 E52.90887
G0 F3000 X103.769 Y120.739
G1 F1800 X116.229 Y133.2 E53.78803
G0 F3000 X116.229 Y132.634
G1 F1800 X103.769 Y120.174 E54.66715
G0 F3000 X103.769 Y119.608
G1 F1800 X116.229 Y132.069 E55.54631
G0 F3000 X116.229 Y131.503
G1 F1800 X103.769 Y119.042 E56.42546
G0 F3000 X103.769 Y118.477
G1 F1800 X116.229 Y130.937 E57.30458
G0 F3000 X116.229 Y130.372
G1 F1800 X103.769 Y117.911 E58.18374
G0 F3000 X103.769 Y117.345
G1 F1800 X116.229 Y129.806 E59.06289
G0 F3000 X116.229 Y129.24
G1 F1800 X103.769 Y116.78 E59.94201
G0 F3000 X103.769 Y116.214
G1 F1800 X116.229 Y128.675 E60.82117
G0 F3000 X116.229 Y128.109
G1 F1800 X103.769 Y115.648 E61.70032
G0 F3000 X103.769 Y115.083
G1 F1800 X116.229 Y127.543 E62.57944
G0 F3000 X116.229 Y126.977
G1 F1800 X103.769 Y114.517 E63.45856
G0 F3000 X103.769 Y113.951
G1 F1800 X116.229 Y126.412 E64.33772
G0 F3000 X116.229 Y125.846
G1 F1800 X103.769 Y113.385 E65.21688
G0 F3000 X103.769 Y112.82
G1 F1800 X116.229 Y125.28 E66.096
G0 F3000 X116.229 Y124.715
G1 F1800 X103.769 Y112.254 E66.97515
G0 F3000 X103.769 Y111.688
G1 F1800 X116.229 Y124.149 E67.85431
G0 F3000 X116.229 Y123.583
G1 F1800 X103.769 Y111.123 E68.73343
G0 F3000 X103.769 Y110.557
G1 F1800 X116.229 Y123.018 E69.61258
G0 F3000 X116.229 Y122.452
G1 F1800 X103.769 Y109.991 E70.49174
G0 F3000 X103.769 Y109.426
G1 F1800 X116.229 Y121.886 E71.37086
G0 F3000 X116.229 Y121.321
G1 F1800 X103.769 Y108.86 E72.25001
G0 F3000 X103.769 Y108.294
G1 F1800 X116.229 Y120.755 E73.12917
G0 F3000 X116.229 Y120.189
G1 F1800 X103.769 Y107.729 E74.00829
G0 F3000 X103.769 Y107.163
G1 F1800 X116.229 Y119.624 E74.88745
G0 F3000 X116.229 Y119.058
G1 F1800 X103.769 Y106.597 E75.7666
G0 F3000 X103.769 Y106.032
G1 F1800 X116.229 Y118.492 E76.64572
G0 F3000 X116.229 Y117.927
G1 F1800 X103.769 Y105.466 E77.52488
G0 F3000 X103.769 Y104.9
G1 F1800 X116.229 Y117.361 E78.40403
G0 F3000 X116.229 Y116.795
G1 F1800 X103.769 Y104.335 E79.28315
G0 F3000 X103.769 Y103.769
G1 F1800 X116.229 Y116.229 E80.16227
G0 F3000 X116.229 Y115.664
G1 F1800 X103.769 Y103.203 E81.04143
G0 F3000 X103.769 Y102.637
G1 F1800 X116.229 Y115.098 E81.92058
G0 F3000 X116.229 Y114.532
G1 F1800 X103.769 Y102.072 E82.7997
G0 F3000 X103.769 Y101.506
G1 F1800 X116.229 Y113.967 E83.67886
G0 F3000 X116.229 Y113.401
G1 F1800 X103.769 Y100.94 E84.55802
G0 F3000 X103.769 Y100.375
G1 F1800 X116.229 Y112.835 E85.43714
G0 F3000 X116.229 Y112.27
G1 F1800 X103.769 Y99.809 E86.31629
G0 F3000 X103.769 Y99.243
G1 F1800 X116.229 Y111.704 E87.19545
G0 F3000 X116.229 Y111.138
G1 F1800 X103.769 Y98.678 E88.07457
G0 F3000 X103.769 Y98.112
G1 F1800 X116.229 Y110.573 E88.95372
G0 F3000 X116.229 Y110.007
G1 F1800 X103.769 Y97.546 E89.83288
G0 F3000 X103.769 Y96.981
G1 F1800 X116.229 Y109.441 E90.712
G0 F3000 X116.229 Y108.876
G1 F1800 X103.769 Y96.415 E91.59115
G0 F3000 X103.769 Y95.849
G1 F1800 X116.229 Y108.31 E92.47031
G0 F3000 X116.229 Y107.744
G1 F1800 X103.769 Y95.284 E93.34943
G0 F3000 X103.769 Y94.718
G1 F1800 X116.229 Y107.179 E94.22859
G0 F3000 X116.229 Y106.613
G1 F1800 X103.769 Y94.152 E95.10774
G0 F3000 X103.769 Y93.586
G1 F1800 X116.229 Y106.047 E95.9869
G0 F3000 X116.229 Y105.481
G1 F1800 X103.769 Y93.021 E96.86602
G0 F3000 X103.769 Y92.455
G1 F1800 X116.229 Y104.916 E97.74517
G0 F3000 X116.229 Y104.35
G1 F1800 X103.769 Y91.889 E98.62433
G0 F3000 X103.769 Y91.324
G1 F1800 X116.229 Y103.784 E99.50345
G0 F3000 X116.229 Y103.219
G1 F1800 X103.769 Y90.758 E100.3826
G0 F3000 X103.769 Y90.192
G1 F1800 X116.229 Y102.653 E101.26176
G0 F3000 X116.229 Y102.087
G1 F1800 X103.769 Y89.627 E102.14088
G0 F3000 X103.769 Y89.061
G1 F1800 X116.229 Y101.522 E103.02004
G0 F3000 X116.229 Y100.956
G1 F1800 X103.769 Y88.495 E103.89919
G0 F3000 X103.769 Y87.93
G1 F1800 X116.229 Y100.39 E104.77831
G0 F3000 X116.229 Y99.825
G1 F1800 X103.769 Y87.364 E105.65747
G0 F3000 X103.769 Y86.798
G1 F1800 X116.229 Y99.259 E106.53662
G0 F3000 X116.229 Y98.693
G1 F1800 X103.769 Y86.233 E107.41574
G0 F3000 X103.822 Y85.72
G1 F1800 X116.229 Y98.128 E108.29116
G0 F3000 X116.229 Y97.562
G1 F1800 X104.388 Y85.72 E109.12664
G0 F3000 X104.953 Y85.72
G1 F1800 X116.229 Y96.996 E109.92222
G0 F3000 X116.229 Y96.43
G1 F1800 X105.519 Y85.72 E110.67787
G0 F3000 X106.085 Y85.72
G1 F1800 X116.229 Y95.865 E111.39362
G0 F3000 X116.229 Y95.299
G1 F1800 X106.65 Y85.72 E112.06947
G0 F3000 X107.216 Y85.72
G1 F1800 X116.229 Y94.733 E112.70539
G0 F3000 X116.229 Y94.168
G1 F1800 X107.782 Y85.72 E113.3014
G0 F3000 X108.347 Y85.72
G1 F1800 X116.229 Y93.602 E113.85752
G0 F3000 X116.229 Y93.036
G1 F1800 X108.913 Y85.72 E114.37371
G0 F3000 X109.479 Y85.72
G1 F1800 X116.229 Y92.471 E114.84999
G0 F3000 X116.229 Y91.905
G1 F1800 X110.044 Y85.72 E115.28637
G0 F3000 X110.61 Y85.72
G1 F1800 X116.229 Y91.339 E115.68283
G0 F3000 X116.229 Y90.774
G1 F1800 X111.176 Y85.72 E116.03938
G0 F3000 X111.741 Y85.72
G1 F1800 X116.229 Y90.208 E116.35603
G0 F3000 X116.229 Y89.642
G1 F1800 X112.307 Y85.72 E116.63275
G0 F3000 X112.873 Y85.72
G1 F1800 X116.229 Y89.077 E116.86957
G0 F3000 X116.229 Y88.511
G1 F1800 X113.439 Y85.72 E117.06645
G0 F3000 X114.004 Y85.72
G1 F1800 X116.229 Y87.945 E117.22344
G0 F3000 X116.229 Y87.38
G1 F1800 X114.57 Y85.72 E117.34052
G0 F3000 X115.136 Y85.72
G1 F1800 X116.229 Y86.814 E117.41768
G0 F3000 X116.229 Y86.248
G1 F1800 X115.701 Y85.72 E117.45493
M104 S200
G0 F3000 X115.701 Y85.35
G1 F1800 E110.45493
;MESH:NONMESH
G0 F300 X115.701 Y85.35 Z0.6
G0 F3000 X115.701 Y85.26
G0 X116.618 Y85.332
G0 X116.8 Y134.85
;TIME_ELAPSED:99.106744
;LAYER:1
M106 S255
;TYPE:WALL-INNER
;MESH:station.lamp.1X42v-Separator.stl
G1 F1800 E117.45493
G1 F2700 X103.2 Y134.85 E118.13344
G1 X103.2 Y85.15 E120.61298
G1 X116.8 Y85.15 E121.29149
G1 X116.8 Y134.85 E123.77103
G0 F4500 X117.2 Y135.25
;TYPE:WALL-OUTER
G1 F1800 X102.8 Y135.25 E124.48945
G1 X102.8 Y84.75 E127.0089
G1 X117.2 Y84.75 E127.72732
G1 X117.2 Y135.25 E130.24678
G0 F4500 X117 Y135.25
G0 X116.76 Y134.81
G0 X116.41 Y134.46
;TYPE:SKIN
G1 F1800 X103.59 Y134.46 E130.88637
G1 X103.59 Y85.54 E133.327
G1 X116.41 Y85.54 E133.96659
G1 X116.41 Y134.46 E136.40722
G0 F4500 X115.753 Y134.279
G1 F1800 X116.229 Y133.803 E136.4408
G0 F4500 X116.229 Y133.238
G1 F1800 X115.187 Y134.279 E136.51429
G0 F4500 X114.622 Y134.279
G1 F1800 X116.229 Y132.672 E136.62767
G0 F4500 X116.229 Y132.106
G1 F1800 X114.056 Y134.279 E136.78099
G0 F4500 X113.49 Y134.279
G1 F1800 X116.229 Y131.54 E136.97424
G0 F4500 X116.229 Y130.975
G1 F1800 X112.924 Y134.279 E137.20739
G0 F4500 X112.359 Y134.279
G1 F1800 X116.229 Y130.409 E137.48044
G0 F4500 X116.229 Y129.843
G1 F1800 X111.793 Y134.279 E137.79342
G0 F4500 X111.227 Y134.279
G1 F1800 X116.229 Y129.278 E138.14631
G0 F4500 X116.229 Y128.712
G1 F1800 X110.662 Y134.279 E138.53909
G0 F4500 X110.096 Y134.279
G1 F1800 X116.229 Y128.146 E138.9718
G0 F4500 X116.229 Y127.581
G1 F1800 X109.53 Y134.279 E139.44442
G0 F4500 X108.965 Y134.279
G1 F1800 X116.229 Y127.015 E139.95693
G0 F4500 X116.229 Y126.449
G1 F1800 X108.399 Y134.279 E140.50938
G0 F4500 X107.833 Y134.279
G1 F1800 X116.229 Y125.884 E141.10173
G0 F4500 X116.229 Y125.318
G1 F1800 X107.268 Y134.279 E141.73398
G0 F4500 X106.702 Y134.279
G1 F1800 X116.229 Y124.752 E142.40616
G0 F4500 X116.229 Y124.187
G1 F1800 X106.136 Y134.279 E143.11824
G0 F4500 X105.571 Y134.279
G1 F1800 X116.229 Y123.621 E143.87022
G0 F4500 X116.229 Y123.055
G1 F1800 X105.005 Y134.279 E144.66213
G0 F4500 X104.439 Y134.279
G1 F1800 X116.229 Y122.489 E145.49398
G0 F4500 X116.229 Y121.924
G1 F1800 X103.873 Y134.279 E146.36573
G0 F4500 X103.77 Y133.817
G1 F1800 X116.229 Y121.358 E147.24478
G0 F4500 X116.229 Y120.792
G1 F1800 X103.77 Y133.252 E148.12386
G0 F4500 X103.77 Y132.686
G1 F1800 X116.229 Y120.227 E149.00291
G0 F4500 X116.229 Y119.661
G1 F1800 X103.77 Y132.12 E149.88196
G0 F4500 X103.77 Y131.555
G1 F1800 X116.229 Y119.095 E150.76105
G0 F4500 X116.229 Y118.53
G1 F1800 X103.77 Y130.989 E151.6401
G0 F4500 X103.77 Y130.423
