;FLAVOR:Marlin
;TIME:34326
;Filament used: 20.6278m
;Layer height: 0.2
;MINX:14.619
;MINY:69.45
;MINZ:0.2
;MAXX:206.66
;MAXY:151.224
;MAXZ:26.2
;Generated with Cura_SteamEngine master
M82 ;absolute extrusion mode
;Sliced at: Sun 11-08-2024 16:35:04
;Basic settings: Layer height: 0.2 Walls: 0.8 Fill: 20
G21 ;metric values
G90 ;absolute positioning
M82 ;set extruder to absolute mode
M107 ;start with the fan off
M117 Start heating ...
M104 S200
M117 Homing X/Y ...
G28 X0 Y0 ;move X/Y to min endstops
M117 Homing Z ...
G28 Z0 ;move Z to min endstops
G1 Z15.0 F100 ;move the platform down 15mm
M117 Heating ...
M109 S200
M117 Start cleaning ...
G92 E0 ;zero the extruded length
G1 F200 E10 ;extrude 10mm of feed stock
G92 E0 ;zero the extruded length again
M117 Intro line ...
G1 Z2.0 F3000 ; Move Z Axis up little to prevent scratching of Heat Bed
G1 X0.1 Y20 Z0.2 F5000.0 ; Move to start position
G1 X0.1 Y200.0 Z0.2 F1500.0 E15 ; Draw the first line
G1 X0.4 Y200.0 Z0.2 F5000.0 ; Move to side a little
G1 X0.4 Y20 Z0.3 F1500.0 E30 ; Draw the second line
G92 E0 ; Reset Extruder
G1 E-1 F500 ; Retract filiment by 1 mm
G1 Z2.0 F3000 ; Move Z Axis up little to prevent scratching of Heat Bed
G1 X5 Y20 Z0.3 F100 ; Move over to prevent blob squish
G1 F100
G92 E0 ; Reset Extruder
M117 Printing...

G92 E0
G92 E0
G1 F1800 E-7
;LAYER_COUNT:130
;LAYER:0
M107
G1 F300 Z0.4
G0 F3000 X17.506 Y69.619 Z0.4
;TYPE:SKIRT
G1 F300 Z0.2
G1 F1800 E0
G1 F1200 X18.059 Y69.5 E0.01881
G1 X18.837 Y69.452 E0.04474
G1 X18.949 Y69.45 E0.04847
G1 X199.731 Y69.45 E6.0613
G1 X200.429 Y69.46 E6.08452
G1 X200.993 Y69.508 E6.10334
G1 X201.543 Y69.635 E6.12212
G1 X202.071 Y69.839 E6.14094
G1 X202.565 Y70.114 E6.15975
G1 X203.014 Y70.457 E6.17854
G1 X203.411 Y70.859 E6.19733
G1 X203.748 Y71.314 E6.21617
G1 X204.016 Y71.811 E6.23495
G1 X204.212 Y72.341 E6.25374
G1 X204.357 Y73.116 E6.27996
G1 X204.454 Y74.238 E6.31742
G1 X204.496 Y74.816 E6.3367
G1 X204.767 Y77.514 E6.42688
G1 X205.204 Y80.814 E6.5376
G1 X205.328 Y81.641 E6.56541
G1 X205.497 Y83.017 E6.61152
G1 X205.521 Y83.138 E6.61563
G1 X205.793 Y85.285 E6.68761
G1 X205.982 Y86.597 E6.7317
G1 X206.03 Y87.376 E6.75765
G1 X206.032 Y87.488 E6.76138
G1 X206.032 Y88.715 E6.80219
G1 X206.072 Y91.515 E6.89533
G1 X206.185 Y94.18 E6.98405
G1 X206.295 Y95.607 E7.03165
G1 X206.296 Y95.763 E7.03684
G1 X206.47 Y98.321 E7.12211
G1 X206.623 Y100.202 E7.18488
G1 X206.66 Y100.972 E7.21052
G1 X206.644 Y101.883 E7.24083
G1 X206.598 Y103.421 E7.292
G1 X206.58 Y104.683 E7.33398
G1 X206.513 Y105.353 E7.35638
G1 X206.456 Y105.662 E7.36683
G1 X205.997 Y107.948 E7.44438
G1 X205.535 Y110.649 E7.53552
G1 X205.154 Y113.33 E7.62559
G1 X204.853 Y115.988 E7.71456
G1 X204.621 Y118.718 E7.80568
G1 X204.467 Y121.433 E7.89613
G1 X204.381 Y125.524 E8.03223
G1 X204.381 Y143.869 E8.64238
G1 X204.371 Y144.596 E8.66657
G1 X204.323 Y145.159 E8.68536
G1 X204.196 Y145.71 E8.70417
G1 X203.993 Y146.238 E8.72298
G1 X203.718 Y146.732 E8.74179
G1 X203.376 Y147.182 E8.76059
G1 X202.973 Y147.579 E8.7794
G1 X202.519 Y147.915 E8.79819
G1 X202.022 Y148.184 E8.81698
G1 X201.492 Y148.381 E8.83579
G1 X200.939 Y148.5 E8.8546
G1 X200.163 Y148.548 E8.88046
G1 X200.051 Y148.55 E8.88419
G1 X128.142 Y148.55 E11.27589
G1 X125.342 Y148.59 E11.36903
G1 X122.672 Y148.703 E11.45791
G1 X119.965 Y148.895 E11.54817
G1 X117.244 Y149.165 E11.63912
G1 X114.558 Y149.508 E11.72918
G1 X111.867 Y149.931 E11.81978
G1 X109.203 Y150.426 E11.90991
G1 X106.486 Y151.011 E12.00234
G1 X106.028 Y151.115 E12.01796
G1 X105.232 Y151.214 E12.04464
G1 X104.748 Y151.224 E12.06075
G1 X102.374 Y151.224 E12.1397
G1 X101.676 Y151.214 E12.16292
G1 X101.451 Y151.204 E12.17041
G1 X100.05 Y151.105 E12.21713
G1 X99.893 Y151.092 E12.22237
G1 X97.185 Y150.938 E12.31258
G1 X93.091 Y150.852 E12.44878
G1 X91.215 Y150.852 E12.51117
G1 X90.502 Y150.841 E12.53489
G1 X89.944 Y150.793 E12.55352
G1 X89.085 Y150.658 E12.58244
G1 X86.354 Y150.268 E12.67419
G1 X83.675 Y149.963 E12.76387
G1 X81.006 Y149.735 E12.85297
G1 X78.231 Y149.577 E12.94542
G1 X75.561 Y149.5 E13.03426
G1 X72.819 Y149.5 E13.12546
G1 X70.145 Y149.575 E13.21443
G1 X67.404 Y149.729 E13.30574
G1 X64.7 Y149.957 E13.39599
G1 X60.693 Y150.44 E13.53023
G1 X59.533 Y150.603 E13.56919
G1 X59.06 Y150.641 E13.58497
G1 X57.843 Y150.666 E13.62546
G1 X56.641 Y150.666 E13.66544
G1 X54.779 Y150.64 E13.72738
G1 X52.052 Y150.64 E13.81808
G1 X49.373 Y150.717 E13.90722
G1 X46.042 Y150.916 E14.0182
G1 X45.16 Y150.988 E14.04764
G1 X43.776 Y151.107 E14.09384
G1 X43.223 Y151.129 E14.11225
G1 X43.111 Y151.131 E14.11597
G1 X41.451 Y151.131 E14.17118
G1 X40.75 Y151.121 E14.1945
G1 X39.971 Y151.033 E14.22058
G1 X38.814 Y150.785 E14.25993
G1 X38.556 Y150.725 E14.26874
G1 X35.883 Y150.185 E14.35944
G1 X33.237 Y149.727 E14.44876
G1 X30.554 Y149.341 E14.53891
G1 X27.833 Y149.028 E14.63001
G1 X25.134 Y148.794 E14.72012
G1 X22.423 Y148.636 E14.81044
G1 X19.555 Y148.554 E14.90587
G1 X18.567 Y148.539 E14.93873
G1 X18.004 Y148.49 E14.95753
G1 X17.453 Y148.363 E14.97633
G1 X16.926 Y148.159 E14.99513
G1 X16.433 Y147.883 E15.01392
G1 X15.983 Y147.54 E15.03274
G1 X15.587 Y147.137 E15.05153
G1 X15.251 Y146.682 E15.07035
G1 X14.982 Y146.185 E15.08914
G1 X14.787 Y145.654 E15.10796
G1 X14.668 Y145.102 E15.12674
G1 X14.62 Y144.317 E15.1529
G1 X14.619 Y74.07 E17.48932
G1 X14.628 Y73.405 E17.51144
G1 X14.676 Y72.842 E17.53023
G1 X14.802 Y72.291 E17.54903
G1 X15.005 Y71.763 E17.56785
G1 X15.281 Y71.269 E17.58667
G1 X15.623 Y70.819 E17.60547
G1 X16.025 Y70.422 E17.62426
G1 X16.479 Y70.085 E17.64307
G1 X16.976 Y69.816 E17.66186
G1 X17.506 Y69.619 E17.68067
G0 F3000 X17.859 Y69.942
G1 F1200 X18.527 Y69.86 E17.70305
G1 X18.949 Y69.85 E17.71709
G1 X199.726 Y69.85 E23.72976
G1 X200.424 Y69.86 E23.75298
G1 X200.958 Y69.908 E23.77081
G1 X201.479 Y70.034 E23.78864
G1 X201.976 Y70.237 E23.80649
G1 X202.437 Y70.511 E23.82433
G1 X202.852 Y70.85 E23.84215
G1 X203.212 Y71.248 E23.86
G1 X203.509 Y71.694 E23.87783
G1 X203.737 Y72.18 E23.89568
G1 X203.889 Y72.694 E23.91351
G1 X203.959 Y73.15 E23.92885
G1 X204.055 Y74.267 E23.96614
G1 X204.097 Y74.849 E23.98555
G1 X204.368 Y77.541 E24.07554
G1 X204.816 Y80.926 E24.1891
G1 X204.945 Y81.797 E24.21839
G1 X205.105 Y83.108 E24.26232
G1 X205.124 Y83.188 E24.26505
G1 X205.396 Y85.335 E24.33703
G1 X205.586 Y86.654 E24.38136
G1 X205.631 Y87.387 E24.40578
G1 X205.632 Y88.721 E24.45015
G1 X205.671 Y91.502 E24.54266
G1 X205.787 Y94.228 E24.6334
G1 X205.896 Y95.638 E24.68044
G1 X205.897 Y95.782 E24.68523
G1 X206.075 Y98.402 E24.77257
G1 X206.224 Y100.229 E24.83354
G1 X206.26 Y100.965 E24.85805
G1 X206.244 Y101.871 E24.88819
G1 X206.198 Y103.415 E24.93956
G1 X206.18 Y104.677 E24.98154
G1 X206.12 Y105.28 E25.0017
G1 X206.064 Y105.583 E25.01195
G1 X205.598 Y107.907 E25.09078
G1 X205.144 Y110.561 E25.18034
G1 X204.76 Y113.26 E25.27101
G1 X204.451 Y115.98 E25.36206
G1 X204.221 Y118.696 E25.45272
G1 X204.068 Y121.402 E25.54286
G1 X203.981 Y125.516 E25.67973
G1 X203.981 Y143.864 E26.28998
G1 X203.971 Y144.591 E26.31416
G1 X203.923 Y145.125 E26.332
G1 X203.797 Y145.646 E26.34983
G1 X203.595 Y146.143 E26.36767
G1 X203.321 Y146.604 E26.38551
G1 X202.982 Y147.019 E26.40333
G1 X202.585 Y147.38 E26.42118
G1 X202.139 Y147.677 E26.439
G1 X201.653 Y147.905 E26.45685
G1 X201.139 Y148.058 E26.47469
G1 X200.472 Y148.14 E26.49704
G1 X200.051 Y148.15 E26.51105
G1 X128.136 Y148.15 E28.90295
G1 X125.355 Y148.189 E28.99546
G1 X122.627 Y148.305 E29.08627
G1 X119.898 Y148.499 E29.17727
G1 X117.221 Y148.764 E29.26674
G1 X114.482 Y149.114 E29.35858
G1 X111.804 Y149.535 E29.44874
G1 X109.117 Y150.035 E29.53965
G1 X106.444 Y150.61 E29.63059
G1 X105.939 Y150.725 E29.64781
G1 X105.223 Y150.814 E29.67181
G1 X104.748 Y150.824 E29.68761
G1 X102.379 Y150.824 E29.76641
G1 X101.681 Y150.814 E29.78962
G1 X101.479 Y150.805 E29.79635
G1 X100.084 Y150.706 E29.84286
G1 X99.916 Y150.692 E29.84847
G1 X97.216 Y150.539 E29.93842
G1 X93.099 Y150.452 E30.07538
G1 X91.221 Y150.452 E30.13784
G1 X90.508 Y150.441 E30.16156
G1 X90.006 Y150.397 E30.17832
G1 X89.176 Y150.267 E30.20626
G1 X86.424 Y149.874 E30.29872
G1 X83.718 Y149.566 E30.38931
G1 X80.992 Y149.333 E30.4803
G1 X78.3 Y149.179 E30.56999
G1 X75.538 Y149.1 E30.66189
G1 X72.843 Y149.1 E30.75152
G1 X70.076 Y149.177 E30.84359
G1 X67.383 Y149.329 E30.9333
G1 X64.675 Y149.558 E31.02369
G1 X60.639 Y150.043 E31.1589
G1 X59.477 Y150.207 E31.19793
G1 X59.051 Y150.241 E31.21214
G1 X57.843 Y150.266 E31.25233
G1 X56.647 Y150.266 E31.29211
G1 X54.785 Y150.24 E31.35404
G1 X52.075 Y150.24 E31.44418
G1 X49.338 Y150.318 E31.53525
G1 X45.984 Y150.519 E31.647
G1 X45.144 Y150.588 E31.67504
G1 X43.741 Y150.709 E31.72187
G1 X43.212 Y150.73 E31.73948
G1 X41.457 Y150.731 E31.79785
G1 X40.756 Y150.721 E31.82117
G1 X40.054 Y150.641 E31.84467
G1 X38.905 Y150.395 E31.88375
G1 X38.66 Y150.338 E31.89212
G1 X35.952 Y149.791 E31.98401
G1 X33.296 Y149.332 E32.07366
G1 X30.586 Y148.941 E32.16472
G1 X27.916 Y148.634 E32.25411
G1 X25.155 Y148.395 E32.34629
G1 X22.458 Y148.238 E32.43614
G1 X19.531 Y148.154 E32.53354
G1 X18.573 Y148.139 E32.5654
G1 X18.039 Y148.091 E32.58323
G1 X17.518 Y147.964 E32.60107
G1 X17.022 Y147.761 E32.6189
G1 X16.561 Y147.486 E32.63675
G1 X16.146 Y147.147 E32.65457
G1 X15.786 Y146.749 E32.67242
G1 X15.489 Y146.302 E32.69027
G1 X15.262 Y145.817 E32.70808
G1 X15.11 Y145.302 E32.72594
G1 X15.029 Y144.637 E32.74822
G1 X15.019 Y144.208 E32.7625
G1 X15.019 Y74.075 E35.09513
G1 X15.028 Y73.41 E35.11725
G1 X15.076 Y72.876 E35.13508
G1 X15.202 Y72.355 E35.15291
G1 X15.404 Y71.858 E35.17075
G1 X15.677 Y71.397 E35.18857
G1 X16.016 Y70.981 E35.20642
G1 X16.413 Y70.621 E35.22425
G1 X16.86 Y70.323 E35.24211
G1 X17.345 Y70.095 E35.25994
G1 X17.859 Y69.942 E35.27778
G0 F3000 X17.707 Y70.394
G1 F1200 X18.201 Y70.288 E35.29458
G1 X18.859 Y70.251 E35.3165
G1 X199.72 Y70.25 E41.33196
G1 X200.418 Y70.26 E41.35518
G1 X200.921 Y70.307 E41.37198
G1 X201.411 Y70.433 E41.38881
G1 X201.875 Y70.635 E41.40564
G1 X202.301 Y70.907 E41.42245
G1 X202.679 Y71.242 E41.43925
G1 X202.999 Y71.633 E41.45606
G1 X203.254 Y72.07 E41.47288
G1 X203.437 Y72.541 E41.48969
G1 X203.56 Y73.185 E41.5115
G1 X203.656 Y74.295 E41.54855
G1 X203.699 Y74.884 E41.5682
G1 X203.972 Y77.604 E41.65912
G1 X204.413 Y80.932 E41.77078
G1 X204.537 Y81.759 E41.79859
G1 X204.701 Y83.103 E41.84362
G1 X204.728 Y83.238 E41.8482
G1 X205.004 Y85.414 E41.92116
G1 X205.19 Y86.71 E41.9647
G1 X205.231 Y87.399 E41.98766
G1 X205.232 Y88.727 E42.03183
G1 X205.272 Y91.524 E42.12487
G1 X205.387 Y94.247 E42.21551
G1 X205.497 Y95.669 E42.26295
G1 X205.497 Y95.798 E42.26724
G1 X205.676 Y98.43 E42.35499
G1 X205.825 Y100.256 E42.41592
G1 X205.861 Y100.958 E42.4393
G1 X205.845 Y101.859 E42.46927
G1 X205.797 Y103.46 E42.52255
G1 X205.78 Y104.672 E42.56286
G1 X205.727 Y105.207 E42.58074
G1 X205.671 Y105.504 E42.59079
G1 X205.212 Y107.792 E42.66841
G1 X204.747 Y110.509 E42.76009
G1 X204.365 Y113.196 E42.85036
G1 X204.054 Y115.937 E42.94211
G1 X203.822 Y118.675 E43.0335
G1 X203.668 Y121.399 E43.12425
G1 X203.581 Y125.487 E43.26025
G1 X203.581 Y143.858 E43.87127
G1 X203.571 Y144.585 E43.89545
G1 X203.524 Y145.088 E43.91225
G1 X203.398 Y145.578 E43.92908
G1 X203.197 Y146.042 E43.9459
G1 X202.925 Y146.468 E43.96271
G1 X202.59 Y146.847 E43.97953
G1 X202.199 Y147.167 E43.99634
G1 X201.763 Y147.422 E44.01314
G1 X201.292 Y147.606 E44.02996
G1 X200.797 Y147.712 E44.04679
G1 X200.141 Y147.749 E44.06865
G1 X128.13 Y147.75 E46.46374
G1 X125.333 Y147.79 E46.55678
G1 X122.616 Y147.905 E46.64723
G1 X119.87 Y148.1 E46.73879
G1 X117.164 Y148.368 E46.82923
G1 X114.441 Y148.716 E46.92054
G1 X111.74 Y149.141 E47.01148
G1 X109.032 Y149.644 E47.10309
G1 X106.356 Y150.22 E47.19413
G1 X105.851 Y150.335 E47.21136
G1 X105.213 Y150.414 E47.23274
G1 X104.748 Y150.424 E47.24821
G1 X102.385 Y150.424 E47.3268
G1 X101.687 Y150.414 E47.35002
G1 X101.507 Y150.406 E47.35601
G1 X100.118 Y150.307 E47.40233
G1 X99.971 Y150.294 E47.40724
G1 X97.219 Y150.139 E47.49891
G1 X93.108 Y150.052 E47.63568
G1 X91.228 Y150.052 E47.69821
G1 X90.515 Y150.041 E47.72192
G1 X90.068 Y150.002 E47.73685
G1 X89.232 Y149.871 E47.76499
G1 X86.454 Y149.474 E47.85833
G1 X83.761 Y149.168 E47.94847
G1 X81.048 Y148.935 E48.03904
G1 X78.3 Y148.779 E48.13059
G1 X75.549 Y148.7 E48.22212
G1 X72.832 Y148.7 E48.31249
G1 X70.079 Y148.777 E48.40409
G1 X67.361 Y148.93 E48.49464
G1 X64.622 Y149.161 E48.58606
G1 X60.591 Y149.646 E48.7211
G1 X59.422 Y149.811 E48.76036
G1 X59.043 Y149.841 E48.77301
G1 X57.843 Y149.866 E48.81293
G1 X56.652 Y149.866 E48.85254
G1 X54.79 Y149.84 E48.91448
G1 X52.064 Y149.84 E49.00515
G1 X49.302 Y149.919 E49.09705
G1 X45.976 Y150.118 E49.20787
G1 X45.11 Y150.189 E49.23677
G1 X43.707 Y150.31 E49.28361
G1 X43.201 Y150.33 E49.30045
G1 X41.462 Y150.331 E49.35829
G1 X40.761 Y150.321 E49.38161
G1 X40.138 Y150.25 E49.40246
G1 X38.996 Y150.006 E49.4413
G1 X38.733 Y149.945 E49.45028
G1 X36.028 Y149.398 E49.54207
G1 X33.35 Y148.935 E49.63246
G1 X30.652 Y148.547 E49.72312
G1 X27.925 Y148.233 E49.81442
G1 X25.215 Y147.999 E49.90489
G1 X22.458 Y147.837 E49.99675
G1 X19.549 Y147.754 E50.09354
G1 X18.579 Y147.739 E50.12581
G1 X18.076 Y147.691 E50.14261
G1 X17.587 Y147.565 E50.15941
G1 X17.123 Y147.363 E50.17624
G1 X16.697 Y147.091 E50.19305
G1 X16.319 Y146.755 E50.20987
G1 X15.999 Y146.363 E50.2267
G1 X15.745 Y145.927 E50.24349
G1 X15.562 Y145.455 E50.26032
G1 X15.456 Y144.961 E50.27713
G1 X15.42 Y144.295 E50.29931
G1 X15.419 Y74.081 E52.63464
G1 X15.428 Y73.416 E52.65676
G1 X15.475 Y72.912 E52.67359
G1 X15.601 Y72.423 E52.69039
G1 X15.802 Y71.959 E52.70721
G1 X16.073 Y71.532 E52.72403
G1 X16.408 Y71.154 E52.74083
G1 X16.799 Y70.833 E52.75765
G1 X17.236 Y70.578 E52.77448
G1 X17.707 Y70.394 E52.7913
G1 F1800 E45.7913
G1 F300 Z0.4
G0 F3000 X39.63 Y145.55 Z0.4
;TYPE:SUPPORT
G1 F300 Z0.2
G1 F1800 E52.7913
G1 F1200 X59.135 Y145.55 E53.44004
G1 X58.75 Y146.466 E53.47309
G1 X56.066 Y146.466 E53.56236
G1 X55.889 Y146.373 E53.56901
G1 X49.031 Y146.373 E53.79711
G1 X48.939 Y146.466 E53.80146
G1 X46.47 Y146.466 E53.88358
G1 X46.08 Y146.403 E53.89672
G1 X43.644 Y146.381 E53.97774
G1 X43.242 Y146.781 E53.9966
G1 X43.242 Y146.931 E54.00159
G1 X40.883 Y146.931 E54.08005
G1 X39.63 Y145.678 E54.13899
G1 X39.63 Y145.55 E54.14325
G0 F3000 X40.005 Y145.71
G1 F1200 X40.005 Y145.827 E54.14714
G0 F3000 X40.861 Y146.685
G1 F1200 X43.11 Y146.685 E54.22194
G0 F3000 X42.672 Y146.771
G1 F1200 X42.672 Y145.71 E54.25723
G1 F1800 E47.25723
G1 F300 Z0.4
G0 F3000 X45.339 Y145.71 Z0.4
G1 F300 Z0.2
G1 F1800 E54.25723
G1 F1200 X45.339 Y146.236 E54.27472
G1 F1800 E47.27472
G1 F300 Z0.4
G0 F3000 X48.006 Y146.306 Z0.4
G1 F300 Z0.2
G1 F1800 E54.27472
G1 F1200 X48.006 Y145.71 E54.29455
G1 F1800 E47.29455
G1 F300 Z0.4
G0 F3000 X50.673 Y145.71 Z0.4
G1 F300 Z0.2
G1 F1800 E54.29455
G1 F1200 X50.673 Y146.213 E54.31128
G1 F1800 E47.31128
G1 F300 Z0.4
G0 F3000 X53.34 Y146.213 Z0.4
G1 F300 Z0.2
G1 F1800 E54.31128
G1 F1200 X53.34 Y145.71 E54.32801
G1 F1800 E47.32801
G1 F300 Z0.4
G0 F3000 X56.007 Y145.71 Z0.4
G1 F300 Z0.2
G1 F1800 E54.32801
G1 F1200 X56.007 Y146.254 E54.3461
G1 F1800 E47.3461
G1 F300 Z0.4
G0 F3000 X58.674 Y146.237 Z0.4
G1 F300 Z0.2
G1 F1800 E54.3461
G1 F1200 X58.674 Y145.71 E54.36363
G1 F1800 E47.36363
G1 F300 Z0.4
G0 F3000 X90.244 Y145.55 Z0.4
G1 F300 Z0.2
G1 F1800 E54.36363
G1 F1200 X105.636 Y145.55 E54.87557
G1 X105.019 Y147.024 E54.92872
G1 X101.807 Y147.024 E55.03555
G1 X101.316 Y146.532 E55.05867
G1 X100.875 Y146.35 E55.07453
G1 X98.983 Y146.35 E55.13746
G1 X98.487 Y146.652 E55.15678
G1 X90.704 Y146.652 E55.41564
G1 X90.244 Y145.55 E55.45536
G0 F3000 X90.678 Y145.71
G1 F1200 X90.678 Y146.172 E55.47072
G1 F1800 E48.47072
G1 F300 Z0.4
G0 F3000 X93.345 Y146.492 Z0.4
G1 F300 Z0.2
G1 F1800 E55.47072
G1 F1200 X93.345 Y145.71 E55.49673
G1 F1800 E48.49673
G1 F300 Z0.4
G0 F3000 X96.012 Y145.71 Z0.4
G1 F300 Z0.2
G1 F1800 E55.49673
G1 F1200 X96.012 Y146.492 E55.52274
G1 F1800 E48.52274
G1 F300 Z0.4
G0 F3000 X98.679 Y146.348 Z0.4
G1 F300 Z0.2
G1 F1800 E55.52274
G1 F1200 X98.679 Y145.71 E55.54396
G1 F1800 E48.54396
G1 F300 Z0.4
G0 F3000 X101.346 Y145.71 Z0.4
