;FLAVOR:Marlin
;TIME:6829
;Filament used: 6.26773m
;Layer height: 0.2
;MINX:92.208
;MINY:79.982
;MINZ:0.2
;MAXX:131.794
;MAXY:143.155
;MAXZ:38
;Generated with Cura_SteamEngine 4.2.1
M140 S60
M105
M190 S60
M104 S200
M105
M109 S200
M82 ;absolute extrusion mode
G21 ;metric values
G90 ;absolute positioning
M82 ;set extruder to absolute mode
M107 ;start with the fan off
G28 X0 Y0 ;move X/Y to min endstops
G28 Z0 ;move Z to min endstops
G1 Z15.0 F100 ;move the platform down 15mm
G92 E0 ;zero the extruded length
G1 F200 E3 ;extrude 3mm of feed stock
G92 E0 ;zero the extruded length again
G1 F100
M117 Printing...
G5
M141 S28
G92 E0
G92 E0
G1 F2400 E-6
;LAYER_COUNT:190
;LAYER:0
M106 S255
M204 S3000
M205 X10 Y10
G0 F3000 X93.15 Y80.927 Z0.2
M204 S1800
M205 X8 Y8
;TYPE:SUPPORT
G1 F2400 E0
G1 F1500 X93.788 Y80.927 E0.02971
G1 X98.839 Y83.515 E0.29398
G1 X98.5 Y84.811 E0.35636
G1 X98.643 Y85.339 E0.38183
G1 X99.583 Y86.28 E0.44376
G1 X99.589 Y88.962 E0.56865
G1 X95.59 Y94.901 E0.90204
G1 X95.59 Y110.532 E1.62989
G1 X95.659 Y110.901 E1.64737
G1 X96.551 Y114.815 E1.83429
G1 X96.716 Y115.217 E1.85453
G1 X96.12 Y115.813 E1.89377
G1 X96.12 Y124.458 E2.29632
G1 X93.15 Y111.304 E2.92424
G1 X93.15 Y80.927 E4.33872
M204 S3000
M205 X10 Y10
G0 F3000 X93.369 Y81.619
M204 S1800
M205 X8 Y8
G1 F1500 X98.354 Y84.497 E4.60675
M204 S3000
M205 X10 Y10
G0 F3000 X96.761 Y82.698
M204 S1800
M205 X8 Y8
G1 F1500 X93.369 Y84.657 E4.78915
M204 S3000
M205 X10 Y10
G0 F3000 X96 Y82.309
M204 S1800
M205 X8 Y8
G1 F1500 X96 Y93.9 E5.32887
M204 S3000
M205 X10 Y10
G0 F3000 X96.738 Y92.802
M204 S1800
M205 X8 Y8
G1 F1500 X93.369 Y90.857 E5.51002
M204 S3000
M205 X10 Y10
G0 F3000 X93.369 Y93.894
M204 S1800
M205 X8 Y8
G1 F1500 X97.676 Y91.408 E5.74158
M204 S3000
M205 X10 Y10
G0 F3000 X93.368 Y100.094
M204 S1800
M205 X8 Y8
G1 F1500 X95.37 Y101.25 E5.84922
M204 S3000
M205 X10 Y10
G0 F3000 X95.369 Y101.977
M204 S1800
M205 X8 Y8
G1 F1500 X93.369 Y103.132 E5.95677
M204 S3000
M205 X10 Y10
G0 F3000 X93.368 Y109.332
M204 S1800
M205 X8 Y8
G1 F1500 X95.37 Y110.487 E6.06439
M204 S3000
M205 X10 Y10
G0 F3000 X95.489 Y111.146
M204 S1800
M205 X8 Y8
G1 F1500 X93.587 Y112.244 E6.16665
M204 S3000
M205 X10 Y10
G0 F3000 X96 Y113.385
M204 S1800
M205 X8 Y8
G1 F1500 X96 Y115.622 E6.27082
M204 S3000
M205 X10 Y10
G0 F3000 X95.262 Y119.662
M204 S1800
M205 X8 Y8
G1 F1500 X95.9 Y120.031 E6.30514
M204 S3000
M205 X10 Y10
G0 F3000 X95.898 Y120.147
M204 S1800
M205 X8 Y8
G1 F1500 X95.431 Y120.416 E6.33023
M204 S3000
M205 X10 Y10
G1 F2400 E0.33023
G0 F3000 X96.439 Y115.945
G0 X127.285 Y115.218
M204 S1800
M205 X8 Y8
G1 F2400 E6.33023
G1 F1500 X127.468 Y114.774 E6.35259
G1 X128.41 Y110.638 E6.55011
G1 X128.41 Y94.902 E7.28285
G1 X124.413 Y88.899 E7.61867
G1 X124.418 Y86.229 E7.74299
G1 X125.259 Y85.39 E7.79831
G1 X125.408 Y84.867 E7.82363
G1 X125.086 Y83.492 E7.88939
G1 X130.214 Y80.938 E8.15615
G1 X130.843 Y80.939 E8.18543
G1 X130.849 Y111.299 E9.59912
G1 X127.88 Y124.454 E10.22708
G1 X127.88 Y115.813 E10.62944
G1 X127.285 Y115.218 E10.66863
M204 S3000
M205 X10 Y10
G0 F3000 X128 Y115.621
M204 S1800
M205 X8 Y8
G1 F1500 X128 Y113.426 E10.77083
M204 S3000
M205 X10 Y10
G0 F3000 X128.517 Y111.149
M204 S1800
M205 X8 Y8
G1 F1500 X130.41 Y112.242 E10.87262
M204 S3000
M205 X10 Y10
G0 F3000 X128.629 Y110.487
M204 S1800
M205 X8 Y8
G1 F1500 X130.627 Y109.334 E10.98003
M204 S3000
M205 X10 Y10
G0 F3000 X130.627 Y103.13
M204 S1800
M205 X8 Y8
G1 F1500 X128.629 Y101.977 E11.08745
M204 S3000
M205 X10 Y10
G0 F3000 X128.63 Y101.249
M204 S1800
M205 X8 Y8
G1 F1500 X130.625 Y100.097 E11.19472
M204 S3000
M205 X10 Y10
G0 F3000 X130.625 Y93.891
M204 S1800
M205 X8 Y8
G1 F1500 X126.362 Y91.43 E11.42393
M204 S3000
M205 X10 Y10
G0 F3000 X127.271 Y92.796
M204 S1800
M205 X8 Y8
G1 F1500 X130.623 Y90.861 E11.60415
M204 S3000
M205 X10 Y10
G0 F3000 X128 Y93.888
M204 S1800
M205 X8 Y8
G1 F1500 X128 Y82.286 E12.14439
M204 S3000
M205 X10 Y10
G0 F3000 X127.207 Y82.68
M204 S1800
M205 X8 Y8
G1 F1500 X130.623 Y84.653 E12.32807
M204 S3000
M205 X10 Y10
G0 F3000 X130.622 Y81.624
M204 S1800
M205 X8 Y8
G1 F1500 X125.559 Y84.547 E12.6003
M204 S3000
M205 X10 Y10
G0 F3000 X128.734 Y119.664
M204 S1800
M205 X8 Y8
G1 F1500 X128.099 Y120.031 E12.63445
M204 S3000
M205 X10 Y10
G0 F3000 X128.099 Y120.146
M204 S1800
M205 X8 Y8
G1 F1500 X128.566 Y120.416 E12.65957
M204 S3000
M205 X10 Y10
G1 F2400 E6.65957
G0 F3000 X127.561 Y115.945
G0 X117.84 Y115.394
G0 X116.97 Y120.735
M204 S1800
M205 X8 Y8
G1 F2400 E12.65957
G1 F1500 X107.93 Y120.735 E13.08051
G1 X107.93 Y116.335 E13.28539
G1 X116.97 Y116.335 E13.70633
G1 X116.97 Y120.735 E13.91121
M204 S3000
M205 X10 Y10
G0 F3000 X116.748 Y117.347
M204 S1800
M205 X8 Y8
G1 F1500 X111.26 Y120.515 E14.20628
M204 S3000
M205 X10 Y10
G0 F3000 X112 Y120.515
M204 S1800
M205 X8 Y8
G1 F1500 X112 Y116.555 E14.39067
M204 S3000
M205 X10 Y10
G0 F3000 X112.736 Y120.514
M204 S1800
M205 X8 Y8
G1 F1500 X108.149 Y117.865 E14.63732
M204 S3000
M205 X10 Y10
G1 F2400 E8.63732
G0 F3000 X107.611 Y115.945
G0 X96.99 Y115.394
G0 X96.439 Y130.165
G0 X97.38 Y131.035
M204 S1800
M205 X8 Y8
G1 F2400 E14.63732
G1 F1500 X126.62 Y131.035 E15.99886
G1 X126.62 Y140.653 E16.44671
G1 X97.38 Y140.653 E17.80825
G1 X97.38 Y131.035 E18.2561
M204 S3000
M205 X10 Y10
G0 F3000 X99.339 Y131.254
M204 S1800
M205 X8 Y8
G1 F1500 X115.235 Y140.432 E19.1108
M204 S3000
M205 X10 Y10
G0 F3000 X112 Y140.433
M204 S1800
M205 X8 Y8
G1 F1500 X112 Y131.255 E19.53817
M204 S3000
M205 X10 Y10
G0 F3000 X108.66 Y131.254
M204 S1800
M205 X8 Y8
G1 F1500 X97.6 Y137.64 E20.13285
M204 S3000
M205 X10 Y10
G0 F3000 X97.599 Y139.487
M204 S1800
M205 X8 Y8
G1 F1500 X99.235 Y140.431 E20.2208
M204 S3000
M205 X10 Y10
G0 F3000 X104 Y140.433
M204 S1800
M205 X8 Y8
G1 F1500 X104 Y131.255 E20.64817
M204 S3000
M205 X10 Y10
G0 F3000 X108.762 Y140.432
M204 S1800
M205 X8 Y8
G1 F1500 X124.66 Y131.254 E21.50295
M204 S3000
M205 X10 Y10
G0 F3000 X120 Y131.255
M204 S1800
M205 X8 Y8
G1 F1500 X120 Y140.433 E21.93032
M204 S3000
M205 X10 Y10
G0 F3000 X124.763 Y140.432
M204 S1800
M205 X8 Y8
G1 F1500 X126.399 Y139.488 E22.01827
M204 S3000
M205 X10 Y10
G0 F3000 X126.4 Y137.64
M204 S1800
M205 X8 Y8
G1 F1500 X115.34 Y131.254 E22.61295
M204 S3000
M205 X10 Y10
G1 F2400 E16.61295
;MESH:hanger.station-main.frame.stl
G0 F3000 X115.34 Y129.195
G0 X119.35 Y128.655
M204 S1800
M205 X8 Y8
;TYPE:WALL-INNER
G1 F2400 E22.61295
G1 F1500 X119.35 Y117.455 E23.13447
G1 X125.5 Y117.455 E23.42084
G1 X125.5 Y128.655 E23.94236
G1 X119.35 Y128.655 E24.22873
M204 S3000
M205 X10 Y10
G0 F3000 X98.5 Y128.655
M204 S1800
M205 X8 Y8
G1 F1500 X98.5 Y117.455 E24.75025
G1 X105.55 Y117.455 E25.07853
G1 X105.55 Y128.655 E25.60005
G1 X98.5 Y128.655 E25.92832
M204 S3000
M205 X10 Y10
G0 F3000 X106.04 Y128.325
G0 X106.11 Y128.255
M204 S1800
M205 X8 Y8
G1 F1500 X118.79 Y128.255 E26.51876
G1 X118.79 Y116.895 E27.04773
G1 X126.06 Y116.895 E27.38625
G1 X126.06 Y129.215 E27.95992
G1 X97.94 Y129.215 E29.2693
G1 X97.94 Y116.895 E29.84297
G1 X106.11 Y116.895 E30.2234
G1 X106.11 Y128.255 E30.75237
M204 S3000
M205 X10 Y10
G0 F3000 X106.67 Y127.695
M204 S1800
M205 X8 Y8
;TYPE:WALL-OUTER
G1 F1500 X118.23 Y127.695 E31.29065
G1 X118.23 Y116.335 E31.81962
G1 X126.62 Y116.335 E32.2103
G1 X126.62 Y129.775 E32.83612
G1 X97.38 Y129.775 E34.19766
G1 X97.38 Y116.335 E34.82348
G1 X106.67 Y116.335 E35.25606
G1 X106.67 Y127.695 E35.78503
M204 S3000
M205 X10 Y10
G0 F3000 X106.87 Y127.695
G0 X106.87 Y128.355
G0 X105 Y128.105
M204 S1800
M205 X8 Y8
;TYPE:SKIN
G1 F1500 X99.05 Y128.105 E36.06209
G1 X99.05 Y118.005 E36.53239
G1 X105 Y118.005 E36.80944
G1 X105 Y128.105 E37.27974
M204 S3000
M205 X10 Y10
G0 F3000 X100.125 Y127.844
M204 S1800
M205 X8 Y8
G1 F1500 X99.309 Y127.028 E37.33348
M204 S3000
M205 X10 Y10
G0 F3000 X99.309 Y126.236
M204 S1800
M205 X8 Y8
G1 F1500 X100.917 Y127.844 E37.43937
M204 S3000
M205 X10 Y10
G0 F3000 X101.709 Y127.844
M204 S1800
M205 X8 Y8
G1 F1500 X99.309 Y125.444 E37.59741
M204 S3000
M205 X10 Y10
G0 F3000 X99.309 Y124.652
M204 S1800
M205 X8 Y8
G1 F1500 X102.501 Y127.844 E37.80761
M204 S3000
M205 X10 Y10
G0 F3000 X103.293 Y127.844
M204 S1800
M205 X8 Y8
G1 F1500 X99.309 Y123.86 E38.06996
M204 S3000
M205 X10 Y10
G0 F3000 X99.309 Y123.068
M204 S1800
M205 X8 Y8
G1 F1500 X104.085 Y127.844 E38.38447
M204 S3000
M205 X10 Y10
G0 F3000 X104.74 Y127.707
M204 S1800
M205 X8 Y8
G1 F1500 X99.309 Y122.276 E38.74211
M204 S3000
M205 X10 Y10
G0 F3000 X99.309 Y121.484
M204 S1800
M205 X8 Y8
G1 F1500 X104.74 Y126.915 E39.09975
M204 S3000
M205 X10 Y10
G0 F3000 X104.74 Y126.123
M204 S1800
M205 X8 Y8
G1 F1500 X99.309 Y120.692 E39.45739
M204 S3000
M205 X10 Y10
G0 F3000 X99.309 Y119.9
M204 S1800
M205 X8 Y8
G1 F1500 X104.74 Y125.331 E39.81503
M204 S3000
M205 X10 Y10
G0 F3000 X104.74 Y124.539
M204 S1800
M205 X8 Y8
G1 F1500 X99.309 Y119.108 E40.17267
M204 S3000
M205 X10 Y10
G0 F3000 X99.309 Y118.316
M204 S1800
M205 X8 Y8
G1 F1500 X104.74 Y123.747 E40.53031
M204 S3000
M205 X10 Y10
G0 F3000 X104.74 Y122.955
M204 S1800
M205 X8 Y8
G1 F1500 X100.049 Y118.264 E40.83922
M204 S3000
M205 X10 Y10
G0 F3000 X100.841 Y118.264
M204 S1800
M205 X8 Y8
G1 F1500 X104.74 Y122.163 E41.09598
M204 S3000
M205 X10 Y10
G0 F3000 X104.74 Y121.371
M204 S1800
M205 X8 Y8
G1 F1500 X101.633 Y118.264 E41.30058
M204 S3000
M205 X10 Y10
G0 F3000 X102.425 Y118.264
M204 S1800
M205 X8 Y8
G1 F1500 X104.74 Y120.579 E41.45303
M204 S3000
M205 X10 Y10
G0 F3000 X104.74 Y119.787
M204 S1800
M205 X8 Y8
G1 F1500 X103.217 Y118.264 E41.55332
M204 S3000
M205 X10 Y10
G0 F3000 X104.009 Y118.264
M204 S1800
M205 X8 Y8
G1 F1500 X104.74 Y118.995 E41.60146
M204 S3000
M205 X10 Y10
G0 F3000 X106.082 Y128.283
G0 X118.818 Y128.283
G0 X119.9 Y118.005
M204 S1800
M205 X8 Y8
G1 F1500 X124.95 Y118.005 E41.83661
G1 X124.95 Y128.105 E42.3069
G1 X119.9 Y128.105 E42.54205
G1 X119.9 Y118.005 E43.01235
M204 S3000
M205 X10 Y10
G0 F3000 X124.69 Y118.354
M204 S1800
M205 X8 Y8
G1 F1500 X124.6 Y118.265 E43.01825
M204 S3000
M205 X10 Y10
G0 F3000 X123.808 Y118.265
M204 S1800
M205 X8 Y8
G1 F1500 X124.69 Y119.146 E43.07629
M204 S3000
M205 X10 Y10
G0 F3000 X124.69 Y119.938
M204 S1800
M205 X8 Y8
G1 F1500 X123.016 Y118.265 E43.1865
M204 S3000
M205 X10 Y10
G0 F3000 X122.224 Y118.265
M204 S1800
M205 X8 Y8
G1 F1500 X124.69 Y120.73 E43.34885
M204 S3000
M205 X10 Y10
G0 F3000 X124.69 Y121.522
M204 S1800
M205 X8 Y8
G1 F1500 X121.432 Y118.265 E43.56337
M204 S3000
M205 X10 Y10
G0 F3000 X120.64 Y118.265
M204 S1800
M205 X8 Y8
G1 F1500 X124.69 Y122.314 E43.83003
M204 S3000
M205 X10 Y10
G0 F3000 X124.69 Y123.106
M204 S1800
M205 X8 Y8
G1 F1500 X120.158 Y118.574 E44.12847
M204 S3000
M205 X10 Y10
G0 F3000 X120.158 Y119.366
M204 S1800
M205 X8 Y8
G1 F1500 X124.69 Y123.898 E44.42691
M204 S3000
M205 X10 Y10
G0 F3000 X124.69 Y124.69
M204 S1800
M205 X8 Y8
G1 F1500 X120.158 Y120.158 E44.72535
M204 S3000
M205 X10 Y10
G0 F3000 X120.158 Y120.95
M204 S1800
M205 X8 Y8
G1 F1500 X124.69 Y125.482 E45.02379
M204 S3000
M205 X10 Y10
G0 F3000 X124.69 Y126.274
M204 S1800
M205 X8 Y8
G1 F1500 X120.158 Y121.742 E45.32223
M204 S3000
M205 X10 Y10
G0 F3000 X120.158 Y122.534
M204 S1800
M205 X8 Y8
G1 F1500 X124.69 Y127.066 E45.62067
M204 S3000
M205 X10 Y10
G0 F3000 X124.676 Y127.844
M204 S1800
M205 X8 Y8
G1 F1500 X120.159 Y123.327 E45.91812
M204 S3000
M205 X10 Y10
G0 F3000 X120.159 Y124.119
M204 S1800
M205 X8 Y8
G1 F1500 X123.884 Y127.844 E46.16342
M204 S3000
M205 X10 Y10
G0 F3000 X123.092 Y127.844
M204 S1800
M205 X8 Y8
G1 F1500 X120.159 Y124.911 E46.35656
M204 S3000
M205 X10 Y10
G0 F3000 X120.159 Y125.703
M204 S1800
M205 X8 Y8
G1 F1500 X122.3 Y127.844 E46.49755
M204 S3000
M205 X10 Y10
G0 F3000 X121.508 Y127.844
M204 S1800
M205 X8 Y8
G1 F1500 X120.159 Y126.495 E46.58639
M204 S3000
M205 X10 Y10
G0 F3000 X120.159 Y127.286
M204 S1800
M205 X8 Y8
G1 F1500 X120.716 Y127.844 E46.6231
M204 S3000
M205 X10 Y10
G0 F3000 X119.089 Y128.706
G0 X119 Y128.617
M204 S1800
M205 X8 Y8
;TYPE:SKIN
G1 F1500 X118.834 Y128.734 E46.63013
G1 X106.106 Y128.734 E47.07068
G1 X105.919 Y128.829 E47.07794
M204 S3000
M205 X10 Y10
G0 F3000 X105.715 Y128.65
G1 F2400 E41.07794
;MESH:NONMESH
G0 F600 X105.715 Y128.65 Z0.4
G0 F3000 X97.954 Y116.909
G0 X97.954 Y115.39
G0 X93.07 Y80.847
;TIME_ELAPSED:55.721206
;LAYER:1
M140 S60
M204 S1800
M205 X8 Y8
;TYPE:SUPPORT
G1 F2400 E47.07794
G1 F1650 X93.807 Y80.847 E47.10245
G1 X98.933 Y83.473 E47.29401
G1 X98.583 Y84.811 E47.34001
G1 X98.715 Y85.298 E47.35679
G1 X99.663 Y86.246 E47.40138
G1 X99.669 Y88.981 E47.49235
G1 X99.667 Y88.989 E47.49262
G1 X95.67 Y94.925 E47.73064
G1 X95.67 Y110.523 E48.24943
G1 X95.735 Y110.875 E48.26134
G1 X96.628 Y114.791 E48.39493
G1 X96.797 Y115.202 E48.40971
G1 X96.2 Y115.799 E48.43779
G1 X96.2 Y125.176 E48.74967
G1 X93.07 Y111.313 E49.22236
G1 X93.07 Y80.847 E50.23567
M204 S3000
M205 X10 Y10
G0 F4500 X93.209 Y81.527
M204 S1800
M205 X8 Y8
G1 F1650 X98.498 Y84.581 E50.4388
M204 S3000
M205 X10 Y10
G0 F4500 X96.927 Y82.603
M204 S1800
M205 X8 Y8
G1 F1650 X93.209 Y84.749 E50.58158
M204 S3000
M205 X10 Y10
G0 F4500 X96 Y82.129
M204 S1800
M205 X8 Y8
G1 F1650 X96 Y94.185 E50.98257
M204 S3000
M205 X10 Y10
G0 F4500 X96.876 Y92.881
M204 S1800
M205 X8 Y8
G1 F1650 X93.209 Y90.764 E51.1234
M204 S3000
M205 X10 Y10
G0 F4500 X93.209 Y93.987
M204 S1800
M205 X8 Y8
G1 F1650 X97.99 Y91.226 E51.30702
M204 S3000
M205 X10 Y10
G0 F4500 X93.209 Y100.002
M204 S1800
M205 X8 Y8
G1 F1650 X95.529 Y101.342 E51.39613
M204 S3000
M205 X10 Y10
G0 F4500 X95.528 Y101.885
M204 S1800
M205 X8 Y8
G1 F1650 X93.209 Y103.224 E51.4852
M204 S3000
M205 X10 Y10
G0 F4500 X93.209 Y109.24
M204 S1800
M205 X8 Y8
G1 F1650 X95.539 Y110.585 E51.57468
M204 S3000
M205 X10 Y10
G0 F4500 X95.632 Y111.063
M204 S1800
M205 X8 Y8
G1 F1650 X93.442 Y112.327 E51.65878
M204 S3000
M205 X10 Y10
G0 F4500 X96 Y112.67
M204 S1800
M205 X8 Y8
G1 F1650 X96 Y123.444 E52.01713
M204 S3000
M205 X10 Y10
G0 F4500 X95.287 Y120.5
M204 S1800
M205 X8 Y8
G1 F1650 X96.058 Y120.054 E52.04675
M204 S3000
M205 X10 Y10
G0 F4500 X96.059 Y120.123
M204 S1800
M205 X8 Y8
G1 F1650 X95.073 Y119.553 E52.08463
M204 S3000
M205 X10 Y10
G1 F2400 E46.08463
G0 F4500 X96.439 Y115.898
G0 X127.204 Y115.203
M204 S1800
M205 X8 Y8
G1 F2400 E52.08463
G1 F1650 X127.391 Y114.749 E52.10096
G1 X128.33 Y110.63 E52.24147
G1 X128.33 Y94.927 E52.76376
G1 X124.333 Y88.923 E53.00366
G1 X124.338 Y86.196 E53.09436
G1 X125.188 Y85.348 E53.13429
G1 X125.326 Y84.865 E53.151
G1 X124.993 Y83.448 E53.19941
G1 X130.2 Y80.858 E53.39284
G1 X130.915 Y80.859 E53.41662
G1 X130.923 Y80.867 E53.417
G1 X130.929 Y111.308 E54.42947
G1 X127.8 Y125.172 E54.90218
G1 X127.8 Y115.799 E55.21393
G1 X127.204 Y115.203 E55.24197
M204 S3000
M205 X10 Y10
G0 F4500 X128 Y112.709
M204 S1800
M205 X8 Y8
G1 F1650 X128 Y123.438 E55.59881
M204 S3000
M205 X10 Y10
G0 F4500 X128.711 Y120.499
M204 S1800
M205 X8 Y8
G1 F1650 X127.939 Y120.054 E55.62845
M204 S3000
M205 X10 Y10
G0 F4500 X127.939 Y120.123
M204 S1800
M205 X8 Y8
G1 F1650 X128.923 Y119.555 E55.66624
M204 S3000
M205 X10 Y10
G0 F4500 X130.555 Y112.326
M204 S1800
M205 X8 Y8
G1 F1650 X128.373 Y111.066 E55.75004
M204 S3000
M205 X10 Y10
G0 F4500 X128.469 Y110.58
M204 S1800
M205 X8 Y8
G1 F1650 X130.788 Y109.241 E55.83911
M204 S3000
M205 X10 Y10
G0 F4500 X130.787 Y103.223
M204 S1800
M205 X8 Y8
G1 F1650 X128.469 Y101.884 E55.92814
M204 S3000
M205 X10 Y10
G0 F4500 X128.469 Y101.342
M204 S1800
M205 X8 Y8
