;FLAVOR:Marlin
;TIME:5240
;Filament used: 4.7523m
;Layer height: 0.2
;MINX:18.584
;MINY:103.539
;MINZ:0.2
;MAXX:205.416
;MAXY:120.461
;MAXZ:18.6
;Generated with Cura_SteamEngine 4.2.1
M140 S60
M105
M190 S60
M104 S200
M105
M109 S200
M82 ;absolute extrusion mode
G21 ;metric values
G90 ;absolute positioning
M82 ;set extruder to absolute mode
M107 ;start with the fan off
G28 X0 Y0 ;move X/Y to min endstops
G28 Z0 ;move Z to min endstops
G1 Z15.0 F100 ;move the platform down 15mm
G92 E0 ;zero the extruded length
G1 F200 E3 ;extrude 3mm of feed stock
G92 E0 ;zero the extruded length again
G1 F100
M117 Printing...
G5
M141 S28
G92 E0
G92 E0
G1 F2400 E-6
;LAYER_COUNT:93
;LAYER:0
M106 S255
M204 S3000
M205 X10 Y10
G0 F3000 X38.016 Y104.48 Z0.2
M204 S1800
M205 X8 Y8
;TYPE:SUPPORT
G1 F2400 E0
G1 F1500 X186 Y104.48 E6.89075
G1 X186 Y105.92 E6.95781
G1 X38.016 Y105.92 E13.84856
G1 X38.016 Y104.48 E13.91561
M204 S3000
M205 X10 Y10
G0 F3000 X38.235 Y105.213
M204 S1800
M205 X8 Y8
G1 F1500 X39.075 Y105.698 E13.96078
M204 S3000
M205 X10 Y10
G0 F3000 X40 Y105.7
M204 S1800
M205 X8 Y8
G1 F1500 X40 Y104.7 E14.00734
M204 S3000
M205 X10 Y10
G0 F3000 X40.923 Y105.699
M204 S1800
M205 X8 Y8
G1 F1500 X42.656 Y104.698 E14.10053
M204 S3000
M205 X10 Y10
G0 F3000 X48 Y104.7
M204 S1800
M205 X8 Y8
G1 F1500 X48 Y105.7 E14.1471
M204 S3000
M205 X10 Y10
G0 F3000 X53.345 Y104.699
M204 S1800
M205 X8 Y8
G1 F1500 X55.076 Y105.699 E14.24018
M204 S3000
M205 X10 Y10
G0 F3000 X56 Y105.7
M204 S1800
M205 X8 Y8
G1 F1500 X56 Y104.7 E14.28675
M204 S3000
M205 X10 Y10
G0 F3000 X56.923 Y105.699
M204 S1800
M205 X8 Y8
G1 F1500 X58.656 Y104.698 E14.37994
M204 S3000
M205 X10 Y10
G0 F3000 X64 Y104.7
M204 S1800
M205 X8 Y8
G1 F1500 X64 Y105.7 E14.4265
M204 S3000
M205 X10 Y10
G0 F3000 X69.344 Y104.699
M204 S1800
M205 X8 Y8
G1 F1500 X71.075 Y105.698 E14.51957
M204 S3000
M205 X10 Y10
G0 F3000 X72 Y105.7
M204 S1800
M205 X8 Y8
G1 F1500 X72 Y104.7 E14.56613
M204 S3000
M205 X10 Y10
G0 F3000 X72.923 Y105.699
M204 S1800
M205 X8 Y8
G1 F1500 X74.656 Y104.698 E14.65932
M204 S3000
M205 X10 Y10
G0 F3000 X80 Y104.7
M204 S1800
M205 X8 Y8
G1 F1500 X80 Y105.7 E14.70588
M204 S3000
M205 X10 Y10
G0 F3000 X85.345 Y104.699
M204 S1800
M205 X8 Y8
G1 F1500 X87.076 Y105.699 E14.79897
M204 S3000
M205 X10 Y10
G0 F3000 X88 Y105.7
M204 S1800
M205 X8 Y8
G1 F1500 X88 Y104.7 E14.84553
M204 S3000
M205 X10 Y10
G0 F3000 X88.923 Y105.699
M204 S1800
M205 X8 Y8
G1 F1500 X90.656 Y104.698 E14.93872
M204 S3000
M205 X10 Y10
G0 F3000 X96 Y104.7
M204 S1800
M205 X8 Y8
G1 F1500 X96 Y105.7 E14.98529
M204 S3000
M205 X10 Y10
G0 F3000 X101.344 Y104.699
M204 S1800
M205 X8 Y8
G1 F1500 X103.076 Y105.699 E15.07841
M204 S3000
M205 X10 Y10
G0 F3000 X104 Y105.7
M204 S1800
M205 X8 Y8
G1 F1500 X104 Y104.7 E15.12498
M204 S3000
M205 X10 Y10
G0 F3000 X104.923 Y105.699
M204 S1800
M205 X8 Y8
G1 F1500 X106.656 Y104.698 E15.21817
M204 S3000
M205 X10 Y10
G0 F3000 X112 Y104.7
M204 S1800
M205 X8 Y8
G1 F1500 X112 Y105.7 E15.26473
M204 S3000
M205 X10 Y10
G0 F3000 X117.345 Y104.699
M204 S1800
M205 X8 Y8
G1 F1500 X119.076 Y105.699 E15.35782
M204 S3000
M205 X10 Y10
G0 F3000 X120 Y105.7
M204 S1800
M205 X8 Y8
G1 F1500 X120 Y104.7 E15.40438
M204 S3000
M205 X10 Y10
G0 F3000 X120.923 Y105.699
M204 S1800
M205 X8 Y8
G1 F1500 X122.656 Y104.698 E15.49757
M204 S3000
M205 X10 Y10
G0 F3000 X128 Y104.7
M204 S1800
M205 X8 Y8
G1 F1500 X128 Y105.7 E15.54414
M204 S3000
M205 X10 Y10
G0 F3000 X133.345 Y104.7
M204 S1800
M205 X8 Y8
G1 F1500 X135.077 Y105.699 E15.63724
M204 S3000
M205 X10 Y10
G0 F3000 X136 Y105.7
M204 S1800
M205 X8 Y8
G1 F1500 X136 Y104.7 E15.6838
M204 S3000
M205 X10 Y10
G0 F3000 X136.922 Y105.699
M204 S1800
M205 X8 Y8
G1 F1500 X138.655 Y104.699 E15.77697
M204 S3000
M205 X10 Y10
G0 F3000 X144 Y104.7
M204 S1800
M205 X8 Y8
G1 F1500 X144 Y105.7 E15.82354
M204 S3000
M205 X10 Y10
G0 F3000 X149.345 Y104.699
M204 S1800
M205 X8 Y8
G1 F1500 X151.076 Y105.699 E15.91662
M204 S3000
M205 X10 Y10
G0 F3000 X152 Y105.7
M204 S1800
M205 X8 Y8
G1 F1500 X152 Y104.7 E15.96319
M204 S3000
M205 X10 Y10
G0 F3000 X152.923 Y105.699
M204 S1800
M205 X8 Y8
G1 F1500 X154.656 Y104.698 E16.05638
M204 S3000
M205 X10 Y10
G0 F3000 X160 Y104.7
M204 S1800
M205 X8 Y8
G1 F1500 X160 Y105.7 E16.10294
M204 S3000
M205 X10 Y10
G0 F3000 X165.346 Y104.7
M204 S1800
M205 X8 Y8
G1 F1500 X167.077 Y105.699 E16.196
M204 S3000
M205 X10 Y10
G0 F3000 X168 Y105.7
M204 S1800
M205 X8 Y8
G1 F1500 X168 Y104.7 E16.24257
M204 S3000
M205 X10 Y10
G0 F3000 X168.923 Y105.699
M204 S1800
M205 X8 Y8
G1 F1500 X170.656 Y104.698 E16.33576
M204 S3000
M205 X10 Y10
G0 F3000 X176 Y104.7
M204 S1800
M205 X8 Y8
G1 F1500 X176 Y105.7 E16.38232
M204 S3000
M205 X10 Y10
G0 F3000 X181.345 Y104.7
M204 S1800
M205 X8 Y8
G1 F1500 X183.076 Y105.699 E16.47538
M204 S3000
M205 X10 Y10
G0 F3000 X184 Y105.7
M204 S1800
M205 X8 Y8
G1 F1500 X184 Y104.7 E16.52195
M204 S3000
M205 X10 Y10
G0 F3000 X184.922 Y105.699
M204 S1800
M205 X8 Y8
G1 F1500 X185.779 Y105.205 E16.56801
M204 S3000
M205 X10 Y10
G0 F3000 X186 Y118.08
M204 S1800
M205 X8 Y8
G1 F1500 X186 Y119.52 E16.63506
G1 X38.016 Y119.52 E23.52582
G1 X38.016 Y118.08 E23.59287
G1 X186 Y118.08 E30.48362
M204 S3000
M205 X10 Y10
G0 F3000 X184 Y118.3
M204 S1800
M205 X8 Y8
G1 F1500 X184 Y119.3 E30.53019
M204 S3000
M205 X10 Y10
G0 F3000 X179.099 Y118.299
M204 S1800
M205 X8 Y8
G1 F1500 X177.367 Y119.299 E30.62331
M204 S3000
M205 X10 Y10
G0 F3000 X176 Y119.3
M204 S1800
M205 X8 Y8
G1 F1500 X176 Y118.3 E30.66988
M204 S3000
M205 X10 Y10
G0 F3000 X174.631 Y119.298
M204 S1800
M205 X8 Y8
G1 F1500 X172.9 Y118.299 E30.76294
M204 S3000
M205 X10 Y10
G0 F3000 X168 Y118.3
M204 S1800
M205 X8 Y8
G1 F1500 X168 Y119.3 E30.8095
M204 S3000
M205 X10 Y10
G0 F3000 X163.099 Y118.299
M204 S1800
M205 X8 Y8
G1 F1500 X161.366 Y119.299 E30.90267
M204 S3000
M205 X10 Y10
G0 F3000 X160 Y119.3
M204 S1800
M205 X8 Y8
G1 F1500 X160 Y118.3 E30.94924
M204 S3000
M205 X10 Y10
G0 F3000 X158.632 Y119.299
M204 S1800
M205 X8 Y8
G1 F1500 X156.9 Y118.299 E31.04236
M204 S3000
M205 X10 Y10
G0 F3000 X152 Y118.3
M204 S1800
M205 X8 Y8
G1 F1500 X152 Y119.3 E31.08893
M204 S3000
M205 X10 Y10
G0 F3000 X147.1 Y118.298
M204 S1800
M205 X8 Y8
G1 F1500 X145.367 Y119.299 E31.18212
M204 S3000
M205 X10 Y10
G0 F3000 X144 Y119.3
M204 S1800
M205 X8 Y8
G1 F1500 X144 Y118.3 E31.22868
M204 S3000
M205 X10 Y10
G0 F3000 X142.631 Y119.298
M204 S1800
M205 X8 Y8
G1 F1500 X140.9 Y118.299 E31.32174
M204 S3000
M205 X10 Y10
G0 F3000 X136 Y118.3
M204 S1800
M205 X8 Y8
G1 F1500 X136 Y119.3 E31.36831
M204 S3000
M205 X10 Y10
G0 F3000 X131.1 Y118.298
M204 S1800
M205 X8 Y8
G1 F1500 X129.367 Y119.299 E31.4615
M204 S3000
M205 X10 Y10
G0 F3000 X128 Y119.3
M204 S1800
M205 X8 Y8
G1 F1500 X128 Y118.3 E31.50806
M204 S3000
M205 X10 Y10
G0 F3000 X126.631 Y119.299
M204 S1800
M205 X8 Y8
G1 F1500 X124.9 Y118.299 E31.60115
M204 S3000
M205 X10 Y10
G0 F3000 X120 Y118.3
M204 S1800
M205 X8 Y8
G1 F1500 X120 Y119.3 E31.64771
M204 S3000
M205 X10 Y10
G0 F3000 X115.1 Y118.299
M204 S1800
M205 X8 Y8
G1 F1500 X113.367 Y119.299 E31.74088
M204 S3000
M205 X10 Y10
G0 F3000 X112 Y119.3
M204 S1800
M205 X8 Y8
G1 F1500 X112 Y118.3 E31.78744
M204 S3000
M205 X10 Y10
G0 F3000 X110.631 Y119.298
M204 S1800
M205 X8 Y8
G1 F1500 X108.9 Y118.299 E31.8805
M204 S3000
M205 X10 Y10
G0 F3000 X104 Y118.3
M204 S1800
M205 X8 Y8
G1 F1500 X104 Y119.3 E31.92707
M204 S3000
M205 X10 Y10
G0 F3000 X99.1 Y118.298
M204 S1800
M205 X8 Y8
G1 F1500 X97.367 Y119.299 E32.02026
M204 S3000
M205 X10 Y10
G0 F3000 X96 Y119.3
M204 S1800
M205 X8 Y8
G1 F1500 X96 Y118.3 E32.06682
M204 S3000
M205 X10 Y10
G0 F3000 X94.631 Y119.298
M204 S1800
M205 X8 Y8
G1 F1500 X92.9 Y118.299 E32.15989
M204 S3000
M205 X10 Y10
G0 F3000 X88 Y118.3
M204 S1800
M205 X8 Y8
G1 F1500 X88 Y119.3 E32.20645
M204 S3000
M205 X10 Y10
G0 F3000 X83.1 Y118.298
M204 S1800
M205 X8 Y8
G1 F1500 X81.367 Y119.299 E32.29964
M204 S3000
M205 X10 Y10
G0 F3000 X80 Y119.3
M204 S1800
M205 X8 Y8
G1 F1500 X80 Y118.3 E32.3462
M204 S3000
M205 X10 Y10
G0 F3000 X78.632 Y119.299
M204 S1800
M205 X8 Y8
G1 F1500 X76.9 Y118.299 E32.43933
M204 S3000
M205 X10 Y10
G0 F3000 X72 Y118.3
M204 S1800
M205 X8 Y8
G1 F1500 X72 Y119.3 E32.48589
M204 S3000
M205 X10 Y10
G0 F3000 X67.1 Y118.298
M204 S1800
M205 X8 Y8
G1 F1500 X65.367 Y119.299 E32.57908
M204 S3000
M205 X10 Y10
G0 F3000 X64 Y119.3
M204 S1800
M205 X8 Y8
G1 F1500 X64 Y118.3 E32.62565
M204 S3000
M205 X10 Y10
G0 F3000 X62.631 Y119.298
M204 S1800
M205 X8 Y8
G1 F1500 X60.9 Y118.299 E32.71871
M204 S3000
M205 X10 Y10
G0 F3000 X56 Y118.3
M204 S1800
M205 X8 Y8
G1 F1500 X56 Y119.3 E32.76528
M204 S3000
M205 X10 Y10
G0 F3000 X51.1 Y118.298
M204 S1800
M205 X8 Y8
G1 F1500 X49.367 Y119.299 E32.85847
M204 S3000
M205 X10 Y10
G0 F3000 X48 Y119.3
M204 S1800
M205 X8 Y8
G1 F1500 X48 Y118.3 E32.90503
M204 S3000
M205 X10 Y10
G0 F3000 X46.631 Y119.299
M204 S1800
M205 X8 Y8
G1 F1500 X44.9 Y118.299 E32.99812
M204 S3000
M205 X10 Y10
G0 F3000 X40 Y118.3
M204 S1800
M205 X8 Y8
G1 F1500 X40 Y119.3 E33.04468
M204 S3000
M205 X10 Y10
G1 F2400 E27.04468
;MESH:hanger.station-rail.stl
G0 F3000 X37.701 Y118.946
G0 X36.182 Y118.946
G0 X19.819 Y118.4
M204 S1800
M205 X8 Y8
;TYPE:WALL-INNER
G1 F2400 E33.04468
G1 F1500 X19.818 Y105.88 E33.62766
G1 X19.818 Y105.6 E33.6407
G1 X20.098 Y105.6 E33.64914
G1 X35.636 Y105.6 E34.37266
G1 X35.636 Y118.4 E34.96868
G1 X19.819 Y118.4 E35.70518
M204 S3000
M205 X10 Y10
G0 F3000 X19.259 Y118.96
M204 S1800
M205 X8 Y8
G1 F1500 X19.258 Y105.32 E36.34032
G1 X19.258 Y105.04 E36.35336
G1 X19.538 Y105.04 E36.3618
G1 X36.196 Y105.04 E37.13746
G1 X36.196 Y118.96 E37.78564
G1 X19.259 Y118.96 E38.57429
M204 S3000
M205 X10 Y10
G0 F3000 X18.699 Y119.52
M204 S1800
M205 X8 Y8
;TYPE:WALL-OUTER
G1 F1500 X18.698 Y104.76 E39.26158
G1 X18.698 Y104.48 E39.27462
G1 X18.978 Y104.48 E39.28306
G1 X36.756 Y104.48 E40.11088
G1 X36.756 Y119.52 E40.8112
G1 X18.699 Y119.52 E41.65201
M204 S3000
M205 X10 Y10
G0 F3000 X18.699 Y119.32
G0 X19.329 Y118.89
G0 X20.369 Y117.85
M204 S1800
M205 X8 Y8
;TYPE:SKIN
G1 F1500 X20.368 Y106.15 E42.19681
G1 X35.086 Y106.15 E42.88214
G1 X35.086 Y117.85 E43.42695
G1 X20.369 Y117.85 E44.11223
M204 S3000
M205 X10 Y10
G0 F3000 X20.969 Y117.589
M204 S1800
M205 X8 Y8
G1 F1500 X20.628 Y117.247 E44.13472
M204 S3000
M205 X10 Y10
G0 F3000 X20.628 Y116.455
M204 S1800
M205 X8 Y8
G1 F1500 X21.761 Y117.589 E44.20936
M204 S3000
M205 X10 Y10
G0 F3000 X22.553 Y117.589
M204 S1800
M205 X8 Y8
G1 F1500 X20.628 Y115.663 E44.33616
M204 S3000
M205 X10 Y10
G0 F3000 X20.628 Y114.871
M204 S1800
M205 X8 Y8
G1 F1500 X23.345 Y117.589 E44.51511
M204 S3000
M205 X10 Y10
G0 F3000 X24.137 Y117.589
M204 S1800
M205 X8 Y8
G1 F1500 X20.628 Y114.079 E44.74622
M204 S3000
M205 X10 Y10
G0 F3000 X20.628 Y113.287
M204 S1800
M205 X8 Y8
G1 F1500 X24.929 Y117.589 E45.02948
M204 S3000
M205 X10 Y10
G0 F3000 X25.721 Y117.589
M204 S1800
M205 X8 Y8
G1 F1500 X20.628 Y112.495 E45.3649
M204 S3000
M205 X10 Y10
G0 F3000 X20.627 Y111.703
M204 S1800
M205 X8 Y8
G1 F1500 X26.513 Y117.589 E45.7525
M204 S3000
M205 X10 Y10
G0 F3000 X27.305 Y117.589
M204 S1800
M205 X8 Y8
G1 F1500 X20.627 Y110.911 E46.19226
M204 S3000
M205 X10 Y10
G0 F3000 X20.627 Y110.119
M204 S1800
M205 X8 Y8
G1 F1500 X28.097 Y117.589 E46.68417
M204 S3000
M205 X10 Y10
G0 F3000 X28.889 Y117.589
M204 S1800
M205 X8 Y8
G1 F1500 X20.627 Y109.327 E47.22824
M204 S3000
M205 X10 Y10
G0 F3000 X20.627 Y108.535
M204 S1800
M205 X8 Y8
G1 F1500 X29.681 Y117.589 E47.82446
M204 S3000
M205 X10 Y10
G0 F3000 X30.473 Y117.589
M204 S1800
M205 X8 Y8
G1 F1500 X20.627 Y107.743 E48.47283
M204 S3000
M205 X10 Y10
G0 F3000 X20.627 Y106.951
M204 S1800
M205 X8 Y8
G1 F1500 X31.265 Y117.589 E49.17336
M204 S3000
M205 X10 Y10
G0 F3000 X32.057 Y117.589
M204 S1800
M205 X8 Y8
G1 F1500 X20.878 Y106.409 E49.90955
M204 S3000
M205 X10 Y10
G0 F3000 X21.669 Y106.409
M204 S1800
M205 X8 Y8
G1 F1500 X32.849 Y117.589 E50.64577
M204 S3000
M205 X10 Y10
G0 F3000 X33.641 Y117.589
M204 S1800
M205 X8 Y8
G1 F1500 X22.461 Y106.409 E51.382
M204 S3000
M205 X10 Y10
G0 F3000 X23.253 Y106.409
M204 S1800
M205 X8 Y8
G1 F1500 X34.433 Y117.589 E52.11822
M204 S3000
M205 X10 Y10
G0 F3000 X34.826 Y117.19
M204 S1800
M205 X8 Y8
G1 F1500 X24.045 Y106.409 E52.82817
M204 S3000
M205 X10 Y10
G0 F3000 X24.837 Y106.409
M204 S1800
M205 X8 Y8
G1 F1500 X34.826 Y116.398 E53.48596
M204 S3000
M205 X10 Y10
G0 F3000 X34.826 Y115.606
M204 S1800
M205 X8 Y8
G1 F1500 X25.629 Y106.409 E54.0916
M204 S3000
M205 X10 Y10
G0 F3000 X26.421 Y106.409
M204 S1800
M205 X8 Y8
G1 F1500 X34.826 Y114.814 E54.64508
M204 S3000
M205 X10 Y10
G0 F3000 X34.826 Y114.022
M204 S1800
M205 X8 Y8
G1 F1500 X27.213 Y106.409 E55.14641
M204 S3000
M205 X10 Y10
G0 F3000 X28.005 Y106.409
M204 S1800
M205 X8 Y8
G1 F1500 X34.826 Y113.23 E55.59558
M204 S3000
M205 X10 Y10
G0 F3000 X34.826 Y112.438
M204 S1800
M205 X8 Y8
G1 F1500 X28.797 Y106.409 E55.9926
M204 S3000
M205 X10 Y10
G0 F3000 X29.589 Y106.409
M204 S1800
M205 X8 Y8
G1 F1500 X34.826 Y111.646 E56.33747
M204 S3000
M205 X10 Y10
G0 F3000 X34.826 Y110.854
M204 S1800
M205 X8 Y8
G1 F1500 X30.381 Y106.409 E56.63018
M204 S3000
M205 X10 Y10
G0 F3000 X31.173 Y106.409
M204 S1800
M205 X8 Y8
G1 F1500 X34.826 Y110.062 E56.87074
M204 S3000
M205 X10 Y10
G0 F3000 X34.826 Y109.27
M204 S1800
M205 X8 Y8
G1 F1500 X31.965 Y106.409 E57.05914
M204 S3000
M205 X10 Y10
G0 F3000 X32.757 Y106.409
M204 S1800
M205 X8 Y8
G1 F1500 X34.826 Y108.478 E57.19539
M204 S3000
M205 X10 Y10
G0 F3000 X34.826 Y107.686
M204 S1800
M205 X8 Y8
G1 F1500 X33.549 Y106.409 E57.27948
M204 S3000
M205 X10 Y10
G0 F3000 X34.341 Y106.409
M204 S1800
M205 X8 Y8
G1 F1500 X34.826 Y106.894 E57.31142
M204 S3000
M205 X10 Y10
G1 F2400 E51.31142
G0 F3000 X36.176 Y118.4
G0 X37.701 Y118.4
G0 X186.315 Y118.4
G0 X187.84 Y118.4
G0 X203.902 Y118.4
M204 S1800
M205 X8 Y8
;TYPE:WALL-INNER
G1 F2400 E57.31142
G1 F1500 X188.38 Y118.4 E58.03419
G1 X188.38 Y105.6 E58.63021
G1 X204.181 Y105.6 E59.36597
G1 X204.182 Y118.12 E59.94895
G1 X204.182 Y118.4 E59.96199
G1 X203.902 Y118.4 E59.97043
M204 S3000
M205 X10 Y10
G0 F3000 X204.462 Y118.96
M204 S1800
M205 X8 Y8
G1 F1500 X187.82 Y118.96 E60.74535
G1 X187.82 Y105.04 E61.39352
G1 X204.741 Y105.04 E62.18144
G1 X204.742 Y118.68 E62.81657
G1 X204.742 Y118.96 E62.82961
G1 X204.462 Y118.96 E62.83805
M204 S3000
M205 X10 Y10
G0 F3000 X205.022 Y119.52
M204 S1800
M205 X8 Y8
;TYPE:WALL-OUTER
G1 F1500 X187.26 Y119.52 E63.66512
G1 X187.26 Y104.48 E64.36545
G1 X205.301 Y104.48 E65.20551
G1 X205.302 Y119.24 E65.8928
G1 X205.302 Y119.52 E65.90584
G1 X205.022 Y119.52 E65.91428
M204 S3000
M205 X10 Y10
G0 F3000 X204.822 Y119.52
G0 X204.672 Y118.89
G0 X203.632 Y117.85
M204 S1800
M205 X8 Y8
;TYPE:SKIN
G1 F1500 X188.93 Y117.85 E66.59886
G1 X188.93 Y106.15 E67.14367
G1 X203.631 Y106.15 E67.82821
G1 X203.632 Y117.85 E68.37301
M204 S3000
M205 X10 Y10
G0 F3000 X203.37 Y106.751
M204 S1800
M205 X8 Y8
G1 F1500 X203.029 Y106.41 E68.39546
M204 S3000
M205 X10 Y10
G0 F3000 X202.237 Y106.41
M204 S1800
M205 X8 Y8
G1 F1500 X203.37 Y107.543 E68.47007
M204 S3000
M205 X10 Y10
G0 F3000 X203.37 Y108.335
M204 S1800
M205 X8 Y8
G1 F1500 X201.445 Y106.41 E68.59684
M204 S3000
M205 X10 Y10
G0 F3000 X200.653 Y106.41
M204 S1800
M205 X8 Y8
G1 F1500 X203.37 Y109.127 E68.77576
M204 S3000
M205 X10 Y10
G0 F3000 X203.37 Y109.919
M204 S1800
M205 X8 Y8
G1 F1500 X199.861 Y106.41 E69.00683
