;FLAVOR:Marlin
;TIME:1746
;Filament used: 1.62594m
;Layer height: 0.2
;MINX:103.5
;MINY:103.7
;MINZ:0.2
;MAXX:120.5
;MAXY:120.3
;MAXZ:31.4
;Generated with Cura_SteamEngine 4.2.1
M140 S60
M105
M190 S60
M104 S200
M105
M109 S200
M82 ;absolute extrusion mode
G21 ;metric values
G90 ;absolute positioning
M82 ;set extruder to absolute mode
M107 ;start with the fan off
G28 X0 Y0 ;move X/Y to min endstops
G28 Z0 ;move Z to min endstops
G1 Z15.0 F100 ;move the platform down 15mm
G92 E0 ;zero the extruded length
G1 F200 E3 ;extrude 3mm of feed stock
G92 E0 ;zero the extruded length again
G1 F100
M117 Printing...
G5
M141 S28
G92 E0
G92 E0
G1 F2400 E-6
;LAYER_COUNT:157
;LAYER:0
M106 S255
M204 S3000
M205 X10 Y10
;MESH:hanger.station-temperature.sensore_dht22.frame.stl
G0 F3000 X118 Y107.8 Z0.2
M204 S1800
M205 X8 Y8
;TYPE:WALL-INNER
G1 F2400 E0
G1 F1500 X118 Y107.52 E0.01304
G1 X118 Y104.907 E0.13471
G1 X119.02 Y104.903 E0.18221
G1 X119.3 Y104.903 E0.19524
G1 X119.3 Y105.183 E0.20368
G1 X119.3 Y119.1 E0.85172
G1 X118.007 Y119.1 E0.91193
G1 X117.993 Y116.2 E1.04696
G1 X106.211 Y116.2 E1.59558
G1 X104.9 Y116.431 E1.65757
G1 X104.9 Y116.932 E1.6809
G1 X104.9 Y117.087 E1.68811
G1 X104.707 Y116.932 E1.69259
G1 X104.706 Y116.432 E1.70062
G1 X104.705 Y116.011 E1.71617
G1 X104.899 Y116.011 E1.71888
G1 X106.21 Y116.01 E1.75203
G1 X118 Y116 E1.94282
G1 X118 Y108.014 E2.31469
G1 X117.72 Y108.013 E2.32772
G1 X104.9 Y108.003 E2.92468
G1 X104.7 Y108.002 E2.93399
G1 X104.7 Y107.793 E2.94372
G1 X104.7 Y107.073 E2.97725
G1 X104.9 Y106.913 E2.98917
G1 X104.9 Y107.073 E2.98941
G1 X104.9 Y107.793 E3.00139
G1 X117.72 Y107.8 E3.41181
G1 X118 Y107.8 E3.42025
M204 S3000
M205 X10 Y10
G0 F3000 X117.44 Y107.24
M204 S1800
M205 X8 Y8
G1 F1500 X117.44 Y106.96 E3.43328
G1 X117.44 Y104.348 E3.55491
G1 X119.58 Y104.342 E3.65456
G1 X119.86 Y104.342 E3.6676
G1 X119.86 Y104.622 E3.67604
G1 X119.86 Y119.66 E4.37627
G1 X117.45 Y119.66 E4.48849
G1 X117.436 Y116.76 E4.62353
G1 X106.26 Y116.76 E5.14393
G1 X105.46 Y116.901 E5.18175
G1 X105.46 Y117.67 E5.21756
G1 X105.46 Y117.671 E5.21761
G1 X105.46 Y118.252 E5.24466
G1 X105.006 Y117.889 E5.25953
G1 X104.148 Y117.202 E5.31071
G1 X104.143 Y115.731 E5.37921
G1 X104.143 Y115.451 E5.39225
G1 X104.423 Y115.451 E5.40069
G1 X117.44 Y115.44 E6.00682
G1 X117.44 Y108.573 E6.32657
G1 X104.14 Y108.561 E6.94588
G1 X104.14 Y106.804 E7.02769
G1 X105.006 Y106.111 E7.07934
G1 X105.46 Y105.748 E7.1064
G1 X105.46 Y106.329 E7.12127
G1 X105.46 Y106.33 E7.12131
G1 X105.46 Y107.233 E7.16336
G1 X117.16 Y107.24 E7.70816
G1 X117.44 Y107.24 E7.7166
M204 S3000
M205 X10 Y10
G0 F3000 X116.88 Y106.68
M204 S1800
M205 X8 Y8
;TYPE:WALL-OUTER
G1 F1500 X116.88 Y106.4 E7.72964
G1 X116.88 Y103.789 E7.85122
G1 X120.14 Y103.781 E8.00302
G1 X120.42 Y103.781 E8.01606
G1 X120.42 Y104.061 E8.0245
G1 X120.42 Y120.22 E8.77693
G1 X116.893 Y120.22 E8.94116
G1 X116.879 Y117.32 E9.0762
G1 X106.309 Y117.32 E9.56838
G1 X106.02 Y117.371 E9.58205
G1 X106.02 Y118.864 E9.65157
G1 X106.02 Y119.32 E9.6728
G1 X105.899 Y119.32 E9.67843
G1 X105.543 Y119.036 E9.69214
G1 X103.589 Y117.472 E9.80868
G1 X103.581 Y115.171 E9.91583
G1 X103.581 Y114.891 E9.92887
G1 X103.861 Y114.891 E9.93731
G1 X116.88 Y114.88 E10.54352
G1 X116.88 Y109.132 E10.81118
G1 X103.58 Y109.12 E11.43048
G1 X103.58 Y106.535 E11.55085
G1 X105.543 Y104.964 E11.66792
G1 X105.899 Y104.68 E11.68913
G1 X106.02 Y104.68 E11.69476
G1 X106.02 Y105.136 E11.7085
G1 X106.02 Y106.673 E11.78007
G1 X116.6 Y106.68 E12.27272
G1 X116.88 Y106.68 E12.28116
M204 S3000
M205 X10 Y10
G0 F3000 X116.88 Y106.48
G0 X117.54 Y106.48
G0 X118.55 Y105.455
M204 S1800
M205 X8 Y8
;TYPE:SKIN
G1 F1500 X118.75 Y105.455 E12.29047
G1 X118.75 Y118.55 E12.90023
G1 X118.555 Y118.55 E12.90931
G1 X118.545 Y116.55 E13.00244
G1 X118.55 Y116.55 E13.00267
G1 X118.55 Y105.455 E13.5193
M204 S3000
M205 X10 Y10
;MESH:NONMESH
G0 F600 X118.55 Y105.455 Z0.4
G0 F3000 X117.6 Y116.6
;TIME_ELAPSED:17.855144
;LAYER:1
M140 S60
M204 S1800
M205 X8 Y8
;TYPE:WALL-INNER
;MESH:hanger.station-temperature.sensore_dht22.frame.stl
G1 F2250 X106.304 Y116.6 E13.89501
G1 X105.3 Y116.794 E13.92902
G1 X105.3 Y117.505 E13.95267
G1 X105.3 Y117.506 E13.9527
G1 X105.3 Y117.92 E13.96647
G1 X104.976 Y117.661 E13.97405
G1 X104.32 Y117.137 E14.00198
G1 X104.308 Y115.801 E14.04642
G1 X104.307 Y115.8 E14.04646
G1 X104.307 Y115.6 E14.05311
G1 X104.507 Y115.6 E14.05742
G1 X104.508 Y115.6 E14.05746
G1 X117.6 Y115.6 E14.4929
G1 X117.6 Y108.4 E14.73237
G1 X104.3 Y108.4 E15.17473
G1 X104.3 Y106.88 E15.22528
G1 X104.975 Y106.34 E15.25404
G1 X105.3 Y106.08 E15.26788
G1 X105.3 Y106.496 E15.27548
G1 X105.3 Y107.378 E15.30481
G1 X117.4 Y107.402 E15.70726
G1 X117.6 Y107.402 E15.71391
G1 X117.6 Y107.202 E15.71822
G1 X117.6 Y104.5 E15.80809
G1 X119.7 Y104.5 E15.87794
G1 X119.7 Y119.487 E16.37641
G1 X117.8 Y119.495 E16.4396
G1 X117.6 Y119.495 E16.44625
G1 X117.6 Y119.295 E16.45056
G1 X117.6 Y116.6 E16.5402
M204 S3000
M205 X10 Y10
G0 F4500 X117.2 Y117
M204 S1800
M205 X8 Y8
G1 F2250 X106.342 Y117 E16.90134
G1 X105.7 Y117.124 E16.92308
G1 X105.7 Y118.336 E16.96339
G1 X105.7 Y118.338 E16.96346
G1 X105.7 Y118.752 E16.97723
G1 X105.376 Y118.493 E16.98481
G1 X103.922 Y117.33 E17.04674
G1 X103.905 Y115.401 E17.1109
G1 X103.904 Y115.4 E17.11095
G1 X103.904 Y115.2 E17.1176
G1 X104.104 Y115.2 E17.12191
G1 X104.105 Y115.2 E17.12194
G1 X117.2 Y115.2 E17.55748
G1 X117.2 Y108.8 E17.77035
G1 X103.9 Y108.8 E18.21271
G1 X103.9 Y106.688 E18.28295
G1 X105.376 Y105.507 E18.34582
G1 X105.7 Y105.248 E18.35962
G1 X105.7 Y105.662 E18.36719
G1 X105.7 Y105.664 E18.36725
G1 X105.7 Y106.979 E18.41099
G1 X117 Y107.001 E18.78683
G1 X117.2 Y107.001 E18.79348
G1 X117.2 Y106.801 E18.79779
G1 X117.2 Y104.1 E18.88763
G1 X120.1 Y104.1 E18.98408
G1 X120.1 Y119.885 E19.50909
G1 X117.4 Y119.897 E19.59889
G1 X117.2 Y119.897 E19.60555
G1 X117.2 Y119.697 E19.60985
G1 X117.2 Y117 E19.69956
M204 S3000
M205 X10 Y10
G0 F4500 X116.8 Y117.4
M204 S1800
M205 X8 Y8
;TYPE:WALL-OUTER
G1 F2250 X106.38 Y117.4 E20.04613
G1 X106.1 Y117.454 E20.05561
G1 X106.1 Y119.224 E20.11448
G1 X106.1 Y119.4 E20.12034
G1 X105.87 Y119.4 E20.12798
G1 X105.733 Y119.291 E20.13269
G1 X103.524 Y117.523 E20.2268
G1 X103.502 Y115.001 E20.31068
G1 X103.501 Y115 E20.31073
G1 X103.501 Y114.8 E20.31738
G1 X103.701 Y114.8 E20.32169
G1 X103.702 Y114.8 E20.32172
G1 X116.8 Y114.8 E20.75736
G1 X116.8 Y109.2 E20.94362
G1 X103.5 Y109.2 E21.38598
G1 X103.5 Y106.496 E21.47591
G1 X105.733 Y104.709 E21.57104
G1 X105.87 Y104.6 E21.57686
G1 X106.1 Y104.6 E21.58451
G1 X106.1 Y104.776 E21.58925
G1 X106.1 Y106.58 E21.64925
G1 X116.6 Y106.6 E21.99848
G1 X116.8 Y106.6 E22.00513
G1 X116.8 Y106.4 E22.00944
G1 X116.8 Y103.7 E22.09924
G1 X120.5 Y103.7 E22.22231
G1 X120.5 Y120.283 E22.77386
G1 X117 Y120.299 E22.89027
G1 X116.8 Y120.299 E22.89692
G1 X116.8 Y120.099 E22.90123
G1 X116.8 Y117.4 E22.991
M204 S3000
M205 X10 Y10
G0 F4500 X116.6 Y117.4
G0 X116.6 Y116.9
G0 X117.99 Y116.21
M204 S1800
M205 X8 Y8
;TYPE:SKIN
G1 F1350 X106.267 Y116.21 E23.38091
G1 X104.91 Y116.472 E23.42688
G1 X104.91 Y117.109 E23.44806
G1 X104.708 Y116.948 E23.45665
G1 X104.701 Y115.99 E23.48852
G1 X117.99 Y115.99 E23.93051
G1 X117.99 Y108.01 E24.19593
G1 X104.69 Y108.01 E24.63829
G1 X104.69 Y107.067 E24.66965
G1 X104.91 Y106.891 E24.67902
G1 X104.91 Y107.768 E24.70819
G1 X117.99 Y107.792 E25.14323
G1 X117.99 Y104.89 E25.23976
G1 X119.31 Y104.89 E25.28366
G1 X119.31 Y119.099 E25.75625
G1 X117.99 Y119.104 E25.80016
G1 X117.99 Y116.21 E25.89641
M204 S3000
M205 X10 Y10
G0 F4500 X119.129 Y118.458
M204 S1800
M205 X8 Y8
G1 F1350 X118.666 Y118.921 E25.91819
M204 S3000
M205 X10 Y10
G0 F4500 X118.17 Y118.851
M204 S1800
M205 X8 Y8
G1 F1350 X119.129 Y117.893 E25.96327
M204 S3000
M205 X10 Y10
G0 F4500 X119.129 Y117.327
M204 S1800
M205 X8 Y8
G1 F1350 X118.17 Y118.286 E26.00838
M204 S3000
M205 X10 Y10
G0 F4500 X118.17 Y117.72
M204 S1800
M205 X8 Y8
G1 F1350 X119.129 Y116.761 E26.05349
M204 S3000
M205 X10 Y10
G0 F4500 X119.129 Y116.196
M204 S1800
M205 X8 Y8
G1 F1350 X118.17 Y117.154 E26.09858
M204 S3000
M205 X10 Y10
G0 F4500 X118.17 Y116.589
M204 S1800
M205 X8 Y8
G1 F1350 X119.129 Y115.63 E26.14368
M204 S3000
M205 X10 Y10
G0 F4500 X119.129 Y115.064
M204 S1800
M205 X8 Y8
G1 F1350 X118.17 Y116.023 E26.18879
M204 S3000
M205 X10 Y10
G0 F4500 X118.17 Y115.457
M204 S1800
M205 X8 Y8
G1 F1350 X119.129 Y114.498 E26.2339
M204 S3000
M205 X10 Y10
G0 F4500 X119.129 Y113.933
M204 S1800
M205 X8 Y8
G1 F1350 X118.17 Y114.892 E26.27901
M204 S3000
M205 X10 Y10
G0 F4500 X118.17 Y114.326
M204 S1800
M205 X8 Y8
G1 F1350 X119.129 Y113.367 E26.32412
M204 S3000
M205 X10 Y10
G0 F4500 X119.129 Y112.801
M204 S1800
M205 X8 Y8
G1 F1350 X118.17 Y113.76 E26.36923
M204 S3000
M205 X10 Y10
G0 F4500 X118.17 Y113.195
M204 S1800
M205 X8 Y8
G1 F1350 X119.129 Y112.236 E26.41433
M204 S3000
M205 X10 Y10
G0 F4500 X119.129 Y111.67
M204 S1800
M205 X8 Y8
G1 F1350 X118.17 Y112.629 E26.45944
M204 S3000
M205 X10 Y10
G0 F4500 X118.17 Y112.063
M204 S1800
M205 X8 Y8
G1 F1350 X119.129 Y111.104 E26.50455
M204 S3000
M205 X10 Y10
G0 F4500 X119.129 Y110.539
M204 S1800
M205 X8 Y8
G1 F1350 X118.17 Y111.498 E26.54966
M204 S3000
M205 X10 Y10
G0 F4500 X118.17 Y110.932
M204 S1800
M205 X8 Y8
G1 F1350 X119.129 Y109.973 E26.59477
M204 S3000
M205 X10 Y10
G0 F4500 X119.129 Y109.407
M204 S1800
M205 X8 Y8
G1 F1350 X118.17 Y110.366 E26.63988
M204 S3000
M205 X10 Y10
G0 F4500 X118.17 Y109.8
M204 S1800
M205 X8 Y8
G1 F1350 X119.129 Y108.842 E26.68496
M204 S3000
M205 X10 Y10
G0 F4500 X119.129 Y108.276
M204 S1800
M205 X8 Y8
G1 F1350 X118.17 Y109.235 E26.73007
M204 S3000
M205 X10 Y10
G0 F4500 X118.17 Y108.669
M204 S1800
M205 X8 Y8
G1 F1350 X119.129 Y107.71 E26.77518
M204 S3000
M205 X10 Y10
G0 F4500 X119.129 Y107.145
M204 S1800
M205 X8 Y8
G1 F1350 X118.17 Y108.103 E26.82026
M204 S3000
M205 X10 Y10
G0 F4500 X118.17 Y107.538
M204 S1800
M205 X8 Y8
G1 F1350 X119.129 Y106.579 E26.86537
M204 S3000
M205 X10 Y10
G0 F4500 X119.129 Y106.013
M204 S1800
M205 X8 Y8
G1 F1350 X118.17 Y106.972 E26.91048
M204 S3000
M205 X10 Y10
G0 F4500 X118.17 Y106.406
M204 S1800
M205 X8 Y8
G1 F1350 X119.129 Y105.448 E26.95556
M204 S3000
M205 X10 Y10
G0 F4500 X118.941 Y105.069
M204 S1800
M205 X8 Y8
G1 F1350 X118.17 Y105.841 E26.99185
M204 S3000
M205 X10 Y10
G0 F4500 X118.17 Y105.275
M204 S1800
M205 X8 Y8
G1 F1350 X118.376 Y105.069 E27.00154
M204 S3000
M205 X10 Y10
G0 F4500 X117.343 Y115.781
G0 X105.013 Y116.169
M204 S1800
M205 X8 Y8
G1 F1350 X104.891 Y116.291 E27.00728
M204 S3000
M205 X10 Y10
;MESH:NONMESH
G0 F600 X104.891 Y116.291 Z0.6
G0 F4500 X117.6 Y116.6
;TIME_ELAPSED:33.262439
;LAYER:2
M204 S1800
M205 X8 Y8
;TYPE:WALL-INNER
;MESH:hanger.station-temperature.sensore_dht22.frame.stl
G1 F3000 X105.3 Y116.6 E27.41638
G1 X105.3 Y117.504 E27.44645
G1 X105.3 Y117.92 E27.46029
G1 X104.975 Y117.66 E27.46789
G1 X104.3 Y117.12 E27.49664
G1 X104.3 Y115.6 E27.54719
G1 X117.6 Y115.6 E27.98955
G1 X117.6 Y108.4 E28.22903
G1 X104.3 Y108.4 E28.67139
G1 X104.3 Y106.88 E28.72194
G1 X104.975 Y106.34 E28.75069
G1 X105.3 Y106.08 E28.76454
G1 X105.3 Y106.496 E28.77214
G1 X105.3 Y107.4 E28.8022
G1 X117.6 Y107.4 E29.2113
G1 X117.6 Y104.5 E29.30776
G1 X119.7 Y104.5 E29.3776
G1 X119.7 Y119.5 E29.87651
G1 X117.6 Y119.5 E29.94635
G1 X117.6 Y116.6 E30.04281
M204 S3000
M205 X10 Y10
G0 F6000 X117.2 Y117
M204 S1800
M205 X8 Y8
G1 F3000 X105.7 Y117 E30.4253
G1 X105.7 Y118.336 E30.46973
G1 X105.7 Y118.338 E30.4698
G1 X105.7 Y118.752 E30.48357
G1 X105.376 Y118.493 E30.49115
G1 X103.9 Y117.312 E30.55402
G1 X103.9 Y115.2 E30.62427
G1 X117.2 Y115.2 E31.06663
G1 X117.2 Y108.8 E31.27949
G1 X103.9 Y108.8 E31.72185
G1 X103.9 Y106.688 E31.7921
G1 X105.376 Y105.507 E31.85497
G1 X105.7 Y105.248 E31.86877
G1 X105.7 Y105.662 E31.87633
G1 X105.7 Y105.664 E31.8764
G1 X105.7 Y107 E31.92084
G1 X117.2 Y107 E32.30333
G1 X117.2 Y104.1 E32.39978
G1 X120.1 Y104.1 E32.49624
G1 X120.1 Y119.9 E33.02175
G1 X117.2 Y119.9 E33.1182
G1 X117.2 Y117 E33.21466
M204 S3000
M205 X10 Y10
G0 F6000 X116.8 Y117.4
M204 S1800
M205 X8 Y8
;TYPE:WALL-OUTER
G1 F3000 X106.1 Y117.4 E33.57054
G1 X106.1 Y119.224 E33.63121
G1 X106.1 Y119.4 E33.63706
G1 X105.87 Y119.4 E33.64471
G1 X105.733 Y119.291 E33.64942
G1 X103.5 Y117.504 E33.74454
G1 X103.5 Y114.8 E33.83447
G1 X116.8 Y114.8 E34.27683
G1 X116.8 Y109.2 E34.46309
G1 X103.5 Y109.2 E34.90545
G1 X103.5 Y106.496 E34.99539
G1 X105.733 Y104.709 E35.09051
G1 X105.87 Y104.6 E35.09633
G1 X106.1 Y104.6 E35.10398
G1 X106.1 Y104.776 E35.10872
G1 X106.1 Y106.6 E35.16939
G1 X116.8 Y106.6 E35.52527
G1 X116.8 Y103.7 E35.62173
G1 X120.5 Y103.7 E35.74479
G1 X120.5 Y120.3 E36.29691
G1 X116.8 Y120.3 E36.41997
G1 X116.8 Y117.4 E36.51642
M204 S3000
M205 X10 Y10
G0 F6000 X116.6 Y117.4
G0 X116.6 Y116.9
G0 X117.99 Y116.21
M204 S1800
M205 X8 Y8
;TYPE:SKIN
G1 F1200 X104.91 Y116.21 E36.95147
G1 X104.91 Y117.109 E36.98137
G1 X104.69 Y116.933 E36.99074
G1 X104.69 Y115.99 E37.0221
G1 X117.99 Y115.99 E37.46446
G1 X117.99 Y108.01 E37.72988
G1 X104.69 Y108.01 E38.17224
G1 X104.69 Y107.067 E38.2036
G1 X104.91 Y106.891 E38.21297
G1 X104.91 Y107.79 E38.24287
G1 X117.99 Y107.79 E38.67791
G1 X117.99 Y104.89 E38.77437
G1 X119.31 Y104.89 E38.81827
G1 X119.31 Y119.11 E39.29123
G1 X117.99 Y119.11 E39.33514
G1 X117.99 Y116.21 E39.43159
M204 S3000
M205 X10 Y10
G0 F6000 X118.364 Y118.929
M204 S1800
M205 X8 Y8
G1 F1200 X118.169 Y118.735 E39.44074
M204 S3000
M205 X10 Y10
G0 F6000 X118.169 Y118.169
M204 S1800
M205 X8 Y8
G1 F1200 X118.929 Y118.929 E39.47649
M204 S3000
M205 X10 Y10
G0 F6000 X119.129 Y118.563
M204 S1800
M205 X8 Y8
G1 F1200 X118.169 Y117.603 E39.52164
M204 S3000
M205 X10 Y10
G0 F6000 X118.169 Y117.038
M204 S1800
M205 X8 Y8
G1 F1200 X119.129 Y117.997 E39.56677
M204 S3000
M205 X10 Y10
G0 F6000 X119.129 Y117.432
M204 S1800
M205 X8 Y8
G1 F1200 X118.169 Y116.472 E39.61193
M204 S3000
M205 X10 Y10
G0 F6000 X118.169 Y115.906
M204 S1800
M205 X8 Y8
G1 F1200 X119.129 Y116.866 E39.65708
M204 S3000
M205 X10 Y10
G0 F6000 X119.129 Y116.3
M204 S1800
M205 X8 Y8
G1 F1200 X118.169 Y115.341 E39.70222
M204 S3000
M205 X10 Y10
G0 F6000 X118.169 Y114.775
M204 S1800
M205 X8 Y8
G1 F1200 X119.129 Y115.734 E39.74735
M204 S3000
M205 X10 Y10
G0 F6000 X119.129 Y115.169
M204 S1800
M205 X8 Y8
G1 F1200 X118.169 Y114.209 E39.7925
M204 S3000
M205 X10 Y10
G0 F6000 X118.169 Y113.644
M204 S1800
M205 X8 Y8
G1 F1200 X119.129 Y114.603 E39.83764
M204 S3000
M205 X10 Y10
G0 F6000 X119.129 Y114.037
M204 S1800
M205 X8 Y8
G1 F1200 X118.169 Y113.078 E39.88277
M204 S3000
M205 X10 Y10
G0 F6000 X118.169 Y112.512
M204 S1800
M205 X8 Y8
G1 F1200 X119.129 Y113.472 E39.92792
M204 S3000
M205 X10 Y10
G0 F6000 X119.129 Y112.906
M204 S1800
M205 X8 Y8
G1 F1200 X118.169 Y111.947 E39.97306
M204 S3000
M205 X10 Y10
G0 F6000 X118.169 Y111.381
M204 S1800
M205 X8 Y8
G1 F1200 X119.129 Y112.34 E40.01819
M204 S3000
M205 X10 Y10
G0 F6000 X119.129 Y111.775
M204 S1800
M205 X8 Y8
G1 F1200 X118.169 Y110.815 E40.06334
M204 S3000
M205 X10 Y10
G0 F6000 X118.169 Y110.249
M204 S1800
M205 X8 Y8
G1 F1200 X119.129 Y111.209 E40.1085
M204 S3000
M205 X10 Y10
G0 F6000 X119.129 Y110.643
M204 S1800
M205 X8 Y8
G1 F1200 X118.169 Y109.684 E40.15363
M204 S3000
M205 X10 Y10
G0 F6000 X118.169 Y109.118
M204 S1800
M205 X8 Y8
G1 F1200 X119.129 Y110.078 E40.19879
M204 S3000
M205 X10 Y10
G0 F6000 X119.129 Y109.512
M204 S1800
M205 X8 Y8
G1 F1200 X118.169 Y108.552 E40.24394
M204 S3000
M205 X10 Y10
G0 F6000 X118.169 Y107.987
M204 S1800
