;FLAVOR:Marlin
;TIME:23083
;Filament used: 14.0455m
;Layer height: 0.2
;MINX:12.419
;MINY:65.389
;MINZ:0.2
;MAXX:207.582
;MAXY:154.611
;MAXZ:38.2
;Generated with Cura_SteamEngine master
M82 ;absolute extrusion mode
;Sliced at: Thu 06-10-2022 00:44:19
;Basic settings: Layer height: 0.2 Walls: 0.8 Fill: 30.0
G21 ;metric values
G90 ;absolute positioning
M82 ;set extruder to absolute mode
M107 ;start with the fan off
M117 Start heating ...
M104 S200
M117 Homing X/Y ...
G28 X0 Y0 ;move X/Y to min endstops
M117 Homing Z ...
G28 Z0 ;move Z to min endstops
G1 Z15.0 F100 ;move the platform down 15mm
M117 Heating ...
M109 S200
M117 Start cleaning ...
G92 E0 ;zero the extruded length
G1 F200 E10 ;extrude 10mm of feed stock
G92 E0 ;zero the extruded length again
M117 Intro line ...
G1 Z2.0 F3000 ; Move Z Axis up little to prevent scratching of Heat Bed
G1 X0.1 Y20 Z0.2 F5000.0 ; Move to start position
G1 X0.1 Y200.0 Z0.2 F1500.0 E15 ; Draw the first line
G1 X0.4 Y200.0 Z0.2 F5000.0 ; Move to side a little
G1 X0.4 Y20 Z0.3 F1500.0 E30 ; Draw the second line
G92 E0 ; Reset Extruder
G1 E-1 F500 ; Retract filiment by 1 mm
G1 Z2.0 F3000 ; Move Z Axis up little to prevent scratching of Heat Bed
G1 X5 Y20 Z0.3 F100 ; Move over to prevent blob squish
G1 F100
G92 E0 ; Reset Extruder
M117 Printing...

G92 E0
G92 E0
G1 F1800 E-7
;LAYER_COUNT:190
;LAYER:0
M107
G1 F300 Z0.4
G0 F3000 X47.043 Y83.644 Z0.4
;TYPE:SKIRT
G1 F300 Z0.2
G1 F1800 E0
G1 F1200 X47.548 Y83.39 E0.0188
G1 X48.083 Y83.209 E0.03759
G1 X48.639 Y83.105 E0.0564
G1 X49.291 Y83.071 E0.07811
G1 X49.415 Y83.069 E0.08224
G1 X55.174 Y83.069 E0.27378
G1 X57.974 Y83.029 E0.36692
G1 X60.644 Y82.916 E0.45581
G1 X63.351 Y82.724 E0.54607
G1 X66.072 Y82.454 E0.63701
G1 X68.758 Y82.111 E0.72708
G1 X71.449 Y81.688 E0.81768
G1 X74.147 Y81.186 E0.90895
G1 X76.751 Y80.626 E0.99754
G1 X79.371 Y79.984 E1.08726
G1 X82.025 Y79.254 E1.17881
G1 X84.638 Y78.454 E1.2697
G1 X87.179 Y77.596 E1.35891
G1 X89.746 Y76.65 E1.4499
G1 X92.25 Y75.644 E1.53965
G1 X94.747 Y74.558 E1.63022
G1 X97.206 Y73.405 E1.72055
G1 X99.664 Y72.167 E1.81208
G1 X102.018 Y70.896 E1.90106
G1 X104.355 Y69.548 E1.9908
G1 X106.679 Y68.118 E2.08155
G1 X109.092 Y66.536 E2.17752
G1 X109.762 Y66.084 E2.2044
G1 X110.252 Y65.802 E2.2232
G1 X111.037 Y65.517 E2.25098
G1 X111.594 Y65.419 E2.26979
G1 X112.212 Y65.391 E2.29037
G1 X112.325 Y65.389 E2.29413
G1 X145.37 Y65.389 E3.39321
G1 X146.069 Y65.399 E3.41646
G1 X146.633 Y65.447 E3.43529
G1 X147.183 Y65.574 E3.45406
G1 X147.711 Y65.778 E3.47289
G1 X148.204 Y66.053 E3.49166
G1 X148.654 Y66.396 E3.51048
G1 X149.051 Y66.798 E3.52927
G1 X149.387 Y67.253 E3.54809
G1 X149.656 Y67.75 E3.56688
G1 X149.851 Y68.275 E3.58551
G1 X150.259 Y69.67 E3.63385
G1 X150.342 Y69.966 E3.64408
G1 X151.14 Y72.547 E3.73393
G1 X152.011 Y75.102 E3.82371
G1 X152.977 Y77.692 E3.91565
G1 X153.981 Y80.17 E4.00458
G1 X155.07 Y82.653 E4.09476
G1 X156.237 Y85.122 E4.18559
G1 X157.472 Y87.554 E4.27631
G1 X158.767 Y89.936 E4.36648
G1 X160.122 Y92.268 E4.45619
G1 X161.555 Y94.582 E4.54672
G1 X163.051 Y96.851 E4.63711
G1 X164.597 Y99.056 E4.72668
G1 X166.231 Y101.254 E4.81777
G1 X167.921 Y103.396 E4.90852
G1 X169.636 Y105.448 E4.99747
G1 X171.461 Y107.51 E5.08905
G1 X173.324 Y109.5 E5.17972
G1 X175.19 Y111.383 E5.26789
G1 X177.184 Y113.283 E5.3595
G1 X179.208 Y115.107 E5.45012
G1 X181.278 Y116.868 E5.54051
G1 X183.407 Y118.578 E5.63134
G1 X185.546 Y120.197 E5.72056
G1 X187.75 Y121.772 E5.81066
G1 X190.029 Y123.303 E5.90198
G1 X192.32 Y124.751 E5.99212
G1 X194.626 Y126.119 E6.0813
G1 X197.024 Y127.45 E6.17252
G1 X199.431 Y128.7 E6.26273
G1 X201.885 Y129.886 E6.35338
G1 X204.131 Y130.899 E6.43533
G1 X205.169 Y131.351 E6.47298
G1 X205.67 Y131.612 E6.49177
G1 X206.129 Y131.942 E6.51057
G1 X206.537 Y132.333 E6.52937
G1 X206.886 Y132.778 E6.54818
G1 X207.169 Y133.268 E6.567
G1 X207.38 Y133.792 E6.58579
G1 X207.514 Y134.341 E6.60458
G1 X207.57 Y134.907 E6.6235
G1 X207.581 Y135.342 E6.63797
G1 X207.582 Y149.941 E7.12354
G1 X207.572 Y150.657 E7.14736
G1 X207.524 Y151.22 E7.16615
G1 X207.397 Y151.771 E7.18496
G1 X207.194 Y152.299 E7.20377
G1 X206.918 Y152.792 E7.22256
G1 X206.576 Y153.242 E7.24136
G1 X206.174 Y153.639 E7.26015
G1 X205.719 Y153.976 E7.27898
G1 X205.222 Y154.245 E7.29778
G1 X204.692 Y154.441 E7.31658
G1 X204.139 Y154.561 E7.3354
G1 X203.273 Y154.61 E7.36425
G1 X17.074 Y154.611 E13.55725
G1 X16.376 Y154.602 E13.58047
G1 X15.813 Y154.554 E13.59926
G1 X15.262 Y154.428 E13.61806
G1 X14.734 Y154.226 E13.63686
G1 X14.24 Y153.951 E13.65567
G1 X13.79 Y153.609 E13.67447
G1 X13.392 Y153.207 E13.69328
G1 X13.056 Y152.753 E13.71207
G1 X12.786 Y152.256 E13.73088
G1 X12.589 Y151.726 E13.74969
G1 X12.469 Y151.174 E13.76847
G1 X12.42 Y150.377 E13.79503
G1 X12.419 Y135.625 E14.28569
G1 X12.429 Y134.956 E14.30794
G1 X12.478 Y134.393 E14.32674
G1 X12.605 Y133.842 E14.34554
G1 X12.809 Y133.315 E14.36434
G1 X13.085 Y132.821 E14.38316
G1 X13.428 Y132.372 E14.40195
G1 X13.872 Y131.94 E14.42256
G1 X16.123 Y130.068 E14.51993
G1 X18.14 Y128.29 E14.60936
G1 X20.141 Y126.425 E14.70034
G1 X22.036 Y124.557 E14.78884
G1 X23.947 Y122.561 E14.88075
G1 X25.763 Y120.552 E14.97082
G1 X27.534 Y118.481 E15.06146
G1 X29.239 Y116.368 E15.15176
G1 X30.873 Y114.219 E15.24155
G1 X32.457 Y112.012 E15.33191
G1 X33.984 Y109.751 E15.42265
G1 X35.438 Y107.46 E15.5129
G1 X36.823 Y105.133 E15.60297
G1 X38.163 Y102.733 E15.69439
G1 X39.403 Y100.356 E15.78356
G1 X40.582 Y97.932 E15.87322
G1 X41.722 Y95.406 E15.96539
G1 X42.764 Y92.918 E16.05511
G1 X43.726 Y90.413 E16.14435
G1 X44.645 Y87.812 E16.23611
G1 X45.082 Y86.455 E16.28352
G1 X45.303 Y85.8 E16.30651
G1 X45.521 Y85.279 E16.3253
G1 X45.811 Y84.793 E16.34412
G1 X46.166 Y84.353 E16.36293
G1 X46.579 Y83.968 E16.38171
G1 X47.043 Y83.644 E16.40053
G0 F3000 X47.368 Y83.919
G1 F1200 X47.856 Y83.698 E16.41835
G1 X48.372 Y83.552 E16.43618
G1 X48.981 Y83.481 E16.45657
G1 X49.415 Y83.469 E16.47101
G1 X55.18 Y83.469 E16.66276
G1 X57.961 Y83.43 E16.75526
G1 X60.689 Y83.314 E16.84608
G1 X63.418 Y83.12 E16.93708
G1 X66.095 Y82.855 E17.02655
G1 X68.834 Y82.505 E17.11839
G1 X71.512 Y82.084 E17.20855
G1 X74.198 Y81.584 E17.29943
G1 X76.825 Y81.019 E17.3888
G1 X79.5 Y80.364 E17.4804
G1 X82.143 Y79.637 E17.57157
G1 X84.735 Y78.843 E17.66173
G1 X87.308 Y77.975 E17.75205
G1 X89.897 Y77.02 E17.84383
G1 X92.409 Y76.011 E17.93387
G1 X94.911 Y74.923 E18.02461
G1 X97.405 Y73.753 E18.11624
G1 X99.828 Y72.533 E18.20647
G1 X102.202 Y71.251 E18.2962
G1 X104.585 Y69.877 E18.38769
G1 X106.903 Y68.451 E18.47821
G1 X109.312 Y66.871 E18.57403
G1 X109.986 Y66.416 E18.60108
G1 X110.451 Y66.15 E18.6189
G1 X111.134 Y65.905 E18.64303
G1 X111.905 Y65.799 E18.66891
G1 X112.325 Y65.789 E18.68289
G1 X145.364 Y65.789 E19.78177
G1 X146.063 Y65.799 E19.80502
G1 X146.598 Y65.847 E19.82289
G1 X147.119 Y65.973 E19.84071
G1 X147.615 Y66.176 E19.85854
G1 X148.076 Y66.45 E19.87638
G1 X148.492 Y66.789 E19.89423
G1 X148.852 Y67.187 E19.91207
G1 X149.149 Y67.633 E19.9299
G1 X149.377 Y68.119 E19.94775
G1 X149.467 Y68.387 E19.95715
G1 X149.874 Y69.778 E20.00536
G1 X149.958 Y70.077 E20.01569
G1 X150.756 Y72.657 E20.10551
G1 X151.645 Y75.265 E20.19715
G1 X152.591 Y77.802 E20.28721
G1 X153.616 Y80.332 E20.378
G1 X154.72 Y82.848 E20.46939
G1 X155.876 Y85.296 E20.55943
G1 X157.114 Y87.734 E20.65037
G1 X158.405 Y90.108 E20.74025
G1 X159.795 Y92.501 E20.8323
G1 X161.214 Y94.791 E20.9219
G1 X162.706 Y97.054 E21.01205
G1 X164.294 Y99.319 E21.10406
G1 X165.915 Y101.5 E21.19444
G1 X167.598 Y103.633 E21.28481
G1 X169.346 Y105.723 E21.37543
G1 X171.168 Y107.783 E21.4669
G1 X173.014 Y109.755 E21.55674
G1 X174.931 Y111.689 E21.64731
G1 X176.924 Y113.588 E21.73887
G1 X178.927 Y115.393 E21.82855
G1 X181.031 Y117.183 E21.92043
G1 X183.144 Y118.88 E22.01057
G1 X185.312 Y120.521 E22.101
G1 X187.523 Y122.102 E22.19141
G1 X189.814 Y123.64 E22.28319
G1 X192.108 Y125.09 E22.37345
G1 X194.434 Y126.47 E22.4634
G1 X196.824 Y127.797 E22.55433
G1 X199.252 Y129.058 E22.64532
G1 X201.695 Y130.239 E22.73557
G1 X203.996 Y131.276 E22.81952
G1 X205.009 Y131.717 E22.85627
G1 X205.484 Y131.967 E22.87412
G1 X205.916 Y132.285 E22.89196
G1 X206.296 Y132.664 E22.90981
G1 X206.615 Y133.095 E22.92765
G1 X206.867 Y133.568 E22.94547
G1 X207.046 Y134.073 E22.96329
G1 X207.148 Y134.6 E22.98114
G1 X207.18 Y135.242 E23.00252
G1 X207.182 Y149.935 E23.49122
G1 X207.172 Y150.651 E23.51503
G1 X207.124 Y151.185 E23.53286
G1 X206.998 Y151.707 E23.55072
G1 X206.796 Y152.203 E23.56854
G1 X206.522 Y152.664 E23.58637
G1 X206.183 Y153.08 E23.60422
G1 X205.785 Y153.44 E23.62207
G1 X205.339 Y153.737 E23.63989
G1 X204.854 Y153.965 E23.65772
G1 X204.34 Y154.118 E23.67556
G1 X203.662 Y154.2 E23.69827
G1 X203.173 Y154.211 E23.71454
G1 X17.08 Y154.211 E29.90402
G1 X16.382 Y154.202 E29.92723
G1 X15.847 Y154.155 E29.9451
G1 X15.326 Y154.029 E29.96293
G1 X14.829 Y153.827 E29.98077
G1 X14.368 Y153.554 E29.99859
G1 X13.952 Y153.215 E30.01644
G1 X13.591 Y152.819 E30.03426
G1 X13.293 Y152.373 E30.0521
G1 X13.065 Y151.887 E30.06996
G1 X12.912 Y151.373 E30.08779
G1 X12.829 Y150.699 E30.11038
G1 X12.819 Y150.269 E30.12468
G1 X12.819 Y135.631 E30.61155
G1 X12.829 Y134.962 E30.6338
G1 X12.877 Y134.428 E30.65163
G1 X13.004 Y133.907 E30.66947
G1 X13.207 Y133.41 E30.68732
G1 X13.481 Y132.95 E30.70513
G1 X13.821 Y132.535 E30.72298
G1 X14.128 Y132.248 E30.73695
G1 X16.361 Y130.392 E30.83353
G1 X18.412 Y128.584 E30.92447
G1 X20.413 Y126.719 E31.01545
G1 X22.34 Y124.818 E31.10548
G1 X24.233 Y122.84 E31.19654
G1 X26.081 Y120.797 E31.28816
G1 X27.816 Y118.767 E31.37698
G1 X29.573 Y116.59 E31.47003
G1 X31.184 Y114.471 E31.55856
G1 X32.797 Y112.223 E31.65059
G1 X34.321 Y109.968 E31.74111
G1 X35.769 Y107.687 E31.83097
G1 X37.174 Y105.326 E31.92235
G1 X38.495 Y102.961 E32.01245
G1 X39.759 Y100.537 E32.10338
G1 X40.962 Y98.064 E32.19485
G1 X42.065 Y95.621 E32.284
G1 X43.142 Y93.05 E32.37671
G1 X44.118 Y90.508 E32.46727
G1 X45.009 Y87.984 E32.5563
G1 X45.461 Y86.583 E32.60526
G1 X45.682 Y85.928 E32.62825
G1 X45.891 Y85.434 E32.6461
G1 X46.171 Y84.977 E32.66392
G1 X46.515 Y84.566 E32.68175
G1 X46.917 Y84.211 E32.69959
G1 X47.368 Y83.919 E32.71746
G0 F3000 X47.253 Y84.461
G1 F1200 X47.688 Y84.204 E32.73426
G1 X48.158 Y84.019 E32.75106
G1 X48.652 Y83.91 E32.76788
G1 X49.316 Y83.871 E32.79001
G1 X49.415 Y83.869 E32.7933
G1 X55.186 Y83.869 E32.98525
G1 X57.983 Y83.829 E33.07828
G1 X60.7 Y83.714 E33.16873
G1 X63.446 Y83.519 E33.26029
G1 X66.152 Y83.251 E33.35074
G1 X68.875 Y82.903 E33.44204
G1 X71.576 Y82.478 E33.53298
G1 X74.284 Y81.975 E33.62459
G1 X76.941 Y81.403 E33.71499
G1 X79.588 Y80.755 E33.80563
G1 X82.228 Y80.028 E33.8967
G1 X84.875 Y79.218 E33.98877
G1 X87.47 Y78.343 E34.07986
G1 X90.006 Y77.407 E34.16977
G1 X92.581 Y76.373 E34.26206
G1 X95.091 Y75.281 E34.3531
G1 X97.548 Y74.129 E34.44336
G1 X99.991 Y72.899 E34.53433
G1 X102.424 Y71.584 E34.62631
G1 X104.762 Y70.237 E34.71606
G1 X107.126 Y68.782 E34.80838
G1 X109.498 Y67.226 E34.90274
G1 X110.209 Y66.747 E34.93125
G1 X110.65 Y66.498 E34.94809
G1 X111.231 Y66.294 E34.96858
G1 X111.916 Y66.199 E34.99158
G1 X112.325 Y66.189 E35.00518
G1 X145.359 Y66.189 E36.1039
G1 X146.058 Y66.199 E36.12715
G1 X146.561 Y66.246 E36.14395
G1 X147.051 Y66.372 E36.16078
G1 X147.515 Y66.574 E36.17761
G1 X147.941 Y66.846 E36.19442
G1 X148.319 Y67.181 E36.21122
G1 X148.639 Y67.572 E36.22803
G1 X148.894 Y68.009 E36.24486
G1 X149.083 Y68.5 E36.26235
G1 X149.489 Y69.886 E36.31039
G1 X149.574 Y70.189 E36.32086
G1 X150.381 Y72.798 E36.41169
G1 X151.267 Y75.398 E36.50305
G1 X152.216 Y77.944 E36.59342
G1 X153.255 Y80.506 E36.68537
G1 X154.349 Y83.001 E36.77598
G1 X155.515 Y85.469 E36.86677
G1 X156.764 Y87.928 E36.9585
G1 X158.05 Y90.294 E37.04807
G1 X159.452 Y92.707 E37.14089
G1 X160.873 Y95 E37.23061
G1 X162.388 Y97.299 E37.32219
G1 X163.961 Y99.542 E37.41331
G1 X165.596 Y101.741 E37.50445
G1 X167.293 Y103.892 E37.59557
G1 X169.038 Y105.98 E37.68608
G1 X170.861 Y108.041 E37.7776
G1 X172.738 Y110.045 E37.86892
G1 X174.654 Y111.978 E37.95944
G1 X176.644 Y113.874 E38.05086
G1 X178.666 Y115.696 E38.14139
G1 X180.768 Y117.484 E38.23318
G1 X182.898 Y119.195 E38.32405
G1 X185.084 Y120.851 E38.41526
G1 X187.313 Y122.444 E38.50638
G1 X189.558 Y123.951 E38.59631
G1 X191.912 Y125.439 E38.68894
G1 X194.241 Y126.821 E38.77901
G1 X196.639 Y128.153 E38.87025
G1 X199.072 Y129.415 E38.96141
G1 X201.535 Y130.606 E39.0524
G1 X203.812 Y131.632 E39.13547
G1 X204.85 Y132.084 E39.17313
G1 X205.296 Y132.322 E39.18994
G1 X205.699 Y132.627 E39.20675
G1 X206.049 Y132.992 E39.22357
G1 X206.337 Y133.407 E39.24037
G1 X206.556 Y133.863 E39.2572
G1 X206.701 Y134.347 E39.274
G1 X206.771 Y134.929 E39.2935
G1 X206.781 Y135.342 E39.30724
G1 X206.782 Y149.93 E39.79244
G1 X206.772 Y150.646 E39.81625
G1 X206.725 Y151.149 E39.83306
G1 X206.599 Y151.639 E39.84988
G1 X206.398 Y152.103 E39.8667
G1 X206.126 Y152.529 E39.88351
G1 X205.791 Y152.907 E39.90031
G1 X205.4 Y153.228 E39.91714
G1 X204.963 Y153.483 E39.93397
G1 X204.492 Y153.666 E39.95077
G1 X203.998 Y153.773 E39.96758
G1 X203.253 Y153.81 E39.99239
G1 X17.085 Y153.811 E46.18437
G1 X16.387 Y153.802 E46.20758
G1 X15.883 Y153.755 E46.22442
G1 X15.393 Y153.63 E46.24124
G1 X14.929 Y153.429 E46.25806
G1 X14.503 Y153.158 E46.27485
G1 X14.124 Y152.823 E46.29167
G1 X13.803 Y152.432 E46.3085
G1 X13.548 Y151.996 E46.3253
G1 X13.364 Y151.525 E46.34212
G1 X13.257 Y151.031 E46.35893
G1 X13.22 Y150.355 E46.38145
G1 X13.219 Y135.637 E46.87097
G1 X13.229 Y134.968 E46.89322
G1 X13.277 Y134.465 E46.91003
G1 X13.403 Y133.975 E46.92686
G1 X13.605 Y133.512 E46.94366
G1 X13.877 Y133.086 E46.96047
G1 X14.383 Y132.555 E46.98486
G1 X16.652 Y130.669 E47.083
G1 X18.667 Y128.892 E47.17236
G1 X20.682 Y127.014 E47.26397
G1 X22.627 Y125.096 E47.35482
G1 X24.534 Y123.104 E47.44654
G1 X26.383 Y121.06 E47.53822
G1 X28.148 Y118.995 E47.62857
G1 X29.854 Y116.88 E47.71895
G1 X31.512 Y114.701 E47.81001
G1 X33.121 Y112.458 E47.90183
G1 X34.65 Y110.194 E47.99269
G1 X36.132 Y107.859 E48.08467
G1 X37.509 Y105.547 E48.17418
G1 X38.856 Y103.134 E48.26609
G1 X40.116 Y100.718 E48.35672
G1 X41.322 Y98.238 E48.44844
G1 X42.433 Y95.777 E48.53825
G1 X43.52 Y93.183 E48.63179
G1 X44.481 Y90.681 E48.72094
G1 X45.392 Y88.102 E48.81191
G1 X45.84 Y86.711 E48.86052
G1 X46.061 Y86.056 E48.88351
G1 X46.26 Y85.591 E48.90033
G1 X46.53 Y85.164 E48.91713
G1 X46.863 Y84.784 E48.93394
G1 X47.253 Y84.461 E48.95078
G1 F1800 E41.95078
G1 F300 Z0.4
G0 F3000 X84.385 Y87.269 Z0.4
;TYPE:SUPPORT
G1 F300 Z0.2
G1 F1800 E48.95078
G1 F1200 X98.085 Y87.271 E49.40645
G1 X98.085 Y88.869 E49.45959
G1 X93.519 Y88.869 E49.61146
G1 X93.12 Y89.268 E49.63023
G1 X93.12 Y90.069 E49.65687
G1 X84.385 Y90.069 E49.9474
G1 X84.385 Y87.269 E50.04053
G0 F3000 X84.545 Y88.011
G1 F1200 X97.925 Y88.011 E50.48555
G1 F1800 E43.48555
G1 F300 Z0.4
G0 F3000 X96.012 Y87.431 Z0.4
G1 F300 Z0.2
G1 F1800 E50.48555
G1 F1200 X96.012 Y88.709 E50.52805
G1 F1800 E43.52805
G1 F300 Z0.4
G0 F3000 X93.345 Y88.816 Z0.4
G1 F300 Z0.2
G1 F1800 E50.52805
G1 F1200 X93.345 Y87.431 E50.57412
G1 F1800 E43.57412
G1 F300 Z0.4
G0 F3000 X90.678 Y87.43 Z0.4
G1 F300 Z0.2
G1 F1800 E50.57412
G1 F1200 X90.678 Y89.909 E50.65657
G1 F1800 E43.65657
G1 F300 Z0.4
G0 F3000 X88.011 Y89.909 Z0.4
G1 F300 Z0.2
G1 F1800 E50.65657
G1 F1200 X88.011 Y87.43 E50.73902
G1 F1800 E43.73902
G1 F300 Z0.4
G0 F3000 X85.344 Y87.43 Z0.4
G1 F300 Z0.2
G1 F1800 E50.73902
G1 F1200 X85.344 Y89.909 E50.82147
G1 F1800 E43.82147
G1 F300 Z0.4
G0 F3000 X105.208 Y138.011 Z0.4
G1 F300 Z0.2
G1 F1800 E50.82147
G1 F1200 X114.808 Y138.011 E51.14077
G1 X114.808 Y147.611 E51.46007
G1 X105.208 Y147.611 E51.77937
G1 X105.208 Y138.011 E52.09866
G1 F1800 E45.09866
G1 F300 Z0.4
G0 F3000 X109.031 Y140.175 Z0.4
G1 F300 Z0.2
G1 F1800 E52.09866
G1 F1200 X108.466 Y140.481 E52.12003
G1 X107.987 Y140.866 E52.14047
G1 X107.584 Y141.393 E52.16254
G1 X107.338 Y141.97 E52.1834
G1 X107.207 Y142.64 E52.20611
G1 X107.254 Y143.3 E52.22812
G1 X107.426 Y143.898 E52.24881
G1 X107.763 Y144.488 E52.27141
G1 X108.197 Y144.938 E52.2922
G1 X108.734 Y145.305 E52.31384
G1 X109.326 Y145.522 E52.33481
