;FLAVOR:Marlin
;TIME:25611
;Filament used: 15.7417m
;Layer height: 0.2
;MINX:12.421
;MINY:65.389
;MINZ:0.2
;MAXX:207.584
;MAXY:154.611
;MAXZ:38.2
;Generated with Cura_SteamEngine master
M82 ;absolute extrusion mode
;Sliced at: Sun 09-10-2022 23:22:25
;Basic settings: Layer height: 0.2 Walls: 0.8 Fill: 30.0
G21 ;metric values
G90 ;absolute positioning
M82 ;set extruder to absolute mode
M107 ;start with the fan off
M117 Start heating ...
M104 S200
M117 Homing X/Y ...
G28 X0 Y0 ;move X/Y to min endstops
M117 Homing Z ...
G28 Z0 ;move Z to min endstops
G1 Z15.0 F100 ;move the platform down 15mm
M117 Heating ...
M109 S200
M117 Start cleaning ...
G92 E0 ;zero the extruded length
G1 F200 E10 ;extrude 10mm of feed stock
G92 E0 ;zero the extruded length again
M117 Intro line ...
G1 Z2.0 F3000 ; Move Z Axis up little to prevent scratching of Heat Bed
G1 X0.1 Y20 Z0.2 F5000.0 ; Move to start position
G1 X0.1 Y200.0 Z0.2 F1500.0 E15 ; Draw the first line
G1 X0.4 Y200.0 Z0.2 F5000.0 ; Move to side a little
G1 X0.4 Y20 Z0.3 F1500.0 E30 ; Draw the second line
G92 E0 ; Reset Extruder
G1 E-1 F500 ; Retract filiment by 1 mm
G1 Z2.0 F3000 ; Move Z Axis up little to prevent scratching of Heat Bed
G1 X5 Y20 Z0.3 F100 ; Move over to prevent blob squish
G1 F100
G92 E0 ; Reset Extruder
M117 Printing...

G92 E0
G92 E0
G1 F1800 E-7
;LAYER_COUNT:190
;LAYER:0
M107
G1 F300 Z0.4
G0 F3000 X47.045 Y83.644 Z0.4
;TYPE:SKIRT
G1 F300 Z0.2
G1 F1800 E0
G1 F1200 X47.55 Y83.39 E0.0188
G1 X48.085 Y83.209 E0.03759
G1 X48.641 Y83.105 E0.0564
G1 X49.293 Y83.071 E0.07811
G1 X49.417 Y83.069 E0.08224
G1 X54.213 Y83.069 E0.24176
G1 X57.013 Y83.029 E0.33489
G1 X59.683 Y82.916 E0.42378
G1 X62.39 Y82.724 E0.51404
G1 X65.111 Y82.454 E0.60498
G1 X67.797 Y82.111 E0.69505
G1 X70.488 Y81.688 E0.78565
G1 X73.186 Y81.186 E0.87692
G1 X75.79 Y80.626 E0.96551
G1 X78.41 Y79.984 E1.05523
G1 X81.064 Y79.254 E1.14678
G1 X83.677 Y78.454 E1.23767
G1 X86.218 Y77.596 E1.32688
G1 X88.785 Y76.65 E1.41787
G1 X91.289 Y75.644 E1.50762
G1 X93.786 Y74.558 E1.59819
G1 X96.245 Y73.405 E1.68852
G1 X98.703 Y72.167 E1.78006
G1 X101.057 Y70.896 E1.86903
G1 X103.394 Y69.548 E1.95877
G1 X105.718 Y68.118 E2.04952
G1 X108.131 Y66.536 E2.14549
G1 X108.801 Y66.084 E2.17237
G1 X109.291 Y65.802 E2.19118
G1 X110.076 Y65.517 E2.21895
G1 X110.633 Y65.419 E2.23776
G1 X111.251 Y65.391 E2.25834
G1 X111.364 Y65.389 E2.2621
G1 X146.334 Y65.389 E3.4252
G1 X147.035 Y65.399 E3.44852
G1 X147.598 Y65.447 E3.46732
G1 X148.149 Y65.574 E3.48612
G1 X148.677 Y65.778 E3.50495
G1 X149.17 Y66.053 E3.52372
G1 X149.62 Y66.396 E3.54254
G1 X150.017 Y66.798 E3.56134
G1 X150.353 Y67.253 E3.58015
G1 X150.622 Y67.75 E3.59894
G1 X150.818 Y68.28 E3.61774
G1 X151.049 Y69.075 E3.64527
G1 X151.366 Y70.223 E3.68489
G1 X152.169 Y72.836 E3.77581
G1 X153.035 Y75.396 E3.86569
G1 X153.975 Y77.935 E3.95574
G1 X154.997 Y80.475 E4.0468
G1 X156.073 Y82.942 E4.13632
G1 X157.228 Y85.399 E4.22662
G1 X158.452 Y87.822 E4.31691
G1 X159.754 Y90.23 E4.40796
G1 X161.105 Y92.567 E4.49774
G1 X162.518 Y94.857 E4.58724
G1 X164.033 Y97.166 E4.67909
G1 X165.567 Y99.364 E4.76824
G1 X167.194 Y101.562 E4.85919
G1 X168.853 Y103.677 E4.9486
G1 X170.625 Y105.806 E5.04073
G1 X172.392 Y107.81 E5.12959
G1 X174.24 Y109.793 E5.21975
G1 X176.145 Y111.724 E5.30996
G1 X178.123 Y113.618 E5.40105
G1 X180.144 Y115.447 E5.49171
G1 X182.187 Y117.193 E5.58109
G1 X184.293 Y118.893 E5.67111
G1 X186.481 Y120.557 E5.76254
G1 X188.669 Y122.127 E5.85211
G1 X190.932 Y123.655 E5.94293
G1 X193.219 Y125.108 E6.03305
G1 X195.553 Y126.498 E6.1234
G1 X197.918 Y127.818 E6.21348
G1 X200.34 Y129.082 E6.30435
G1 X202.769 Y130.264 E6.3942
G1 X205.223 Y131.374 E6.48378
G1 X205.72 Y131.642 E6.50256
G1 X206.175 Y131.979 E6.52139
G1 X206.577 Y132.376 E6.54018
G1 X206.92 Y132.826 E6.559
G1 X207.195 Y133.319 E6.57778
G1 X207.399 Y133.847 E6.5966
G1 X207.526 Y134.397 E6.61538
G1 X207.572 Y134.907 E6.63241
G1 X207.583 Y135.342 E6.64688
G1 X207.584 Y149.941 E7.13245
G1 X207.574 Y150.657 E7.15626
G1 X207.526 Y151.22 E7.17506
G1 X207.399 Y151.771 E7.19386
G1 X207.196 Y152.299 E7.21268
G1 X206.92 Y152.792 E7.23147
G1 X206.578 Y153.242 E7.25027
G1 X206.176 Y153.639 E7.26906
G1 X205.721 Y153.976 E7.28789
G1 X205.224 Y154.245 E7.30669
G1 X204.694 Y154.441 E7.32548
G1 X204.141 Y154.561 E7.34431
G1 X203.275 Y154.61 E7.37315
G1 X17.076 Y154.611 E13.56616
G1 X16.378 Y154.602 E13.58938
G1 X15.815 Y154.554 E13.60817
G1 X15.264 Y154.428 E13.62697
G1 X14.736 Y154.226 E13.64577
G1 X14.242 Y153.951 E13.66458
G1 X13.792 Y153.609 E13.68338
G1 X13.394 Y153.207 E13.70219
G1 X13.058 Y152.753 E13.72098
G1 X12.788 Y152.256 E13.73979
G1 X12.591 Y151.726 E13.75859
G1 X12.471 Y151.174 E13.77738
G1 X12.422 Y150.377 E13.80394
G1 X12.421 Y135.625 E14.29459
G1 X12.431 Y134.956 E14.31685
G1 X12.48 Y134.393 E14.33564
G1 X12.607 Y133.842 E14.35445
G1 X12.811 Y133.315 E14.37325
G1 X13.087 Y132.821 E14.39207
G1 X13.43 Y132.372 E14.41086
G1 X13.874 Y131.94 E14.43146
G1 X16.125 Y130.068 E14.52884
G1 X18.142 Y128.29 E14.61827
G1 X20.143 Y126.425 E14.70925
G1 X22.038 Y124.557 E14.79775
G1 X23.949 Y122.561 E14.88966
G1 X25.765 Y120.552 E14.97973
G1 X27.536 Y118.481 E15.07036
G1 X29.241 Y116.368 E15.16067
G1 X30.875 Y114.219 E15.25046
G1 X32.459 Y112.012 E15.34081
G1 X33.986 Y109.751 E15.43156
G1 X35.432 Y107.473 E15.5213
G1 X36.825 Y105.133 E15.61188
G1 X38.165 Y102.733 E15.7033
G1 X39.405 Y100.356 E15.79247
G1 X40.584 Y97.932 E15.88212
G1 X41.724 Y95.406 E15.9743
G1 X42.766 Y92.918 E16.06401
G1 X43.728 Y90.413 E16.15326
G1 X44.647 Y87.812 E16.24501
G1 X45.084 Y86.455 E16.29243
G1 X45.305 Y85.8 E16.31542
G1 X45.523 Y85.279 E16.33421
G1 X45.813 Y84.793 E16.35303
G1 X46.168 Y84.353 E16.37183
G1 X46.581 Y83.968 E16.39061
G1 X47.045 Y83.644 E16.40944
G0 F3000 X47.37 Y83.919
G1 F1200 X47.858 Y83.698 E16.42725
G1 X48.374 Y83.552 E16.44509
G1 X48.983 Y83.481 E16.46548
G1 X49.417 Y83.469 E16.47992
G1 X54.219 Y83.469 E16.63964
G1 X57 Y83.43 E16.73214
G1 X59.728 Y83.314 E16.82296
G1 X62.457 Y83.12 E16.91396
G1 X65.134 Y82.855 E17.00343
G1 X67.873 Y82.505 E17.09527
G1 X70.551 Y82.084 E17.18543
G1 X73.237 Y81.584 E17.2763
G1 X75.864 Y81.019 E17.36568
G1 X78.539 Y80.364 E17.45728
G1 X81.182 Y79.637 E17.54845
G1 X83.774 Y78.843 E17.63861
G1 X86.347 Y77.975 E17.72893
G1 X88.936 Y77.02 E17.82071
G1 X91.448 Y76.011 E17.91075
G1 X93.95 Y74.923 E18.00149
G1 X96.444 Y73.753 E18.09312
G1 X98.867 Y72.533 E18.18335
G1 X101.241 Y71.251 E18.27308
G1 X103.624 Y69.877 E18.36457
G1 X105.942 Y68.451 E18.45509
G1 X108.351 Y66.871 E18.55091
G1 X109.025 Y66.416 E18.57796
G1 X109.49 Y66.15 E18.59578
G1 X110.173 Y65.905 E18.61991
G1 X110.944 Y65.799 E18.64579
G1 X111.364 Y65.789 E18.65977
G1 X146.328 Y65.789 E19.82267
G1 X147.029 Y65.799 E19.84599
G1 X147.564 Y65.847 E19.86386
G1 X148.085 Y65.973 E19.88169
G1 X148.581 Y66.176 E19.89951
G1 X149.042 Y66.45 E19.91735
G1 X149.458 Y66.789 E19.9352
G1 X149.818 Y67.186 E19.95302
G1 X150.115 Y67.633 E19.97087
G1 X150.343 Y68.118 E19.9887
G1 X150.433 Y68.394 E19.99835
G1 X150.663 Y69.182 E20.02565
G1 X150.981 Y70.332 E20.06534
G1 X151.783 Y72.944 E20.15622
G1 X152.657 Y75.526 E20.24688
G1 X153.6 Y78.074 E20.33725
G1 X154.624 Y80.618 E20.42846
G1 X155.714 Y83.118 E20.51917
G1 X156.873 Y85.585 E20.60982
G1 X158.093 Y87.999 E20.69978
G1 X159.399 Y90.415 E20.79113
G1 X160.762 Y92.772 E20.88169
G1 X162.192 Y95.09 E20.97228
G1 X163.686 Y97.368 E21.06288
G1 X165.246 Y99.602 E21.15351
G1 X166.89 Y101.824 E21.24544
G1 X168.546 Y103.934 E21.33465
G1 X170.301 Y106.043 E21.42591
G1 X172.098 Y108.082 E21.51631
G1 X173.963 Y110.082 E21.60726
G1 X175.866 Y112.011 E21.69739
G1 X177.841 Y113.903 E21.78835
G1 X179.864 Y115.733 E21.87908
G1 X181.957 Y117.521 E21.97064
G1 X184.066 Y119.224 E22.0608
G1 X186.211 Y120.855 E22.15042
G1 X188.458 Y122.467 E22.2424
G1 X190.699 Y123.981 E22.33235
G1 X192.996 Y125.44 E22.42286
G1 X195.359 Y126.848 E22.51435
G1 X197.744 Y128.179 E22.60519
G1 X200.131 Y129.425 E22.69475
G1 X202.608 Y130.63 E22.78636
G1 X205.058 Y131.738 E22.8758
G1 X205.529 Y131.995 E22.89364
G1 X205.956 Y132.319 E22.91147
G1 X206.331 Y132.703 E22.92932
G1 X206.644 Y133.138 E22.94715
G1 X206.889 Y133.615 E22.96498
G1 X207.061 Y134.123 E22.98282
G1 X207.173 Y134.918 E23.00952
G1 X207.183 Y135.342 E23.02363
G1 X207.184 Y149.935 E23.509
G1 X207.174 Y150.651 E23.53281
G1 X207.126 Y151.185 E23.55064
G1 X207 Y151.707 E23.56851
G1 X206.798 Y152.203 E23.58632
G1 X206.524 Y152.664 E23.60415
G1 X206.185 Y153.08 E23.622
G1 X205.787 Y153.44 E23.63985
G1 X205.341 Y153.737 E23.65767
G1 X204.856 Y153.965 E23.6755
G1 X204.342 Y154.118 E23.69334
G1 X203.664 Y154.2 E23.71605
G1 X203.175 Y154.211 E23.73232
G1 X17.082 Y154.211 E29.9218
G1 X16.384 Y154.202 E29.94502
G1 X15.849 Y154.155 E29.96288
G1 X15.328 Y154.029 E29.98071
G1 X14.831 Y153.827 E29.99855
G1 X14.37 Y153.554 E30.01637
G1 X13.954 Y153.215 E30.03422
G1 X13.593 Y152.819 E30.05204
G1 X13.295 Y152.373 E30.06988
G1 X13.067 Y151.887 E30.08774
G1 X12.914 Y151.373 E30.10557
G1 X12.831 Y150.699 E30.12816
G1 X12.821 Y150.269 E30.14247
G1 X12.821 Y135.631 E30.62933
G1 X12.831 Y134.962 E30.65158
G1 X12.879 Y134.428 E30.66941
G1 X13.006 Y133.907 E30.68725
G1 X13.209 Y133.41 E30.7051
G1 X13.483 Y132.95 E30.72291
G1 X13.823 Y132.535 E30.74076
G1 X14.13 Y132.248 E30.75473
G1 X16.363 Y130.392 E30.85131
G1 X18.414 Y128.584 E30.94225
G1 X20.415 Y126.719 E31.03323
G1 X22.342 Y124.818 E31.12326
G1 X24.235 Y122.84 E31.21432
G1 X26.083 Y120.797 E31.30594
G1 X27.818 Y118.767 E31.39476
G1 X29.575 Y116.59 E31.48781
G1 X31.186 Y114.471 E31.57634
G1 X32.799 Y112.223 E31.66837
G1 X34.323 Y109.968 E31.75889
G1 X35.771 Y107.687 E31.84875
G1 X37.176 Y105.326 E31.94013
G1 X38.497 Y102.961 E32.03023
G1 X39.761 Y100.537 E32.12116
G1 X40.964 Y98.064 E32.21263
G1 X42.067 Y95.621 E32.30178
G1 X43.144 Y93.05 E32.39449
G1 X44.12 Y90.508 E32.48505
G1 X45.016 Y87.97 E32.57458
G1 X45.463 Y86.583 E32.62304
G1 X45.684 Y85.928 E32.64604
G1 X45.893 Y85.434 E32.66388
G1 X46.173 Y84.977 E32.6817
G1 X46.517 Y84.566 E32.69953
G1 X46.919 Y84.211 E32.71737
G1 X47.37 Y83.919 E32.73524
G0 F3000 X47.255 Y84.461
G1 F1200 X47.69 Y84.204 E32.75204
G1 X48.16 Y84.019 E32.76884
G1 X48.654 Y83.91 E32.78567
G1 X49.318 Y83.871 E32.80779
G1 X49.417 Y83.869 E32.81108
G1 X54.225 Y83.869 E32.971
G1 X57.022 Y83.829 E33.06403
G1 X59.739 Y83.714 E33.15448
G1 X62.485 Y83.519 E33.24605
G1 X65.191 Y83.251 E33.33649
G1 X67.914 Y82.903 E33.42779
G1 X70.615 Y82.478 E33.51873
G1 X73.323 Y81.975 E33.61034
G1 X75.98 Y81.403 E33.70074
G1 X78.627 Y80.755 E33.79138
G1 X81.267 Y80.028 E33.88245
G1 X83.914 Y79.218 E33.97452
G1 X86.509 Y78.343 E34.06561
G1 X89.045 Y77.407 E34.15552
G1 X91.62 Y76.373 E34.24781
G1 X94.13 Y75.281 E34.33885
G1 X96.587 Y74.129 E34.42911
G1 X99.03 Y72.899 E34.52008
G1 X101.463 Y71.584 E34.61206
G1 X103.801 Y70.237 E34.70181
G1 X106.165 Y68.782 E34.79413
G1 X108.537 Y67.226 E34.88849
G1 X109.248 Y66.747 E34.917
G1 X109.689 Y66.498 E34.93385
G1 X110.27 Y66.294 E34.95433
G1 X110.955 Y66.199 E34.97733
G1 X111.364 Y66.189 E34.99094
G1 X146.323 Y66.189 E36.15368
G1 X147.024 Y66.199 E36.17699
G1 X147.527 Y66.246 E36.1938
G1 X148.017 Y66.372 E36.21062
G1 X148.48 Y66.574 E36.22743
G1 X148.907 Y66.846 E36.24426
G1 X149.285 Y67.181 E36.26106
G1 X149.605 Y67.572 E36.27787
G1 X149.86 Y68.009 E36.2947
G1 X150.043 Y68.48 E36.3115
G1 X150.049 Y68.506 E36.31239
G1 X150.278 Y69.288 E36.33949
G1 X150.602 Y70.461 E36.37997
G1 X151.405 Y73.075 E36.47092
G1 X152.278 Y75.656 E36.56154
G1 X153.225 Y78.214 E36.65226
G1 X154.262 Y80.791 E36.74465
G1 X155.345 Y83.274 E36.83475
G1 X156.512 Y85.757 E36.926
G1 X157.742 Y88.191 E37.01671
G1 X159.052 Y90.614 E37.10832
G1 X160.424 Y92.987 E37.19949
G1 X161.844 Y95.289 E37.28945
G1 X163.357 Y97.594 E37.38116
G1 X164.929 Y99.846 E37.4725
G1 X166.553 Y102.041 E37.56332
G1 X168.24 Y104.192 E37.65424
G1 X170.01 Y106.318 E37.74625
G1 X171.79 Y108.337 E37.83577
G1 X173.685 Y110.37 E37.92821
G1 X175.587 Y112.298 E38.01829
G1 X177.562 Y114.19 E38.10925
G1 X179.599 Y116.033 E38.20062
G1 X181.691 Y117.82 E38.29213
G1 X183.818 Y119.538 E38.38307
G1 X185.998 Y121.195 E38.47414
G1 X188.206 Y122.78 E38.56454
G1 X190.491 Y124.323 E38.65625
G1 X192.798 Y125.788 E38.74714
G1 X195.15 Y127.19 E38.83821
G1 X197.531 Y128.519 E38.92891
G1 X199.977 Y129.796 E39.02068
G1 X202.447 Y130.996 E39.11202
G1 X204.893 Y132.103 E39.20131
G1 X205.336 Y132.347 E39.21814
G1 X205.735 Y132.657 E39.23494
G1 X206.079 Y133.027 E39.25175
G1 X206.362 Y133.447 E39.26859
G1 X206.574 Y133.905 E39.28538
G1 X206.712 Y134.392 E39.30221
G1 X206.773 Y134.929 E39.32019
G1 X206.783 Y135.342 E39.33393
G1 X206.784 Y149.93 E39.81913
G1 X206.774 Y150.646 E39.84294
G1 X206.727 Y151.149 E39.85975
G1 X206.601 Y151.639 E39.87657
G1 X206.4 Y152.103 E39.89339
G1 X206.128 Y152.529 E39.9102
G1 X205.793 Y152.907 E39.927
G1 X205.402 Y153.228 E39.94383
G1 X204.965 Y153.483 E39.96066
G1 X204.494 Y153.666 E39.97746
G1 X204 Y153.773 E39.99427
G1 X203.255 Y153.81 E40.01908
G1 X17.087 Y153.811 E46.21106
G1 X16.389 Y153.802 E46.23427
G1 X15.885 Y153.755 E46.25111
G1 X15.395 Y153.63 E46.26793
G1 X14.931 Y153.429 E46.28475
G1 X14.505 Y153.158 E46.30154
G1 X14.126 Y152.823 E46.31836
G1 X13.805 Y152.432 E46.33519
G1 X13.55 Y151.996 E46.35199
G1 X13.366 Y151.525 E46.36881
G1 X13.259 Y151.031 E46.38562
G1 X13.222 Y150.355 E46.40814
G1 X13.221 Y135.637 E46.89766
G1 X13.231 Y134.968 E46.91991
G1 X13.279 Y134.465 E46.93672
G1 X13.405 Y133.975 E46.95355
G1 X13.607 Y133.512 E46.97035
G1 X13.879 Y133.086 E46.98716
G1 X14.385 Y132.555 E47.01155
G1 X16.654 Y130.669 E47.10969
G1 X18.669 Y128.892 E47.19904
G1 X20.684 Y127.014 E47.29066
G1 X22.629 Y125.096 E47.38151
G1 X24.536 Y123.104 E47.47323
G1 X26.385 Y121.06 E47.56491
G1 X28.15 Y118.995 E47.65526
G1 X29.856 Y116.88 E47.74563
G1 X31.514 Y114.701 E47.8367
G1 X33.123 Y112.458 E47.92851
G1 X34.648 Y110.2 E48.01914
G1 X36.134 Y107.859 E48.11136
G1 X37.511 Y105.547 E48.20087
G1 X38.858 Y103.134 E48.29278
G1 X40.118 Y100.718 E48.38341
G1 X41.324 Y98.238 E48.47513
G1 X42.435 Y95.777 E48.56494
G1 X43.522 Y93.183 E48.65848
G1 X44.483 Y90.681 E48.74763
G1 X45.394 Y88.102 E48.8386
G1 X45.842 Y86.711 E48.88721
G1 X46.063 Y86.056 E48.9102
G1 X46.262 Y85.591 E48.92702
G1 X46.532 Y85.164 E48.94382
G1 X46.865 Y84.784 E48.96063
G1 X47.255 Y84.461 E48.97747
G1 F1800 E41.97747
G1 F300 Z0.4
G0 F3000 X105.21 Y138.011 Z0.4
;TYPE:SUPPORT
G1 F300 Z0.2
G1 F1800 E48.97747
G1 F1200 X114.81 Y138.011 E49.29677
G1 X114.81 Y147.611 E49.61607
G1 X105.21 Y147.611 E49.93536
G1 X105.21 Y138.011 E50.25466
G1 F1800 E43.25466
G1 F300 Z0.4
G0 F3000 X108.147 Y140.712 Z0.4
G1 F300 Z0.2
G1 F1800 E50.25466
G1 F1200 X107.723 Y141.209 E50.27639
G1 X107.393 Y141.804 E50.29902
G1 X107.229 Y142.493 E50.32257
G1 X107.229 Y143.176 E50.34529
G1 X107.396 Y143.786 E50.36633
G1 X107.676 Y144.37 E50.38787
G1 X108.153 Y144.919 E50.41206
G1 X108.724 Y145.296 E50.43481
G1 X109.337 Y145.53 E50.45664
G1 X110.01 Y145.609 E50.47918
G1 X110.683 Y145.53 E50.50171
G1 X111.296 Y145.296 E50.52354
G1 X111.867 Y144.919 E50.54629
G1 X112.344 Y144.37 E50.57048
G1 X112.624 Y143.786 E50.59202
G1 X112.791 Y143.176 E50.61306
G1 X112.791 Y142.493 E50.63578
G1 X112.627 Y141.804 E50.65933
G1 X112.297 Y141.209 E50.68196
G1 X111.873 Y140.712 E50.70369
G1 X111.33 Y140.338 E50.72562
G1 X110.658 Y140.096 E50.74938
G1 X110.01 Y139.998 E50.77117
G1 X109.362 Y140.096 E50.79297
G1 X108.69 Y140.338 E50.81673
G1 X108.147 Y140.712 E50.83866
G0 F3000 X107.459 Y141.351
G1 F1200 X105.369 Y141.351 E50.90817
G1 F1800 E43.90817
G1 F300 Z0.4
G0 F3000 X105.369 Y138.684 Z0.4
G1 F300 Z0.2
G1 F1800 E50.90817
G1 F1200 X114.649 Y138.684 E51.21683
G1 F1800 E44.21683
G1 F300 Z0.4
G0 F3000 X114.649 Y141.351 Z0.4
G1 F300 Z0.2
G1 F1800 E51.21683
G1 F1200 X112.558 Y141.351 E51.28637
G0 F3000 X112.014 Y140.629
G1 F1200 X112.014 Y138.171 E51.36813
G1 F1800 E44.36813
G1 F300 Z0.4
G0 F3000 X109.347 Y138.171 Z0.4
G1 F300 Z0.2
G1 F1800 E51.36813
G1 F1200 X109.347 Y139.937 E51.42686
G1 F1800 E44.42686
G1 F300 Z0.4
G0 F3000 X106.68 Y138.171 Z0.4
G1 F300 Z0.2
