;FLAVOR:Marlin
;TIME:10536
;Filament used: 6.33475m
;Layer height: 0.2
;MINX:12.421
;MINY:98.2
;MINZ:0.2
;MAXX:207.584
;MAXY:121.8
;MAXZ:16.8
;Generated with Cura_SteamEngine master
M82 ;absolute extrusion mode
;Sliced at: Sun 09-10-2022 23:23:55
;Basic settings: Layer height: 0.2 Walls: 0.8 Fill: 30.0
G21 ;metric values
G90 ;absolute positioning
M82 ;set extruder to absolute mode
M107 ;start with the fan off
M117 Start heating ...
M104 S200
M117 Homing X/Y ...
G28 X0 Y0 ;move X/Y to min endstops
M117 Homing Z ...
G28 Z0 ;move Z to min endstops
G1 Z15.0 F100 ;move the platform down 15mm
M117 Heating ...
M109 S200
M117 Start cleaning ...
G92 E0 ;zero the extruded length
G1 F200 E10 ;extrude 10mm of feed stock
G92 E0 ;zero the extruded length again
M117 Intro line ...
G1 Z2.0 F3000 ; Move Z Axis up little to prevent scratching of Heat Bed
G1 X0.1 Y20 Z0.2 F5000.0 ; Move to start position
G1 X0.1 Y200.0 Z0.2 F1500.0 E15 ; Draw the first line
G1 X0.4 Y200.0 Z0.2 F5000.0 ; Move to side a little
G1 X0.4 Y20 Z0.3 F1500.0 E30 ; Draw the second line
G92 E0 ; Reset Extruder
G1 E-1 F500 ; Retract filiment by 1 mm
G1 Z2.0 F3000 ; Move Z Axis up little to prevent scratching of Heat Bed
G1 X5 Y20 Z0.3 F100 ; Move over to prevent blob squish
G1 F100
G92 E0 ; Reset Extruder
M117 Printing...

G92 E0
G92 E0
G1 F1800 E-7
;LAYER_COUNT:83
;LAYER:0
M107
G1 F300 Z0.4
G0 F3000 X15.861 Y98.25 Z0.4
;TYPE:SKIRT
G1 F300 Z0.2
G1 F1800 E0
G1 F1200 X16.639 Y98.202 E0.02593
G1 X16.751 Y98.2 E0.02965
G1 X202.933 Y98.2 E6.22209
G1 X203.631 Y98.21 E6.24531
G1 X204.195 Y98.258 E6.26413
G1 X204.745 Y98.385 E6.28291
G1 X205.273 Y98.589 E6.30174
G1 X205.767 Y98.864 E6.32054
G1 X206.216 Y99.207 E6.33933
G1 X206.613 Y99.609 E6.35812
G1 X206.95 Y100.064 E6.37696
G1 X207.218 Y100.561 E6.39574
G1 X207.414 Y101.091 E6.41453
G1 X207.534 Y101.644 E6.43335
G1 X207.581 Y102.419 E6.45918
G1 X207.583 Y102.531 E6.4629
G1 X207.584 Y117.13 E6.94847
G1 X207.574 Y117.846 E6.97228
G1 X207.526 Y118.409 E6.99108
G1 X207.399 Y118.96 E7.00988
G1 X207.196 Y119.488 E7.0287
G1 X206.92 Y119.981 E7.04749
G1 X206.578 Y120.431 E7.06629
G1 X206.176 Y120.828 E7.08508
G1 X205.721 Y121.165 E7.10391
G1 X205.224 Y121.434 E7.12271
G1 X204.694 Y121.63 E7.1415
G1 X204.141 Y121.75 E7.16033
G1 X203.275 Y121.799 E7.18917
G1 X17.076 Y121.8 E13.38218
G1 X16.378 Y121.791 E13.4054
G1 X15.815 Y121.743 E13.42419
G1 X15.264 Y121.617 E13.44299
G1 X14.736 Y121.415 E13.46179
G1 X14.242 Y121.14 E13.4806
G1 X13.792 Y120.798 E13.4994
G1 X13.394 Y120.396 E13.51821
G1 X13.058 Y119.942 E13.537
G1 X12.788 Y119.445 E13.55581
G1 X12.591 Y118.915 E13.57461
G1 X12.471 Y118.363 E13.5934
G1 X12.422 Y117.566 E13.61996
G1 X12.421 Y102.82 E14.11041
G1 X12.43 Y102.155 E14.13253
G1 X12.478 Y101.592 E14.15133
G1 X12.604 Y101.041 E14.17013
G1 X12.807 Y100.513 E14.18894
G1 X13.083 Y100.019 E14.20776
G1 X13.425 Y99.569 E14.22656
G1 X13.827 Y99.172 E14.24535
G1 X14.281 Y98.835 E14.26416
G1 X14.778 Y98.566 E14.28296
G1 X15.308 Y98.369 E14.30176
G1 X15.861 Y98.25 E14.32058
G0 F3000 X15.661 Y98.692
G1 F1200 X16.329 Y98.61 E14.34296
G1 X16.751 Y98.6 E14.357
G1 X202.928 Y98.6 E20.54927
G1 X203.626 Y98.61 E20.57249
G1 X204.16 Y98.658 E20.59032
G1 X204.681 Y98.784 E20.60815
G1 X205.178 Y98.987 E20.62601
G1 X205.639 Y99.261 E20.64384
G1 X206.054 Y99.6 E20.66167
G1 X206.414 Y99.998 E20.67952
G1 X206.711 Y100.444 E20.69734
G1 X206.939 Y100.93 E20.71519
G1 X207.091 Y101.444 E20.73302
G1 X207.173 Y102.109 E20.75531
G1 X207.183 Y102.531 E20.76935
G1 X207.184 Y117.124 E21.25471
G1 X207.174 Y117.84 E21.27853
G1 X207.126 Y118.374 E21.29636
G1 X207 Y118.896 E21.31422
G1 X206.798 Y119.392 E21.33203
G1 X206.524 Y119.853 E21.34987
G1 X206.185 Y120.269 E21.36772
G1 X205.787 Y120.629 E21.38557
G1 X205.341 Y120.926 E21.40339
G1 X204.856 Y121.154 E21.42121
G1 X204.342 Y121.307 E21.43905
G1 X203.664 Y121.389 E21.46177
G1 X203.175 Y121.4 E21.47803
G1 X17.082 Y121.4 E27.66751
G1 X16.384 Y121.391 E27.69073
G1 X15.849 Y121.344 E27.70859
G1 X15.328 Y121.218 E27.72642
G1 X14.831 Y121.016 E27.74426
G1 X14.37 Y120.743 E27.76208
G1 X13.954 Y120.404 E27.77993
G1 X13.593 Y120.008 E27.79776
G1 X13.295 Y119.562 E27.8156
G1 X13.067 Y119.076 E27.83345
G1 X12.914 Y118.562 E27.85129
G1 X12.831 Y117.888 E27.87387
G1 X12.821 Y117.458 E27.88818
G1 X12.821 Y102.825 E28.37488
G1 X12.83 Y102.16 E28.397
G1 X12.878 Y101.626 E28.41483
G1 X13.004 Y101.105 E28.43266
G1 X13.206 Y100.608 E28.4505
G1 X13.479 Y100.147 E28.46832
G1 X13.818 Y99.731 E28.48617
G1 X14.215 Y99.371 E28.50399
G1 X14.662 Y99.073 E28.52186
G1 X15.147 Y98.845 E28.53969
G1 X15.661 Y98.692 E28.55752
G0 F3000 X16.003 Y99.038
G1 F1200 X16.661 Y99.001 E28.57944
G1 X202.922 Y99 E34.77451
G1 X203.62 Y99.01 E34.79773
G1 X204.123 Y99.057 E34.81453
G1 X204.613 Y99.183 E34.83136
G1 X205.077 Y99.385 E34.84819
G1 X205.503 Y99.657 E34.865
G1 X205.881 Y99.992 E34.8818
G1 X206.201 Y100.383 E34.8986
G1 X206.456 Y100.82 E34.91543
G1 X206.639 Y101.291 E34.93224
G1 X206.746 Y101.785 E34.94905
G1 X206.782 Y102.441 E34.9709
G1 X206.784 Y117.119 E35.45909
G1 X206.774 Y117.835 E35.48291
G1 X206.727 Y118.338 E35.49971
G1 X206.601 Y118.828 E35.51654
G1 X206.4 Y119.292 E35.53336
G1 X206.128 Y119.718 E35.55017
G1 X205.793 Y120.096 E35.56697
G1 X205.402 Y120.417 E35.58379
G1 X204.965 Y120.672 E35.60062
G1 X204.494 Y120.855 E35.61743
G1 X204 Y120.962 E35.63424
G1 X203.255 Y120.999 E35.65905
G1 X17.087 Y121 E41.85102
G1 X16.389 Y120.991 E41.87424
G1 X15.885 Y120.944 E41.89108
G1 X15.395 Y120.819 E41.9079
G1 X14.931 Y120.618 E41.92471
G1 X14.505 Y120.347 E41.94151
G1 X14.126 Y120.012 E41.95833
G1 X13.805 Y119.621 E41.97516
G1 X13.55 Y119.185 E41.99196
G1 X13.366 Y118.714 E42.00877
G1 X13.259 Y118.22 E42.02559
G1 X13.222 Y117.544 E42.0481
G1 X13.221 Y102.831 E42.53746
G1 X13.23 Y102.166 E42.55958
G1 X13.277 Y101.662 E42.57642
G1 X13.403 Y101.173 E42.59321
G1 X13.604 Y100.709 E42.61003
G1 X13.875 Y100.282 E42.62685
G1 X14.21 Y99.904 E42.64365
G1 X14.601 Y99.583 E42.66048
G1 X15.038 Y99.328 E42.6773
G1 X15.509 Y99.144 E42.69412
G1 X16.003 Y99.038 E42.71093
G1 F1800 E35.71093
G1 F300 Z0.4
G0 F3000 X105.21 Y105.2 Z0.4
;TYPE:SUPPORT
G1 F300 Z0.2
G1 F1800 E42.71093
G1 F1200 X114.81 Y105.2 E43.03022
G1 X114.81 Y114.8 E43.34952
G1 X105.21 Y114.8 E43.66882
G1 X105.21 Y105.2 E43.98812
G1 F1800 E36.98812
G1 F300 Z0.4
G0 F3000 X107.229 Y109.67 Z0.4
G1 F300 Z0.2
G1 F1800 E43.98812
G1 F1200 X107.229 Y110.365 E44.01123
G1 X107.396 Y110.975 E44.03227
G1 X107.676 Y111.559 E44.05381
G1 X108.153 Y112.108 E44.078
G1 X108.724 Y112.485 E44.10075
G1 X109.337 Y112.719 E44.12258
G1 X110.01 Y112.798 E44.14512
G1 X110.683 Y112.719 E44.16765
G1 X111.296 Y112.485 E44.18948
G1 X111.867 Y112.108 E44.21223
G1 X112.344 Y111.559 E44.23642
G1 X112.624 Y110.975 E44.25797
G1 X112.791 Y110.365 E44.279
G1 X112.791 Y109.67 E44.30212
G1 X112.627 Y109.001 E44.32503
G1 X112.307 Y108.399 E44.3477
G1 X111.85 Y107.889 E44.37048
G1 X111.307 Y107.525 E44.39222
G1 X110.708 Y107.286 E44.41367
G1 X110.01 Y107.196 E44.43708
G1 X109.312 Y107.286 E44.46049
G1 X108.713 Y107.525 E44.48194
G1 X108.17 Y107.889 E44.50368
G1 X107.713 Y108.399 E44.52646
G1 X107.393 Y109.001 E44.54913
G1 X107.229 Y109.67 E44.57204
G0 F3000 X107.143 Y109.347
G1 F1200 X105.37 Y109.347 E44.63101
G1 F1800 E37.63101
G1 F300 Z0.4
G0 F3000 X105.37 Y106.68 Z0.4
G1 F300 Z0.2
G1 F1800 E44.63101
G1 F1200 X114.65 Y106.68 E44.93967
G1 F1800 E37.93967
G1 F300 Z0.4
G0 F3000 X114.65 Y109.347 Z0.4
G1 F300 Z0.2
G1 F1800 E44.93967
G1 F1200 X112.876 Y109.347 E44.99867
G1 F1800 E37.99867
G1 F300 Z0.4
G0 F3000 X112.014 Y107.834 Z0.4
G1 F300 Z0.2
G1 F1800 E44.99867
G1 F1200 X112.014 Y105.36 E45.08095
G1 F1800 E38.08095
G1 F300 Z0.4
G0 F3000 X109.347 Y105.36 Z0.4
G1 F300 Z0.2
G1 F1800 E45.08095
G1 F1200 X109.347 Y107.122 E45.13956
G1 F1800 E38.13956
G1 F300 Z0.4
G0 F3000 X106.68 Y105.36 Z0.4
G1 F300 Z0.2
G1 F1800 E45.13956
G1 F1200 X106.68 Y114.64 E45.44821
G1 F1800 E38.44821
G1 F300 Z0.4
G0 F3000 X109.347 Y114.64 Z0.4
G1 F300 Z0.2
G1 F1800 E45.44821
G1 F1200 X109.347 Y112.881 E45.50672
G1 F1800 E38.50672
G1 F300 Z0.4
G0 F3000 X107.859 Y112.014 Z0.4
G1 F300 Z0.2
G1 F1800 E45.50672
G1 F1200 X105.37 Y112.014 E45.5895
G1 F1800 E38.5895
G1 F300 Z0.4
G0 F3000 X112.014 Y112.183 Z0.4
G1 F300 Z0.2
G1 F1800 E45.5895
G1 F1200 X112.014 Y114.64 E45.67122
G1 F1800 E38.67122
G1 F300 Z0.4
G0 F3000 X112.162 Y112.014 Z0.4
G1 F300 Z0.2
G1 F1800 E45.67122
G1 F1200 X114.65 Y112.014 E45.75397
G1 F1800 E38.75397
G1 F300 Z0.4
;MESH:station.sensor.console.stl
G0 F3000 X91.31 Y103.6 Z0.4
;TYPE:WALL-INNER
G1 F300 Z0.2
G1 F1800 E45.75397
G1 F1200 X91.31 Y116.4 E46.1797
G1 X128.71 Y116.4 E47.42363
G1 X128.71 Y103.6 E47.84936
G1 X91.31 Y103.6 E49.09329
G0 F3000 X91.71 Y104
;TYPE:WALL-OUTER
G1 F1200 X91.71 Y116 E49.49241
G1 X128.31 Y116 E50.70973
G1 X128.31 Y104 E51.10886
G1 X91.71 Y104 E52.32618
G0 F3000 X91.71 Y104.2
G0 X91.27 Y104.2
G1 F1800 E45.32618
G1 F300 Z0.4
G0 F3000 X91.11 Y104.2 Z0.4
G0 X202.984 Y117.2
;TYPE:WALL-INNER
G1 F300 Z0.2
G1 F1800 E52.32618
G1 F1200 X17.021 Y117.2 E58.51133
G1 X17.021 Y102.8 E58.99028
G1 X202.983 Y102.8 E65.1754
G1 X202.984 Y117.2 E65.65434
G0 F3000 X203.384 Y117.6
;TYPE:WALL-OUTER
G1 F1200 X16.621 Y117.6 E71.86611
G1 X16.621 Y102.4 E72.37166
G1 X203.383 Y102.4 E78.58339
G1 X203.384 Y117.6 E79.08894
G0 F3000 X203.184 Y117.6
G0 X202.943 Y117.159
G0 X202.594 Y116.81
;TYPE:SKIN
G1 F1200 X17.411 Y116.81 E85.24816
G1 X17.411 Y103.19 E85.70116
G1 X202.593 Y103.19 E91.86034
G1 X202.594 Y116.81 E92.31334
G1 F1800 E85.31334
G0 F3000 X202.874 Y116.81
G0 X129.1 Y117.09
G1 F1800 E92.31334
G0 F3000 X129.1 Y116.79
G1 F1200 X129.1 Y103.21 E92.76501
G1 X90.92 Y103.21 E94.03488
G1 X90.92 Y116.79 E94.48656
G1 X129.1 Y116.79 E95.75643
G1 F1800 E88.75643
G0 F3000 X129.1 Y117.09
G0 X202.802 Y117.018
G0 X202.874 Y103.983
G1 F1800 E95.75643
G0 F3000 X202.412 Y103.983
G1 F1200 X201.799 Y103.37 E95.78526
G0 F3000 X201.234 Y103.37
G1 F1200 X202.412 Y104.549 E95.8407
G0 F3000 X202.412 Y105.114
G1 F1200 X200.668 Y103.37 E95.92273
G0 F3000 X200.102 Y103.37
G1 F1200 X202.412 Y105.68 E96.03138
G0 F3000 X202.412 Y106.246
G1 F1200 X199.537 Y103.37 E96.16664
G0 F3000 X198.971 Y103.37
G1 F1200 X202.412 Y106.812 E96.32852
G0 F3000 X202.412 Y107.377
G1 F1200 X198.405 Y103.37 E96.51699
G0 F3000 X197.839 Y103.37
G1 F1200 X202.412 Y107.943 E96.73209
G0 F3000 X202.412 Y108.509
G1 F1200 X197.274 Y103.37 E96.97379
G0 F3000 X196.708 Y103.37
G1 F1200 X202.412 Y109.074 E97.24209
G0 F3000 X202.412 Y109.64
G1 F1200 X196.142 Y103.37 E97.53701
G0 F3000 X195.577 Y103.37
G1 F1200 X202.413 Y110.206 E97.85856
G0 F3000 X202.413 Y110.772
G1 F1200 X195.011 Y103.37 E98.20672
G0 F3000 X194.445 Y103.37
G1 F1200 X202.413 Y111.338 E98.58151
G0 F3000 X202.413 Y111.903
G1 F1200 X193.88 Y103.37 E98.98288
G0 F3000 X193.314 Y103.37
G1 F1200 X202.413 Y112.469 E99.41087
G0 F3000 X202.413 Y113.035
G1 F1200 X192.748 Y103.37 E99.86548
G0 F3000 X192.183 Y103.37
G1 F1200 X202.413 Y113.6 E100.34667
G0 F3000 X202.413 Y114.166
G1 F1200 X191.617 Y103.37 E100.85448
G0 F3000 X191.051 Y103.37
G1 F1200 X202.413 Y114.732 E101.38891
G0 F3000 X202.413 Y115.298
G1 F1200 X190.486 Y103.37 E101.94995
G0 F3000 X189.92 Y103.37
G1 F1200 X202.413 Y115.863 E102.53758
G0 F3000 X202.413 Y116.429
G1 F1200 X189.354 Y103.37 E103.15183
G0 F3000 X188.789 Y103.37
G1 F1200 X202.048 Y116.63 E103.77552
G0 F3000 X201.483 Y116.63
G1 F1200 X188.223 Y103.37 E104.39923
G0 F3000 X187.657 Y103.37
G1 F1200 X200.917 Y116.63 E105.02294
G0 F3000 X200.351 Y116.63
G1 F1200 X187.091 Y103.37 E105.64665
G0 F3000 X186.526 Y103.37
G1 F1200 X199.785 Y116.63 E106.27034
G0 F3000 X199.22 Y116.63
G1 F1200 X185.96 Y103.37 E106.89405
G0 F3000 X185.394 Y103.37
G1 F1200 X198.654 Y116.63 E107.51776
G0 F3000 X198.088 Y116.63
G1 F1200 X184.829 Y103.37 E108.14144
G0 F3000 X184.263 Y103.37
G1 F1200 X197.523 Y116.63 E108.76515
G0 F3000 X196.957 Y116.63
G1 F1200 X183.697 Y103.37 E109.38886
G0 F3000 X183.132 Y103.37
G1 F1200 X196.391 Y116.63 E110.01255
G0 F3000 X195.826 Y116.63
G1 F1200 X182.566 Y103.37 E110.63626
G0 F3000 X182 Y103.37
G1 F1200 X195.26 Y116.63 E111.25997
G0 F3000 X194.694 Y116.63
G1 F1200 X181.435 Y103.37 E111.88365
G0 F3000 X180.869 Y103.37
G1 F1200 X194.129 Y116.63 E112.50736
G0 F3000 X193.563 Y116.63
G1 F1200 X180.303 Y103.37 E113.13107
G0 F3000 X179.738 Y103.37
G1 F1200 X192.997 Y116.63 E113.75476
G0 F3000 X192.432 Y116.63
G1 F1200 X179.172 Y103.37 E114.37847
G0 F3000 X178.606 Y103.37
G1 F1200 X191.866 Y116.63 E115.00218
G0 F3000 X191.3 Y116.63
G1 F1200 X178.041 Y103.37 E115.62586
G0 F3000 X177.475 Y103.37
G1 F1200 X190.734 Y116.63 E116.24955
G0 F3000 X190.169 Y116.63
G1 F1200 X176.909 Y103.37 E116.87326
G0 F3000 X176.343 Y103.37
G1 F1200 X189.603 Y116.63 E117.49697
G0 F3000 X189.037 Y116.63
G1 F1200 X175.778 Y103.37 E118.12066
G0 F3000 X175.212 Y103.37
G1 F1200 X188.472 Y116.63 E118.74437
G0 F3000 X187.906 Y116.63
G1 F1200 X174.646 Y103.37 E119.36808
G0 F3000 X174.081 Y103.37
G1 F1200 X187.34 Y116.63 E119.99176
G0 F3000 X186.775 Y116.63
G1 F1200 X173.515 Y103.37 E120.61547
G0 F3000 X172.949 Y103.37
G1 F1200 X186.209 Y116.63 E121.23918
G0 F3000 X185.643 Y116.63
G1 F1200 X172.384 Y103.37 E121.86287
G0 F3000 X171.818 Y103.37
G1 F1200 X185.078 Y116.63 E122.48658
G0 F3000 X184.512 Y116.63
G1 F1200 X171.252 Y103.37 E123.11029
G0 F3000 X170.687 Y103.37
G1 F1200 X183.946 Y116.63 E123.73397
G0 F3000 X183.381 Y116.63
G1 F1200 X170.121 Y103.37 E124.35768
G0 F3000 X169.555 Y103.37
G1 F1200 X182.815 Y116.63 E124.98139
G0 F3000 X182.249 Y116.63
G1 F1200 X168.99 Y103.37 E125.60508
G0 F3000 X168.424 Y103.37
G1 F1200 X181.684 Y116.63 E126.22879
G0 F3000 X181.118 Y116.63
G1 F1200 X167.858 Y103.37 E126.8525
G0 F3000 X167.292 Y103.37
G1 F1200 X180.552 Y116.63 E127.47621
G0 F3000 X179.986 Y116.63
G1 F1200 X166.727 Y103.37 E128.0999
G0 F3000 X166.161 Y103.37
G1 F1200 X179.421 Y116.63 E128.7236
G0 F3000 X178.855 Y116.63
G1 F1200 X165.595 Y103.37 E129.34731
G0 F3000 X165.03 Y103.37
G1 F1200 X178.289 Y116.63 E129.971
G0 F3000 X177.724 Y116.63
G1 F1200 X164.464 Y103.37 E130.59471
G0 F3000 X163.898 Y103.37
G1 F1200 X177.158 Y116.63 E131.21842
G0 F3000 X176.592 Y116.63
G1 F1200 X163.333 Y103.37 E131.84211
G0 F3000 X162.767 Y103.37
G1 F1200 X176.027 Y116.63 E132.46582
G0 F3000 X175.461 Y116.63
G1 F1200 X162.201 Y103.37 E133.08953
G0 F3000 X161.636 Y103.37
G1 F1200 X174.895 Y116.63 E133.71321
G0 F3000 X174.33 Y116.63
G1 F1200 X161.07 Y103.37 E134.33692
G0 F3000 X160.504 Y103.37
G1 F1200 X173.764 Y116.63 E134.96063
G0 F3000 X173.198 Y116.63
G1 F1200 X159.939 Y103.37 E135.58432
G0 F3000 X159.373 Y103.37
G1 F1200 X172.633 Y116.63 E136.20803
G0 F3000 X172.067 Y116.63
G1 F1200 X158.807 Y103.37 E136.83174
G0 F3000 X158.242 Y103.37
G1 F1200 X171.501 Y116.63 E137.45542
G0 F3000 X170.935 Y116.63
G1 F1200 X157.676 Y103.37 E138.07911
G0 F3000 X157.11 Y103.37
G1 F1200 X170.37 Y116.63 E138.70282
G0 F3000 X169.804 Y116.63
G1 F1200 X156.544 Y103.37 E139.32653
G0 F3000 X155.979 Y103.37
G1 F1200 X169.238 Y116.63 E139.95022
G0 F3000 X168.673 Y116.63
G1 F1200 X155.413 Y103.37 E140.57393
G0 F3000 X154.847 Y103.37
G1 F1200 X168.107 Y116.63 E141.19764
G0 F3000 X167.541 Y116.63
G1 F1200 X154.282 Y103.37 E141.82132
G0 F3000 X153.716 Y103.37
G1 F1200 X166.976 Y116.63 E142.44503
G0 F3000 X166.41 Y116.63
G1 F1200 X153.15 Y103.37 E143.06874
G0 F3000 X152.585 Y103.37
G1 F1200 X165.844 Y116.63 E143.69243
G0 F3000 X165.279 Y116.63
G1 F1200 X152.019 Y103.37 E144.31614
G0 F3000 X151.453 Y103.37
G1 F1200 X164.713 Y116.63 E144.93985
G0 F3000 X164.147 Y116.63
G1 F1200 X150.888 Y103.37 E145.56353
G0 F3000 X150.322 Y103.37
G1 F1200 X163.582 Y116.63 E146.18724
G0 F3000 X163.016 Y116.63
G1 F1200 X149.756 Y103.37 E146.81095
G0 F3000 X149.191 Y103.37
G1 F1200 X162.45 Y116.63 E147.43464
G0 F3000 X161.885 Y116.63
G1 F1200 X148.625 Y103.37 E148.05835
G0 F3000 X148.059 Y103.37
G1 F1200 X161.319 Y116.63 E148.68206
G0 F3000 X160.753 Y116.63
G1 F1200 X147.493 Y103.37 E149.30577
G0 F3000 X146.928 Y103.37
G1 F1200 X160.187 Y116.63 E149.92945
G0 F3000 X159.622 Y116.63
G1 F1200 X146.362 Y103.37 E150.55316
