;FLAVOR:Marlin
;TIME:11532
;Filament used: 7.17456m
;Layer height: 0.2
;MINX:79
;MINY:88.024
;MINZ:0.2
;MAXX:141
;MAXY:131.975
;MAXZ:38.2
;Generated with Cura_SteamEngine master
M82 ;absolute extrusion mode
;Sliced at: Thu 06-10-2022 00:30:30
;Basic settings: Layer height: 0.2 Walls: 0.8 Fill: 30.0
G21 ;metric values
G90 ;absolute positioning
M82 ;set extruder to absolute mode
M107 ;start with the fan off
M117 Start heating ...
M104 S200
M117 Homing X/Y ...
G28 X0 Y0 ;move X/Y to min endstops
M117 Homing Z ...
G28 Z0 ;move Z to min endstops
G1 Z15.0 F100 ;move the platform down 15mm
M117 Heating ...
M109 S200
M117 Start cleaning ...
G92 E0 ;zero the extruded length
G1 F200 E10 ;extrude 10mm of feed stock
G92 E0 ;zero the extruded length again
M117 Intro line ...
G1 Z2.0 F3000 ; Move Z Axis up little to prevent scratching of Heat Bed
G1 X0.1 Y20 Z0.2 F5000.0 ; Move to start position
G1 X0.1 Y200.0 Z0.2 F1500.0 E15 ; Draw the first line
G1 X0.4 Y200.0 Z0.2 F5000.0 ; Move to side a little
G1 X0.4 Y20 Z0.3 F1500.0 E30 ; Draw the second line
G92 E0 ; Reset Extruder
G1 E-1 F500 ; Retract filiment by 1 mm
G1 Z2.0 F3000 ; Move Z Axis up little to prevent scratching of Heat Bed
G1 X5 Y20 Z0.3 F100 ; Move over to prevent blob squish
G1 F100
G92 E0 ; Reset Extruder
M117 Printing...

G92 E0
G92 E0
G1 F1800 E-7
;LAYER_COUNT:190
;LAYER:0
M107
G1 F300 Z0.4
G0 F3000 X80.406 Y88.997 Z0.4
;TYPE:SKIRT
G1 F300 Z0.2
G1 F1800 E0
G1 F1200 X80.86 Y88.66 E0.01881
G1 X81.357 Y88.391 E0.0376
G1 X81.887 Y88.194 E0.05641
G1 X82.44 Y88.075 E0.07522
G1 X83.218 Y88.027 E0.10115
G1 X83.33 Y88.025 E0.10487
G1 X117.303 Y88.024 E1.23482
G1 X132.194 Y88.027 E1.7301
G1 X133.34 Y88.025 E1.76821
G1 X136.35 Y88.025 E1.86833
G1 X137.048 Y88.035 E1.89154
G1 X137.612 Y88.083 E1.91037
G1 X138.162 Y88.21 E1.92914
G1 X138.69 Y88.414 E1.94797
G1 X139.184 Y88.689 E1.96678
G1 X139.633 Y89.032 E1.98557
G1 X140.03 Y89.434 E2.00436
G1 X140.367 Y89.889 E2.02319
G1 X140.635 Y90.386 E2.04197
G1 X140.831 Y90.916 E2.06077
G1 X140.951 Y91.469 E2.07959
G1 X140.998 Y92.243 E2.10538
G1 X141 Y92.355 E2.1091
G1 X141 Y127.289 E3.27101
G1 X140.991 Y128.016 E3.2952
G1 X140.944 Y128.579 E3.31399
G1 X140.818 Y129.13 E3.33279
G1 X140.616 Y129.658 E3.35159
G1 X140.341 Y130.152 E3.37039
G1 X139.999 Y130.602 E3.38919
G1 X139.597 Y131 E3.40801
G1 X139.144 Y131.337 E3.42679
G1 X138.647 Y131.607 E3.4456
G1 X138.117 Y131.804 E3.46441
G1 X137.565 Y131.925 E3.4832
G1 X136.782 Y131.973 E3.50929
G1 X136.67 Y131.975 E3.51302
G1 X83.655 Y131.975 E5.2763
G1 X82.957 Y131.966 E5.29952
G1 X82.394 Y131.918 E5.31831
G1 X81.843 Y131.792 E5.33711
G1 X81.315 Y131.59 E5.35592
G1 X80.821 Y131.315 E5.37472
G1 X80.371 Y130.973 E5.39352
G1 X79.973 Y130.571 E5.41234
G1 X79.637 Y130.117 E5.43112
G1 X79.367 Y129.62 E5.44993
G1 X79.17 Y129.09 E5.46874
G1 X79.05 Y128.538 E5.48753
G1 X79.001 Y127.741 E5.51409
G1 X79 Y92.645 E6.68138
G1 X79.009 Y91.98 E6.7035
G1 X79.057 Y91.417 E6.7223
G1 X79.183 Y90.866 E6.7411
G1 X79.386 Y90.338 E6.75991
G1 X79.662 Y89.844 E6.77873
G1 X80.004 Y89.394 E6.79753
G1 X80.406 Y88.997 E6.81632
G0 F3000 X80.794 Y89.196
G1 F1200 X81.241 Y88.898 E6.83419
G1 X81.726 Y88.67 E6.85202
G1 X82.24 Y88.517 E6.86985
G1 X82.908 Y88.435 E6.89224
G1 X83.33 Y88.425 E6.90628
G1 X117.303 Y88.424 E8.03622
G1 X132.195 Y88.427 E8.53153
G1 X133.341 Y88.425 E8.56965
G1 X136.345 Y88.425 E8.66956
G1 X137.043 Y88.435 E8.69278
G1 X137.577 Y88.483 E8.71061
G1 X138.098 Y88.609 E8.72844
G1 X138.595 Y88.812 E8.7463
G1 X139.056 Y89.086 E8.76413
G1 X139.471 Y89.425 E8.78196
G1 X139.831 Y89.823 E8.79981
G1 X140.128 Y90.269 E8.81763
G1 X140.356 Y90.755 E8.83548
G1 X140.508 Y91.269 E8.85331
G1 X140.59 Y91.934 E8.8756
G1 X140.6 Y92.355 E8.8896
G1 X140.6 Y127.284 E10.05135
G1 X140.591 Y128.011 E10.07553
G1 X140.544 Y128.545 E10.09336
G1 X140.419 Y129.066 E10.11118
G1 X140.217 Y129.563 E10.12902
G1 X139.944 Y130.025 E10.14687
G1 X139.606 Y130.441 E10.1647
G1 X139.209 Y130.802 E10.18255
G1 X138.763 Y131.1 E10.20039
G1 X138.278 Y131.328 E10.21821
G1 X137.764 Y131.482 E10.23606
G1 X137.092 Y131.565 E10.25858
G1 X136.67 Y131.575 E10.27262
G1 X83.661 Y131.575 E12.0357
G1 X82.963 Y131.566 E12.05892
G1 X82.428 Y131.519 E12.07678
G1 X81.907 Y131.393 E12.09461
G1 X81.41 Y131.191 E12.11246
G1 X80.949 Y130.918 E12.13028
G1 X80.533 Y130.579 E12.14812
G1 X80.172 Y130.183 E12.16595
G1 X79.874 Y129.737 E12.18379
G1 X79.646 Y129.251 E12.20164
G1 X79.493 Y128.737 E12.21948
G1 X79.41 Y128.063 E12.24207
G1 X79.4 Y127.633 E12.25637
G1 X79.4 Y92.65 E13.41991
G1 X79.409 Y91.985 E13.44203
G1 X79.457 Y91.451 E13.45986
G1 X79.583 Y90.93 E13.47769
G1 X79.785 Y90.433 E13.49553
G1 X80.058 Y89.972 E13.51335
G1 X80.397 Y89.556 E13.5312
G1 X80.794 Y89.196 E13.54903
G0 F3000 X80.789 Y89.729
G1 F1200 X81.18 Y89.408 E13.56585
G1 X81.617 Y89.153 E13.58268
G1 X82.088 Y88.969 E13.5995
G1 X82.582 Y88.863 E13.6163
G1 X83.24 Y88.826 E13.63822
G1 X117.303 Y88.824 E14.77116
G1 X132.194 Y88.827 E15.26644
G1 X133.341 Y88.825 E15.30459
G1 X136.339 Y88.825 E15.4043
G1 X137.037 Y88.835 E15.42752
G1 X137.54 Y88.882 E15.44433
G1 X138.03 Y89.008 E15.46115
G1 X138.494 Y89.21 E15.47798
G1 X138.92 Y89.482 E15.4948
G1 X139.298 Y89.817 E15.51159
G1 X139.618 Y90.208 E15.5284
G1 X139.873 Y90.645 E15.54523
G1 X140.056 Y91.116 E15.56203
G1 X140.163 Y91.61 E15.57885
G1 X140.199 Y92.265 E15.60066
G1 X140.2 Y127.279 E16.76523
G1 X140.191 Y128.006 E16.78942
G1 X140.145 Y128.509 E16.80622
G1 X140.02 Y128.999 E16.82304
G1 X139.819 Y129.463 E16.83985
G1 X139.548 Y129.89 E16.85667
G1 X139.213 Y130.269 E16.8735
G1 X138.823 Y130.59 E16.8903
G1 X138.387 Y130.846 E16.90712
G1 X137.916 Y131.029 E16.92392
G1 X137.422 Y131.137 E16.94074
G1 X136.76 Y131.174 E16.96279
G1 X83.666 Y131.175 E18.72871
G1 X82.968 Y131.166 E18.75192
G1 X82.464 Y131.119 E18.76876
G1 X81.974 Y130.994 E18.78558
G1 X81.51 Y130.793 E18.8024
G1 X81.084 Y130.522 E18.81919
G1 X80.705 Y130.187 E18.83601
G1 X80.384 Y129.796 E18.85284
G1 X80.129 Y129.36 E18.86964
G1 X79.945 Y128.889 E18.88646
G1 X79.838 Y128.395 E18.90327
G1 X79.801 Y127.719 E18.92579
G1 X79.8 Y92.656 E20.09199
G1 X79.809 Y91.991 E20.11411
G1 X79.856 Y91.487 E20.13094
G1 X79.982 Y90.998 E20.14774
G1 X80.183 Y90.534 E20.16456
G1 X80.454 Y90.107 E20.18138
G1 X80.789 Y89.729 E20.19818
G1 F1800 E13.19818
G1 F300 Z0.4
G0 F3000 X118.3 Y92.225 Z0.4
;TYPE:SUPPORT
G1 F300 Z0.2
G1 F1800 E20.19818
G1 F1200 X132 Y92.227 E20.65384
G1 X132 Y93.825 E20.70699
G1 X127.434 Y93.825 E20.85886
G1 X127.035 Y94.224 E20.87762
G1 X127.035 Y95.025 E20.90427
G1 X118.3 Y95.025 E21.19479
G1 X118.3 Y92.225 E21.28792
G0 F3000 X118.46 Y93.345
G1 F1200 X131.84 Y93.345 E21.73294
G0 F3000 X130.683 Y93.665
G1 F1200 X130.683 Y92.387 E21.77545
G1 F1800 E14.77545
G1 F300 Z0.4
G0 F3000 X128.016 Y92.387 Z0.4
G1 F300 Z0.2
G1 F1800 E21.77545
G1 F1200 X128.016 Y93.665 E21.81795
G1 F1800 E14.81795
G1 F300 Z0.4
G0 F3000 X125.349 Y94.865 Z0.4
G1 F300 Z0.2
G1 F1800 E21.81795
G1 F1200 X125.349 Y92.387 E21.90037
G1 F1800 E14.90037
G1 F300 Z0.4
G0 F3000 X122.682 Y92.386 Z0.4
G1 F300 Z0.2
G1 F1800 E21.90037
G1 F1200 X122.682 Y94.865 E21.98283
G1 F1800 E14.98283
G1 F300 Z0.4
G0 F3000 X120.015 Y94.865 Z0.4
G1 F300 Z0.2
G1 F1800 E21.98283
G1 F1200 X120.015 Y92.386 E22.06528
G1 F1800 E15.06528
G1 F300 Z0.4
;MESH:station.sensor.box.stl
G0 F3000 X109.15 Y113.159 Z0.4
;TYPE:WALL-INNER
G1 F300 Z0.2
G1 F1800 E22.06528
G1 F1200 X109.271 Y113.184 E22.06939
G1 X109.941 Y113.269 E22.09185
G1 X110.062 Y113.268 E22.09587
G1 X110.685 Y113.199 E22.11672
G1 X110.798 Y113.168 E22.12062
G1 X111.391 Y112.963 E22.14149
G1 X111.492 Y112.906 E22.14535
G1 X112.029 Y112.57 E22.16641
G1 X112.553 Y112.051 E22.19094
G1 X112.947 Y111.429 E22.21543
G1 X113.191 Y110.734 E22.23993
G1 X113.275 Y109.997 E22.2646
G1 X113.175 Y109.197 E22.29142
G1 X112.882 Y108.444 E22.31829
G1 X112.413 Y107.786 E22.34517
G1 X111.797 Y107.261 E22.37209
G1 X111.071 Y106.905 E22.39898
G1 X110.281 Y106.736 E22.42585
G1 X109.483 Y106.767 E22.45241
G1 X109.363 Y106.797 E22.45653
G1 X108.696 Y106.996 E22.47968
G1 X108.009 Y107.4 E22.50619
G1 X107.918 Y107.485 E22.51033
G1 X107.432 Y107.969 E22.53314
G1 X107.365 Y108.072 E22.53723
G1 X107.014 Y108.659 E22.55998
G1 X106.973 Y108.775 E22.56407
G1 X106.777 Y109.425 E22.58665
G1 X106.764 Y109.549 E22.59079
G1 X106.736 Y110.236 E22.61366
G1 X106.754 Y110.358 E22.61776
G1 X106.892 Y111.023 E22.64035
G1 X106.938 Y111.137 E22.64444
G1 X107.238 Y111.757 E22.66735
G1 X107.311 Y111.855 E22.67142
G1 X107.751 Y112.377 E22.69412
G1 X107.846 Y112.456 E22.69823
G1 X108.402 Y112.854 E22.72097
G1 X108.511 Y112.908 E22.72502
G1 X109.15 Y113.159 E22.74785
G0 F3000 X109.265 Y112.774
;TYPE:WALL-OUTER
G1 F1200 X109.337 Y112.789 E22.7503
G1 X109.964 Y112.869 E22.77132
G1 X110.037 Y112.868 E22.77375
G1 X110.61 Y112.805 E22.79292
G1 X110.68 Y112.786 E22.79534
G1 X111.226 Y112.597 E22.81455
G1 X111.288 Y112.562 E22.81692
G1 X111.779 Y112.255 E22.83618
G1 X112.239 Y111.799 E22.85773
G1 X112.585 Y111.253 E22.87922
G1 X112.799 Y110.644 E22.90069
G1 X112.872 Y109.999 E22.92228
G1 X112.784 Y109.296 E22.94585
G1 X112.527 Y108.635 E22.96944
G1 X112.116 Y108.058 E22.993
G1 X111.576 Y107.598 E23.01659
G1 X110.939 Y107.286 E23.04018
G1 X110.246 Y107.138 E23.06375
G1 X109.54 Y107.165 E23.08725
G1 X109.469 Y107.183 E23.08969
G1 X108.857 Y107.365 E23.11092
G1 X108.249 Y107.723 E23.13439
G1 X108.195 Y107.773 E23.13684
G1 X107.744 Y108.223 E23.15803
G1 X107.704 Y108.284 E23.16046
G1 X107.378 Y108.829 E23.18158
G1 X107.354 Y108.898 E23.18401
G1 X107.171 Y109.505 E23.20509
G1 X107.163 Y109.579 E23.20757
G1 X107.137 Y110.214 E23.22871
G1 X107.148 Y110.287 E23.23116
G1 X107.277 Y110.908 E23.25226
G1 X107.304 Y110.976 E23.25469
G1 X107.582 Y111.549 E23.27587
G1 X107.625 Y111.607 E23.27828
G1 X108.035 Y112.093 E23.29942
G1 X108.091 Y112.14 E23.30186
G1 X108.608 Y112.51 E23.323
G1 X108.673 Y112.542 E23.32541
G1 X109.265 Y112.774 E23.34656
G0 F3000 X109.337 Y112.789
G0 X109.462 Y112.805
G0 X109.407 Y113.24
G1 F1800 E16.34656
G1 F300 Z0.4
G0 F3000 X109.387 Y113.399 Z0.4
G0 X119.399 Y119.254
;TYPE:WALL-INNER
G1 F300 Z0.2
G1 F1800 E23.34656
G1 F1200 X120.218 Y119.455 E23.37461
G1 X121.065 Y119.453 E23.40278
G1 X121.882 Y119.25 E23.43078
G1 X122.629 Y118.857 E23.45885
G1 X123.169 Y118.377 E23.48288
G1 X123.25 Y118.313 E23.48632
G1 X123.738 Y117.602 E23.515
G1 X124.038 Y116.813 E23.54307
G1 X124.139 Y115.974 E23.57118
G1 X124.039 Y115.158 E23.59852
G1 X124.011 Y115.065 E23.60175
G1 X123.747 Y114.373 E23.62639
G1 X123.699 Y114.288 E23.62963
G1 X123.275 Y113.676 E23.6544
G1 X123.208 Y113.606 E23.65762
G1 X122.643 Y113.107 E23.68269
G1 X122.563 Y113.058 E23.68581
G1 X121.912 Y112.717 E23.71026
G1 X121.824 Y112.684 E23.71338
G1 X121.101 Y112.507 E23.73814
G1 X121.007 Y112.495 E23.74129
G1 X120.253 Y112.496 E23.76637
G1 X120.158 Y112.508 E23.76955
G1 X119.437 Y112.687 E23.79426
G1 X119.346 Y112.722 E23.79751
G1 X118.631 Y113.101 E23.82442
G1 X118.05 Y113.617 E23.85027
G1 X117.985 Y113.688 E23.85347
G1 X117.563 Y114.303 E23.87827
G1 X117.516 Y114.386 E23.88145
G1 X117.253 Y115.083 E23.90622
G1 X117.227 Y115.174 E23.90937
G1 X117.138 Y115.91 E23.93403
G1 X117.132 Y116.007 E23.93726
G1 X117.236 Y116.826 E23.96472
G1 X117.538 Y117.613 E23.99276
G1 X118.018 Y118.306 E24.0208
G1 X118.652 Y118.864 E24.04889
G1 X119.399 Y119.254 E24.07692
G0 F3000 X119.541 Y118.877
;TYPE:WALL-OUTER
G1 F1200 X120.266 Y119.055 E24.10174
G1 X121.015 Y119.053 E24.12666
G1 X121.739 Y118.873 E24.15147
G1 X122.4 Y118.526 E24.1763
G1 X122.913 Y118.069 E24.19915
G1 X122.955 Y118.036 E24.20093
G1 X123.381 Y117.415 E24.22598
G1 X123.647 Y116.717 E24.25082
G1 X123.736 Y115.975 E24.27568
G1 X123.646 Y115.241 E24.30027
G1 X123.632 Y115.195 E24.30187
G1 X123.384 Y114.544 E24.32504
G1 X123.36 Y114.502 E24.32665
G1 X122.963 Y113.929 E24.34983
G1 X122.93 Y113.894 E24.35143
G1 X122.404 Y113.43 E24.37476
G1 X122.365 Y113.406 E24.37629
G1 X121.749 Y113.083 E24.39942
G1 X121.706 Y113.067 E24.40095
G1 X121.027 Y112.901 E24.4242
G1 X120.981 Y112.895 E24.42574
G1 X120.279 Y112.896 E24.44909
G1 X120.232 Y112.902 E24.45066
G1 X119.556 Y113.07 E24.47383
G1 X119.511 Y113.087 E24.47543
G1 X118.861 Y113.432 E24.49991
G1 X118.331 Y113.902 E24.52347
G1 X118.299 Y113.937 E24.52504
G1 X117.903 Y114.514 E24.54832
G1 X117.88 Y114.555 E24.54988
G1 X117.633 Y115.209 E24.57314
G1 X117.62 Y115.254 E24.57469
G1 X117.537 Y115.946 E24.59787
G1 X117.534 Y115.994 E24.59947
G1 X117.627 Y116.728 E24.62408
G1 X117.894 Y117.425 E24.64891
G1 X118.319 Y118.038 E24.67372
G1 X118.88 Y118.532 E24.69858
G1 X119.541 Y118.877 E24.72338
G0 F3000 X119.735 Y118.924
G0 X119.63 Y119.351
G1 F1800 E17.72338
G1 F300 Z0.4
G0 F3000 X119.592 Y119.506 Z0.4
G0 X133.6 Y96.625
;TYPE:WALL-INNER
G1 F300 Z0.2
G1 F1800 E24.72338
G1 F1200 X133.6 Y92.625 E24.85642
G1 X136.4 Y92.625 E24.94955
G1 X136.4 Y127.375 E26.10534
G1 X83.6 Y127.375 E27.86147
G1 X83.6 Y92.625 E29.01726
G1 X116.7 Y92.625 E30.11817
G1 X116.7 Y96.625 E30.25121
G1 X133.6 Y96.625 E30.81331
G0 F3000 X133.2 Y96.225
;TYPE:WALL-OUTER
G1 F1200 X133.2 Y92.225 E30.94635
G1 X136.8 Y92.225 E31.06609
G1 X136.8 Y127.775 E32.24848
G1 X83.2 Y127.775 E34.03123
G1 X83.2 Y92.225 E35.21362
G1 X117.1 Y92.225 E36.34114
G1 X117.1 Y96.225 E36.47418
G1 X133.2 Y96.225 E37.00967
G0 F3000 X133.2 Y96.025
G0 X133.64 Y96.025
G0 X133.99 Y97.015
;TYPE:SKIN
G1 F1200 X133.99 Y93.015 E37.14271
G1 X136.01 Y93.015 E37.2099
G1 X136.01 Y126.985 E38.33974
G1 X83.99 Y126.985 E40.06994
G1 X83.99 Y93.015 E41.19978
G1 X116.31 Y93.015 E42.27475
G1 X116.31 Y97.015 E42.40779
G1 X133.99 Y97.015 E42.99583
G1 F1800 E35.99583
G1 F300 Z0.4
G0 F3000 X133.682 Y96.707 Z0.4
G0 X122.876 Y112.793
G1 F300 Z0.2
G1 F1800 E42.99583
G1 F1200 X122.756 Y112.719 E43.00052
G1 X122.071 Y112.36 E43.02624
G1 X121.939 Y112.311 E43.03093
G1 X121.173 Y112.123 E43.05716
G1 X121.032 Y112.105 E43.06189
G1 X120.228 Y112.106 E43.08863
G1 X120.086 Y112.124 E43.09339
G1 X119.32 Y112.314 E43.11964
G1 X119.184 Y112.367 E43.12449
G1 X118.407 Y112.779 E43.15374
G1 X117.775 Y113.339 E43.18183
G1 X117.679 Y113.445 E43.18659
G1 X117.232 Y114.096 E43.21285
G1 X117.161 Y114.22 E43.2176
G1 X116.883 Y114.96 E43.2439
G1 X116.843 Y115.096 E43.24861
G1 X116.75 Y115.874 E43.27467
G1 X116.74 Y116.019 E43.27951
G1 X116.855 Y116.922 E43.30978
G1 X117.191 Y117.796 E43.34093
G1 X117.725 Y118.567 E43.37212
G1 X118.43 Y119.188 E43.40337
G1 X119.26 Y119.621 E43.4345
G1 X120.171 Y119.845 E43.46571
G1 X121.113 Y119.843 E43.49704
G1 X122.022 Y119.617 E43.52819
G1 X122.853 Y119.18 E43.55942
G1 X123.411 Y118.683 E43.58427
G1 X123.538 Y118.582 E43.58967
G1 X124.085 Y117.784 E43.62185
G1 X124.42 Y116.907 E43.65307
G1 X124.531 Y115.974 E43.68432
G1 X124.422 Y115.078 E43.71434
G1 X124.38 Y114.939 E43.71917
G1 X124.101 Y114.207 E43.74523
G1 X124.03 Y114.081 E43.75004
G1 X123.578 Y113.429 E43.77643
G1 X123.479 Y113.325 E43.7812
G1 X122.876 Y112.793 E43.80795
G1 F1800 E36.80795
G1 F300 Z0.4
G0 F3000 X122.762 Y112.949 Z0.4
G0 X113.228 Y108.257
G1 F300 Z0.2
G1 F1800 E43.80795
G1 F1200 X112.703 Y107.521 E43.83802
G1 X112.013 Y106.932 E43.86819
G1 X111.2 Y106.534 E43.8983
G1 X110.314 Y106.344 E43.92844
G1 X109.428 Y106.379 E43.95793
G1 X109.26 Y106.421 E43.96369
G1 X108.54 Y106.636 E43.98868
G1 X107.775 Y107.086 E44.0182
G1 X107.647 Y107.204 E44.02399
G1 X107.128 Y107.721 E44.04835
G1 X107.034 Y107.865 E44.05407
G1 X106.659 Y108.493 E44.0784
G1 X106.602 Y108.654 E44.08408
G1 X106.393 Y109.347 E44.10816
G1 X106.374 Y109.52 E44.11394
G1 X106.344 Y110.257 E44.13848
G1 X106.37 Y110.427 E44.1442
G1 X106.517 Y111.136 E44.16828
G1 X106.581 Y111.295 E44.17398
G1 X106.903 Y111.96 E44.19856
G1 X107.005 Y112.097 E44.20424
G1 X107.475 Y112.655 E44.2285
G1 X107.608 Y112.765 E44.23424
G1 X108.201 Y113.189 E44.25849
G1 X108.353 Y113.265 E44.26414
G1 X109.039 Y113.534 E44.28865
G1 X109.207 Y113.569 E44.29436
G1 X109.918 Y113.659 E44.31819
G1 X110.085 Y113.658 E44.32375
G1 X110.759 Y113.583 E44.3463
G1 X110.913 Y113.541 E44.35161
G1 X111.551 Y113.32 E44.37407
G1 X111.691 Y113.241 E44.37942
G1 X112.273 Y112.878 E44.40223
