;FLAVOR:Marlin
;TIME:7865
;Filament used: 4.80483m
;Layer height: 0.2
;MINX:12.419
;MINY:98.2
;MINZ:0.2
;MAXX:207.582
;MAXY:121.8
;MAXZ:18.8
;Generated with Cura_SteamEngine master
M82 ;absolute extrusion mode
;Sliced at: Thu 06-10-2022 00:37:22
;Basic settings: Layer height: 0.2 Walls: 0.8 Fill: 30.0
G21 ;metric values
G90 ;absolute positioning
M82 ;set extruder to absolute mode
M107 ;start with the fan off
M117 Start heating ...
M104 S200
M117 Homing X/Y ...
G28 X0 Y0 ;move X/Y to min endstops
M117 Homing Z ...
G28 Z0 ;move Z to min endstops
G1 Z15.0 F100 ;move the platform down 15mm
M117 Heating ...
M109 S200
M117 Start cleaning ...
G92 E0 ;zero the extruded length
G1 F200 E10 ;extrude 10mm of feed stock
G92 E0 ;zero the extruded length again
M117 Intro line ...
G1 Z2.0 F3000 ; Move Z Axis up little to prevent scratching of Heat Bed
G1 X0.1 Y20 Z0.2 F5000.0 ; Move to start position
G1 X0.1 Y200.0 Z0.2 F1500.0 E15 ; Draw the first line
G1 X0.4 Y200.0 Z0.2 F5000.0 ; Move to side a little
G1 X0.4 Y20 Z0.3 F1500.0 E30 ; Draw the second line
G92 E0 ; Reset Extruder
G1 E-1 F500 ; Retract filiment by 1 mm
G1 Z2.0 F3000 ; Move Z Axis up little to prevent scratching of Heat Bed
G1 X5 Y20 Z0.3 F100 ; Move over to prevent blob squish
G1 F100
G92 E0 ; Reset Extruder
M117 Printing...

G92 E0
G92 E0
G1 F1800 E-7
;LAYER_COUNT:93
;LAYER:0
M107
G1 F300 Z0.4
G0 F3000 X15.859 Y98.25 Z0.4
;TYPE:SKIRT
G1 F300 Z0.2
G1 F1800 E0
G1 F1200 X16.637 Y98.202 E0.02593
G1 X16.749 Y98.2 E0.02965
G1 X202.931 Y98.2 E6.22209
G1 X203.629 Y98.21 E6.24531
G1 X204.193 Y98.258 E6.26413
G1 X204.743 Y98.385 E6.28291
G1 X205.271 Y98.589 E6.30174
G1 X205.765 Y98.864 E6.32054
G1 X206.214 Y99.207 E6.33933
G1 X206.611 Y99.609 E6.35812
G1 X206.948 Y100.064 E6.37696
G1 X207.216 Y100.561 E6.39574
G1 X207.412 Y101.091 E6.41453
G1 X207.532 Y101.644 E6.43335
G1 X207.579 Y102.419 E6.45918
G1 X207.581 Y102.531 E6.4629
G1 X207.582 Y117.13 E6.94847
G1 X207.572 Y117.846 E6.97228
G1 X207.524 Y118.409 E6.99108
G1 X207.397 Y118.96 E7.00988
G1 X207.194 Y119.488 E7.0287
G1 X206.918 Y119.981 E7.04749
G1 X206.576 Y120.431 E7.06629
G1 X206.174 Y120.828 E7.08508
G1 X205.719 Y121.165 E7.10391
G1 X205.222 Y121.434 E7.12271
G1 X204.692 Y121.63 E7.1415
G1 X204.139 Y121.75 E7.16033
G1 X203.273 Y121.799 E7.18917
G1 X17.074 Y121.8 E13.38218
G1 X16.376 Y121.791 E13.4054
G1 X15.813 Y121.743 E13.42419
G1 X15.262 Y121.617 E13.44299
G1 X14.734 Y121.415 E13.46179
G1 X14.24 Y121.14 E13.4806
G1 X13.79 Y120.798 E13.4994
G1 X13.392 Y120.396 E13.51821
G1 X13.056 Y119.942 E13.537
G1 X12.786 Y119.445 E13.55581
G1 X12.589 Y118.915 E13.57461
G1 X12.469 Y118.363 E13.5934
G1 X12.42 Y117.566 E13.61996
G1 X12.419 Y102.82 E14.11041
G1 X12.428 Y102.155 E14.13253
G1 X12.476 Y101.592 E14.15133
G1 X12.602 Y101.041 E14.17013
G1 X12.805 Y100.513 E14.18894
G1 X13.081 Y100.019 E14.20776
G1 X13.423 Y99.569 E14.22656
G1 X13.825 Y99.172 E14.24535
G1 X14.279 Y98.835 E14.26416
G1 X14.776 Y98.566 E14.28296
G1 X15.306 Y98.369 E14.30176
G1 X15.859 Y98.25 E14.32058
G0 F3000 X15.659 Y98.692
G1 F1200 X16.327 Y98.61 E14.34296
G1 X16.749 Y98.6 E14.357
G1 X202.926 Y98.6 E20.54927
G1 X203.624 Y98.61 E20.57249
G1 X204.158 Y98.658 E20.59032
G1 X204.679 Y98.784 E20.60815
G1 X205.176 Y98.987 E20.62601
G1 X205.637 Y99.261 E20.64384
G1 X206.052 Y99.6 E20.66167
G1 X206.412 Y99.998 E20.67952
G1 X206.709 Y100.444 E20.69734
G1 X206.937 Y100.93 E20.71519
G1 X207.089 Y101.444 E20.73302
G1 X207.171 Y102.109 E20.75531
G1 X207.181 Y102.531 E20.76935
G1 X207.182 Y117.124 E21.25471
G1 X207.172 Y117.84 E21.27853
G1 X207.124 Y118.374 E21.29636
G1 X206.998 Y118.896 E21.31422
G1 X206.796 Y119.392 E21.33203
G1 X206.522 Y119.853 E21.34987
G1 X206.183 Y120.269 E21.36772
G1 X205.785 Y120.629 E21.38557
G1 X205.339 Y120.926 E21.40339
G1 X204.854 Y121.154 E21.42121
G1 X204.34 Y121.307 E21.43905
G1 X203.662 Y121.389 E21.46177
G1 X203.173 Y121.4 E21.47803
G1 X17.08 Y121.4 E27.66751
G1 X16.382 Y121.391 E27.69073
G1 X15.847 Y121.344 E27.70859
G1 X15.326 Y121.218 E27.72642
G1 X14.829 Y121.016 E27.74426
G1 X14.368 Y120.743 E27.76208
G1 X13.952 Y120.404 E27.77993
G1 X13.591 Y120.008 E27.79776
G1 X13.293 Y119.562 E27.8156
G1 X13.065 Y119.076 E27.83345
G1 X12.912 Y118.562 E27.85129
G1 X12.829 Y117.888 E27.87387
G1 X12.819 Y117.458 E27.88818
G1 X12.819 Y102.825 E28.37488
G1 X12.828 Y102.16 E28.397
G1 X12.876 Y101.626 E28.41483
G1 X13.002 Y101.105 E28.43266
G1 X13.204 Y100.608 E28.4505
G1 X13.477 Y100.147 E28.46832
G1 X13.816 Y99.731 E28.48617
G1 X14.213 Y99.371 E28.50399
G1 X14.66 Y99.073 E28.52186
G1 X15.145 Y98.845 E28.53969
G1 X15.659 Y98.692 E28.55752
G0 F3000 X16.001 Y99.038
G1 F1200 X16.659 Y99.001 E28.57944
G1 X202.92 Y99 E34.77451
G1 X203.618 Y99.01 E34.79773
G1 X204.121 Y99.057 E34.81453
G1 X204.611 Y99.183 E34.83136
G1 X205.075 Y99.385 E34.84819
G1 X205.501 Y99.657 E34.865
G1 X205.879 Y99.992 E34.8818
G1 X206.199 Y100.383 E34.8986
G1 X206.454 Y100.82 E34.91543
G1 X206.637 Y101.291 E34.93224
G1 X206.744 Y101.785 E34.94905
G1 X206.78 Y102.441 E34.9709
G1 X206.782 Y117.119 E35.45909
G1 X206.772 Y117.835 E35.48291
G1 X206.725 Y118.338 E35.49971
G1 X206.599 Y118.828 E35.51654
G1 X206.398 Y119.292 E35.53336
G1 X206.126 Y119.718 E35.55017
G1 X205.791 Y120.096 E35.56697
G1 X205.4 Y120.417 E35.58379
G1 X204.963 Y120.672 E35.60062
G1 X204.492 Y120.855 E35.61743
G1 X203.998 Y120.962 E35.63424
G1 X203.253 Y120.999 E35.65905
G1 X17.085 Y121 E41.85102
G1 X16.387 Y120.991 E41.87424
G1 X15.883 Y120.944 E41.89108
G1 X15.393 Y120.819 E41.9079
G1 X14.929 Y120.618 E41.92471
G1 X14.503 Y120.347 E41.94151
G1 X14.124 Y120.012 E41.95833
G1 X13.803 Y119.621 E41.97516
G1 X13.548 Y119.185 E41.99196
G1 X13.364 Y118.714 E42.00877
G1 X13.257 Y118.22 E42.02559
G1 X13.22 Y117.544 E42.0481
G1 X13.219 Y102.831 E42.53746
G1 X13.228 Y102.166 E42.55958
G1 X13.275 Y101.662 E42.57642
G1 X13.401 Y101.173 E42.59321
G1 X13.602 Y100.709 E42.61003
G1 X13.873 Y100.282 E42.62685
G1 X14.208 Y99.904 E42.64365
G1 X14.599 Y99.583 E42.66048
G1 X15.036 Y99.328 E42.6773
G1 X15.507 Y99.144 E42.69412
G1 X16.001 Y99.038 E42.71093
G1 F1800 E35.71093
G1 F300 Z0.4
G0 F3000 X105.208 Y105.2 Z0.4
;TYPE:SUPPORT
G1 F300 Z0.2
G1 F1800 E42.71093
G1 F1200 X114.808 Y105.2 E43.03022
G1 X114.808 Y114.8 E43.34952
G1 X105.208 Y114.8 E43.66882
G1 X105.208 Y105.2 E43.98812
G1 F1800 E36.98812
G1 F300 Z0.4
G0 F3000 X107.213 Y109.865 Z0.4
G1 F300 Z0.2
G1 F1800 E43.98812
G1 F1200 X107.266 Y110.5 E44.00931
G1 X107.424 Y111.066 E44.02885
G1 X107.769 Y111.7 E44.05286
G1 X108.2 Y112.129 E44.07309
G1 X108.734 Y112.498 E44.09468
G1 X109.368 Y112.723 E44.11705
G1 X109.949 Y112.802 E44.13655
G1 X110.682 Y112.727 E44.16106
G1 X111.298 Y112.483 E44.1831
G1 X111.851 Y112.112 E44.20525
G1 X112.254 Y111.662 E44.22534
G1 X112.563 Y111.144 E44.2454
G1 X112.762 Y110.496 E44.26795
G1 X112.804 Y109.827 E44.29024
G1 X112.684 Y109.159 E44.31281
G1 X112.407 Y108.56 E44.33476
G1 X112.045 Y108.076 E44.35487
G1 X111.551 Y107.67 E44.37613
G1 X111.001 Y107.382 E44.39678
G1 X110.323 Y107.22 E44.41997
G1 X109.665 Y107.215 E44.44185
G1 X109.065 Y107.358 E44.46237
G1 X108.442 Y107.674 E44.4856
G1 X108.013 Y108.049 E44.50455
G1 X107.598 Y108.542 E44.52599
G1 X107.318 Y109.221 E44.55042
G1 X107.213 Y109.865 E44.57212
G0 F3000 X107.134 Y109.347
G1 F1200 X105.368 Y109.347 E44.63086
G1 F1800 E37.63086
G1 F300 Z0.4
G0 F3000 X105.368 Y106.68 Z0.4
G1 F300 Z0.2
G1 F1800 E44.63086
G1 F1200 X114.648 Y106.68 E44.93951
G1 F1800 E37.93951
G1 F300 Z0.4
G0 F3000 X114.648 Y109.347 Z0.4
G1 F300 Z0.2
G1 F1800 E44.93951
G1 F1200 X112.88 Y109.347 E44.99831
G1 F1800 E37.99831
G1 F300 Z0.4
G0 F3000 X112.014 Y107.842 Z0.4
G1 F300 Z0.2
G1 F1800 E44.99831
G1 F1200 X112.014 Y105.36 E45.08087
G1 F1800 E38.08087
G1 F300 Z0.4
G0 F3000 X109.347 Y105.36 Z0.4
G1 F300 Z0.2
G1 F1800 E45.08087
G1 F1200 X109.347 Y107.127 E45.13964
G1 F1800 E38.13964
G1 F300 Z0.4
G0 F3000 X106.68 Y105.36 Z0.4
G1 F300 Z0.2
G1 F1800 E45.13964
G1 F1200 X106.68 Y114.64 E45.44829
G1 F1800 E38.44829
G1 F300 Z0.4
G0 F3000 X109.347 Y114.64 Z0.4
G1 F300 Z0.2
G1 F1800 E45.44829
G1 F1200 X109.347 Y112.882 E45.50676
G1 F1800 E38.50676
G1 F300 Z0.4
G0 F3000 X107.858 Y112.014 Z0.4
G1 F300 Z0.2
G1 F1800 E45.50676
G1 F1200 X105.368 Y112.014 E45.58958
G1 F1800 E38.58958
G1 F300 Z0.4
G0 F3000 X112.014 Y112.168 Z0.4
G1 F300 Z0.2
G1 F1800 E45.58958
G1 F1200 X112.014 Y114.64 E45.6718
G1 F1800 E38.6718
G1 F300 Z0.4
G0 F3000 X112.153 Y112.014 Z0.4
G1 F300 Z0.2
G1 F1800 E45.6718
G1 F1200 X114.648 Y112.014 E45.75478
G1 F1800 E38.75478
G1 F300 Z0.4
;MESH:station.sensor.console.stl
G0 F3000 X34.436 Y103.6 Z0.4
;TYPE:WALL-INNER
G1 F300 Z0.2
G1 F1800 E45.75478
G1 F1200 X34.436 Y116.4 E46.18051
G1 X185.58 Y116.4 E51.20758
G1 X185.58 Y103.6 E51.63331
G1 X34.436 Y103.6 E56.66038
G0 F3000 X34.836 Y104
;TYPE:WALL-OUTER
G1 F1200 X34.836 Y116 E57.0595
G1 X185.18 Y116 E62.05996
G1 X185.18 Y104 E62.45909
G1 X34.836 Y104 E67.45955
G0 F3000 X34.836 Y104.2
G0 X34.396 Y104.2
G1 F1800 E60.45955
G1 F300 Z0.4
G0 F3000 X34.236 Y104.2 Z0.4
G0 X202.982 Y117.2
;TYPE:WALL-INNER
G1 F300 Z0.2
G1 F1800 E67.45955
G1 F1200 X17.019 Y117.2 E73.6447
G1 X17.019 Y102.8 E74.12365
G1 X202.981 Y102.8 E80.30877
G1 X202.982 Y117.2 E80.78772
G0 F3000 X203.382 Y117.6
;TYPE:WALL-OUTER
G1 F1200 X16.619 Y117.6 E86.99948
G1 X16.619 Y102.4 E87.50503
G1 X203.381 Y102.4 E93.71676
G1 X203.382 Y117.6 E94.22232
G0 F3000 X203.182 Y117.6
G0 X202.941 Y117.159
G0 X202.592 Y116.81
;TYPE:SKIN
G1 F1200 X17.409 Y116.81 E100.38153
G1 X17.409 Y103.19 E100.83453
G1 X202.591 Y103.19 E106.99371
G1 X202.592 Y116.81 E107.44671
G0 F3000 X202.872 Y116.81
G0 X185.97 Y117.09
G0 X185.97 Y116.79
G1 F1200 X185.97 Y103.21 E107.89838
G1 X34.046 Y103.21 E112.9514
G1 X34.046 Y116.79 E113.40307
G1 X185.97 Y116.79 E118.45608
G1 F1800 E111.45608
G0 F3000 X185.97 Y117.09
G0 X202.8 Y117.018
G0 X202.872 Y103.981
G1 F1800 E118.45608
G0 F3000 X202.41 Y103.981
G1 F1200 X201.799 Y103.369 E118.48485
G0 F3000 X201.233 Y103.369
G1 F1200 X202.41 Y104.547 E118.54023
G0 F3000 X202.41 Y105.112
G1 F1200 X200.667 Y103.369 E118.62222
G0 F3000 X200.102 Y103.369
G1 F1200 X202.41 Y105.678 E118.7308
G0 F3000 X202.41 Y106.244
G1 F1200 X199.536 Y103.369 E118.86601
G0 F3000 X198.97 Y103.369
G1 F1200 X202.41 Y106.809 E119.02782
G0 F3000 X202.41 Y107.375
G1 F1200 X198.404 Y103.369 E119.21625
G0 F3000 X197.839 Y103.369
G1 F1200 X202.41 Y107.941 E119.43128
G0 F3000 X202.41 Y108.506
G1 F1200 X197.273 Y103.369 E119.6729
G0 F3000 X196.707 Y103.369
G1 F1200 X202.41 Y109.072 E119.94116
G0 F3000 X202.41 Y109.638
G1 F1200 X196.142 Y103.369 E120.23601
G0 F3000 X195.576 Y103.369
G1 F1200 X202.411 Y110.204 E120.5575
G0 F3000 X202.411 Y110.77
G1 F1200 X195.01 Y103.369 E120.90563
G0 F3000 X194.445 Y103.369
G1 F1200 X202.411 Y111.336 E121.28034
G0 F3000 X202.411 Y111.901
G1 F1200 X193.879 Y103.369 E121.68166
G0 F3000 X193.313 Y103.369
G1 F1200 X202.411 Y112.467 E122.10961
G0 F3000 X202.411 Y113.033
G1 F1200 X192.748 Y103.369 E122.56415
G0 F3000 X192.182 Y103.369
G1 F1200 X202.411 Y113.598 E123.04529
G0 F3000 X202.411 Y114.164
G1 F1200 X191.616 Y103.369 E123.55305
G0 F3000 X191.051 Y103.369
G1 F1200 X202.411 Y114.73 E124.08741
G0 F3000 X202.411 Y115.295
G1 F1200 X190.485 Y103.369 E124.64838
G0 F3000 X189.919 Y103.369
G1 F1200 X202.411 Y115.861 E125.23596
G0 F3000 X202.411 Y116.427
G1 F1200 X189.354 Y103.369 E125.85015
G0 F3000 X188.788 Y103.369
G1 F1200 X202.047 Y116.629 E126.47383
G0 F3000 X201.482 Y116.629
G1 F1200 X188.222 Y103.369 E127.09754
G0 F3000 X187.656 Y103.369
G1 F1200 X200.916 Y116.629 E127.72125
G0 F3000 X200.35 Y116.629
G1 F1200 X187.091 Y103.369 E128.34494
G0 F3000 X186.525 Y103.369
G1 F1200 X199.785 Y116.629 E128.96865
G0 F3000 X199.219 Y116.629
G1 F1200 X186.149 Y103.559 E129.58342
G0 F3000 X186.149 Y104.125
G1 F1200 X198.653 Y116.629 E130.17157
G0 F3000 X198.088 Y116.629
G1 F1200 X186.149 Y104.69 E130.73315
G0 F3000 X186.149 Y105.256
G1 F1200 X197.522 Y116.629 E131.2681
G0 F3000 X196.956 Y116.629
G1 F1200 X186.149 Y105.822 E131.77642
G0 F3000 X186.149 Y106.387
G1 F1200 X196.391 Y116.629 E132.25818
G0 F3000 X195.825 Y116.629
G1 F1200 X186.149 Y106.953 E132.71331
G0 F3000 X186.149 Y107.519
G1 F1200 X195.259 Y116.629 E133.14181
G0 F3000 X194.694 Y116.629
G1 F1200 X186.149 Y108.084 E133.54374
G0 F3000 X186.149 Y108.65
G1 F1200 X194.128 Y116.629 E133.91905
G0 F3000 X193.562 Y116.629
G1 F1200 X186.149 Y109.216 E134.26774
G0 F3000 X186.149 Y109.781
G1 F1200 X192.997 Y116.629 E134.58985
G0 F3000 X192.431 Y116.629
G1 F1200 X186.149 Y110.347 E134.88533
G0 F3000 X186.149 Y110.913
G1 F1200 X191.865 Y116.629 E135.15419
G0 F3000 X191.299 Y116.629
G1 F1200 X186.149 Y111.478 E135.39646
G0 F3000 X186.149 Y112.044
G1 F1200 X190.734 Y116.629 E135.61212
G0 F3000 X190.168 Y116.629
G1 F1200 X186.149 Y112.61 E135.80116
G0 F3000 X186.149 Y113.175
G1 F1200 X189.602 Y116.629 E135.96361
G0 F3000 X189.037 Y116.629
G1 F1200 X186.149 Y113.741 E136.09945
G0 F3000 X186.149 Y114.307
G1 F1200 X188.471 Y116.629 E136.20867
G0 F3000 X187.905 Y116.629
G1 F1200 X186.149 Y114.873 E136.29127
G0 F3000 X186.149 Y115.438
G1 F1200 X187.34 Y116.629 E136.34729
G0 F3000 X186.774 Y116.629
G1 F1200 X186.149 Y116.004 E136.37668
G0 F3000 X186.149 Y116.57
G1 F1200 X186.208 Y116.629 E136.37946
G1 F1800 E129.37946
G1 F300 Z0.4
G0 F3000 X186.208 Y117 Z0.4
G0 X33.866 Y116.456
G1 F300 Z0.2
G1 F1800 E136.37946
G1 F1200 X20.779 Y103.369 E136.99503
G0 F3000 X21.344 Y103.369
G1 F1200 X33.866 Y115.89 E137.584
G0 F3000 X33.866 Y115.324
G1 F1200 X21.91 Y103.369 E138.14635
G0 F3000 X22.476 Y103.369
G1 F1200 X33.866 Y114.759 E138.68211
G0 F3000 X33.866 Y114.193
G1 F1200 X23.041 Y103.369 E139.19126
G0 F3000 X23.607 Y103.369
G1 F1200 X33.866 Y113.627 E139.67379
G0 F3000 X33.866 Y113.062
G1 F1200 X24.173 Y103.369 E140.12971
G0 F3000 X24.738 Y103.369
G1 F1200 X33.866 Y112.496 E140.55904
G0 F3000 X33.866 Y111.93
G1 F1200 X25.304 Y103.369 E140.96175
G0 F3000 X25.87 Y103.369
G1 F1200 X33.866 Y111.365 E141.33786
G0 F3000 X33.866 Y110.799
G1 F1200 X26.435 Y103.369 E141.68737
G0 F3000 X27.001 Y103.369
G1 F1200 X33.866 Y110.233 E142.01025
G0 F3000 X33.866 Y109.668
G1 F1200 X27.567 Y103.369 E142.30654
G0 F3000 X28.132 Y103.369
G1 F1200 X33.866 Y109.102 E142.57622
G0 F3000 X33.866 Y108.536
G1 F1200 X28.698 Y103.369 E142.81929
G0 F3000 X29.264 Y103.369
G1 F1200 X33.866 Y107.97 E143.03573
G0 F3000 X33.866 Y107.405
G1 F1200 X29.83 Y103.369 E143.22557
G0 F3000 X30.395 Y103.369
G1 F1200 X33.866 Y106.839 E143.38881
G0 F3000 X33.866 Y106.273
G1 F1200 X30.961 Y103.369 E143.52543
G0 F3000 X31.527 Y103.369
G1 F1200 X33.866 Y105.708 E143.63545
G0 F3000 X33.866 Y105.142
G1 F1200 X32.092 Y103.369 E143.71887
G0 F3000 X32.658 Y103.369
G1 F1200 X33.866 Y104.576 E143.77566
G0 F3000 X33.866 Y104.011
G1 F1200 X33.224 Y103.369 E143.80586
G0 F3000 X33.789 Y103.369
G1 F1200 X33.866 Y103.445 E143.80946
G1 F1800 E136.80946
G1 F300 Z0.4
G0 F3000 X34.626 Y103.79 Z0.4
G0 X33.473 Y116.628
G1 F300 Z0.2
G1 F1800 E143.80946
G1 F1200 X20.213 Y103.369 E144.43315
G0 F3000 X19.647 Y103.369
G1 F1200 X32.907 Y116.628 E145.05683
G0 F3000 X32.341 Y116.628
G1 F1200 X19.081 Y103.369 E145.68052
G0 F3000 X18.516 Y103.369
G1 F1200 X31.775 Y116.628 E146.30418
G0 F3000 X31.21 Y116.628
G1 F1200 X17.95 Y103.369 E146.92787
G0 F3000 X17.588 Y103.572
G1 F1200 X30.644 Y116.628 E147.54198
G0 F3000 X30.078 Y116.628
G1 F1200 X17.588 Y104.138 E148.12947
G0 F3000 X17.588 Y104.704
G1 F1200 X29.513 Y116.628 E148.69037
G0 F3000 X28.947 Y116.628
G1 F1200 X17.588 Y105.269 E149.22466
G0 F3000 X17.588 Y105.835
G1 F1200 X28.381 Y116.628 E149.73233
G0 F3000 X27.816 Y116.628
G1 F1200 X17.588 Y106.401 E150.2134
G0 F3000 X17.588 Y106.966
G1 F1200 X27.25 Y116.628 E150.66787
G0 F3000 X26.684 Y116.628
G1 F1200 X17.588 Y107.532 E151.09572
G0 F3000 X17.588 Y108.098
G1 F1200 X26.119 Y116.628 E151.49697
G0 F3000 X25.553 Y116.628
G1 F1200 X17.588 Y108.663 E151.87161
G0 F3000 X17.588 Y109.229
G1 F1200 X24.987 Y116.628 E152.21964
G0 F3000 X24.422 Y116.628
G1 F1200 X17.588 Y109.795 E152.54107
G0 F3000 X17.588 Y110.36
G1 F1200 X23.856 Y116.628 E152.8359
