;FLAVOR:Marlin
;TIME:3793
;Filament used: 2.22943m
;Layer height: 0.2
;MINX:88.025
;MINY:79
;MINZ:0.2
;MAXX:131.975
;MAXY:141
;MAXZ:9.8
;Generated with Cura_SteamEngine master
M82 ;absolute extrusion mode
;Sliced at: Sun 09-10-2022 16:55:51
;Basic settings: Layer height: 0.2 Walls: 0.8 Fill: 30.0
G21 ;metric values
G90 ;absolute positioning
M82 ;set extruder to absolute mode
M107 ;start with the fan off
M117 Start heating ...
M104 S200
M117 Homing X/Y ...
G28 X0 Y0 ;move X/Y to min endstops
M117 Homing Z ...
G28 Z0 ;move Z to min endstops
G1 Z15.0 F100 ;move the platform down 15mm
M117 Heating ...
M109 S200
M117 Start cleaning ...
G92 E0 ;zero the extruded length
G1 F200 E10 ;extrude 10mm of feed stock
G92 E0 ;zero the extruded length again
M117 Intro line ...
G1 Z2.0 F3000 ; Move Z Axis up little to prevent scratching of Heat Bed
G1 X0.1 Y20 Z0.2 F5000.0 ; Move to start position
G1 X0.1 Y200.0 Z0.2 F1500.0 E15 ; Draw the first line
G1 X0.4 Y200.0 Z0.2 F5000.0 ; Move to side a little
G1 X0.4 Y20 Z0.3 F1500.0 E30 ; Draw the second line
G92 E0 ; Reset Extruder
G1 E-1 F500 ; Retract filiment by 1 mm
G1 Z2.0 F3000 ; Move Z Axis up little to prevent scratching of Heat Bed
G1 X5 Y20 Z0.3 F100 ; Move over to prevent blob squish
G1 F100
G92 E0 ; Reset Extruder
M117 Printing...

G92 E0
G92 E0
G1 F1800 E-7
;LAYER_COUNT:48
;LAYER:0
M107
G1 F300 Z0.4
G0 F3000 X89.029 Y80.369 Z0.4
;TYPE:SKIRT
G1 F300 Z0.2
G1 F1800 E0
G1 F1200 X89.431 Y79.972 E0.01879
G1 X89.885 Y79.635 E0.0376
G1 X90.382 Y79.366 E0.05639
G1 X90.912 Y79.169 E0.0752
G1 X91.465 Y79.05 E0.09401
G1 X92.243 Y79.002 E0.11994
G1 X92.355 Y79 E0.12366
G1 X127.325 Y79 E1.28677
G1 X128.023 Y79.01 E1.30999
G1 X128.587 Y79.058 E1.32882
G1 X129.137 Y79.185 E1.34759
G1 X129.665 Y79.389 E1.36642
G1 X130.159 Y79.664 E1.38522
G1 X130.608 Y80.007 E1.40401
G1 X131.005 Y80.409 E1.42281
G1 X131.342 Y80.864 E1.44164
G1 X131.61 Y81.361 E1.46042
G1 X131.806 Y81.891 E1.47921
G1 X131.926 Y82.444 E1.49803
G1 X131.973 Y83.218 E1.52383
G1 X131.975 Y83.33 E1.52755
G1 X131.975 Y136.314 E3.28981
G1 X131.966 Y137.041 E3.31399
G1 X131.919 Y137.604 E3.33278
G1 X131.793 Y138.155 E3.35158
G1 X131.591 Y138.683 E3.37038
G1 X131.316 Y139.177 E3.38919
G1 X130.974 Y139.627 E3.40798
G1 X130.572 Y140.025 E3.4268
G1 X130.119 Y140.362 E3.44558
G1 X129.622 Y140.632 E3.46439
G1 X129.092 Y140.829 E3.4832
G1 X128.54 Y140.95 E3.50199
G1 X127.757 Y140.998 E3.52808
G1 X127.645 Y141 E3.53181
G1 X92.68 Y141 E4.69475
G1 X91.982 Y140.991 E4.71797
G1 X91.419 Y140.943 E4.73676
G1 X90.868 Y140.817 E4.75556
G1 X90.34 Y140.615 E4.77436
G1 X89.846 Y140.34 E4.79317
G1 X89.396 Y139.998 E4.81197
G1 X88.998 Y139.596 E4.83078
G1 X88.662 Y139.142 E4.84957
G1 X88.392 Y138.645 E4.86838
G1 X88.195 Y138.115 E4.88719
G1 X88.075 Y137.563 E4.90597
G1 X88.026 Y136.766 E4.93253
G1 X88.025 Y83.62 E6.70018
G1 X88.034 Y82.955 E6.7223
G1 X88.082 Y82.392 E6.74109
G1 X88.208 Y81.841 E6.75989
G1 X88.411 Y81.313 E6.7787
G1 X88.687 Y80.819 E6.79752
G1 X89.029 Y80.369 E6.81632
G0 F3000 X89.422 Y80.531
G1 F1200 X89.819 Y80.171 E6.83415
G1 X90.266 Y79.873 E6.85202
G1 X90.751 Y79.645 E6.86984
G1 X91.265 Y79.492 E6.88768
G1 X91.933 Y79.41 E6.91006
G1 X92.355 Y79.4 E6.9241
G1 X127.32 Y79.4 E8.08704
G1 X128.018 Y79.41 E8.11026
G1 X128.552 Y79.458 E8.12809
G1 X129.073 Y79.584 E8.14592
G1 X129.57 Y79.787 E8.16378
G1 X130.031 Y80.061 E8.18161
G1 X130.446 Y80.4 E8.19944
G1 X130.806 Y80.798 E8.21729
G1 X131.103 Y81.244 E8.23511
G1 X131.331 Y81.73 E8.25296
G1 X131.483 Y82.244 E8.27079
G1 X131.565 Y82.909 E8.29308
G1 X131.575 Y83.33 E8.30708
G1 X131.575 Y136.309 E10.06917
G1 X131.566 Y137.036 E10.09335
G1 X131.519 Y137.57 E10.11118
G1 X131.394 Y138.091 E10.129
G1 X131.192 Y138.588 E10.14685
G1 X130.919 Y139.05 E10.1647
G1 X130.581 Y139.466 E10.18252
G1 X130.184 Y139.827 E10.20037
G1 X129.738 Y140.125 E10.21821
G1 X129.253 Y140.353 E10.23604
G1 X128.739 Y140.507 E10.25388
G1 X128.067 Y140.59 E10.2764
G1 X127.645 Y140.6 E10.29044
G1 X92.686 Y140.6 E11.45318
G1 X91.988 Y140.591 E11.4764
G1 X91.453 Y140.544 E11.49426
G1 X90.932 Y140.418 E11.51209
G1 X90.435 Y140.216 E11.52993
G1 X89.974 Y139.943 E11.54775
G1 X89.558 Y139.604 E11.5656
G1 X89.197 Y139.208 E11.58343
G1 X88.899 Y138.762 E11.60127
G1 X88.671 Y138.276 E11.61912
G1 X88.518 Y137.762 E11.63696
G1 X88.435 Y137.088 E11.65954
G1 X88.425 Y136.658 E11.67385
G1 X88.425 Y83.625 E13.43774
G1 X88.434 Y82.96 E13.45986
G1 X88.482 Y82.426 E13.47769
G1 X88.608 Y81.905 E13.49552
G1 X88.81 Y81.408 E13.51336
G1 X89.083 Y80.947 E13.53118
G1 X89.422 Y80.531 E13.54903
G0 F3000 X89.479 Y81.082
G1 F1200 X89.814 Y80.704 E13.56583
G1 X90.205 Y80.383 E13.58265
G1 X90.642 Y80.128 E13.59948
G1 X91.113 Y79.944 E13.6163
G1 X91.607 Y79.838 E13.6331
G1 X92.265 Y79.801 E13.65502
G1 X127.314 Y79.8 E14.82076
G1 X128.012 Y79.81 E14.84398
G1 X128.515 Y79.857 E14.86078
G1 X129.005 Y79.983 E14.87761
G1 X129.469 Y80.185 E14.89444
G1 X129.895 Y80.457 E14.91125
G1 X130.273 Y80.792 E14.92805
G1 X130.593 Y81.183 E14.94485
G1 X130.848 Y81.62 E14.96168
G1 X131.031 Y82.091 E14.97849
G1 X131.138 Y82.585 E14.9953
G1 X131.174 Y83.24 E15.01712
G1 X131.175 Y136.304 E16.78203
G1 X131.166 Y137.031 E16.80622
G1 X131.12 Y137.534 E16.82301
G1 X130.995 Y138.024 E16.83983
G1 X130.794 Y138.488 E16.85665
G1 X130.523 Y138.915 E16.87347
G1 X130.188 Y139.294 E16.8903
G1 X129.798 Y139.615 E16.9071
G1 X129.362 Y139.871 E16.92391
G1 X128.891 Y140.054 E16.94072
G1 X128.397 Y140.162 E16.95754
G1 X127.735 Y140.199 E16.97959
G1 X92.691 Y140.2 E18.14516
G1 X91.993 Y140.191 E18.16838
G1 X91.489 Y140.144 E18.18521
G1 X90.999 Y140.019 E18.20203
G1 X90.535 Y139.818 E18.21885
G1 X90.109 Y139.547 E18.23564
G1 X89.73 Y139.212 E18.25247
G1 X89.409 Y138.821 E18.26929
G1 X89.154 Y138.385 E18.28609
G1 X88.97 Y137.914 E18.30291
G1 X88.863 Y137.42 E18.31972
G1 X88.826 Y136.744 E18.34224
G1 X88.825 Y83.631 E20.10879
G1 X88.834 Y82.966 E20.13091
G1 X88.881 Y82.462 E20.14774
G1 X89.007 Y81.973 E20.16454
G1 X89.208 Y81.509 E20.18136
G1 X89.479 Y81.082 E20.19818
G1 F1800 E13.19818
G1 F300 Z0.4
;MESH:station.sensor.sonar.cap.stl
G0 F3000 X108.135 Y105.605 Z0.4
;TYPE:WALL-INNER
G1 F300 Z0.2
G1 F1800 E20.19818
G1 F1200 X109.987 Y105.803 E20.26013
G1 X111.706 Y105.634 E20.31758
G1 X113.358 Y105.134 E20.37498
G1 X114.879 Y104.32 E20.43236
G1 X116.212 Y103.226 E20.48972
G1 X117.307 Y101.893 E20.54709
G1 X118.119 Y100.377 E20.60429
G1 X118.162 Y100.243 E20.60897
G1 X118.623 Y98.72 E20.6619
G1 X118.791 Y97.017 E20.71881
G1 X118.786 Y96.915 E20.72221
G1 X118.601 Y95.193 E20.77981
G1 X118.582 Y95.092 E20.78323
G1 X118.029 Y93.428 E20.84155
G1 X117.98 Y93.309 E20.84583
G1 X117.06 Y91.758 E20.90581
G1 X116.979 Y91.658 E20.91009
G1 X115.787 Y90.38 E20.96822
G1 X115.699 Y90.305 E20.97207
G1 X114.241 Y89.294 E21.03108
G1 X114.139 Y89.242 E21.03488
G1 X112.497 Y88.563 E21.09398
G1 X112.386 Y88.535 E21.09779
G1 X110.65 Y88.224 E21.15645
G1 X110.534 Y88.22 E21.16031
G1 X108.82 Y88.279 E21.21735
G1 X108.678 Y88.298 E21.22212
G1 X106.95 Y88.741 E21.28145
G1 X106.831 Y88.79 E21.28573
G1 X105.263 Y89.577 E21.34408
G1 X105.168 Y89.643 E21.34793
G1 X103.824 Y90.723 E21.40527
G1 X103.74 Y90.804 E21.40916
G1 X102.617 Y92.198 E21.46869
G1 X102.555 Y92.295 E21.47252
G1 X101.767 Y93.869 E21.53107
G1 X101.729 Y93.964 E21.53447
G1 X101.286 Y95.706 E21.59425
G1 X101.271 Y95.832 E21.59847
G1 X101.208 Y97.56 E21.65599
G1 X101.223 Y97.719 E21.6613
G1 X101.529 Y99.421 E21.71881
G1 X101.573 Y99.559 E21.72363
G1 X102.233 Y101.154 E21.78104
G1 X102.304 Y101.28 E21.78585
G1 X103.285 Y102.696 E21.84315
G1 X103.379 Y102.807 E21.84799
G1 X104.637 Y103.978 E21.90515
G1 X104.75 Y104.07 E21.91
G1 X106.233 Y104.95 E21.96735
G1 X106.36 Y105.018 E21.97214
G1 X107.996 Y105.563 E22.0295
G1 X108.135 Y105.605 E22.03433
G0 F3000 X108.214 Y105.211
;TYPE:WALL-OUTER
G1 F1200 X109.989 Y105.401 E22.0937
G1 X111.628 Y105.24 E22.14848
G1 X113.204 Y104.763 E22.20324
G1 X114.656 Y103.986 E22.25802
G1 X115.928 Y102.942 E22.31275
G1 X116.973 Y101.67 E22.3675
G1 X117.749 Y100.22 E22.4222
G1 X117.78 Y100.124 E22.42556
G1 X118.229 Y98.642 E22.47706
G1 X118.39 Y97.007 E22.5317
G1 X118.387 Y96.946 E22.53373
G1 X118.205 Y95.251 E22.59043
G1 X118.194 Y95.192 E22.59243
G1 X117.654 Y93.568 E22.64935
G1 X117.621 Y93.488 E22.65223
G1 X116.731 Y91.987 E22.71027
G1 X116.677 Y91.92 E22.71313
G1 X115.51 Y90.669 E22.77004
G1 X115.455 Y90.622 E22.77244
G1 X114.035 Y89.638 E22.8299
G1 X113.971 Y89.605 E22.8323
G1 X112.373 Y88.944 E22.88981
G1 X112.303 Y88.927 E22.89221
G1 X110.606 Y88.623 E22.94955
G1 X110.533 Y88.62 E22.95198
G1 X108.853 Y88.678 E23.00789
G1 X108.754 Y88.691 E23.01121
G1 X107.077 Y89.121 E23.06879
G1 X106.998 Y89.154 E23.07164
G1 X105.468 Y89.921 E23.12857
G1 X105.408 Y89.963 E23.131
G1 X104.089 Y91.024 E23.1873
G1 X104.036 Y91.075 E23.18975
G1 X102.942 Y92.432 E23.24772
G1 X102.903 Y92.493 E23.25013
G1 X102.132 Y94.033 E23.30741
G1 X102.11 Y94.088 E23.30938
G1 X101.68 Y95.779 E23.36742
G1 X101.67 Y95.863 E23.37023
G1 X101.609 Y97.548 E23.42631
G1 X101.62 Y97.665 E23.43022
G1 X101.918 Y99.324 E23.48628
G1 X101.949 Y99.421 E23.48967
G1 X102.593 Y100.979 E23.54574
G1 X102.643 Y101.068 E23.54914
G1 X103.603 Y102.452 E23.60516
G1 X103.669 Y102.53 E23.60856
G1 X104.901 Y103.677 E23.66454
G1 X104.98 Y103.742 E23.66794
G1 X106.429 Y104.601 E23.72397
G1 X106.519 Y104.649 E23.72736
G1 X108.117 Y105.182 E23.78339
G1 X108.214 Y105.211 E23.78676
G0 F3000 X108.412 Y105.232
G0 X108.365 Y105.669
G1 F1800 E16.78676
G1 F300 Z0.4
G0 F3000 X108.348 Y105.828 Z0.4
G0 X108.121 Y131.603
;TYPE:WALL-INNER
G1 F300 Z0.2
G1 F1800 E23.78676
G1 F1200 X109.987 Y131.803 E23.84918
G1 X111.707 Y131.633 E23.90666
G1 X113.359 Y131.133 E23.96407
G1 X114.881 Y130.319 E24.02148
G1 X116.214 Y129.224 E24.07885
G1 X117.309 Y127.891 E24.13623
G1 X118.123 Y126.369 E24.19364
G1 X118.624 Y124.717 E24.25105
G1 X118.793 Y122.997 E24.30854
G1 X118.594 Y121.132 E24.37092
G1 X118 Y119.348 E24.43346
G1 X117.042 Y117.73 E24.496
G1 X115.767 Y116.359 E24.55827
G1 X115.646 Y116.27 E24.56327
G1 X114.226 Y115.284 E24.62076
G1 X114.089 Y115.223 E24.62575
G1 X112.491 Y114.56 E24.68329
G1 X112.344 Y114.529 E24.68829
G1 X110.646 Y114.223 E24.74568
G1 X110.496 Y114.222 E24.75067
G1 X108.761 Y114.283 E24.80841
G1 X108.614 Y114.316 E24.81342
G1 X106.941 Y114.742 E24.87084
G1 X106.804 Y114.805 E24.87585
G1 X105.259 Y115.578 E24.93331
G1 X105.138 Y115.668 E24.93833
G1 X103.794 Y116.749 E24.9957
G1 X103.692 Y116.862 E25.00076
G1 X102.608 Y118.208 E25.05824
G1 X102.534 Y118.338 E25.06322
G1 X101.761 Y119.88 E25.12059
G1 X101.714 Y120.024 E25.12562
G1 X101.288 Y121.698 E25.18308
G1 X101.271 Y121.847 E25.18806
G1 X101.208 Y123.567 E25.24531
G1 X101.217 Y123.679 E25.24905
G1 X101.534 Y125.442 E25.30863
G1 X101.564 Y125.532 E25.31178
G1 X102.246 Y127.183 E25.37119
G1 X102.294 Y127.264 E25.37433
G1 X103.299 Y128.713 E25.43298
G1 X103.359 Y128.787 E25.43615
G1 X104.663 Y130 E25.49538
G1 X104.736 Y130.06 E25.49852
G1 X106.27 Y130.972 E25.55788
G1 X106.354 Y131.015 E25.56102
G1 X108.121 Y131.603 E25.62296
G0 F3000 X108.206 Y131.21
;TYPE:WALL-OUTER
G1 F1200 X109.989 Y131.401 E25.6826
G1 X111.629 Y131.239 E25.73741
G1 X113.205 Y130.762 E25.79218
G1 X114.658 Y129.985 E25.84698
G1 X115.93 Y128.94 E25.90173
G1 X116.975 Y127.668 E25.95649
G1 X117.752 Y126.215 E26.01129
G1 X118.23 Y124.639 E26.06607
G1 X118.391 Y122.999 E26.12088
G1 X118.201 Y121.217 E26.18048
G1 X117.634 Y119.515 E26.24015
G1 X116.72 Y117.971 E26.29983
G1 X115.5 Y116.659 E26.35941
G1 X115.413 Y116.595 E26.36301
G1 X114.028 Y115.634 E26.41907
G1 X113.93 Y115.59 E26.42265
G1 X112.372 Y114.944 E26.47874
G1 X112.267 Y114.922 E26.48231
G1 X110.608 Y114.623 E26.53838
G1 X110.501 Y114.622 E26.54194
G1 X108.813 Y114.681 E26.59812
G1 X108.708 Y114.705 E26.6017
G1 X107.075 Y115.121 E26.65775
G1 X106.977 Y115.166 E26.66133
G1 X105.469 Y115.92 E26.71741
G1 X105.383 Y115.984 E26.72098
G1 X104.07 Y117.041 E26.77704
G1 X103.997 Y117.122 E26.78066
G1 X102.94 Y118.434 E26.8367
G1 X102.887 Y118.527 E26.84026
G1 X102.132 Y120.033 E26.89629
G1 X102.098 Y120.136 E26.8999
G1 X101.682 Y121.77 E26.95598
G1 X101.67 Y121.877 E26.95956
G1 X101.609 Y123.56 E27.01558
G1 X101.614 Y123.629 E27.01788
G1 X101.923 Y125.344 E27.07584
G1 X101.939 Y125.393 E27.07755
G1 X102.605 Y127.004 E27.13553
G1 X102.631 Y127.048 E27.13723
G1 X103.62 Y128.473 E27.19492
G1 X103.653 Y128.514 E27.19667
G1 X104.927 Y129.699 E27.25454
G1 X104.967 Y129.732 E27.25627
G1 X106.465 Y130.622 E27.31422
G1 X106.511 Y130.646 E27.31595
G1 X108.206 Y131.21 E27.37536
G0 F3000 X108.404 Y131.231
G0 X108.357 Y131.668
G1 F1800 E20.37536
G1 F300 Z0.4
G0 F3000 X108.34 Y131.827 Z0.4
G0 X127.375 Y136.4
;TYPE:WALL-INNER
G1 F300 Z0.2
G1 F1800 E27.37536
G1 F1200 X92.625 Y136.4 E28.53115
G1 X92.625 Y83.6 E30.28729
G1 X127.375 Y83.6 E31.44308
G1 X127.375 Y136.4 E33.19921
G0 F3000 X127.775 Y136.8
;TYPE:WALL-OUTER
G1 F1200 X92.225 Y136.8 E34.38161
G1 X92.225 Y83.2 E36.16435
G1 X127.775 Y83.2 E37.34675
G1 X127.775 Y136.8 E39.1295
G0 F3000 X127.575 Y136.8
G0 X127.335 Y136.36
G0 X126.985 Y136.01
;TYPE:SKIN
G1 F1200 X93.015 Y136.01 E40.25934
G1 X93.015 Y83.99 E41.98953
G1 X126.985 Y83.99 E43.11938
G1 X126.985 Y136.01 E44.84957
G1 F1800 E37.84957
G1 F300 Z0.4
G0 F3000 X126.985 Y136.2 Z0.4
G0 X117.635 Y128.109
G1 F300 Z0.2
G1 F1800 E44.84957
G1 F1200 X118.485 Y126.519 E44.90954
G1 X119.008 Y124.793 E44.96952
G1 X119.185 Y122.995 E45.02962
G1 X118.978 Y121.048 E45.09474
G1 X118.357 Y119.186 E45.16002
G1 X117.356 Y117.496 E45.22535
G1 X116.028 Y116.066 E45.29026
G1 X115.872 Y115.952 E45.29669
G1 X114.419 Y114.943 E45.35552
G1 X114.243 Y114.864 E45.36194
G1 X112.606 Y114.186 E45.42087
G1 X112.418 Y114.146 E45.42726
G1 X110.683 Y113.833 E45.4859
G1 X110.49 Y113.832 E45.49232
G1 X108.711 Y113.895 E45.55153
G1 X108.523 Y113.936 E45.55793
G1 X106.81 Y114.373 E45.61673
G1 X106.635 Y114.454 E45.62314
G1 X105.054 Y115.245 E45.68194
G1 X104.9 Y115.36 E45.68833
G1 X103.525 Y116.465 E45.747
G1 X103.395 Y116.609 E45.75345
G1 X102.284 Y117.988 E45.81235
G1 X102.19 Y118.155 E45.81873
G1 X101.4 Y119.731 E45.87736
G1 X101.339 Y119.915 E45.88381
G1 X100.904 Y121.627 E45.94256
G1 X100.881 Y121.817 E45.94893
G1 X100.818 Y123.575 E46.00744
G1 X100.829 Y123.729 E46.01257
G1 X101.155 Y125.539 E46.07374
G1 X101.198 Y125.668 E46.07826
G1 X101.897 Y127.358 E46.13909
G1 X101.966 Y127.475 E46.14361
G1 X102.987 Y128.947 E46.20319
G1 X103.072 Y129.054 E46.20774
G1 X104.406 Y130.295 E46.26834
G1 X104.512 Y130.38 E46.27285
G1 X106.081 Y131.313 E46.33357
G1 X106.202 Y131.376 E46.33811
G1 X108.037 Y131.987 E46.40243
G1 X109.985 Y132.195 E46.46759
G1 X111.783 Y132.017 E46.52769
G1 X113.509 Y131.495 E46.58766
G1 X115.099 Y130.645 E46.64763
G1 X116.491 Y129.501 E46.70755
G1 X117.635 Y128.109 E46.76748
G1 F1800 E39.76748
G1 F300 Z0.4
G0 F3000 X117.474 Y128.002 Z0.4
G0 X113.508 Y105.496
G1 F300 Z0.2
G1 F1800 E46.76748
G1 F1200 X115.097 Y104.646 E46.82742
G1 X116.489 Y103.503 E46.88733
G1 X117.633 Y102.111 E46.94725
G1 X118.48 Y100.53 E47.00691
G1 X118.534 Y100.36 E47.01284
G1 X119.007 Y98.796 E47.06719
G1 X119.181 Y97.027 E47.12631
G1 X119.175 Y96.884 E47.13107
G1 X118.987 Y95.136 E47.18954
G1 X118.96 Y94.994 E47.19435
G1 X118.395 Y93.291 E47.25403
G1 X118.329 Y93.134 E47.25969
G1 X117.381 Y91.534 E47.32155
G1 X117.273 Y91.402 E47.32722
G1 X116.057 Y90.098 E47.38652
G1 X115.937 Y89.995 E47.39178
G1 X114.442 Y88.959 E47.45228
G1 X114.303 Y88.887 E47.45749
G1 X112.62 Y88.192 E47.51805
G1 X112.468 Y88.153 E47.52327
G1 X110.691 Y87.836 E47.5833
G1 X110.534 Y87.83 E47.58853
G1 X108.787 Y87.889 E47.64667
G1 X108.604 Y87.914 E47.65281
G1 X106.827 Y88.37 E47.71383
G1 X106.669 Y88.435 E47.71951
G1 X105.064 Y89.241 E47.77925
G1 X104.934 Y89.331 E47.78451
G1 X103.566 Y90.43 E47.84287
G1 X103.452 Y90.54 E47.84814
G1 X102.299 Y91.97 E47.90923
G1 X102.215 Y92.102 E47.91444
G1 X101.411 Y93.709 E47.9742
G1 X101.357 Y93.843 E47.97901
G1 X100.902 Y95.634 E48.04047
G1 X100.881 Y95.802 E48.0461
G1 X100.818 Y97.572 E48.10501
G1 X100.837 Y97.772 E48.11169
G1 X101.149 Y99.515 E48.17058
