;FLAVOR:Marlin
;TIME:11120
;Filament used: 7.20682m
;Layer height: 0.2
;MINX:79
;MINY:88.025
;MINZ:0.2
;MAXX:141
;MAXY:131.975
;MAXZ:38.2
;Generated with Cura_SteamEngine master
M82 ;absolute extrusion mode
;Sliced at: Wed 12-10-2022 21:25:47
;Basic settings: Layer height: 0.2 Walls: 0.8 Fill: 30.0
G21 ;metric values
G90 ;absolute positioning
M82 ;set extruder to absolute mode
M107 ;start with the fan off
M117 Start heating ...
M104 S200
M117 Homing X/Y ...
G28 X0 Y0 ;move X/Y to min endstops
M117 Homing Z ...
G28 Z0 ;move Z to min endstops
G1 Z15.0 F100 ;move the platform down 15mm
M117 Heating ...
M109 S200
M117 Start cleaning ...
G92 E0 ;zero the extruded length
G1 F200 E10 ;extrude 10mm of feed stock
G92 E0 ;zero the extruded length again
M117 Intro line ...
G1 Z2.0 F3000 ; Move Z Axis up little to prevent scratching of Heat Bed
G1 X0.1 Y20 Z0.2 F5000.0 ; Move to start position
G1 X0.1 Y200.0 Z0.2 F1500.0 E15 ; Draw the first line
G1 X0.4 Y200.0 Z0.2 F5000.0 ; Move to side a little
G1 X0.4 Y20 Z0.3 F1500.0 E30 ; Draw the second line
G92 E0 ; Reset Extruder
G1 E-1 F500 ; Retract filiment by 1 mm
G1 Z2.0 F3000 ; Move Z Axis up little to prevent scratching of Heat Bed
G1 X5 Y20 Z0.3 F100 ; Move over to prevent blob squish
G1 F100
G92 E0 ; Reset Extruder
M117 Printing...

G92 E0
G92 E0
G1 F1800 E-7
;LAYER_COUNT:190
;LAYER:0
M107
G1 F300 Z0.4
G0 F3000 X80.406 Y88.997 Z0.4
;TYPE:SKIRT
G1 F300 Z0.2
G1 F1800 E0
G1 F1200 X80.86 Y88.66 E0.01881
G1 X81.357 Y88.391 E0.0376
G1 X81.887 Y88.194 E0.05641
G1 X82.44 Y88.075 E0.07522
G1 X83.218 Y88.027 E0.10115
G1 X83.33 Y88.025 E0.10487
G1 X136.35 Y88.025 E1.86833
G1 X137.048 Y88.035 E1.89154
G1 X137.612 Y88.083 E1.91037
G1 X138.162 Y88.21 E1.92914
G1 X138.69 Y88.414 E1.94797
G1 X139.184 Y88.689 E1.96678
G1 X139.633 Y89.032 E1.98557
G1 X140.03 Y89.434 E2.00436
G1 X140.367 Y89.889 E2.02319
G1 X140.635 Y90.386 E2.04197
G1 X140.831 Y90.916 E2.06077
G1 X140.951 Y91.469 E2.07959
G1 X140.998 Y92.243 E2.10538
G1 X141 Y92.355 E2.1091
G1 X141 Y127.289 E3.27101
G1 X140.991 Y128.016 E3.2952
G1 X140.944 Y128.579 E3.31399
G1 X140.818 Y129.13 E3.33279
G1 X140.616 Y129.658 E3.35159
G1 X140.341 Y130.152 E3.37039
G1 X139.999 Y130.602 E3.38919
G1 X139.597 Y131 E3.40801
G1 X139.144 Y131.337 E3.42679
G1 X138.647 Y131.607 E3.4456
G1 X138.117 Y131.804 E3.4644
G1 X137.565 Y131.925 E3.4832
G1 X136.782 Y131.973 E3.50929
G1 X136.67 Y131.975 E3.51302
G1 X83.655 Y131.975 E5.2763
G1 X82.957 Y131.966 E5.29952
G1 X82.394 Y131.918 E5.31831
G1 X81.843 Y131.792 E5.33711
G1 X81.315 Y131.59 E5.35592
G1 X80.821 Y131.315 E5.37472
G1 X80.371 Y130.973 E5.39352
G1 X79.973 Y130.571 E5.41234
G1 X79.637 Y130.117 E5.43112
G1 X79.367 Y129.62 E5.44993
G1 X79.17 Y129.09 E5.46874
G1 X79.05 Y128.538 E5.48753
G1 X79.001 Y127.741 E5.51409
G1 X79 Y92.645 E6.68138
G1 X79.009 Y91.98 E6.7035
G1 X79.057 Y91.417 E6.7223
G1 X79.183 Y90.866 E6.7411
G1 X79.386 Y90.338 E6.75991
G1 X79.662 Y89.844 E6.77873
G1 X80.004 Y89.394 E6.79753
G1 X80.406 Y88.997 E6.81632
G0 F3000 X80.794 Y89.196
G1 F1200 X81.241 Y88.898 E6.83419
G1 X81.726 Y88.67 E6.85202
G1 X82.24 Y88.517 E6.86985
G1 X82.908 Y88.435 E6.89224
G1 X83.33 Y88.425 E6.90628
G1 X136.345 Y88.425 E8.66956
G1 X137.043 Y88.435 E8.69278
G1 X137.577 Y88.483 E8.71061
G1 X138.098 Y88.609 E8.72844
G1 X138.595 Y88.812 E8.7463
G1 X139.056 Y89.086 E8.76413
G1 X139.471 Y89.425 E8.78196
G1 X139.831 Y89.823 E8.79981
G1 X140.128 Y90.269 E8.81763
G1 X140.356 Y90.755 E8.83548
G1 X140.508 Y91.269 E8.85331
G1 X140.59 Y91.934 E8.8756
G1 X140.6 Y92.355 E8.8896
G1 X140.6 Y127.284 E10.05135
G1 X140.591 Y128.011 E10.07553
G1 X140.544 Y128.545 E10.09336
G1 X140.419 Y129.066 E10.11118
G1 X140.217 Y129.563 E10.12902
G1 X139.944 Y130.025 E10.14687
G1 X139.606 Y130.441 E10.1647
G1 X139.209 Y130.802 E10.18255
G1 X138.763 Y131.1 E10.20039
G1 X138.278 Y131.328 E10.21821
G1 X137.764 Y131.482 E10.23606
G1 X137.092 Y131.565 E10.25858
G1 X136.67 Y131.575 E10.27262
G1 X83.661 Y131.575 E12.0357
G1 X82.963 Y131.566 E12.05892
G1 X82.428 Y131.519 E12.07678
G1 X81.907 Y131.393 E12.09461
G1 X81.41 Y131.191 E12.11246
G1 X80.949 Y130.918 E12.13028
G1 X80.533 Y130.579 E12.14812
G1 X80.172 Y130.183 E12.16595
G1 X79.874 Y129.737 E12.18379
G1 X79.646 Y129.251 E12.20164
G1 X79.493 Y128.737 E12.21948
G1 X79.41 Y128.063 E12.24207
G1 X79.4 Y127.633 E12.25637
G1 X79.4 Y92.65 E13.41991
G1 X79.409 Y91.985 E13.44203
G1 X79.457 Y91.451 E13.45986
G1 X79.583 Y90.93 E13.47769
G1 X79.785 Y90.433 E13.49553
G1 X80.058 Y89.972 E13.51335
G1 X80.397 Y89.556 E13.5312
G1 X80.794 Y89.196 E13.54903
G0 F3000 X80.789 Y89.729
G1 F1200 X81.18 Y89.408 E13.56585
G1 X81.617 Y89.153 E13.58268
G1 X82.088 Y88.969 E13.5995
G1 X82.582 Y88.863 E13.6163
G1 X83.24 Y88.826 E13.63822
G1 X136.339 Y88.825 E15.4043
G1 X137.037 Y88.835 E15.42752
G1 X137.54 Y88.882 E15.44433
G1 X138.03 Y89.008 E15.46115
G1 X138.494 Y89.21 E15.47798
G1 X138.92 Y89.482 E15.4948
G1 X139.298 Y89.817 E15.51159
G1 X139.618 Y90.208 E15.5284
G1 X139.873 Y90.645 E15.54523
G1 X140.056 Y91.116 E15.56203
G1 X140.163 Y91.61 E15.57885
G1 X140.199 Y92.265 E15.60066
G1 X140.2 Y127.279 E16.76523
G1 X140.191 Y128.006 E16.78942
G1 X140.145 Y128.509 E16.80622
G1 X140.02 Y128.999 E16.82303
G1 X139.819 Y129.463 E16.83985
G1 X139.548 Y129.89 E16.85667
G1 X139.213 Y130.269 E16.8735
G1 X138.823 Y130.59 E16.8903
G1 X138.387 Y130.846 E16.90711
G1 X137.916 Y131.029 E16.92392
G1 X137.422 Y131.137 E16.94074
G1 X136.76 Y131.174 E16.96279
G1 X83.666 Y131.175 E18.72871
G1 X82.968 Y131.166 E18.75192
G1 X82.464 Y131.119 E18.76876
G1 X81.974 Y130.994 E18.78558
G1 X81.51 Y130.793 E18.8024
G1 X81.084 Y130.522 E18.81919
G1 X80.705 Y130.187 E18.83601
G1 X80.384 Y129.796 E18.85284
G1 X80.129 Y129.36 E18.86964
G1 X79.945 Y128.889 E18.88646
G1 X79.838 Y128.395 E18.90327
G1 X79.801 Y127.719 E18.92579
G1 X79.8 Y92.656 E20.09199
G1 X79.809 Y91.991 E20.11411
G1 X79.856 Y91.487 E20.13094
G1 X79.982 Y90.998 E20.14774
G1 X80.183 Y90.534 E20.16456
G1 X80.454 Y90.107 E20.18138
G1 X80.789 Y89.729 E20.19818
G1 F1800 E13.19818
G1 F300 Z0.4
G0 F3000 X114.581 Y96.173 Z0.4
;TYPE:SUPPORT
G1 F300 Z0.2
G1 F1800 E20.19818
G1 F1200 X114.682 Y96.131 E20.20182
G1 X114.682 Y96.275 E20.2066
G1 X114.581 Y96.275 E20.20996
G1 X114.581 Y96.173 E20.21336
G1 F1800 E13.21336
G1 F300 Z0.4
G0 F3000 X114.58 Y123.875 Z0.4
G1 F300 Z0.2
G1 F1800 E20.21336
G1 F1200 X114.682 Y123.875 E20.21675
G1 X114.682 Y124.004 E20.22104
G1 X114.58 Y123.96 E20.22473
G1 X114.58 Y123.875 E20.22756
G1 F1800 E13.22756
G1 F300 Z0.4
;MESH:station.sensor.box.stl
G0 F3000 X103.482 Y93.425 Z0.4
;TYPE:WALL-INNER
G1 F300 Z0.2
G1 F1800 E20.22756
G1 F1200 X103.482 Y97.875 E20.37557
G1 X116.282 Y97.875 E20.8013
G1 X116.282 Y93.425 E20.94931
G1 X103.482 Y93.425 E21.37504
G0 F3000 X103.882 Y93.825
;TYPE:WALL-OUTER
G1 F1200 X103.882 Y97.475 E21.49644
G1 X115.882 Y97.475 E21.89556
G1 X115.882 Y93.825 E22.01696
G1 X103.882 Y93.825 E22.41608
G0 F3000 X103.882 Y94.025
G0 X103.442 Y94.025
G1 F1800 E15.41608
G1 F300 Z0.4
G0 F3000 X103.282 Y94.025 Z0.4
G0 X103.482 Y122.275
;TYPE:WALL-INNER
G1 F300 Z0.2
G1 F1800 E22.41608
G1 F1200 X103.482 Y126.575 E22.5591
G1 X116.282 Y126.575 E22.98483
G1 X116.282 Y122.275 E23.12785
G1 X103.482 Y122.275 E23.55357
G0 F3000 X103.882 Y122.675
;TYPE:WALL-OUTER
G1 F1200 X103.882 Y126.175 E23.66999
G1 X115.882 Y126.175 E24.06911
G1 X115.882 Y122.675 E24.18552
G1 X103.882 Y122.675 E24.58464
G0 F3000 X103.882 Y122.875
G0 X103.442 Y122.875
G1 F1800 E17.58464
G1 F300 Z0.4
G0 F3000 X103.282 Y122.875 Z0.4
G0 X109.15 Y113.159
;TYPE:WALL-INNER
G1 F300 Z0.2
G1 F1800 E24.58464
G1 F1200 X109.271 Y113.184 E24.58875
G1 X109.941 Y113.269 E24.61121
G1 X110.062 Y113.268 E24.61524
G1 X110.685 Y113.199 E24.63608
G1 X110.798 Y113.168 E24.63998
G1 X111.391 Y112.963 E24.66085
G1 X111.492 Y112.906 E24.66471
G1 X112.029 Y112.57 E24.68578
G1 X112.553 Y112.051 E24.71031
G1 X112.947 Y111.429 E24.73479
G1 X113.191 Y110.734 E24.75929
G1 X113.275 Y109.997 E24.78397
G1 X113.175 Y109.197 E24.81078
G1 X112.882 Y108.444 E24.83765
G1 X112.413 Y107.786 E24.86453
G1 X111.797 Y107.261 E24.89145
G1 X111.071 Y106.905 E24.91834
G1 X110.281 Y106.736 E24.94521
G1 X109.483 Y106.767 E24.97177
G1 X109.363 Y106.797 E24.97589
G1 X108.696 Y106.996 E24.99904
G1 X108.009 Y107.4 E25.02555
G1 X107.918 Y107.485 E25.02969
G1 X107.432 Y107.969 E25.0525
G1 X107.365 Y108.072 E25.05659
G1 X107.014 Y108.659 E25.07934
G1 X106.973 Y108.775 E25.08343
G1 X106.777 Y109.425 E25.10601
G1 X106.764 Y109.549 E25.11016
G1 X106.736 Y110.236 E25.13303
G1 X106.754 Y110.358 E25.13713
G1 X106.892 Y111.023 E25.15972
G1 X106.938 Y111.137 E25.1638
G1 X107.238 Y111.757 E25.18671
G1 X107.311 Y111.855 E25.19078
G1 X107.751 Y112.377 E25.21348
G1 X107.846 Y112.456 E25.21759
G1 X108.402 Y112.854 E25.24034
G1 X108.511 Y112.908 E25.24438
G1 X109.15 Y113.159 E25.26722
G0 F3000 X109.265 Y112.774
;TYPE:WALL-OUTER
G1 F1200 X109.337 Y112.789 E25.26966
G1 X109.964 Y112.869 E25.29069
G1 X110.037 Y112.868 E25.29311
G1 X110.61 Y112.805 E25.31229
G1 X110.68 Y112.786 E25.3147
G1 X111.226 Y112.597 E25.33392
G1 X111.288 Y112.562 E25.33628
G1 X111.779 Y112.255 E25.35554
G1 X112.239 Y111.799 E25.37709
G1 X112.585 Y111.253 E25.39859
G1 X112.799 Y110.644 E25.42006
G1 X112.872 Y109.999 E25.44165
G1 X112.784 Y109.296 E25.46521
G1 X112.527 Y108.635 E25.4888
G1 X112.116 Y108.058 E25.51236
G1 X111.576 Y107.598 E25.53595
G1 X110.939 Y107.286 E25.55955
G1 X110.246 Y107.138 E25.58311
G1 X109.54 Y107.165 E25.60661
G1 X109.469 Y107.183 E25.60905
G1 X108.857 Y107.365 E25.63029
G1 X108.249 Y107.723 E25.65375
G1 X108.195 Y107.773 E25.6562
G1 X107.744 Y108.223 E25.67739
G1 X107.704 Y108.284 E25.67982
G1 X107.378 Y108.829 E25.70094
G1 X107.354 Y108.898 E25.70337
G1 X107.171 Y109.505 E25.72446
G1 X107.163 Y109.579 E25.72693
G1 X107.137 Y110.214 E25.74807
G1 X107.148 Y110.287 E25.75052
G1 X107.277 Y110.908 E25.77162
G1 X107.304 Y110.976 E25.77405
G1 X107.582 Y111.549 E25.79524
G1 X107.625 Y111.607 E25.79764
G1 X108.035 Y112.093 E25.81879
G1 X108.091 Y112.14 E25.82122
G1 X108.608 Y112.51 E25.84236
G1 X108.673 Y112.542 E25.84477
G1 X109.265 Y112.774 E25.86592
G0 F3000 X109.337 Y112.789
G0 X109.462 Y112.805
G0 X109.407 Y113.24
G1 F1800 E18.86592
G1 F300 Z0.4
G0 F3000 X109.387 Y113.399 Z0.4
G0 X117.605 Y114.242
;TYPE:WALL-INNER
G1 F300 Z0.2
G1 F1800 E25.86592
G1 F1200 X117.547 Y114.308 E25.86884
G1 X117.232 Y115.136 E25.89831
G1 X117.139 Y115.907 E25.92414
G1 X117.132 Y115.994 E25.92704
G1 X117.231 Y116.809 E25.95435
G1 X117.532 Y117.604 E25.98262
G1 X118.015 Y118.304 E26.01091
G1 X118.654 Y118.865 E26.03919
G1 X119.393 Y119.252 E26.06693
G1 X120.218 Y119.455 E26.09519
G1 X121.054 Y119.454 E26.123
G1 X121.878 Y119.252 E26.15122
G1 X122.632 Y118.856 E26.17954
G1 X123.267 Y118.289 E26.20786
G1 X123.738 Y117.602 E26.23556
G1 X124.018 Y116.865 E26.26178
G1 X124.045 Y116.771 E26.26504
G1 X124.139 Y115.975 E26.29169
G1 X124.037 Y115.13 E26.32
G1 X123.78 Y114.461 E26.34384
G1 X123.757 Y114.376 E26.34677
G1 X123.259 Y113.651 E26.37602
G1 X122.62 Y113.087 E26.40437
G1 X121.958 Y112.742 E26.4292
G1 X121.846 Y112.689 E26.43332
G1 X121.057 Y112.496 E26.46034
G1 X120.273 Y112.496 E26.48641
G1 X120.185 Y112.503 E26.48935
G1 X119.382 Y112.702 E26.51686
G1 X118.643 Y113.091 E26.54464
G1 X118.007 Y113.657 E26.57296
G1 X117.605 Y114.242 E26.59657
G0 F3000 X117.896 Y114.517
;TYPE:WALL-OUTER
G1 F1200 X117.623 Y115.233 E26.62205
G1 X117.537 Y115.946 E26.64594
G1 X117.534 Y115.985 E26.64724
G1 X117.622 Y116.713 E26.67163
G1 X117.889 Y117.417 E26.69667
G1 X118.316 Y118.036 E26.72168
G1 X118.882 Y118.533 E26.74674
G1 X119.536 Y118.875 E26.77128
G1 X120.266 Y119.055 E26.79629
G1 X121.005 Y119.054 E26.82087
G1 X121.735 Y118.875 E26.84587
G1 X122.402 Y118.525 E26.87092
G1 X122.964 Y118.023 E26.89599
G1 X123.381 Y117.415 E26.92051
G1 X123.638 Y116.739 E26.94456
G1 X123.651 Y116.693 E26.94615
G1 X123.736 Y115.975 E26.9702
G1 X123.646 Y115.227 E26.99526
G1 X123.399 Y114.583 E27.0182
G1 X123.389 Y114.546 E27.01947
G1 X122.957 Y113.918 E27.04482
G1 X122.392 Y113.419 E27.0699
G1 X121.78 Y113.1 E27.09285
G1 X121.712 Y113.068 E27.09535
G1 X121.009 Y112.896 E27.11942
G1 X120.288 Y112.896 E27.1434
G1 X120.249 Y112.899 E27.1447
G1 X119.525 Y113.079 E27.16952
G1 X118.872 Y113.422 E27.19405
G1 X118.309 Y113.923 E27.21912
G1 X117.922 Y114.487 E27.24187
G1 X117.896 Y114.517 E27.24319
G0 F3000 X117.825 Y114.703
G0 X117.415 Y114.547
G1 F1800 E20.24319
G1 F300 Z0.4
G0 F3000 X117.266 Y114.49 Z0.4
G0 X136.4 Y127.375
;TYPE:WALL-INNER
G1 F300 Z0.2
G1 F1800 E27.24319
G1 F1200 X83.6 Y127.375 E28.99932
G1 X83.6 Y92.625 E30.15511
G1 X136.4 Y92.625 E31.91125
G1 X136.4 Y127.375 E33.06704
G0 F3000 X136.8 Y127.775
;TYPE:WALL-OUTER
G1 F1200 X83.2 Y127.775 E34.84978
G1 X83.2 Y92.225 E36.03218
G1 X136.8 Y92.225 E37.81492
G1 X136.8 Y127.775 E38.99732
G0 F3000 X136.6 Y127.775
G0 X136.36 Y127.335
G0 X136.01 Y126.985
;TYPE:SKIN
G1 F1200 X83.99 Y126.985 E40.72751
G1 X83.99 Y93.015 E41.85736
G1 X136.01 Y93.015 E43.58755
G1 X136.01 Y126.985 E44.7174
G1 F1800 E37.7174
G1 F300 Z0.4
G0 F3000 X136.01 Y127.175 Z0.4
G0 X123.562 Y118.548
G1 F300 Z0.2
G1 F1800 E44.7174
G1 F1200 X124.086 Y117.784 E44.74821
G1 X124.388 Y116.988 E44.77653
G1 X124.429 Y116.849 E44.78135
G1 X124.531 Y115.975 E44.81061
G1 X124.419 Y115.035 E44.8421
G1 X124.15 Y114.336 E44.86701
G1 X124.116 Y114.21 E44.87135
G1 X123.553 Y113.39 E44.90443
G1 X122.842 Y112.763 E44.93596
G1 X122.131 Y112.393 E44.96262
G1 X121.977 Y112.32 E44.96829
G1 X121.104 Y112.106 E44.99818
G1 X120.257 Y112.106 E45.02636
G1 X120.122 Y112.117 E45.03086
G1 X119.242 Y112.335 E45.06101
G1 X118.419 Y112.768 E45.09194
G1 X117.712 Y113.397 E45.12342
G1 X117.292 Y114.007 E45.14805
G1 X117.208 Y114.103 E45.15229
G1 X116.85 Y115.042 E45.18572
G1 X116.751 Y115.868 E45.21339
G1 X116.74 Y116.002 E45.21786
G1 X116.849 Y116.903 E45.24805
G1 X117.185 Y117.787 E45.2795
G1 X117.721 Y118.565 E45.31092
G1 X118.432 Y119.189 E45.34239
G1 X119.254 Y119.619 E45.37324
G1 X120.171 Y119.845 E45.40465
G1 X121.101 Y119.844 E45.43559
G1 X122.017 Y119.619 E45.46696
G1 X122.856 Y119.179 E45.49847
G1 X123.562 Y118.548 E45.52996
G1 F1800 E38.52996
G1 F300 Z0.4
G0 F3000 X123.415 Y118.42 Z0.4
G0 X116.672 Y126.965
G1 F300 Z0.2
G1 F1800 E45.52996
G1 F1200 X116.672 Y121.885 E45.69892
G1 X103.092 Y121.885 E46.1506
G1 X103.092 Y126.965 E46.31956
G1 X116.672 Y126.965 E46.77123
G1 F1800 E39.77123
G1 F300 Z0.4
G0 F3000 X116.672 Y127.175 Z0.4
G0 X112.859 Y112.297
G1 F300 Z0.2
G1 F1800 E46.77123
G1 F1200 X113.3 Y111.6 E46.79866
G1 X113.573 Y110.822 E46.82609
G1 X113.667 Y109.995 E46.85377
G1 X113.556 Y109.101 E46.88373
G1 X113.228 Y108.257 E46.91385
G1 X112.703 Y107.521 E46.94392
G1 X112.013 Y106.932 E46.97409
G1 X111.2 Y106.534 E47.0042
G1 X110.314 Y106.344 E47.03434
G1 X109.428 Y106.379 E47.06383
G1 X109.26 Y106.421 E47.06959
G1 X108.54 Y106.636 E47.09458
G1 X107.775 Y107.086 E47.1241
G1 X107.647 Y107.204 E47.12989
G1 X107.128 Y107.721 E47.15425
G1 X107.034 Y107.865 E47.15997
G1 X106.659 Y108.493 E47.1843
G1 X106.602 Y108.654 E47.18998
G1 X106.393 Y109.347 E47.21406
G1 X106.374 Y109.52 E47.21985
G1 X106.344 Y110.257 E47.24438
G1 X106.37 Y110.427 E47.2501
G1 X106.517 Y111.136 E47.27418
G1 X106.581 Y111.295 E47.27988
G1 X106.903 Y111.96 E47.30446
G1 X107.005 Y112.097 E47.31014
G1 X107.475 Y112.655 E47.3344
G1 X107.608 Y112.765 E47.34014
G1 X108.201 Y113.189 E47.36439
G1 X108.353 Y113.265 E47.37004
G1 X109.039 Y113.534 E47.39455
G1 X109.207 Y113.569 E47.40026
G1 X109.918 Y113.659 E47.42409
G1 X110.085 Y113.658 E47.42965
G1 X110.759 Y113.583 E47.45221
G1 X110.913 Y113.541 E47.45751
G1 X111.551 Y113.32 E47.47997
G1 X111.691 Y113.241 E47.48532
G1 X112.273 Y112.878 E47.50813
G1 X112.859 Y112.297 E47.53558
G1 F1800 E40.53558
G1 F300 Z0.4
G0 F3000 X112.707 Y112.175 Z0.4
G0 X116.672 Y98.265
G1 F300 Z0.2
G1 F1800 E47.53558
G1 F1200 X116.672 Y93.035 E47.70953
G1 X103.092 Y93.035 E48.1612
G1 X103.092 Y98.265 E48.33515
G1 X116.672 Y98.265 E48.78682
G1 F1800 E41.78682
G1 F300 Z0.4
G0 F3000 X116.364 Y97.957 Z0.4
G0 X135.829 Y93.403
G1 F300 Z0.2
G1 F1800 E48.78682
