;FLAVOR:Marlin
;TIME:3615
;Filament used: 2.10233m
;Layer height: 0.2
;MINX:88.988
;MINY:79
;MINZ:0.2
;MAXX:131.012
;MAXY:141
;MAXZ:9.8
;Generated with Cura_SteamEngine master
M82 ;absolute extrusion mode
;Sliced at: Thu 06-10-2022 00:45:32
;Basic settings: Layer height: 0.2 Walls: 0.8 Fill: 30.0
G21 ;metric values
G90 ;absolute positioning
M82 ;set extruder to absolute mode
M107 ;start with the fan off
M117 Start heating ...
M104 S200
M117 Homing X/Y ...
G28 X0 Y0 ;move X/Y to min endstops
M117 Homing Z ...
G28 Z0 ;move Z to min endstops
G1 Z15.0 F100 ;move the platform down 15mm
M117 Heating ...
M109 S200
M117 Start cleaning ...
G92 E0 ;zero the extruded length
G1 F200 E10 ;extrude 10mm of feed stock
G92 E0 ;zero the extruded length again
M117 Intro line ...
G1 Z2.0 F3000 ; Move Z Axis up little to prevent scratching of Heat Bed
G1 X0.1 Y20 Z0.2 F5000.0 ; Move to start position
G1 X0.1 Y200.0 Z0.2 F1500.0 E15 ; Draw the first line
G1 X0.4 Y200.0 Z0.2 F5000.0 ; Move to side a little
G1 X0.4 Y20 Z0.3 F1500.0 E30 ; Draw the second line
G92 E0 ; Reset Extruder
G1 E-1 F500 ; Retract filiment by 1 mm
G1 Z2.0 F3000 ; Move Z Axis up little to prevent scratching of Heat Bed
G1 X5 Y20 Z0.3 F100 ; Move over to prevent blob squish
G1 F100
G92 E0 ; Reset Extruder
M117 Printing...

G92 E0
G92 E0
G1 F1800 E-7
;LAYER_COUNT:48
;LAYER:0
M107
G1 F300 Z0.4
G0 F3000 X89.992 Y80.369 Z0.4
;TYPE:SKIRT
G1 F300 Z0.2
G1 F1800 E0
G1 F1200 X90.394 Y79.972 E0.01879
G1 X90.848 Y79.635 E0.0376
G1 X91.345 Y79.366 E0.05639
G1 X91.875 Y79.169 E0.0752
G1 X92.428 Y79.05 E0.09401
G1 X93.206 Y79.002 E0.11994
G1 X93.318 Y79 E0.12366
G1 X126.362 Y79 E1.22271
G1 X127.06 Y79.01 E1.24593
G1 X127.624 Y79.058 E1.26476
G1 X128.174 Y79.185 E1.28353
G1 X128.702 Y79.389 E1.30236
G1 X129.196 Y79.664 E1.32116
G1 X129.645 Y80.007 E1.33996
G1 X130.042 Y80.409 E1.35875
G1 X130.379 Y80.864 E1.37758
G1 X130.647 Y81.361 E1.39636
G1 X130.843 Y81.891 E1.41515
G1 X130.963 Y82.444 E1.43398
G1 X131.01 Y83.218 E1.45977
G1 X131.012 Y83.33 E1.46349
G1 X131.012 Y136.314 E3.22575
G1 X131.003 Y137.041 E3.24993
G1 X130.956 Y137.604 E3.26872
G1 X130.83 Y138.155 E3.28752
G1 X130.628 Y138.683 E3.30632
G1 X130.353 Y139.177 E3.32513
G1 X130.011 Y139.627 E3.34393
G1 X129.609 Y140.025 E3.36274
G1 X129.156 Y140.362 E3.38152
G1 X128.659 Y140.632 E3.40033
G1 X128.129 Y140.829 E3.41914
G1 X127.577 Y140.95 E3.43793
G1 X126.794 Y140.998 E3.46402
G1 X126.682 Y141 E3.46775
G1 X93.643 Y141 E4.56663
G1 X92.945 Y140.991 E4.58985
G1 X92.382 Y140.943 E4.60864
G1 X91.831 Y140.817 E4.62744
G1 X91.303 Y140.615 E4.64624
G1 X90.809 Y140.34 E4.66505
G1 X90.359 Y139.998 E4.68385
G1 X89.961 Y139.596 E4.70266
G1 X89.625 Y139.142 E4.72145
G1 X89.355 Y138.645 E4.74026
G1 X89.158 Y138.115 E4.75907
G1 X89.038 Y137.563 E4.77786
G1 X88.989 Y136.766 E4.80441
G1 X88.988 Y83.62 E6.57206
G1 X88.997 Y82.955 E6.59418
G1 X89.045 Y82.392 E6.61297
G1 X89.171 Y81.841 E6.63177
G1 X89.374 Y81.313 E6.65059
G1 X89.65 Y80.819 E6.66941
G1 X89.992 Y80.369 E6.68821
G0 F3000 X90.385 Y80.531
G1 F1200 X90.782 Y80.171 E6.70603
G1 X91.229 Y79.873 E6.7239
G1 X91.714 Y79.645 E6.74172
G1 X92.228 Y79.492 E6.75956
G1 X92.896 Y79.41 E6.78194
G1 X93.318 Y79.4 E6.79598
G1 X126.357 Y79.4 E7.89487
G1 X127.055 Y79.41 E7.91808
G1 X127.589 Y79.458 E7.93592
G1 X128.11 Y79.584 E7.95374
G1 X128.607 Y79.787 E7.9716
G1 X129.068 Y80.061 E7.98944
G1 X129.483 Y80.4 E8.00726
G1 X129.843 Y80.798 E8.02511
G1 X130.14 Y81.244 E8.04293
G1 X130.368 Y81.73 E8.06079
G1 X130.52 Y82.244 E8.07861
G1 X130.602 Y82.909 E8.1009
G1 X130.612 Y83.33 E8.11491
G1 X130.612 Y136.309 E9.87699
G1 X130.603 Y137.036 E9.90118
G1 X130.556 Y137.57 E9.91901
G1 X130.431 Y138.091 E9.93683
G1 X130.229 Y138.588 E9.95467
G1 X129.956 Y139.05 E9.97252
G1 X129.618 Y139.466 E9.99035
G1 X129.221 Y139.827 E10.00819
G1 X128.775 Y140.125 E10.02603
G1 X128.29 Y140.353 E10.04386
G1 X127.776 Y140.507 E10.0617
G1 X127.104 Y140.59 E10.08423
G1 X126.682 Y140.6 E10.09826
G1 X93.649 Y140.6 E11.19695
G1 X92.951 Y140.591 E11.22016
G1 X92.416 Y140.544 E11.23803
G1 X91.895 Y140.418 E11.25586
G1 X91.398 Y140.216 E11.2737
G1 X90.937 Y139.943 E11.29152
G1 X90.521 Y139.604 E11.30937
G1 X90.16 Y139.208 E11.32719
G1 X89.862 Y138.762 E11.34503
G1 X89.634 Y138.276 E11.36289
G1 X89.481 Y137.762 E11.38072
G1 X89.398 Y137.088 E11.40331
G1 X89.388 Y136.658 E11.41761
G1 X89.388 Y83.625 E13.1815
G1 X89.397 Y82.96 E13.20362
G1 X89.445 Y82.426 E13.22145
G1 X89.571 Y81.905 E13.23928
G1 X89.773 Y81.408 E13.25712
G1 X90.046 Y80.947 E13.27494
G1 X90.385 Y80.531 E13.29279
G0 F3000 X90.442 Y81.082
G1 F1200 X90.777 Y80.704 E13.30959
G1 X91.168 Y80.383 E13.32642
G1 X91.605 Y80.128 E13.34324
G1 X92.076 Y79.944 E13.36006
G1 X92.57 Y79.838 E13.37687
G1 X93.228 Y79.801 E13.39879
G1 X126.351 Y79.8 E14.50046
G1 X127.049 Y79.81 E14.52368
G1 X127.552 Y79.857 E14.54048
G1 X128.042 Y79.983 E14.55731
G1 X128.506 Y80.185 E14.57414
G1 X128.932 Y80.457 E14.59095
G1 X129.31 Y80.792 E14.60775
G1 X129.63 Y81.183 E14.62456
G1 X129.885 Y81.62 E14.64139
G1 X130.068 Y82.091 E14.65819
G1 X130.175 Y82.585 E14.675
G1 X130.211 Y83.24 E14.69682
G1 X130.212 Y136.304 E16.46174
G1 X130.203 Y137.031 E16.48592
G1 X130.157 Y137.534 E16.50272
G1 X130.032 Y138.024 E16.51954
G1 X129.831 Y138.488 E16.53636
G1 X129.56 Y138.915 E16.55318
G1 X129.225 Y139.294 E16.57
G1 X128.835 Y139.615 E16.5868
G1 X128.399 Y139.871 E16.60362
G1 X127.928 Y140.054 E16.62043
G1 X127.434 Y140.162 E16.63724
G1 X126.772 Y140.199 E16.6593
G1 X93.654 Y140.2 E17.76081
G1 X92.956 Y140.191 E17.78402
G1 X92.452 Y140.144 E17.80086
G1 X91.962 Y140.019 E17.81768
G1 X91.498 Y139.818 E17.8345
G1 X91.072 Y139.547 E17.85129
G1 X90.693 Y139.212 E17.86811
G1 X90.372 Y138.821 E17.88494
G1 X90.117 Y138.385 E17.90174
G1 X89.933 Y137.914 E17.91856
G1 X89.826 Y137.42 E17.93537
G1 X89.789 Y136.744 E17.95789
G1 X89.788 Y83.631 E19.72443
G1 X89.797 Y82.966 E19.74655
G1 X89.844 Y82.462 E19.76339
G1 X89.97 Y81.973 E19.78018
G1 X90.171 Y81.509 E19.797
G1 X90.442 Y81.082 E19.81382
G1 F1800 E12.81382
G1 F300 Z0.4
;MESH:station.sensor.sonar.cap.stl
G0 F3000 X108.135 Y105.605 Z0.4
;TYPE:WALL-INNER
G1 F300 Z0.2
G1 F1800 E19.81382
G1 F1200 X109.987 Y105.803 E19.87577
G1 X111.706 Y105.634 E19.93322
G1 X113.358 Y105.134 E19.99063
G1 X114.879 Y104.32 E20.04801
G1 X116.212 Y103.226 E20.10536
G1 X117.307 Y101.893 E20.16274
G1 X118.119 Y100.377 E20.21994
G1 X118.162 Y100.243 E20.22462
G1 X118.623 Y98.72 E20.27754
G1 X118.791 Y97.017 E20.33446
G1 X118.786 Y96.915 E20.33786
G1 X118.601 Y95.189 E20.39559
G1 X118.578 Y95.077 E20.3994
G1 X118.018 Y93.399 E20.45823
G1 X117.977 Y93.306 E20.46161
G1 X117.085 Y91.798 E20.51989
G1 X117.003 Y91.684 E20.52456
G1 X115.789 Y90.379 E20.58384
G1 X115.691 Y90.299 E20.58805
G1 X114.248 Y89.298 E20.64646
G1 X114.136 Y89.241 E20.65064
G1 X112.492 Y88.561 E20.70981
G1 X112.38 Y88.535 E20.71363
G1 X110.642 Y88.222 E20.77237
G1 X110.528 Y88.22 E20.77616
G1 X108.818 Y88.279 E20.83307
G1 X108.679 Y88.298 E20.83774
G1 X106.982 Y88.733 E20.89601
G1 X106.862 Y88.775 E20.90023
G1 X105.266 Y89.574 E20.9596
G1 X105.162 Y89.647 E20.96382
G1 X103.782 Y90.761 E21.02281
G1 X103.706 Y90.846 E21.0266
G1 X102.611 Y92.205 E21.08465
G1 X102.551 Y92.301 E21.08842
G1 X101.752 Y93.902 E21.14793
G1 X101.716 Y94.011 E21.15175
G1 X101.28 Y95.729 E21.2107
G1 X101.271 Y95.842 E21.21447
G1 X101.208 Y97.56 E21.27165
G1 X101.223 Y97.719 E21.27696
G1 X101.529 Y99.421 E21.33448
G1 X101.573 Y99.559 E21.33929
G1 X102.233 Y101.154 E21.39671
G1 X102.304 Y101.28 E21.40152
G1 X103.285 Y102.696 E21.45881
G1 X103.379 Y102.807 E21.46365
G1 X104.637 Y103.978 E21.52081
G1 X104.75 Y104.07 E21.52566
G1 X106.233 Y104.95 E21.58301
G1 X106.36 Y105.018 E21.58781
G1 X107.996 Y105.563 E21.64516
G1 X108.135 Y105.605 E21.64999
G0 F3000 X108.214 Y105.211
;TYPE:WALL-OUTER
G1 F1200 X109.989 Y105.401 E21.70936
G1 X111.628 Y105.24 E21.76414
G1 X113.204 Y104.763 E21.8189
G1 X114.656 Y103.986 E21.87368
G1 X115.928 Y102.942 E21.92841
G1 X116.973 Y101.67 E21.98316
G1 X117.749 Y100.22 E22.03786
G1 X117.78 Y100.124 E22.04122
G1 X118.229 Y98.642 E22.09272
G1 X118.39 Y97.007 E22.14737
G1 X118.387 Y96.946 E22.1494
G1 X118.205 Y95.25 E22.20613
G1 X118.191 Y95.18 E22.2085
G1 X117.645 Y93.544 E22.26587
G1 X117.621 Y93.49 E22.26783
G1 X116.75 Y92.017 E22.32475
G1 X116.693 Y91.938 E22.32799
G1 X115.515 Y90.672 E22.38551
G1 X115.45 Y90.619 E22.3883
G1 X114.042 Y89.642 E22.4453
G1 X113.968 Y89.604 E22.44806
G1 X112.37 Y88.943 E22.50558
G1 X112.3 Y88.927 E22.50797
G1 X110.603 Y88.621 E22.56532
G1 X110.532 Y88.62 E22.56768
G1 X108.852 Y88.678 E22.62359
G1 X108.756 Y88.691 E22.62682
G1 X107.098 Y89.116 E22.68374
G1 X107.018 Y89.144 E22.68656
G1 X105.471 Y89.919 E22.74411
G1 X105.402 Y89.967 E22.74691
G1 X104.058 Y91.053 E22.80438
G1 X104.01 Y91.106 E22.80676
G1 X102.938 Y92.436 E22.86357
G1 X102.901 Y92.496 E22.86592
G1 X102.123 Y94.054 E22.92384
G1 X102.101 Y94.122 E22.92622
G1 X101.676 Y95.796 E22.98366
G1 X101.67 Y95.866 E22.986
G1 X101.609 Y97.548 E23.04198
G1 X101.62 Y97.665 E23.04588
G1 X101.918 Y99.324 E23.10195
G1 X101.949 Y99.421 E23.10533
G1 X102.593 Y100.979 E23.1614
G1 X102.643 Y101.068 E23.1648
G1 X103.603 Y102.452 E23.22082
G1 X103.669 Y102.53 E23.22422
G1 X104.901 Y103.677 E23.28021
G1 X104.98 Y103.742 E23.28361
G1 X106.429 Y104.601 E23.33964
G1 X106.519 Y104.649 E23.34303
G1 X108.117 Y105.182 E23.39906
G1 X108.214 Y105.211 E23.40242
G0 F3000 X108.412 Y105.232
G0 X108.365 Y105.669
G1 F1800 E16.40242
G1 F300 Z0.4
G0 F3000 X108.348 Y105.828 Z0.4
G0 X108.121 Y131.603
;TYPE:WALL-INNER
G1 F300 Z0.2
G1 F1800 E23.40242
G1 F1200 X109.987 Y131.803 E23.46484
G1 X111.707 Y131.633 E23.52233
G1 X113.359 Y131.133 E23.57974
G1 X114.881 Y130.319 E23.63714
G1 X116.214 Y129.224 E23.69452
G1 X117.309 Y127.891 E23.7519
G1 X118.123 Y126.369 E23.8093
G1 X118.624 Y124.717 E23.86672
G1 X118.793 Y122.997 E23.9242
G1 X118.594 Y121.132 E23.98659
G1 X118 Y119.348 E24.04912
G1 X117.042 Y117.73 E24.11166
G1 X115.767 Y116.359 E24.17394
G1 X115.646 Y116.27 E24.17893
G1 X114.226 Y115.284 E24.23643
G1 X114.089 Y115.223 E24.24142
G1 X112.491 Y114.56 E24.29896
G1 X112.344 Y114.529 E24.30396
G1 X110.646 Y114.223 E24.36134
G1 X110.496 Y114.222 E24.36633
G1 X108.761 Y114.283 E24.42407
G1 X108.614 Y114.316 E24.42908
G1 X106.941 Y114.742 E24.4865
G1 X106.804 Y114.805 E24.49152
G1 X105.259 Y115.578 E24.54898
G1 X105.138 Y115.668 E24.55399
G1 X103.794 Y116.749 E24.61136
G1 X103.692 Y116.862 E24.61642
G1 X102.608 Y118.208 E24.67391
G1 X102.534 Y118.338 E24.67888
G1 X101.761 Y119.88 E24.73625
G1 X101.714 Y120.024 E24.74129
G1 X101.288 Y121.698 E24.79874
G1 X101.271 Y121.847 E24.80373
G1 X101.208 Y123.567 E24.86098
G1 X101.217 Y123.679 E24.86471
G1 X101.534 Y125.442 E24.92429
G1 X101.564 Y125.532 E24.92745
G1 X102.246 Y127.183 E24.98686
G1 X102.294 Y127.264 E24.98999
G1 X103.299 Y128.713 E25.04864
G1 X103.359 Y128.787 E25.05181
G1 X104.663 Y130 E25.11105
G1 X104.736 Y130.06 E25.11419
G1 X106.27 Y130.972 E25.17355
G1 X106.354 Y131.015 E25.17668
G1 X108.121 Y131.603 E25.23862
G0 F3000 X108.206 Y131.21
;TYPE:WALL-OUTER
G1 F1200 X109.989 Y131.401 E25.29827
G1 X111.629 Y131.239 E25.35308
G1 X113.205 Y130.762 E25.40784
G1 X114.658 Y129.985 E25.46265
G1 X115.93 Y128.94 E25.5174
G1 X116.975 Y127.668 E25.57215
G1 X117.752 Y126.215 E25.62696
G1 X118.23 Y124.639 E25.68173
G1 X118.391 Y122.999 E25.73654
G1 X118.201 Y121.217 E25.79615
G1 X117.634 Y119.515 E25.85581
G1 X116.72 Y117.971 E25.91549
G1 X115.5 Y116.659 E25.97508
G1 X115.413 Y116.595 E25.97867
G1 X114.028 Y115.634 E26.03474
G1 X113.93 Y115.59 E26.03831
G1 X112.372 Y114.944 E26.09441
G1 X112.267 Y114.922 E26.09798
G1 X110.608 Y114.623 E26.15404
G1 X110.501 Y114.622 E26.1576
G1 X108.813 Y114.681 E26.21378
G1 X108.708 Y114.705 E26.21736
G1 X107.075 Y115.121 E26.27341
G1 X106.977 Y115.166 E26.277
G1 X105.469 Y115.92 E26.33307
G1 X105.383 Y115.984 E26.33664
G1 X104.07 Y117.041 E26.3927
G1 X103.997 Y117.122 E26.39633
G1 X102.94 Y118.434 E26.45237
G1 X102.887 Y118.527 E26.45593
G1 X102.132 Y120.033 E26.51196
G1 X102.098 Y120.136 E26.51557
G1 X101.682 Y121.77 E26.57165
G1 X101.67 Y121.877 E26.57523
G1 X101.609 Y123.56 E26.63124
G1 X101.614 Y123.629 E26.63354
G1 X101.923 Y125.344 E26.6915
G1 X101.939 Y125.393 E26.69322
G1 X102.605 Y127.004 E26.7512
G1 X102.631 Y127.048 E26.7529
G1 X103.62 Y128.473 E26.81059
G1 X103.653 Y128.514 E26.81234
G1 X104.927 Y129.699 E26.87021
G1 X104.967 Y129.732 E26.87193
G1 X106.465 Y130.622 E26.92989
G1 X106.511 Y130.646 E26.93161
G1 X108.206 Y131.21 E26.99103
G0 F3000 X108.404 Y131.231
G0 X108.357 Y131.668
G1 F1800 E19.99103
G1 F300 Z0.4
G0 F3000 X108.34 Y131.827 Z0.4
G0 X126.412 Y136.4
;TYPE:WALL-INNER
G1 F300 Z0.2
G1 F1800 E26.99103
G1 F1200 X93.588 Y136.4 E28.08276
G1 X93.588 Y83.6 E29.8389
G1 X126.412 Y83.6 E30.93063
G1 X126.412 Y136.4 E32.68676
G0 F3000 X126.812 Y136.8
;TYPE:WALL-OUTER
G1 F1200 X93.188 Y136.8 E33.8051
G1 X93.188 Y83.2 E35.58784
G1 X126.812 Y83.2 E36.70618
G1 X126.812 Y136.8 E38.48892
G0 F3000 X126.612 Y136.8
G0 X126.372 Y136.36
G0 X126.022 Y136.01
;TYPE:SKIN
G1 F1200 X93.978 Y136.01 E39.55471
G1 X93.978 Y83.99 E41.2849
G1 X126.022 Y83.99 E42.35069
G1 X126.022 Y136.01 E44.08088
G1 F1800 E37.08088
G1 F300 Z0.4
G0 F3000 X126.022 Y136.2 Z0.4
G0 X117.635 Y128.109
G1 F300 Z0.2
G1 F1800 E44.08088
G1 F1200 X118.485 Y126.519 E44.14085
G1 X119.008 Y124.793 E44.20084
G1 X119.185 Y122.995 E44.26093
G1 X118.978 Y121.048 E44.32605
G1 X118.357 Y119.186 E44.39133
G1 X117.356 Y117.496 E44.45666
G1 X116.028 Y116.066 E44.52157
G1 X115.872 Y115.952 E44.528
G1 X114.419 Y114.943 E44.58683
G1 X114.243 Y114.864 E44.59325
G1 X112.606 Y114.186 E44.65218
G1 X112.418 Y114.146 E44.65857
G1 X110.683 Y113.833 E44.71721
G1 X110.49 Y113.832 E44.72363
G1 X108.711 Y113.895 E44.78284
G1 X108.523 Y113.936 E44.78924
G1 X106.81 Y114.373 E44.84804
G1 X106.635 Y114.454 E44.85445
G1 X105.054 Y115.245 E44.91325
G1 X104.9 Y115.36 E44.91964
G1 X103.525 Y116.465 E44.97831
G1 X103.395 Y116.609 E44.98477
G1 X102.284 Y117.988 E45.04366
G1 X102.19 Y118.155 E45.05004
G1 X101.4 Y119.731 E45.10867
G1 X101.339 Y119.915 E45.11512
G1 X100.904 Y121.627 E45.17387
G1 X100.881 Y121.817 E45.18024
G1 X100.818 Y123.575 E45.23875
G1 X100.829 Y123.729 E45.24388
G1 X101.155 Y125.539 E45.30505
G1 X101.198 Y125.668 E45.30957
G1 X101.897 Y127.358 E45.3704
G1 X101.966 Y127.475 E45.37492
G1 X102.987 Y128.947 E45.4345
G1 X103.072 Y129.054 E45.43905
G1 X104.406 Y130.295 E45.49965
G1 X104.512 Y130.38 E45.50417
G1 X106.081 Y131.313 E45.56488
G1 X106.202 Y131.376 E45.56942
G1 X108.037 Y131.987 E45.63374
G1 X109.985 Y132.195 E45.6989
G1 X111.783 Y132.017 E45.759
G1 X113.509 Y131.495 E45.81897
G1 X115.099 Y130.645 E45.87894
G1 X116.491 Y129.501 E45.93887
G1 X117.635 Y128.109 E45.99879
G1 F1800 E38.99879
G1 F300 Z0.4
G0 F3000 X117.474 Y128.002 Z0.4
G0 X113.508 Y105.496
G1 F300 Z0.2
G1 F1800 E45.99879
G1 F1200 X115.097 Y104.646 E46.05873
G1 X116.489 Y103.503 E46.11864
G1 X117.633 Y102.111 E46.17856
G1 X118.48 Y100.53 E46.23822
G1 X118.534 Y100.36 E46.24415
G1 X119.007 Y98.796 E46.2985
G1 X119.181 Y97.027 E46.35762
G1 X119.175 Y96.884 E46.36238
G1 X118.987 Y95.129 E46.42108
G1 X118.956 Y94.976 E46.42628
G1 X118.382 Y93.258 E46.48652
G1 X118.324 Y93.127 E46.49129
G1 X117.412 Y91.584 E46.5509
G1 X117.305 Y91.436 E46.55698
G1 X116.056 Y90.094 E46.61795
G1 X115.925 Y89.987 E46.62358
G1 X114.449 Y88.963 E46.68333
G1 X114.3 Y88.886 E46.68891
G1 X112.611 Y88.188 E46.74969
G1 X112.458 Y88.153 E46.75491
G1 X110.68 Y87.832 E46.815
G1 X110.524 Y87.83 E46.82019
G1 X108.785 Y87.889 E46.87806
G1 X108.603 Y87.914 E46.88417
G1 X106.869 Y88.359 E46.94372
G1 X106.71 Y88.415 E46.94932
G1 X105.065 Y89.238 E47.0105
G1 X104.928 Y89.335 E47.01608
G1 X103.513 Y90.478 E47.07658
G1 X103.408 Y90.594 E47.08179
G1 X102.293 Y91.978 E47.1409
G1 X102.21 Y92.11 E47.14609
G1 X101.391 Y93.753 E47.20715
G1 X101.342 Y93.902 E47.21236
G1 X100.894 Y95.665 E47.27286
G1 X100.881 Y95.819 E47.278
G1 X100.818 Y97.572 E47.33635
G1 X100.837 Y97.772 E47.34303
G1 X101.149 Y99.515 E47.40192
G1 X101.206 Y99.693 E47.40814
