;FLAVOR:Marlin
;TIME:10500
;Filament used: 6.17939m
;Layer height: 0.2
;MINX:12.421
;MINY:98.2
;MINZ:0.2
;MAXX:207.584
;MAXY:121.8
;MAXZ:16.8
;Generated with Cura_SteamEngine master
M82 ;absolute extrusion mode
;Sliced at: Mon 24-10-2022 01:29:43
;Basic settings: Layer height: 0.2 Walls: 0.8 Fill: 30.0
G21 ;metric values
G90 ;absolute positioning
M82 ;set extruder to absolute mode
M107 ;start with the fan off
M117 Start heating ...
M104 S200
M117 Homing X/Y ...
G28 X0 Y0 ;move X/Y to min endstops
M117 Homing Z ...
G28 Z0 ;move Z to min endstops
G1 Z15.0 F100 ;move the platform down 15mm
M117 Heating ...
M109 S200
M117 Start cleaning ...
G92 E0 ;zero the extruded length
G1 F200 E10 ;extrude 10mm of feed stock
G92 E0 ;zero the extruded length again
M117 Intro line ...
G1 Z2.0 F3000 ; Move Z Axis up little to prevent scratching of Heat Bed
G1 X0.1 Y20 Z0.2 F5000.0 ; Move to start position
G1 X0.1 Y200.0 Z0.2 F1500.0 E15 ; Draw the first line
G1 X0.4 Y200.0 Z0.2 F5000.0 ; Move to side a little
G1 X0.4 Y20 Z0.3 F1500.0 E30 ; Draw the second line
G92 E0 ; Reset Extruder
G1 E-1 F500 ; Retract filiment by 1 mm
G1 Z2.0 F3000 ; Move Z Axis up little to prevent scratching of Heat Bed
G1 X5 Y20 Z0.3 F100 ; Move over to prevent blob squish
G1 F100
G92 E0 ; Reset Extruder
M117 Printing...

G92 E0
G92 E0
G1 F1800 E-7
;LAYER_COUNT:83
;LAYER:0
M107
G1 F300 Z0.4
G0 F3000 X15.861 Y98.25 Z0.4
;TYPE:SKIRT
G1 F300 Z0.2
G1 F1800 E0
G1 F1200 X16.639 Y98.202 E0.02593
G1 X16.751 Y98.2 E0.02965
G1 X202.933 Y98.2 E6.22209
G1 X203.631 Y98.21 E6.24531
G1 X204.195 Y98.258 E6.26413
G1 X204.745 Y98.385 E6.28291
G1 X205.273 Y98.589 E6.30174
G1 X205.767 Y98.864 E6.32054
G1 X206.216 Y99.207 E6.33933
G1 X206.613 Y99.609 E6.35812
G1 X206.95 Y100.064 E6.37696
G1 X207.218 Y100.561 E6.39574
G1 X207.414 Y101.091 E6.41453
G1 X207.534 Y101.644 E6.43335
G1 X207.581 Y102.419 E6.45918
G1 X207.583 Y102.531 E6.4629
G1 X207.584 Y117.13 E6.94847
G1 X207.574 Y117.846 E6.97228
G1 X207.526 Y118.409 E6.99108
G1 X207.399 Y118.96 E7.00988
G1 X207.196 Y119.488 E7.0287
G1 X206.92 Y119.981 E7.04749
G1 X206.578 Y120.431 E7.06629
G1 X206.176 Y120.828 E7.08508
G1 X205.721 Y121.165 E7.10391
G1 X205.224 Y121.434 E7.12271
G1 X204.694 Y121.63 E7.1415
G1 X204.141 Y121.75 E7.16033
G1 X203.275 Y121.799 E7.18917
G1 X17.076 Y121.8 E13.38218
G1 X16.378 Y121.791 E13.4054
G1 X15.815 Y121.743 E13.42419
G1 X15.264 Y121.617 E13.44299
G1 X14.736 Y121.415 E13.46179
G1 X14.242 Y121.14 E13.4806
G1 X13.792 Y120.798 E13.4994
G1 X13.394 Y120.396 E13.51821
G1 X13.058 Y119.942 E13.537
G1 X12.788 Y119.445 E13.55581
G1 X12.591 Y118.915 E13.57461
G1 X12.471 Y118.363 E13.5934
G1 X12.422 Y117.566 E13.61996
G1 X12.421 Y102.82 E14.11041
G1 X12.43 Y102.155 E14.13253
G1 X12.478 Y101.592 E14.15133
G1 X12.604 Y101.041 E14.17013
G1 X12.807 Y100.513 E14.18894
G1 X13.083 Y100.019 E14.20776
G1 X13.425 Y99.569 E14.22656
G1 X13.827 Y99.172 E14.24535
G1 X14.281 Y98.835 E14.26416
G1 X14.778 Y98.566 E14.28296
G1 X15.308 Y98.369 E14.30176
G1 X15.861 Y98.25 E14.32058
G0 F3000 X15.661 Y98.692
G1 F1200 X16.329 Y98.61 E14.34296
G1 X16.751 Y98.6 E14.357
G1 X202.928 Y98.6 E20.54927
G1 X203.626 Y98.61 E20.57249
G1 X204.16 Y98.658 E20.59032
G1 X204.681 Y98.784 E20.60815
G1 X205.178 Y98.987 E20.62601
G1 X205.639 Y99.261 E20.64384
G1 X206.054 Y99.6 E20.66167
G1 X206.414 Y99.998 E20.67952
G1 X206.711 Y100.444 E20.69734
G1 X206.939 Y100.93 E20.71519
G1 X207.091 Y101.444 E20.73302
G1 X207.173 Y102.109 E20.75531
G1 X207.183 Y102.531 E20.76935
G1 X207.184 Y117.124 E21.25471
G1 X207.174 Y117.84 E21.27853
G1 X207.126 Y118.374 E21.29636
G1 X207 Y118.896 E21.31422
G1 X206.798 Y119.392 E21.33203
G1 X206.524 Y119.853 E21.34987
G1 X206.185 Y120.269 E21.36772
G1 X205.787 Y120.629 E21.38557
G1 X205.341 Y120.926 E21.40339
G1 X204.856 Y121.154 E21.42121
G1 X204.342 Y121.307 E21.43905
G1 X203.664 Y121.389 E21.46177
G1 X203.175 Y121.4 E21.47803
G1 X17.082 Y121.4 E27.66751
G1 X16.384 Y121.391 E27.69073
G1 X15.849 Y121.344 E27.70859
G1 X15.328 Y121.218 E27.72642
G1 X14.831 Y121.016 E27.74426
G1 X14.37 Y120.743 E27.76208
G1 X13.954 Y120.404 E27.77993
G1 X13.593 Y120.008 E27.79776
G1 X13.295 Y119.562 E27.8156
G1 X13.067 Y119.076 E27.83345
G1 X12.914 Y118.562 E27.85129
G1 X12.831 Y117.888 E27.87387
G1 X12.821 Y117.458 E27.88818
G1 X12.821 Y102.825 E28.37488
G1 X12.83 Y102.16 E28.397
G1 X12.878 Y101.626 E28.41483
G1 X13.004 Y101.105 E28.43266
G1 X13.206 Y100.608 E28.4505
G1 X13.479 Y100.147 E28.46832
G1 X13.818 Y99.731 E28.48617
G1 X14.215 Y99.371 E28.50399
G1 X14.662 Y99.073 E28.52186
G1 X15.147 Y98.845 E28.53969
G1 X15.661 Y98.692 E28.55752
G0 F3000 X16.003 Y99.038
G1 F1200 X16.661 Y99.001 E28.57944
G1 X202.922 Y99 E34.77451
G1 X203.62 Y99.01 E34.79773
G1 X204.123 Y99.057 E34.81453
G1 X204.613 Y99.183 E34.83136
G1 X205.077 Y99.385 E34.84819
G1 X205.503 Y99.657 E34.865
G1 X205.881 Y99.992 E34.8818
G1 X206.201 Y100.383 E34.8986
G1 X206.456 Y100.82 E34.91543
G1 X206.639 Y101.291 E34.93224
G1 X206.746 Y101.785 E34.94905
G1 X206.782 Y102.441 E34.9709
G1 X206.784 Y117.119 E35.45909
G1 X206.774 Y117.835 E35.48291
G1 X206.727 Y118.338 E35.49971
G1 X206.601 Y118.828 E35.51654
G1 X206.4 Y119.292 E35.53336
G1 X206.128 Y119.718 E35.55017
G1 X205.793 Y120.096 E35.56697
G1 X205.402 Y120.417 E35.58379
G1 X204.965 Y120.672 E35.60062
G1 X204.494 Y120.855 E35.61743
G1 X204 Y120.962 E35.63424
G1 X203.255 Y120.999 E35.65905
G1 X17.087 Y121 E41.85102
G1 X16.389 Y120.991 E41.87424
G1 X15.885 Y120.944 E41.89108
G1 X15.395 Y120.819 E41.9079
G1 X14.931 Y120.618 E41.92471
G1 X14.505 Y120.347 E41.94151
G1 X14.126 Y120.012 E41.95833
G1 X13.805 Y119.621 E41.97516
G1 X13.55 Y119.185 E41.99196
G1 X13.366 Y118.714 E42.00877
G1 X13.259 Y118.22 E42.02559
G1 X13.222 Y117.544 E42.0481
G1 X13.221 Y102.831 E42.53746
G1 X13.23 Y102.166 E42.55958
G1 X13.277 Y101.662 E42.57642
G1 X13.403 Y101.173 E42.59321
G1 X13.604 Y100.709 E42.61003
G1 X13.875 Y100.282 E42.62685
G1 X14.21 Y99.904 E42.64365
G1 X14.601 Y99.583 E42.66048
G1 X15.038 Y99.328 E42.6773
G1 X15.509 Y99.144 E42.69412
G1 X16.003 Y99.038 E42.71093
G1 F1800 E35.71093
G1 F300 Z0.4
G0 F3000 X105.21 Y105.2 Z0.4
;TYPE:SUPPORT
G1 F300 Z0.2
G1 F1800 E42.71093
G1 F1200 X114.81 Y105.2 E43.03022
G1 X114.81 Y114.8 E43.34952
G1 X105.21 Y114.8 E43.66882
G1 X105.21 Y105.2 E43.98812
G1 F1800 E36.98812
G1 F300 Z0.4
G0 F3000 X107.201 Y110.032 Z0.4
G1 F300 Z0.2
G1 F1800 E43.98812
G1 F1200 X107.289 Y110.625 E44.00806
G1 X107.45 Y111.115 E44.02521
G1 X107.739 Y111.646 E44.04532
G1 X108.084 Y112.023 E44.06231
G1 X108.526 Y112.391 E44.08144
G1 X109.094 Y112.646 E44.10215
G1 X109.608 Y112.77 E44.11974
G1 X110.165 Y112.796 E44.13828
G1 X110.698 Y112.714 E44.15622
G1 X111.196 Y112.538 E44.17379
G1 X111.738 Y112.211 E44.19484
G1 X112.084 Y111.874 E44.21091
G1 X112.465 Y111.366 E44.23203
G1 X112.638 Y110.93 E44.24763
G1 X112.792 Y110.43 E44.26503
G1 X112.801 Y109.688 E44.28971
G1 X112.66 Y109.122 E44.30911
G1 X112.498 Y108.703 E44.32405
G1 X112.17 Y108.218 E44.34353
G1 X111.812 Y107.86 E44.36036
G1 X111.306 Y107.495 E44.38112
G1 X110.809 Y107.329 E44.39854
G1 X110.185 Y107.188 E44.41982
G1 X109.436 Y107.252 E44.44482
G1 X108.917 Y107.427 E44.46304
G1 X108.471 Y107.658 E44.47975
G1 X107.997 Y108.052 E44.50025
G1 X107.655 Y108.485 E44.5186
G1 X107.398 Y108.985 E44.5373
G1 X107.267 Y109.485 E44.55449
G1 X107.201 Y110.032 E44.57281
G0 F3000 X107.138 Y109.347
G1 F1200 X105.37 Y109.347 E44.63162
G1 F1800 E37.63162
G1 F300 Z0.4
G0 F3000 X105.37 Y106.68 Z0.4
G1 F300 Z0.2
G1 F1800 E44.63162
G1 F1200 X114.65 Y106.68 E44.94027
G1 F1800 E37.94027
G1 F300 Z0.4
G0 F3000 X114.65 Y109.347 Z0.4
G1 F300 Z0.2
G1 F1800 E44.94027
G1 F1200 X112.88 Y109.347 E44.99914
G1 F1800 E37.99914
G1 F300 Z0.4
G0 F3000 X112.014 Y107.835 Z0.4
G1 F300 Z0.2
G1 F1800 E44.99914
G1 F1200 X112.014 Y105.36 E45.08146
G1 F1800 E38.08146
G1 F300 Z0.4
G0 F3000 X109.347 Y105.36 Z0.4
G1 F300 Z0.2
G1 F1800 E45.08146
G1 F1200 X109.347 Y107.114 E45.1398
G1 F1800 E38.1398
G1 F300 Z0.4
G0 F3000 X106.68 Y105.36 Z0.4
G1 F300 Z0.2
G1 F1800 E45.1398
G1 F1200 X106.68 Y114.64 E45.44845
G1 F1800 E38.44845
G1 F300 Z0.4
G0 F3000 X109.347 Y114.64 Z0.4
G1 F300 Z0.2
G1 F1800 E45.44845
G1 F1200 X109.347 Y112.872 E45.50726
G1 F1800 E38.50726
G1 F300 Z0.4
G0 F3000 X107.86 Y112.014 Z0.4
G1 F300 Z0.2
G1 F1800 E45.50726
G1 F1200 X105.37 Y112.014 E45.59007
G1 F1800 E38.59007
G1 F300 Z0.4
G0 F3000 X112.014 Y112.164 Z0.4
G1 F300 Z0.2
G1 F1800 E45.59007
G1 F1200 X112.014 Y114.64 E45.67243
G1 F1800 E38.67243
G1 F300 Z0.4
G0 F3000 X112.169 Y112.014 Z0.4
G1 F300 Z0.2
G1 F1800 E45.67243
G1 F1200 X114.65 Y112.014 E45.75495
G1 F1800 E38.75495
G1 F300 Z0.4
;MESH:station.sensor.console.stl
G0 F3000 X91.31 Y103.6 Z0.4
;TYPE:WALL-INNER
G1 F300 Z0.2
G1 F1800 E45.75495
G1 F1200 X91.31 Y116.4 E46.18068
G1 X128.71 Y116.4 E47.4246
G1 X128.71 Y103.6 E47.85033
G1 X91.31 Y103.6 E49.09426
G0 F3000 X91.71 Y104
;TYPE:WALL-OUTER
G1 F1200 X91.71 Y116 E49.49338
G1 X128.31 Y116 E50.71071
G1 X128.31 Y104 E51.10983
G1 X91.71 Y104 E52.32715
G0 F3000 X91.71 Y104.2
G0 X91.27 Y104.2
G1 F1800 E45.32715
G1 F300 Z0.4
G0 F3000 X91.11 Y104.2 Z0.4
G0 X202.984 Y117.2
;TYPE:WALL-INNER
G1 F300 Z0.2
G1 F1800 E52.32715
G1 F1200 X17.021 Y117.2 E58.5123
G1 X17.021 Y102.8 E58.99125
G1 X202.983 Y102.8 E65.17637
G1 X202.984 Y117.2 E65.65532
G0 F3000 X203.384 Y117.6
;TYPE:WALL-OUTER
G1 F1200 X16.621 Y117.6 E71.86708
G1 X16.621 Y102.4 E72.37263
G1 X203.383 Y102.4 E78.58436
G1 X203.384 Y117.6 E79.08992
G0 F3000 X203.184 Y117.6
G0 X202.943 Y117.159
G0 X202.594 Y116.81
;TYPE:SKIN
G1 F1200 X17.411 Y116.81 E85.24913
G1 X17.411 Y103.19 E85.70213
G1 X202.593 Y103.19 E91.86131
G1 X202.594 Y116.81 E92.31431
G1 F1800 E85.31431
G0 F3000 X202.874 Y116.81
G0 X129.1 Y117.09
G1 F1800 E92.31431
G0 F3000 X129.1 Y116.79
G1 F1200 X129.1 Y103.21 E92.76598
G1 X90.92 Y103.21 E94.03586
G1 X90.92 Y116.79 E94.48753
G1 X129.1 Y116.79 E95.7574
G1 F1800 E88.7574
G0 F3000 X129.1 Y117.09
G0 X202.802 Y117.018
G0 X202.874 Y103.983
G1 F1800 E95.7574
G0 F3000 X202.412 Y103.983
G1 F1200 X201.799 Y103.37 E95.78623
G0 F3000 X201.234 Y103.37
G1 F1200 X202.412 Y104.549 E95.84167
G0 F3000 X202.412 Y105.114
G1 F1200 X200.668 Y103.37 E95.9237
G0 F3000 X200.102 Y103.37
G1 F1200 X202.412 Y105.68 E96.03236
G0 F3000 X202.412 Y106.246
G1 F1200 X199.537 Y103.37 E96.16761
G0 F3000 X198.971 Y103.37
G1 F1200 X202.412 Y106.812 E96.32949
G0 F3000 X202.412 Y107.377
G1 F1200 X198.405 Y103.37 E96.51796
G0 F3000 X197.839 Y103.37
G1 F1200 X202.412 Y107.943 E96.73306
G0 F3000 X202.412 Y108.509
G1 F1200 X197.274 Y103.37 E96.97476
G0 F3000 X196.708 Y103.37
G1 F1200 X202.412 Y109.074 E97.24306
G0 F3000 X202.412 Y109.64
G1 F1200 X196.142 Y103.37 E97.53798
G0 F3000 X195.577 Y103.37
G1 F1200 X202.413 Y110.206 E97.85953
G0 F3000 X202.413 Y110.772
G1 F1200 X195.011 Y103.37 E98.2077
G0 F3000 X194.445 Y103.37
G1 F1200 X202.413 Y111.338 E98.58249
G0 F3000 X202.413 Y111.903
G1 F1200 X193.88 Y103.37 E98.98385
G0 F3000 X193.314 Y103.37
G1 F1200 X202.413 Y112.469 E99.41184
G0 F3000 X202.413 Y113.035
G1 F1200 X192.748 Y103.37 E99.86645
G0 F3000 X192.183 Y103.37
G1 F1200 X202.413 Y113.6 E100.34764
G0 F3000 X202.413 Y114.166
G1 F1200 X191.617 Y103.37 E100.85545
G0 F3000 X191.051 Y103.37
G1 F1200 X202.413 Y114.732 E101.38989
G0 F3000 X202.413 Y115.298
G1 F1200 X190.486 Y103.37 E101.95092
G0 F3000 X189.92 Y103.37
G1 F1200 X202.413 Y115.863 E102.53855
G0 F3000 X202.413 Y116.429
G1 F1200 X189.354 Y103.37 E103.15281
G0 F3000 X188.789 Y103.37
G1 F1200 X202.048 Y116.63 E103.77649
G0 F3000 X201.483 Y116.63
G1 F1200 X188.223 Y103.37 E104.4002
G0 F3000 X187.657 Y103.37
G1 F1200 X200.917 Y116.63 E105.02391
G0 F3000 X200.351 Y116.63
G1 F1200 X187.091 Y103.37 E105.64762
G0 F3000 X186.526 Y103.37
G1 F1200 X199.785 Y116.63 E106.27131
G0 F3000 X199.22 Y116.63
G1 F1200 X185.96 Y103.37 E106.89502
G0 F3000 X185.394 Y103.37
G1 F1200 X198.654 Y116.63 E107.51873
G0 F3000 X198.088 Y116.63
G1 F1200 X184.829 Y103.37 E108.14241
G0 F3000 X184.263 Y103.37
G1 F1200 X197.523 Y116.63 E108.76612
G0 F3000 X196.957 Y116.63
G1 F1200 X183.697 Y103.37 E109.38983
G0 F3000 X183.132 Y103.37
G1 F1200 X196.391 Y116.63 E110.01352
G0 F3000 X195.826 Y116.63
G1 F1200 X182.566 Y103.37 E110.63723
G0 F3000 X182 Y103.37
G1 F1200 X195.26 Y116.63 E111.26094
G0 F3000 X194.694 Y116.63
G1 F1200 X181.435 Y103.37 E111.88463
G0 F3000 X180.869 Y103.37
G1 F1200 X194.129 Y116.63 E112.50834
G0 F3000 X193.563 Y116.63
G1 F1200 X180.303 Y103.37 E113.13204
G0 F3000 X179.738 Y103.37
G1 F1200 X192.997 Y116.63 E113.75573
G0 F3000 X192.432 Y116.63
G1 F1200 X179.172 Y103.37 E114.37944
G0 F3000 X178.606 Y103.37
G1 F1200 X191.866 Y116.63 E115.00315
G0 F3000 X191.3 Y116.63
G1 F1200 X178.041 Y103.37 E115.62684
G0 F3000 X177.475 Y103.37
G1 F1200 X190.734 Y116.63 E116.25052
G0 F3000 X190.169 Y116.63
G1 F1200 X176.909 Y103.37 E116.87423
G0 F3000 X176.343 Y103.37
G1 F1200 X189.603 Y116.63 E117.49794
G0 F3000 X189.037 Y116.63
G1 F1200 X175.778 Y103.37 E118.12163
G0 F3000 X175.212 Y103.37
G1 F1200 X188.472 Y116.63 E118.74534
G0 F3000 X187.906 Y116.63
G1 F1200 X174.646 Y103.37 E119.36905
G0 F3000 X174.081 Y103.37
G1 F1200 X187.34 Y116.63 E119.99273
G0 F3000 X186.775 Y116.63
G1 F1200 X173.515 Y103.37 E120.61644
G0 F3000 X172.949 Y103.37
G1 F1200 X186.209 Y116.63 E121.24015
G0 F3000 X185.643 Y116.63
G1 F1200 X172.384 Y103.37 E121.86384
G0 F3000 X171.818 Y103.37
G1 F1200 X185.078 Y116.63 E122.48755
G0 F3000 X184.512 Y116.63
G1 F1200 X171.252 Y103.37 E123.11126
G0 F3000 X170.687 Y103.37
G1 F1200 X183.946 Y116.63 E123.73495
G0 F3000 X183.381 Y116.63
G1 F1200 X170.121 Y103.37 E124.35866
G0 F3000 X169.555 Y103.37
G1 F1200 X182.815 Y116.63 E124.98237
G0 F3000 X182.249 Y116.63
G1 F1200 X168.99 Y103.37 E125.60605
G0 F3000 X168.424 Y103.37
G1 F1200 X181.684 Y116.63 E126.22976
G0 F3000 X181.118 Y116.63
G1 F1200 X167.858 Y103.37 E126.85347
G0 F3000 X167.292 Y103.37
G1 F1200 X180.552 Y116.63 E127.47718
G0 F3000 X179.986 Y116.63
G1 F1200 X166.727 Y103.37 E128.10087
G0 F3000 X166.161 Y103.37
G1 F1200 X179.421 Y116.63 E128.72458
G0 F3000 X178.855 Y116.63
G1 F1200 X165.595 Y103.37 E129.34829
G0 F3000 X165.03 Y103.37
G1 F1200 X178.289 Y116.63 E129.97197
G0 F3000 X177.724 Y116.63
G1 F1200 X164.464 Y103.37 E130.59568
G0 F3000 X163.898 Y103.37
G1 F1200 X177.158 Y116.63 E131.21939
G0 F3000 X176.592 Y116.63
G1 F1200 X163.333 Y103.37 E131.84308
G0 F3000 X162.767 Y103.37
G1 F1200 X176.027 Y116.63 E132.46679
G0 F3000 X175.461 Y116.63
G1 F1200 X162.201 Y103.37 E133.0905
G0 F3000 X161.636 Y103.37
G1 F1200 X174.895 Y116.63 E133.71418
G0 F3000 X174.33 Y116.63
G1 F1200 X161.07 Y103.37 E134.33789
G0 F3000 X160.504 Y103.37
G1 F1200 X173.764 Y116.63 E134.9616
G0 F3000 X173.198 Y116.63
G1 F1200 X159.939 Y103.37 E135.58529
G0 F3000 X159.373 Y103.37
G1 F1200 X172.633 Y116.63 E136.209
G0 F3000 X172.067 Y116.63
G1 F1200 X158.807 Y103.37 E136.83271
G0 F3000 X158.242 Y103.37
G1 F1200 X171.501 Y116.63 E137.4564
G0 F3000 X170.935 Y116.63
G1 F1200 X157.676 Y103.37 E138.08008
G0 F3000 X157.11 Y103.37
G1 F1200 X170.37 Y116.63 E138.70379
G0 F3000 X169.804 Y116.63
G1 F1200 X156.544 Y103.37 E139.3275
G0 F3000 X155.979 Y103.37
G1 F1200 X169.238 Y116.63 E139.95119
G0 F3000 X168.673 Y116.63
G1 F1200 X155.413 Y103.37 E140.5749
G0 F3000 X154.847 Y103.37
G1 F1200 X168.107 Y116.63 E141.19861
G0 F3000 X167.541 Y116.63
G1 F1200 X154.282 Y103.37 E141.82229
G0 F3000 X153.716 Y103.37
G1 F1200 X166.976 Y116.63 E142.446
G0 F3000 X166.41 Y116.63
G1 F1200 X153.15 Y103.37 E143.06971
G0 F3000 X152.585 Y103.37
G1 F1200 X165.844 Y116.63 E143.6934
G0 F3000 X165.279 Y116.63
G1 F1200 X152.019 Y103.37 E144.31711
G0 F3000 X151.453 Y103.37
G1 F1200 X164.713 Y116.63 E144.94082
G0 F3000 X164.147 Y116.63
G1 F1200 X150.888 Y103.37 E145.5645
G0 F3000 X150.322 Y103.37
G1 F1200 X163.582 Y116.63 E146.18821
G0 F3000 X163.016 Y116.63
G1 F1200 X149.756 Y103.37 E146.81192
G0 F3000 X149.191 Y103.37
G1 F1200 X162.45 Y116.63 E147.43561
G0 F3000 X161.885 Y116.63
G1 F1200 X148.625 Y103.37 E148.05932
G0 F3000 X148.059 Y103.37
G1 F1200 X161.319 Y116.63 E148.68303
G0 F3000 X160.753 Y116.63
