;FLAVOR:Marlin
;TIME:5757
;Filament used: 3.91892m
;Layer height: 0.2
;MINX:91.292
;MINY:39.838
;MINZ:0.2
;MAXX:128.708
;MAXY:180.162
;MAXZ:5.8
;Generated with Cura_SteamEngine master
M82 ;absolute extrusion mode
;Sliced at: Wed 04-05-2022 23:02:17
;Basic settings: Layer height: 0.2 Walls: 0.8 Fill: 20
G21 ;metric values
G90 ;absolute positioning
M82 ;set extruder to absolute mode
M107 ;start with the fan off
M117 Start heating ...
M104 S200
M117 Homing X/Y ...
G28 X0 Y0 ;move X/Y to min endstops
M117 Homing Z ...
G28 Z0 ;move Z to min endstops
G1 Z15.0 F100 ;move the platform down 15mm
M117 Heating ...
M109 S200
M117 Start cleaning ...
G92 E0 ;zero the extruded length
G1 F200 E10 ;extrude 10mm of feed stock
G92 E0 ;zero the extruded length again
M117 Intro line ...
G1 Z2.0 F3000 ; Move Z Axis up little to prevent scratching of Heat Bed
G1 X0.1 Y20 Z0.2 F5000.0 ; Move to start position
G1 X0.1 Y200.0 Z0.2 F1500.0 E15 ; Draw the first line
G1 X0.4 Y200.0 Z0.2 F5000.0 ; Move to side a little
G1 X0.4 Y20 Z0.3 F1500.0 E30 ; Draw the second line
G92 E0 ; Reset Extruder
G1 E-1 F500 ; Retract filiment by 1 mm
G1 Z2.0 F3000 ; Move Z Axis up little to prevent scratching of Heat Bed
G1 X5 Y20 Z0.3 F100 ; Move over to prevent blob squish
G1 F100
G92 E0 ; Reset Extruder
M117 Printing...

G92 E0
G92 E0
G1 F1800 E-7
;LAYER_COUNT:28
;LAYER:0
M107
G1 F300 Z0.4
G0 F3000 X91.682 Y42.145 Z0.4
;TYPE:SKIRT
G1 F300 Z0.2
G1 F1800 E0
G1 F1200 X91.958 Y41.652 E0.01879
G1 X92.301 Y41.203 E0.03758
G1 X92.704 Y40.806 E0.0564
G1 X93.158 Y40.47 E0.07519
G1 X93.656 Y40.201 E0.09401
G1 X94.186 Y40.006 E0.11279
G1 X94.739 Y39.887 E0.13161
G1 X95.51 Y39.84 E0.1573
G1 X95.622 Y39.838 E0.16103
G1 X124.058 Y39.838 E1.10681
G1 X124.756 Y39.848 E1.13003
G1 X125.32 Y39.896 E1.14885
G1 X125.87 Y40.023 E1.16763
G1 X126.398 Y40.227 E1.18646
G1 X126.892 Y40.502 E1.20526
G1 X127.341 Y40.845 E1.22405
G1 X127.738 Y41.247 E1.24284
G1 X128.075 Y41.702 E1.26168
G1 X128.343 Y42.199 E1.28046
G1 X128.539 Y42.729 E1.29925
G1 X128.659 Y43.282 E1.31807
G1 X128.706 Y44.056 E1.34386
G1 X128.708 Y44.168 E1.34759
G1 X128.707 Y160.861 E5.22881
G1 X128.695 Y161.614 E5.25386
G1 X128.686 Y161.827 E5.26095
G1 X128.639 Y162.501 E5.28343
G1 X128.549 Y163.579 E5.3194
G1 X128.473 Y164.339 E5.34481
G1 X128.385 Y164.871 E5.36274
G1 X128.263 Y165.388 E5.38041
G1 X127.944 Y166.647 E5.42361
G1 X127.767 Y167.304 E5.44624
G1 X127.551 Y167.926 E5.46814
G1 X127.333 Y168.437 E5.48662
G1 X126.879 Y169.47 E5.52415
G1 X126.561 Y170.167 E5.54963
G1 X126.302 Y170.645 E5.56771
G1 X125.925 Y171.242 E5.59119
G1 X125.323 Y172.162 E5.62776
G1 X124.921 Y172.759 E5.6517
G1 X124.603 Y173.173 E5.66906
G1 X124.506 Y173.285 E5.67399
G1 X124.109 Y173.724 E5.69368
G1 X123.356 Y174.542 E5.73066
G1 X122.861 Y175.065 E5.75461
G1 X122.473 Y175.426 E5.77223
G1 X122.02 Y175.791 E5.79158
G1 X121.022 Y176.568 E5.83365
G1 X120.448 Y177.002 E5.85759
G1 X119.975 Y177.311 E5.87638
G1 X119.398 Y177.632 E5.89834
G1 X118.388 Y178.179 E5.93654
G1 X117.768 Y178.504 E5.95982
G1 X117.202 Y178.749 E5.98034
G1 X116.704 Y178.929 E5.99795
G1 X115.491 Y179.345 E6.0406
G1 X114.845 Y179.555 E6.06319
G1 X114.311 Y179.691 E6.08152
G1 X113.728 Y179.797 E6.10123
G1 X112.493 Y180.003 E6.14287
G1 X111.805 Y180.107 E6.16602
G1 X111.289 Y180.152 E6.18324
G1 X111.16 Y180.156 E6.18754
G1 X110.629 Y180.162 E6.2052
G1 X109.431 Y180.162 E6.24504
G1 X108.714 Y180.151 E6.26889
G1 X108.155 Y180.104 E6.28755
G1 X107.562 Y180.013 E6.30751
G1 X106.361 Y179.812 E6.34801
G1 X105.68 Y179.688 E6.37103
G1 X105.138 Y179.551 E6.38962
G1 X104.512 Y179.346 E6.41153
G1 X103.412 Y178.968 E6.45022
G1 X102.745 Y178.728 E6.4738
G1 X102.261 Y178.518 E6.49134
G1 X102.143 Y178.458 E6.49575
G1 X101.615 Y178.181 E6.51558
G1 X100.629 Y177.647 E6.55287
G1 X99.999 Y177.294 E6.57689
G1 X99.52 Y176.98 E6.59594
G1 X99.044 Y176.619 E6.61581
G1 X98.058 Y175.852 E6.65736
G1 X97.542 Y175.437 E6.67938
G1 X97.126 Y175.053 E6.69821
G1 X96.74 Y174.647 E6.71685
G1 X95.894 Y173.728 E6.75839
G1 X95.416 Y173.193 E6.78225
G1 X95.075 Y172.756 E6.80069
G1 X94.717 Y172.224 E6.82202
G1 X94.077 Y171.243 E6.86098
G1 X93.696 Y170.641 E6.88467
G1 X93.429 Y170.15 E6.90326
G1 X93.178 Y169.6 E6.92337
G1 X92.695 Y168.499 E6.96336
G1 X92.413 Y167.831 E6.98747
G1 X92.23 Y167.299 E7.00618
G1 X92.061 Y166.666 E7.02798
G1 X91.778 Y165.547 E7.06637
G1 X91.613 Y164.859 E7.0899
G1 X91.518 Y164.289 E7.10912
G1 X91.459 Y163.675 E7.12963
G1 X91.364 Y162.527 E7.16795
G1 X91.31 Y161.748 E7.19392
G1 X91.3 Y161.521 E7.20148
G1 X91.292 Y160.877 E7.2229
G1 X91.292 Y44.452 E11.09521
G1 X91.302 Y43.787 E11.11733
G1 X91.351 Y43.224 E11.13612
G1 X91.478 Y42.673 E11.15493
G1 X91.682 Y42.145 E11.17376
G0 F3000 X92.08 Y42.241
G1 F1200 X92.354 Y41.78 E11.19159
G1 X92.694 Y41.365 E11.20944
G1 X93.092 Y41.006 E11.22727
G1 X93.538 Y40.709 E11.24509
G1 X94.024 Y40.481 E11.26294
G1 X94.538 Y40.329 E11.28077
G1 X95.201 Y40.248 E11.30299
G1 X95.622 Y40.238 E11.31699
G1 X124.053 Y40.238 E12.26261
G1 X124.751 Y40.248 E12.28583
G1 X125.285 Y40.296 E12.30366
G1 X125.806 Y40.422 E12.32149
G1 X126.303 Y40.625 E12.33935
G1 X126.764 Y40.899 E12.35718
G1 X127.179 Y41.238 E12.37501
G1 X127.539 Y41.636 E12.39285
G1 X127.836 Y42.082 E12.41068
G1 X128.064 Y42.568 E12.42853
G1 X128.216 Y43.082 E12.44636
G1 X128.298 Y43.747 E12.46864
G1 X128.308 Y44.168 E12.48265
G1 X128.308 Y160.854 E16.36364
G1 X128.296 Y161.607 E16.38869
G1 X128.287 Y161.799 E16.39508
G1 X128.241 Y162.468 E16.41739
G1 X128.157 Y163.479 E16.45113
G1 X128.075 Y164.299 E16.47854
G1 X127.967 Y164.909 E16.49914
G1 X127.865 Y165.328 E16.51349
G1 X127.558 Y166.542 E16.55514
G1 X127.381 Y167.199 E16.57777
G1 X127.183 Y167.77 E16.59787
G1 X126.967 Y168.276 E16.61617
G1 X126.515 Y169.304 E16.65352
G1 X126.197 Y170.001 E16.679
G1 X125.964 Y170.431 E16.69526
G1 X125.59 Y171.023 E16.71855
G1 X124.991 Y171.939 E16.75496
G1 X124.589 Y172.536 E16.77889
G1 X124.209 Y173.017 E16.79928
G1 X123.815 Y173.453 E16.81883
G1 X123.066 Y174.267 E16.85562
G1 X122.571 Y174.79 E16.87957
G1 X122.106 Y175.211 E16.90043
G1 X121.739 Y175.504 E16.91605
G1 X120.822 Y176.218 E16.95471
G1 X120.207 Y176.683 E16.98035
G1 X119.773 Y176.966 E16.99758
G1 X119.207 Y177.281 E17.01913
G1 X118.202 Y177.824 E17.05712
G1 X117.582 Y178.149 E17.0804
G1 X117.06 Y178.375 E17.09932
G1 X116.524 Y178.568 E17.11827
G1 X115.367 Y178.965 E17.15896
G1 X114.721 Y179.175 E17.18155
G1 X114.229 Y179.299 E17.19842
G1 X113.614 Y179.411 E17.21922
G1 X112.433 Y179.608 E17.25904
G1 X111.745 Y179.712 E17.28218
G1 X111.156 Y179.756 E17.30183
G1 X110.625 Y179.762 E17.31949
G1 X109.437 Y179.762 E17.359
G1 X108.72 Y179.751 E17.38285
G1 X108.207 Y179.707 E17.39998
G1 X107.628 Y179.619 E17.41946
G1 X106.433 Y179.419 E17.45975
G1 X105.752 Y179.295 E17.48278
G1 X105.253 Y179.168 E17.4999
G1 X105.158 Y179.139 E17.50321
G1 X104.595 Y178.952 E17.52294
G1 X103.547 Y178.591 E17.5598
G1 X102.88 Y178.351 E17.58338
G1 X102.329 Y178.104 E17.60346
G1 X101.806 Y177.829 E17.62312
G1 X100.824 Y177.298 E17.66025
G1 X100.194 Y176.945 E17.68427
G1 X99.755 Y176.656 E17.70175
G1 X99.29 Y176.303 E17.72117
G1 X98.309 Y175.54 E17.7625
G1 X97.793 Y175.125 E17.78453
G1 X97.408 Y174.771 E17.80192
G1 X96.999 Y174.338 E17.82173
G1 X96.192 Y173.462 E17.86135
G1 X95.714 Y172.927 E17.88521
G1 X95.402 Y172.525 E17.90213
G1 X95.075 Y172.04 E17.92159
G1 X94.415 Y171.029 E17.96175
G1 X94.034 Y170.427 E17.98544
G1 X93.788 Y169.974 E18.00259
G1 X93.542 Y169.435 E18.02229
G1 X93.063 Y168.343 E18.06195
G1 X92.781 Y167.675 E18.08607
G1 X92.614 Y167.187 E18.10322
G1 X92.46 Y166.613 E18.12299
G1 X92.167 Y165.454 E18.16275
G1 X92.002 Y164.766 E18.18628
G1 X91.915 Y164.241 E18.20398
G1 X91.857 Y163.642 E18.224
G1 X91.763 Y162.499 E18.26214
G1 X91.709 Y161.72 E18.28812
G1 X91.7 Y161.516 E18.29491
G1 X91.692 Y160.872 E18.31633
G1 X91.692 Y44.458 E22.18827
G1 X91.702 Y43.793 E22.2104
G1 X91.75 Y43.259 E22.22823
G1 X91.877 Y42.738 E22.24606
G1 X92.08 Y42.241 E22.26392
G0 F3000 X92.478 Y42.342
G1 F1200 X92.75 Y41.916 E22.28073
G1 X93.086 Y41.539 E22.29753
G1 X93.477 Y41.218 E22.31435
G1 X93.914 Y40.964 E22.33116
G1 X94.385 Y40.781 E22.34797
G1 X94.88 Y40.675 E22.36481
G1 X95.532 Y40.639 E22.38653
G1 X124.047 Y40.638 E23.33494
G1 X124.745 Y40.648 E23.35816
G1 X125.248 Y40.695 E23.37496
G1 X125.738 Y40.821 E23.39179
G1 X126.202 Y41.023 E23.40862
G1 X126.628 Y41.295 E23.42543
G1 X127.006 Y41.63 E23.44223
G1 X127.326 Y42.021 E23.45903
G1 X127.581 Y42.458 E23.47586
G1 X127.764 Y42.929 E23.49267
G1 X127.871 Y43.423 E23.50948
G1 X127.907 Y44.078 E23.5313
G1 X127.908 Y160.848 E27.41508
G1 X127.896 Y161.601 E27.44013
G1 X127.888 Y161.771 E27.44579
G1 X127.842 Y162.435 E27.46793
G1 X127.753 Y163.499 E27.50344
G1 X127.677 Y164.259 E27.52885
G1 X127.578 Y164.815 E27.54763
G1 X127.478 Y165.23 E27.56183
G1 X127.172 Y166.438 E27.60328
G1 X126.995 Y167.095 E27.62591
G1 X126.814 Y167.613 E27.64416
G1 X126.6 Y168.116 E27.66234
G1 X126.151 Y169.138 E27.69947
G1 X125.833 Y169.835 E27.72495
G1 X125.626 Y170.218 E27.73943
G1 X125.255 Y170.804 E27.76249
G1 X124.659 Y171.715 E27.7987
G1 X124.257 Y172.312 E27.82264
G1 X123.912 Y172.749 E27.84116
G1 X123.521 Y173.182 E27.86056
G1 X122.775 Y173.992 E27.89719
G1 X122.28 Y174.515 E27.92114
G1 X121.856 Y174.898 E27.94014
G1 X121.493 Y175.188 E27.9556
G1 X120.54 Y175.93 E27.99577
G1 X119.966 Y176.364 E28.0197
G1 X119.508 Y176.657 E28.03779
G1 X119.017 Y176.929 E28.05646
G1 X118.017 Y177.47 E28.09427
G1 X117.397 Y177.795 E28.11755
G1 X116.918 Y178.001 E28.1349
G1 X116.394 Y178.19 E28.15342
G1 X115.243 Y178.584 E28.19389
G1 X114.597 Y178.794 E28.21648
G1 X114.054 Y178.926 E28.23507
G1 X113.548 Y179.016 E28.25216
G1 X112.373 Y179.212 E28.29178
G1 X111.685 Y179.316 E28.31492
G1 X111.151 Y179.356 E28.33273
G1 X110.62 Y179.362 E28.3504
G1 X109.443 Y179.362 E28.38954
G1 X108.726 Y179.351 E28.41339
G1 X108.189 Y179.301 E28.43133
G1 X107.694 Y179.224 E28.44799
G1 X106.505 Y179.025 E28.48809
G1 X105.824 Y178.901 E28.51111
G1 X105.284 Y178.759 E28.52968
G1 X104.725 Y178.574 E28.54927
G1 X103.683 Y178.215 E28.58592
G1 X103.016 Y177.975 E28.6095
G1 X102.515 Y177.75 E28.62777
G1 X101.996 Y177.477 E28.64727
G1 X101.02 Y176.949 E28.68418
G1 X100.39 Y176.596 E28.7082
G1 X99.934 Y176.291 E28.72645
G1 X99.535 Y175.988 E28.74311
G1 X98.559 Y175.229 E28.78423
G1 X98.043 Y174.814 E28.80626
G1 X97.628 Y174.422 E28.82524
G1 X97.293 Y174.068 E28.84145
G1 X96.491 Y173.195 E28.88088
G1 X96.013 Y172.66 E28.90474
G1 X95.679 Y172.223 E28.92304
G1 X95.387 Y171.786 E28.94052
G1 X94.753 Y170.815 E28.97909
G1 X94.372 Y170.213 E29.00278
G1 X94.104 Y169.707 E29.02183
G1 X93.89 Y169.234 E29.0391
G1 X93.432 Y168.188 E29.07708
G1 X93.15 Y167.52 E29.10119
G1 X92.978 Y167.002 E29.11935
G1 X92.836 Y166.471 E29.13763
G1 X92.556 Y165.36 E29.17573
G1 X92.391 Y164.672 E29.19927
G1 X92.303 Y164.11 E29.21819
G1 X92.256 Y163.609 E29.23492
G1 X92.162 Y162.471 E29.2729
G1 X92.108 Y161.692 E29.29887
G1 X92.1 Y161.511 E29.3049
G1 X92.092 Y160.867 E29.32632
G1 X92.092 Y44.464 E33.1979
G1 X92.102 Y43.799 E33.22002
G1 X92.15 Y43.296 E33.23683
G1 X92.276 Y42.806 E33.25365
G1 X92.478 Y42.342 E33.27049
G1 F1800 E26.27049
G1 F300 Z0.4
;MESH:lamp.hanger.console.short.intermediate.amf
G0 F3000 X108.184 Y58.581 Z0.4
;TYPE:WALL-INNER
G1 F300 Z0.2
G1 F1800 E33.27049
G1 F1200 X108.336 Y58.63 E33.2758
G1 X109.433 Y58.899 E33.31336
G1 X110.565 Y58.899 E33.35102
G1 X110.724 Y58.885 E33.35632
G1 X111.84 Y58.608 E33.39457
G1 X112.83 Y58.09 E33.43173
G1 X112.967 Y58.012 E33.43697
G1 X113.833 Y57.243 E33.4755
G1 X113.927 Y57.117 E33.48072
G1 X114.567 Y56.19 E33.51819
G1 X114.626 Y56.021 E33.52414
G1 X114.996 Y55.042 E33.55895
G1 X115.141 Y53.838 E33.59929
G1 X114.996 Y52.635 E33.63959
G1 X114.625 Y51.657 E33.67438
G1 X114.571 Y51.491 E33.68019
G1 X113.842 Y50.439 E33.72276
G1 X112.972 Y49.672 E33.76133
G1 X112.839 Y49.59 E33.76653
G1 X111.839 Y49.069 E33.80403
G1 X110.732 Y48.796 E33.84195
G1 X110.575 Y48.777 E33.84721
G1 X109.432 Y48.778 E33.88523
G1 X108.342 Y49.046 E33.92256
G1 X108.19 Y49.092 E33.92784
G1 X107.161 Y49.634 E33.96653
G1 X106.213 Y50.472 E34.00861
G1 X105.556 Y51.426 E34.04714
G1 X105.49 Y51.569 E34.05238
G1 X105.09 Y52.626 E34.08996
G1 X104.953 Y53.756 E34.12782
G1 X104.952 Y53.913 E34.13305
G1 X105.09 Y55.052 E34.17121
G1 X105.488 Y56.098 E34.20843
G1 X105.55 Y56.244 E34.21371
G1 X106.211 Y57.199 E34.25234
G1 X106.327 Y57.306 E34.25758
G1 X107.161 Y58.043 E34.2946
G1 X108.184 Y58.581 E34.33305
G0 F3000 X108.34 Y58.211
;TYPE:WALL-OUTER
G1 F1200 X108.445 Y58.245 E34.33672
G1 X109.481 Y58.499 E34.37219
G1 X110.547 Y58.499 E34.40765
G1 X110.657 Y58.489 E34.41132
G1 X111.697 Y58.231 E34.44696
G1 X112.638 Y57.739 E34.48228
G1 X112.733 Y57.685 E34.48591
G1 X113.537 Y56.971 E34.52168
G1 X113.602 Y56.884 E34.52529
G1 X114.207 Y56.007 E34.56073
G1 X114.252 Y55.879 E34.56524
G1 X114.605 Y54.946 E34.59842
G1 X114.738 Y53.838 E34.63553
G1 X114.605 Y52.731 E34.67262
G1 X114.251 Y51.799 E34.70578
G1 X114.209 Y51.671 E34.71026
G1 X113.541 Y50.707 E34.74927
G1 X112.734 Y49.995 E34.78506
G1 X112.642 Y49.939 E34.78864
G1 X111.697 Y49.446 E34.82409
G1 X110.66 Y49.19 E34.85962
G1 X110.551 Y49.177 E34.86327
G1 X109.481 Y49.178 E34.89886
G1 X108.448 Y49.432 E34.93424
G1 X108.343 Y49.464 E34.93789
G1 X107.39 Y49.966 E34.97372
G1 X106.515 Y50.739 E35.01255
G1 X105.905 Y51.625 E35.04833
G1 X105.859 Y51.724 E35.05196
G1 X105.481 Y52.722 E35.08745
G1 X105.353 Y53.782 E35.12296
G1 X105.352 Y53.891 E35.12659
G1 X105.481 Y54.955 E35.16224
G1 X105.859 Y55.949 E35.19761
G1 X105.902 Y56.05 E35.20126
G1 X106.515 Y56.935 E35.23707
G1 X106.595 Y57.009 E35.24069
G1 X107.39 Y57.711 E35.27597
G1 X108.34 Y58.211 E35.31167
G0 F3000 X108.445 Y58.245
G0 X108.532 Y58.266
G0 X108.427 Y58.693
G1 F1800 E28.31167
G1 F300 Z0.4
G0 F3000 X108.389 Y58.849 Z0.4
G0 X108.798 Y164.531
;TYPE:WALL-INNER
G1 F300 Z0.2
G1 F1800 E35.31167
G1 F1200 X108.948 Y164.578 E35.3169
G1 X109.61 Y164.741 E35.33958
G1 X110.306 Y164.741 E35.36273
G1 X110.463 Y164.724 E35.36798
G1 X111.146 Y164.556 E35.39137
G1 X111.75 Y164.241 E35.41403
G1 X111.885 Y164.159 E35.41928
G1 X112.423 Y163.684 E35.44315
G1 X112.901 Y162.997 E35.47099
G1 X112.945 Y162.861 E35.47574
G1 X113.168 Y162.274 E35.49663
G1 X113.248 Y161.621 E35.51851
G1 X113.247 Y161.384 E35.52639
G1 X113.168 Y160.735 E35.54814
G1 X112.948 Y160.153 E35.56883
G1 X112.896 Y160.006 E35.57402
G1 X112.511 Y159.448 E35.59657
G1 X112.418 Y159.32 E35.60183
G1 X111.882 Y158.845 E35.62565
G1 X111.745 Y158.766 E35.63091
G1 X111.148 Y158.452 E35.65334
G1 X110.456 Y158.281 E35.67705
G1 X110.299 Y158.268 E35.68229
G1 X109.611 Y158.267 E35.70517
G1 X108.943 Y158.431 E35.72805
G1 X108.795 Y158.48 E35.73324
G1 X108.16 Y158.811 E35.75705
G1 X107.547 Y159.359 E35.7844
G1 X107.136 Y159.951 E35.80837
G1 X107.074 Y160.095 E35.81359
G1 X106.832 Y160.729 E35.83616
G1 X106.748 Y161.428 E35.85957
G1 X106.749 Y161.585 E35.8648
G1 X106.832 Y162.278 E35.88801
G1 X107.076 Y162.917 E35.91076
G1 X107.14 Y163.06 E35.91597
G1 X107.546 Y163.649 E35.93976
G1 X108.16 Y164.196 E35.96711
G1 X108.798 Y164.531 E35.99108
G0 F3000 X108.951 Y164.16
;TYPE:WALL-OUTER
G1 F1200 X109.055 Y164.192 E35.9947
G1 X109.659 Y164.341 E36.01539
G1 X110.284 Y164.341 E36.03618
G1 X110.393 Y164.329 E36.03983
G1 X111.004 Y164.179 E36.06075
G1 X111.553 Y163.892 E36.08136
G1 X111.647 Y163.835 E36.08501
G1 X112.122 Y163.416 E36.10608
G1 X112.539 Y162.817 E36.13035
G1 X112.571 Y162.719 E36.13378
G1 X112.777 Y162.177 E36.15307
G1 X112.848 Y161.598 E36.17247
G1 X112.847 Y161.409 E36.17876
G1 X112.777 Y160.831 E36.19812
G1 X112.574 Y160.294 E36.21722
G1 X112.537 Y160.19 E36.22089
G1 X112.185 Y159.68 E36.2415
G1 X112.12 Y159.591 E36.24516
G1 X111.647 Y159.171 E36.2662
G1 X111.552 Y159.116 E36.26985
G1 X111.005 Y158.829 E36.2904
G1 X110.391 Y158.677 E36.31144
G1 X110.282 Y158.668 E36.31508
G1 X109.659 Y158.667 E36.3358
G1 X109.054 Y158.816 E36.35652
G1 X108.951 Y158.85 E36.36013
G1 X108.389 Y159.143 E36.38121
G1 X107.849 Y159.626 E36.4053
G1 X107.488 Y160.146 E36.42636
G1 X107.445 Y160.246 E36.42998
