;FLAVOR:Marlin
;TIME:2216
;Filament used: 1.28859m
;Layer height: 0.2
;MINX:93
;MINY:85.872
;MINZ:0.2
;MAXX:127
;MAXY:134.128
;MAXZ:22
;Generated with Cura_SteamEngine master
M82 ;absolute extrusion mode
;Sliced at: Sun 10-04-2022 15:11:13
;Basic settings: Layer height: 0.2 Walls: 0.8 Fill: 20
G21 ;metric values
G90 ;absolute positioning
M82 ;set extruder to absolute mode
M107 ;start with the fan off
M117 Start heating ...
M104 S200
M117 Homing X/Y ...
G28 X0 Y0 ;move X/Y to min endstops
M117 Homing Z ...
G28 Z0 ;move Z to min endstops
G1 Z15.0 F100 ;move the platform down 15mm
M117 Heating ...
M109 S200
M117 Start cleaning ...
G92 E0 ;zero the extruded length
G1 F200 E10 ;extrude 10mm of feed stock
G92 E0 ;zero the extruded length again
M117 Intro line ...
G1 Z2.0 F3000 ; Move Z Axis up little to prevent scratching of Heat Bed
G1 X0.1 Y20 Z0.2 F5000.0 ; Move to start position
G1 X0.1 Y200.0 Z0.2 F1500.0 E15 ; Draw the first line
G1 X0.4 Y200.0 Z0.2 F5000.0 ; Move to side a little
G1 X0.4 Y20 Z0.3 F1500.0 E30 ; Draw the second line
G92 E0 ; Reset Extruder
G1 E-1 F500 ; Retract filiment by 1 mm
G1 Z2.0 F3000 ; Move Z Axis up little to prevent scratching of Heat Bed
G1 X5 Y20 Z0.3 F100 ; Move over to prevent blob squish
G1 F100
G92 E0 ; Reset Extruder
M117 Printing...

G92 E0
G92 E0
G1 F1800 E-7
;LAYER_COUNT:110
;LAYER:0
M107
G1 F300 Z0.4
G0 F3000 X94.584 Y87.154 Z0.4
;TYPE:SKIRT
G1 F300 Z0.2
G1 F1800 E0
G1 F1200 X94.997 Y86.769 E0.01878
G1 X95.461 Y86.446 E0.03758
G1 X95.966 Y86.191 E0.0564
G1 X96.501 Y86.01 E0.07518
G1 X97.057 Y85.907 E0.09399
G1 X97.718 Y85.874 E0.116
G1 X97.83 Y85.872 E0.11973
G1 X101.85 Y85.872 E0.25344
G1 X102.551 Y85.882 E0.27675
G1 X105.899 Y86.074 E0.38829
G1 X108.571 Y86.151 E0.4772
G1 X111.314 Y86.151 E0.56843
G1 X113.986 Y86.076 E0.65734
G1 X116.812 Y85.916 E0.75148
G1 X117.398 Y85.883 E0.771
G1 X117.83 Y85.872 E0.78538
G1 X121.85 Y85.872 E0.91908
G1 X122.548 Y85.882 E0.9423
G1 X123.112 Y85.93 E0.96113
G1 X123.662 Y86.057 E0.9799
G1 X124.19 Y86.261 E0.99873
G1 X124.684 Y86.536 E1.01753
G1 X125.133 Y86.879 E1.03632
G1 X125.53 Y87.281 E1.05512
G1 X125.867 Y87.736 E1.07395
G1 X126.135 Y88.233 E1.09273
G1 X126.331 Y88.763 E1.11152
G1 X126.451 Y89.316 E1.13034
G1 X126.494 Y89.828 E1.14743
G1 X126.602 Y92.301 E1.22976
G1 X126.799 Y95.036 E1.32097
G1 X126.899 Y96.044 E1.35466
G1 X126.975 Y96.93 E1.38423
G1 X126.998 Y97.481 E1.40258
G1 X127 Y97.602 E1.4066
G1 X127 Y116.522 E2.03588
G1 X126.987 Y117.338 E2.06303
G1 X126.977 Y117.521 E2.06912
G1 X126.935 Y118.121 E2.08913
G1 X126.86 Y119.016 E2.119
G1 X126.794 Y119.695 E2.14169
G1 X126.7 Y120.258 E2.16067
G1 X126.559 Y120.848 E2.18085
G1 X126.333 Y121.746 E2.21165
G1 X126.149 Y122.431 E2.23524
G1 X125.943 Y123.022 E2.25606
G1 X125.703 Y123.583 E2.27635
G1 X125.378 Y124.323 E2.30323
G1 X125.053 Y125.032 E2.32917
G1 X124.803 Y125.497 E2.34673
G1 X124.493 Y125.988 E2.36605
G1 X124.011 Y126.728 E2.39542
G1 X123.568 Y127.385 E2.42177
G1 X123.238 Y127.811 E2.4397
G1 X122.737 Y128.371 E2.46469
G1 X122.199 Y128.954 E2.49107
G1 X121.69 Y129.49 E2.51566
G1 X121.292 Y129.856 E2.53364
G1 X120.753 Y130.288 E2.55662
G1 X120.116 Y130.784 E2.58347
G1 X119.51 Y131.242 E2.60873
G1 X119.034 Y131.553 E2.62765
G1 X118.476 Y131.864 E2.64889
G1 X117.681 Y132.293 E2.67894
G1 X117.06 Y132.617 E2.70224
G1 X116.558 Y132.838 E2.72048
G1 X116.013 Y133.035 E2.73975
G1 X115.129 Y133.338 E2.77083
G1 X114.427 Y133.567 E2.79539
G1 X113.905 Y133.701 E2.81332
G1 X113.307 Y133.81 E2.83354
G1 X112.347 Y133.97 E2.86591
G1 X111.665 Y134.073 E2.88885
G1 X111.13 Y134.119 E2.90671
G1 X110.513 Y134.128 E2.92723
G1 X109.572 Y134.128 E2.95853
G1 X108.855 Y134.117 E2.98238
G1 X108.286 Y134.069 E3.00137
G1 X107.727 Y133.983 E3.02018
G1 X106.76 Y133.821 E3.05279
G1 X106.094 Y133.699 E3.07531
G1 X105.571 Y133.567 E3.09325
G1 X105.456 Y133.531 E3.09726
G1 X104.897 Y133.347 E3.11683
G1 X104.107 Y133.075 E3.14462
G1 X103.412 Y132.825 E3.16919
G1 X102.913 Y132.606 E3.18731
G1 X102.356 Y132.314 E3.20823
G1 X101.565 Y131.886 E3.23815
G1 X100.93 Y131.529 E3.26237
G1 X100.488 Y131.242 E3.2799
G1 X99.91 Y130.805 E3.304
G1 X99.25 Y130.29 E3.33185
G1 X98.689 Y129.84 E3.35577
G1 X98.285 Y129.468 E3.37403
G1 X97.801 Y128.955 E3.39749
G1 X97.233 Y128.338 E3.42538
G1 X96.765 Y127.814 E3.44875
G1 X96.454 Y127.42 E3.46545
G1 X96.378 Y127.31 E3.46989
G1 X96.031 Y126.791 E3.49066
G1 X95.589 Y126.114 E3.51755
G1 X95.179 Y125.462 E3.54317
G1 X94.934 Y125.012 E3.56021
G1 X94.641 Y124.367 E3.58377
G1 X94.317 Y123.627 E3.61064
G1 X94.026 Y122.94 E3.63545
G1 X93.845 Y122.413 E3.65399
G1 X93.67 Y121.758 E3.67654
G1 X93.467 Y120.954 E3.70412
G1 X93.296 Y120.24 E3.72854
G1 X93.205 Y119.7 E3.74675
G1 X93.14 Y119.027 E3.76924
G1 X93.066 Y118.134 E3.79904
G1 X93.014 Y117.348 E3.82524
G1 X93.007 Y117.154 E3.8317
G1 X93 Y116.599 E3.85016
G1 X93 Y97.917 E4.47152
G1 X93.011 Y97.21 E4.49504
G1 X93.075 Y96.423 E4.5213
G1 X93.304 Y93.718 E4.61159
G1 X93.461 Y90.938 E4.7042
G1 X93.514 Y89.71 E4.74509
G1 X93.578 Y89.148 E4.7639
G1 X93.72 Y88.601 E4.7827
G1 X93.939 Y88.079 E4.80152
G1 X94.228 Y87.594 E4.8203
G1 X94.584 Y87.154 E4.83913
G0 F3000 X94.972 Y87.328
G1 F1200 X95.379 Y86.979 E4.85696
G1 X95.834 Y86.695 E4.8748
G1 X96.326 Y86.481 E4.89264
G1 X96.844 Y86.343 E4.91047
G1 X97.409 Y86.282 E4.92937
G1 X97.83 Y86.272 E4.94338
G1 X101.844 Y86.272 E5.07689
G1 X102.545 Y86.282 E5.1002
G1 X103.114 Y86.317 E5.11916
G1 X105.83 Y86.472 E5.20965
G1 X108.594 Y86.551 E5.30161
G1 X111.289 Y86.551 E5.39125
G1 X114.056 Y86.474 E5.48332
G1 X116.843 Y86.315 E5.57616
G1 X117.409 Y86.282 E5.59502
G1 X117.83 Y86.272 E5.60903
G1 X121.845 Y86.272 E5.74257
G1 X122.543 Y86.282 E5.76578
G1 X123.077 Y86.33 E5.78362
G1 X123.598 Y86.456 E5.80145
G1 X124.095 Y86.659 E5.8193
G1 X124.556 Y86.933 E5.83714
G1 X124.971 Y87.272 E5.85496
G1 X125.331 Y87.67 E5.87281
G1 X125.628 Y88.116 E5.89063
G1 X125.856 Y88.602 E5.90849
G1 X126.008 Y89.116 E5.92631
G1 X126.085 Y89.672 E5.94498
G1 X126.095 Y89.845 E5.95075
G1 X126.204 Y92.348 E6.03408
G1 X126.4 Y95.069 E6.12481
G1 X126.501 Y96.078 E6.15854
G1 X126.577 Y96.964 E6.18812
G1 X126.598 Y97.493 E6.20572
G1 X126.6 Y97.602 E6.20935
G1 X126.6 Y116.516 E6.83843
G1 X126.587 Y117.321 E6.86521
G1 X126.578 Y117.493 E6.87094
G1 X126.537 Y118.088 E6.89078
G1 X126.462 Y118.977 E6.92045
G1 X126.396 Y119.656 E6.94314
G1 X126.309 Y120.174 E6.96061
G1 X126.17 Y120.754 E6.98045
G1 X125.947 Y121.642 E7.0109
G1 X125.763 Y122.327 E7.03449
G1 X125.575 Y122.865 E7.05344
G1 X125.336 Y123.422 E7.0736
G1 X125.015 Y124.156 E7.10025
G1 X124.69 Y124.865 E7.12619
G1 X124.399 Y125.39 E7.14615
G1 X124.135 Y125.805 E7.16251
G1 X123.646 Y126.555 E7.19229
G1 X123.237 Y127.162 E7.21664
G1 X122.878 Y127.616 E7.23589
G1 X122.443 Y128.1 E7.25753
G1 X121.908 Y128.679 E7.28375
G1 X121.399 Y129.215 E7.30834
G1 X121.041 Y129.544 E7.32451
G1 X120.508 Y129.972 E7.34724
G1 X119.875 Y130.465 E7.37393
G1 X119.269 Y130.923 E7.39919
G1 X118.832 Y131.208 E7.41655
G1 X118.321 Y131.493 E7.43601
G1 X117.496 Y131.939 E7.4672
G1 X116.875 Y132.263 E7.4905
G1 X116.414 Y132.466 E7.50725
G1 X115.837 Y132.672 E7.52763
G1 X115.004 Y132.958 E7.55692
G1 X114.302 Y133.187 E7.58148
G1 X113.702 Y133.333 E7.60202
G1 X113.199 Y133.423 E7.61901
G1 X112.288 Y133.575 E7.64973
G1 X111.606 Y133.678 E7.67267
G1 X111.012 Y133.722 E7.69248
G1 X110.508 Y133.728 E7.70925
G1 X109.578 Y133.728 E7.74018
G1 X108.861 Y133.717 E7.76403
G1 X108.339 Y133.672 E7.78146
G1 X107.84 Y133.596 E7.79825
G1 X106.832 Y133.427 E7.83224
G1 X106.166 Y133.305 E7.85476
G1 X105.581 Y133.151 E7.87488
G1 X105.027 Y132.968 E7.89428
G1 X104.242 Y132.699 E7.92188
G1 X103.547 Y132.449 E7.94645
G1 X103.098 Y132.251 E7.96277
G1 X102.546 Y131.963 E7.98348
G1 X101.761 Y131.537 E8.01319
G1 X101.126 Y131.18 E8.03741
G1 X100.636 Y130.854 E8.05699
G1 X100.156 Y130.489 E8.07705
G1 X99.5 Y129.978 E8.1047
G1 X98.939 Y129.528 E8.12862
G1 X98.576 Y129.193 E8.14505
G1 X98.095 Y128.684 E8.16834
G1 X97.531 Y128.071 E8.19605
G1 X97.063 Y127.547 E8.21942
G1 X96.71 Y127.088 E8.23868
G1 X96.365 Y126.572 E8.25932
G1 X95.927 Y125.901 E8.28597
G1 X95.517 Y125.249 E8.31159
G1 X95.252 Y124.749 E8.33041
G1 X95.007 Y124.206 E8.35022
G1 X94.685 Y123.471 E8.37691
G1 X94.394 Y122.784 E8.40173
G1 X94.231 Y122.31 E8.4184
G1 X94.058 Y121.66 E8.44077
G1 X93.856 Y120.86 E8.46822
G1 X93.685 Y120.146 E8.49263
G1 X93.603 Y119.66 E8.50903
G1 X93.538 Y118.994 E8.53128
G1 X93.465 Y118.107 E8.56089
G1 X93.413 Y117.331 E8.58675
G1 X93.407 Y117.149 E8.59281
G1 X93.4 Y116.594 E8.61127
G1 X93.4 Y97.923 E9.23227
G1 X93.411 Y97.216 E9.25579
G1 X93.473 Y96.462 E9.28095
G1 X93.704 Y93.739 E9.37184
G1 X93.858 Y91.01 E9.46276
G1 X93.913 Y89.727 E9.50547
G1 X93.976 Y89.194 E9.52332
G1 X94.117 Y88.677 E9.54114
G1 X94.334 Y88.186 E9.559
G1 X94.621 Y87.733 E9.57683
G1 X94.972 Y87.328 E9.59466
G0 F3000 X95.013 Y87.88
G1 F1200 X95.359 Y87.512 E9.61146
G1 X95.759 Y87.203 E9.62827
G1 X96.203 Y86.96 E9.6451
G1 X96.679 Y86.791 E9.6619
G1 X97.42 Y86.682 E9.68681
G1 X97.83 Y86.672 E9.70046
G1 X101.839 Y86.672 E9.8338
G1 X102.54 Y86.682 E9.85711
G1 X105.83 Y86.872 E9.96672
G1 X108.583 Y86.951 E10.05832
G1 X111.301 Y86.951 E10.14873
G1 X114.052 Y86.874 E10.24026
G1 X116.812 Y86.719 E10.3322
G1 X117.321 Y86.687 E10.34917
G1 X117.83 Y86.672 E10.3661
G1 X121.839 Y86.672 E10.49944
G1 X122.537 Y86.682 E10.52266
G1 X123.04 Y86.729 E10.53946
G1 X123.53 Y86.855 E10.55629
G1 X123.994 Y87.057 E10.57312
G1 X124.42 Y87.329 E10.58993
G1 X124.798 Y87.664 E10.60673
G1 X125.118 Y88.055 E10.62354
G1 X125.373 Y88.492 E10.64036
G1 X125.556 Y88.963 E10.65717
G1 X125.686 Y89.696 E10.68193
G1 X125.695 Y89.863 E10.68749
G1 X125.804 Y92.356 E10.77049
G1 X126.001 Y95.104 E10.86212
G1 X126.102 Y96.113 E10.89585
G1 X126.178 Y96.999 E10.92543
G1 X126.199 Y97.505 E10.94227
G1 X126.2 Y116.51 E11.57438
G1 X126.19 Y117.216 E11.59786
G1 X126.179 Y117.465 E11.60615
G1 X126.138 Y118.055 E11.62583
G1 X126.064 Y118.939 E11.65533
G1 X125.998 Y119.618 E11.67802
G1 X125.899 Y120.172 E11.69674
G1 X125.775 Y120.688 E11.71439
G1 X125.56 Y121.538 E11.74355
G1 X125.376 Y122.223 E11.76714
G1 X125.207 Y122.707 E11.78419
G1 X124.97 Y123.262 E11.80426
G1 X124.651 Y123.989 E11.83067
G1 X124.326 Y124.698 E11.85661
G1 X124.062 Y125.175 E11.87474
G1 X123.8 Y125.587 E11.89098
G1 X123.314 Y126.331 E11.92054
G1 X122.905 Y126.938 E11.94488
G1 X122.58 Y127.349 E11.96231
G1 X122.149 Y127.829 E11.98377
G1 X121.618 Y128.404 E12.0098
G1 X121.109 Y128.94 E12.03439
G1 X120.791 Y129.232 E12.04874
G1 X120.262 Y129.657 E12.07131
G1 X119.633 Y130.146 E12.09781
G1 X119.027 Y130.604 E12.12308
G1 X118.566 Y130.899 E12.14128
G1 X118.095 Y131.16 E12.15919
G1 X117.311 Y131.584 E12.18884
G1 X116.69 Y131.908 E12.21213
G1 X116.187 Y132.123 E12.23033
G1 X115.708 Y132.294 E12.24724
G1 X114.88 Y132.577 E12.27635
G1 X114.178 Y132.806 E12.30091
G1 X113.631 Y132.939 E12.31963
G1 X113.132 Y133.028 E12.33649
G1 X112.228 Y133.179 E12.36697
G1 X111.546 Y133.282 E12.38991
G1 X111.007 Y133.322 E12.40789
G1 X110.503 Y133.328 E12.42465
G1 X109.584 Y133.328 E12.45522
G1 X108.867 Y133.317 E12.47907
G1 X108.323 Y133.266 E12.49724
G1 X107.859 Y133.194 E12.51286
G1 X106.904 Y133.034 E12.54507
G1 X106.238 Y132.912 E12.56759
G1 X105.706 Y132.771 E12.58589
G1 X105.157 Y132.59 E12.60512
G1 X104.378 Y132.322 E12.63252
G1 X103.683 Y132.072 E12.65708
G1 X103.284 Y131.897 E12.67158
G1 X102.737 Y131.611 E12.69211
G1 X101.957 Y131.188 E12.72162
G1 X101.322 Y130.831 E12.74585
G1 X100.877 Y130.535 E12.76362
G1 X100.402 Y130.174 E12.78347
G1 X99.751 Y129.666 E12.81093
G1 X99.19 Y129.216 E12.83485
G1 X98.867 Y128.918 E12.84947
G1 X98.39 Y128.413 E12.87257
G1 X97.829 Y127.805 E12.90009
G1 X97.361 Y127.281 E12.92345
G1 X97.043 Y126.865 E12.94087
G1 X96.7 Y126.353 E12.96137
G1 X96.266 Y125.688 E12.98778
G1 X95.856 Y125.036 E13.0134
G1 X95.617 Y124.584 E13.0304
G1 X95.374 Y124.046 E13.05004
G1 X95.053 Y123.315 E13.07659
G1 X94.762 Y122.628 E13.10141
G1 X94.618 Y122.207 E13.1162
G1 X94.445 Y121.562 E13.13842
G1 X94.245 Y120.767 E13.16568
G1 X94.074 Y120.053 E13.1901
G1 X94.001 Y119.621 E13.20467
G1 X93.937 Y118.961 E13.22673
G1 X93.864 Y118.079 E13.25616
G1 X93.813 Y117.313 E13.2817
G1 X93.807 Y117.144 E13.28732
G1 X93.8 Y116.589 E13.30578
G1 X93.8 Y97.929 E13.92642
G1 X93.811 Y97.222 E13.94993
G1 X93.871 Y96.502 E13.97396
G1 X94.103 Y93.759 E14.06552
G1 X94.26 Y90.984 E14.15797
G1 X94.313 Y89.744 E14.19925
G1 X94.374 Y89.242 E14.21607
G1 X94.514 Y88.756 E14.23289
G1 X94.729 Y88.298 E14.24972
G1 X95.013 Y87.88 E14.26652
G1 F1800 E7.26652
G1 F300 Z0.4
;MESH:lamp.hanger.intermediate.stl
G0 F3000 X108.864 Y120.168 Z0.4
;TYPE:WALL-INNER
G1 F300 Z0.2
G1 F1800 E14.26652
G1 F1200 X109.614 Y120.353 E14.29222
G1 X110.386 Y120.353 E14.31789
G1 X111.136 Y120.168 E14.34359
G1 X111.82 Y119.81 E14.36926
G1 X112.399 Y119.297 E14.39499
G1 X112.837 Y118.661 E14.42068
G1 X113.111 Y117.938 E14.44639
G1 X113.204 Y117.172 E14.47206
G1 X113.111 Y116.406 E14.49772
G1 X112.837 Y115.683 E14.52344
G1 X112.399 Y115.047 E14.54912
G1 X111.82 Y114.534 E14.57485
G1 X111.136 Y114.176 E14.60053
G1 X110.386 Y113.991 E14.62622
G1 X109.614 Y113.991 E14.6519
G1 X108.864 Y114.176 E14.67759
G1 X108.18 Y114.534 E14.70327
G1 X107.601 Y115.047 E14.729
G1 X107.163 Y115.683 E14.75468
G1 X106.889 Y116.406 E14.7804
G1 X106.796 Y117.172 E14.80606
G1 X106.889 Y117.938 E14.83173
G1 X107.163 Y118.661 E14.85744
G1 X107.601 Y119.297 E14.88313
G1 X108.18 Y119.81 E14.90886
G1 X108.864 Y120.168 E14.93454
G0 F3000 X109.007 Y119.791
;TYPE:WALL-OUTER
G1 F1200 X109.663 Y119.953 E14.95701
G1 X110.337 Y119.953 E14.97943
G1 X110.993 Y119.791 E15.0019
G1 X111.591 Y119.478 E15.02435
G1 X112.097 Y119.03 E15.04683
G1 X112.48 Y118.474 E15.06928
G1 X112.72 Y117.842 E15.09177
G1 X112.801 Y117.172 E15.11422
G1 X112.72 Y116.502 E15.13666
G1 X112.48 Y115.87 E15.15915
G1 X112.097 Y115.314 E15.1816
G1 X111.591 Y114.866 E15.20408
G1 X110.993 Y114.553 E15.22653
G1 X110.337 Y114.391 E15.249
G1 X109.663 Y114.391 E15.27142
G1 X109.007 Y114.553 E15.2939
G1 X108.409 Y114.866 E15.31634
G1 X107.903 Y115.314 E15.33882
G1 X107.52 Y115.87 E15.36128
G1 X107.28 Y116.502 E15.38376
G1 X107.199 Y117.172 E15.40621
G1 X107.28 Y117.842 E15.42866
G1 X107.52 Y118.474 E15.45114
G1 X107.903 Y119.03 E15.4736
G1 X108.409 Y119.478 E15.49607
G1 X109.007 Y119.791 E15.51852
G0 F3000 X109.201 Y119.839
G0 X109.096 Y120.265
G1 F1800 E8.51852
G1 F300 Z0.4
G0 F3000 X109.056 Y120.42 Z0.4
G0 X122.4 Y97.872
;TYPE:WALL-INNER
G1 F300 Z0.2
G1 F1800 E15.51852
G1 F1200 X122.4 Y117.151 E16.15975
G1 X122.23 Y119.211 E16.2285
G1 X121.726 Y121.202 E16.2968
G1 X120.904 Y123.072 E16.36475
G1 X119.784 Y124.788 E16.4329
G1 X118.403 Y126.288 E16.50071
G1 X116.777 Y127.553 E16.56923
G1 X114.978 Y128.527 E16.63728
G1 X113.047 Y129.19 E16.70518
G1 X111.023 Y129.528 E16.77343
G1 X108.977 Y129.528 E16.84148
G1 X106.953 Y129.19 E16.90973
G1 X105.022 Y128.527 E16.97764
G1 X103.223 Y127.553 E17.04568
G1 X101.597 Y126.288 E17.1142
G1 X100.216 Y124.788 E17.18202
G1 X99.096 Y123.072 E17.25017
G1 X98.274 Y121.202 E17.31811
G1 X97.77 Y119.211 E17.38642
G1 X97.6 Y117.151 E17.45517
G1 X97.6 Y97.872 E18.09639
G1 X98.1 Y97.872 E18.11302
G1 X98.1 Y95.872 E18.17954
G1 X99.45 Y95.872 E18.22444
G1 X99.45 Y91.272 E18.37744
G1 X98.1 Y91.272 E18.42234
G1 X98.1 Y90.472 E18.44895
G1 X101.9 Y90.472 E18.57534
G1 X101.9 Y96.272 E18.76825
G1 X118.1 Y96.272 E19.30706
G1 X118.1 Y90.472 E19.49997
G1 X121.9 Y90.472 E19.62636
G1 X121.9 Y91.272 E19.65297
G1 X120.55 Y91.272 E19.69787
G1 X120.55 Y95.872 E19.85086
G1 X121.9 Y95.872 E19.89576
G1 X121.9 Y97.872 E19.96229
G1 X122.4 Y97.872 E19.97892
G0 F3000 X122.3 Y97.472
;TYPE:WALL-OUTER
G1 F1200 X122.8 Y97.472 E19.99555
G1 X122.8 Y117.172 E20.65077
G1 X122.626 Y119.276 E20.72099
G1 X122.106 Y121.33 E20.79146
G1 X121.256 Y123.265 E20.86175
G1 X120.102 Y125.033 E20.93198
G1 X118.672 Y126.586 E21.00219
G1 X116.999 Y127.888 E21.0727
G1 X115.141 Y128.894 E21.14297
G1 X113.141 Y129.58 E21.2133
G1 X111.059 Y129.928 E21.28351
G1 X108.941 Y129.928 E21.35395
G1 X106.859 Y129.58 E21.42416
