;FLAVOR:Marlin
;TIME:7501
;Filament used: 5.11336m
;Layer height: 0.2
;MINX:91.292
;MINY:21
;MINZ:0.2
;MAXX:128.708
;MAXY:199
;MAXZ:5.8
;Generated with Cura_SteamEngine master
M82 ;absolute extrusion mode
;Sliced at: Wed 04-05-2022 23:01:16
;Basic settings: Layer height: 0.2 Walls: 0.8 Fill: 20
G21 ;metric values
G90 ;absolute positioning
M82 ;set extruder to absolute mode
M107 ;start with the fan off
M117 Start heating ...
M104 S200
M117 Homing X/Y ...
G28 X0 Y0 ;move X/Y to min endstops
M117 Homing Z ...
G28 Z0 ;move Z to min endstops
G1 Z15.0 F100 ;move the platform down 15mm
M117 Heating ...
M109 S200
M117 Start cleaning ...
G92 E0 ;zero the extruded length
G1 F200 E10 ;extrude 10mm of feed stock
G92 E0 ;zero the extruded length again
M117 Intro line ...
G1 Z2.0 F3000 ; Move Z Axis up little to prevent scratching of Heat Bed
G1 X0.1 Y20 Z0.2 F5000.0 ; Move to start position
G1 X0.1 Y200.0 Z0.2 F1500.0 E15 ; Draw the first line
G1 X0.4 Y200.0 Z0.2 F5000.0 ; Move to side a little
G1 X0.4 Y20 Z0.3 F1500.0 E30 ; Draw the second line
G92 E0 ; Reset Extruder
G1 E-1 F500 ; Retract filiment by 1 mm
G1 Z2.0 F3000 ; Move Z Axis up little to prevent scratching of Heat Bed
G1 X5 Y20 Z0.3 F100 ; Move over to prevent blob squish
G1 F100
G92 E0 ; Reset Extruder
M117 Printing...

G92 E0
G92 E0
G1 F1800 E-7
;LAYER_COUNT:28
;LAYER:0
M107
G1 F300 Z0.4
G0 F3000 X91.478 Y23.835 Z0.4
;TYPE:SKIRT
G1 F300 Z0.2
G1 F1800 E0
G1 F1200 X91.682 Y23.307 E0.01883
G1 X91.958 Y22.814 E0.03762
G1 X92.301 Y22.365 E0.05641
G1 X92.704 Y21.968 E0.07523
G1 X93.158 Y21.632 E0.09401
G1 X93.656 Y21.363 E0.11284
G1 X94.186 Y21.168 E0.13162
G1 X94.739 Y21.049 E0.15043
G1 X95.51 Y21.002 E0.17613
G1 X95.622 Y21 E0.17985
G1 X124.058 Y21 E1.12564
G1 X124.756 Y21.01 E1.14885
G1 X125.32 Y21.058 E1.16768
G1 X125.87 Y21.185 E1.18646
G1 X126.398 Y21.389 E1.20528
G1 X126.892 Y21.664 E1.22409
G1 X127.341 Y22.007 E1.24288
G1 X127.738 Y22.409 E1.26167
G1 X128.075 Y22.864 E1.2805
G1 X128.343 Y23.361 E1.29928
G1 X128.539 Y23.891 E1.31808
G1 X128.659 Y24.444 E1.3369
G1 X128.706 Y25.218 E1.36269
G1 X128.708 Y25.33 E1.36642
G1 X128.707 Y179.699 E6.50075
G1 X128.695 Y180.452 E6.5258
G1 X128.686 Y180.665 E6.53289
G1 X128.639 Y181.339 E6.55536
G1 X128.549 Y182.417 E6.59134
G1 X128.473 Y183.177 E6.61674
G1 X128.385 Y183.709 E6.63468
G1 X128.263 Y184.226 E6.65235
G1 X127.944 Y185.485 E6.69554
G1 X127.767 Y186.142 E6.71817
G1 X127.551 Y186.764 E6.74007
G1 X127.333 Y187.275 E6.75855
G1 X126.879 Y188.308 E6.79608
G1 X126.561 Y189.005 E6.82156
G1 X126.302 Y189.483 E6.83965
G1 X125.925 Y190.08 E6.86313
G1 X125.323 Y191 E6.8997
G1 X124.921 Y191.597 E6.92364
G1 X124.603 Y192.011 E6.941
G1 X124.506 Y192.123 E6.94593
G1 X124.109 Y192.562 E6.96561
G1 X123.356 Y193.38 E7.00259
G1 X122.861 Y193.903 E7.02654
G1 X122.473 Y194.264 E7.04417
G1 X122.02 Y194.629 E7.06352
G1 X121.022 Y195.406 E7.10559
G1 X120.448 Y195.84 E7.12952
G1 X119.975 Y196.149 E7.14831
G1 X119.398 Y196.47 E7.17027
G1 X118.388 Y197.017 E7.20848
G1 X117.768 Y197.342 E7.23176
G1 X117.202 Y197.587 E7.25227
G1 X116.704 Y197.767 E7.26988
G1 X115.491 Y198.183 E7.31254
G1 X114.845 Y198.393 E7.33513
G1 X114.313 Y198.529 E7.35339
G1 X113.706 Y198.639 E7.37391
G1 X112.495 Y198.841 E7.41474
G1 X111.798 Y198.946 E7.43819
G1 X111.275 Y198.991 E7.45565
G1 X111.168 Y198.994 E7.45921
G1 X110.636 Y199 E7.4769
G1 X109.431 Y199 E7.51698
G1 X108.714 Y198.989 E7.54083
G1 X108.155 Y198.942 E7.55949
G1 X107.562 Y198.851 E7.57944
G1 X106.361 Y198.65 E7.61994
G1 X105.68 Y198.526 E7.64297
G1 X105.138 Y198.389 E7.66156
G1 X104.512 Y198.184 E7.68347
G1 X103.412 Y197.806 E7.72216
G1 X102.745 Y197.566 E7.74573
G1 X102.261 Y197.356 E7.76328
G1 X102.143 Y197.296 E7.76768
G1 X101.615 Y197.019 E7.78752
G1 X100.629 Y196.485 E7.82481
G1 X99.999 Y196.132 E7.84883
G1 X99.52 Y195.818 E7.86788
G1 X99.044 Y195.457 E7.88775
G1 X98.058 Y194.69 E7.9293
G1 X97.542 Y194.275 E7.95132
G1 X97.126 Y193.891 E7.97015
G1 X96.74 Y193.485 E7.98878
G1 X95.894 Y192.566 E8.03033
G1 X95.416 Y192.031 E8.05419
G1 X95.075 Y191.594 E8.07263
G1 X94.717 Y191.062 E8.09396
G1 X94.077 Y190.081 E8.13291
G1 X93.696 Y189.479 E8.15661
G1 X93.429 Y188.988 E8.1752
G1 X93.178 Y188.438 E8.19531
G1 X92.695 Y187.337 E8.23529
G1 X92.413 Y186.669 E8.25941
G1 X92.23 Y186.137 E8.27812
G1 X92.061 Y185.504 E8.29991
G1 X91.778 Y184.385 E8.3383
G1 X91.613 Y183.697 E8.36184
G1 X91.518 Y183.127 E8.38106
G1 X91.459 Y182.513 E8.40157
G1 X91.364 Y181.365 E8.43988
G1 X91.31 Y180.586 E8.46586
G1 X91.3 Y180.359 E8.47341
G1 X91.292 Y179.715 E8.49483
G1 X91.292 Y25.614 E13.62025
G1 X91.302 Y24.949 E13.64237
G1 X91.351 Y24.386 E13.66117
G1 X91.478 Y23.835 E13.67998
G0 F3000 X91.877 Y23.9
G1 F1200 X92.08 Y23.403 E13.69783
G1 X92.354 Y22.942 E13.71567
G1 X92.694 Y22.527 E13.73351
G1 X93.092 Y22.168 E13.75134
G1 X93.538 Y21.871 E13.76916
G1 X94.024 Y21.643 E13.78702
G1 X94.538 Y21.491 E13.80485
G1 X95.201 Y21.41 E13.82706
G1 X95.622 Y21.4 E13.84107
G1 X124.053 Y21.4 E14.78669
G1 X124.751 Y21.41 E14.8099
G1 X125.285 Y21.458 E14.82774
G1 X125.806 Y21.584 E14.84557
G1 X126.303 Y21.787 E14.86342
G1 X126.764 Y22.061 E14.88126
G1 X127.179 Y22.4 E14.89908
G1 X127.539 Y22.798 E14.91693
G1 X127.836 Y23.244 E14.93475
G1 X128.064 Y23.73 E14.95261
G1 X128.216 Y24.244 E14.97044
G1 X128.298 Y24.909 E14.99272
G1 X128.308 Y25.33 E15.00673
G1 X128.308 Y179.692 E20.14083
G1 X128.296 Y180.445 E20.16588
G1 X128.287 Y180.637 E20.17227
G1 X128.241 Y181.306 E20.19457
G1 X128.157 Y182.317 E20.22831
G1 X128.075 Y183.137 E20.25572
G1 X127.967 Y183.747 E20.27633
G1 X127.865 Y184.166 E20.29067
G1 X127.558 Y185.38 E20.33232
G1 X127.381 Y186.037 E20.35495
G1 X127.183 Y186.608 E20.37505
G1 X126.967 Y187.114 E20.39335
G1 X126.515 Y188.142 E20.4307
G1 X126.197 Y188.839 E20.45618
G1 X125.964 Y189.269 E20.47245
G1 X125.59 Y189.861 E20.49574
G1 X124.991 Y190.777 E20.53214
G1 X124.589 Y191.374 E20.55608
G1 X124.209 Y191.855 E20.57647
G1 X123.815 Y192.291 E20.59601
G1 X123.066 Y193.105 E20.6328
G1 X122.571 Y193.628 E20.65675
G1 X122.106 Y194.049 E20.67762
G1 X121.739 Y194.342 E20.69324
G1 X120.822 Y195.056 E20.73189
G1 X120.207 Y195.521 E20.75754
G1 X119.773 Y195.804 E20.77477
G1 X119.207 Y196.119 E20.79631
G1 X118.202 Y196.662 E20.83431
G1 X117.582 Y196.987 E20.85759
G1 X117.06 Y197.213 E20.87651
G1 X116.524 Y197.406 E20.89546
G1 X115.367 Y197.803 E20.93614
G1 X114.721 Y198.013 E20.95873
G1 X114.229 Y198.137 E20.97561
G1 X113.674 Y198.238 E20.99437
G1 X112.435 Y198.446 E21.03616
G1 X111.738 Y198.551 E21.0596
G1 X111.164 Y198.594 E21.07875
G1 X110.632 Y198.6 E21.09644
G1 X109.437 Y198.6 E21.13619
G1 X108.72 Y198.589 E21.16004
G1 X108.207 Y198.545 E21.17716
G1 X107.628 Y198.457 E21.19664
G1 X106.433 Y198.257 E21.23694
G1 X105.752 Y198.133 E21.25996
G1 X105.253 Y198.006 E21.27709
G1 X105.158 Y197.977 E21.28039
G1 X104.595 Y197.79 E21.30012
G1 X103.547 Y197.429 E21.33699
G1 X102.88 Y197.189 E21.36057
G1 X102.329 Y196.942 E21.38065
G1 X101.806 Y196.667 E21.4003
G1 X100.824 Y196.136 E21.43743
G1 X100.194 Y195.783 E21.46145
G1 X99.755 Y195.494 E21.47893
G1 X99.29 Y195.141 E21.49835
G1 X98.309 Y194.378 E21.53969
G1 X97.793 Y193.963 E21.56171
G1 X97.408 Y193.609 E21.57911
G1 X96.999 Y193.176 E21.59892
G1 X96.192 Y192.3 E21.63853
G1 X95.714 Y191.765 E21.66239
G1 X95.402 Y191.363 E21.67932
G1 X95.075 Y190.878 E21.69877
G1 X94.415 Y189.867 E21.73893
G1 X94.034 Y189.265 E21.76263
G1 X93.788 Y188.812 E21.77977
G1 X93.542 Y188.273 E21.79948
G1 X93.063 Y187.181 E21.83914
G1 X92.781 Y186.513 E21.86326
G1 X92.614 Y186.025 E21.88041
G1 X92.46 Y185.451 E21.90018
G1 X92.167 Y184.292 E21.93994
G1 X92.002 Y183.604 E21.96347
G1 X91.915 Y183.079 E21.98117
G1 X91.857 Y182.48 E22.00119
G1 X91.763 Y181.337 E22.03933
G1 X91.709 Y180.558 E22.0653
G1 X91.7 Y180.354 E22.07209
G1 X91.692 Y179.71 E22.09352
G1 X91.692 Y25.62 E27.21857
G1 X91.702 Y24.955 E27.24069
G1 X91.75 Y24.421 E27.25852
G1 X91.877 Y23.9 E27.27636
G0 F3000 X92.276 Y23.968
G1 F1200 X92.478 Y23.504 E27.29319
G1 X92.75 Y23.078 E27.31
G1 X93.086 Y22.701 E27.3268
G1 X93.477 Y22.38 E27.34362
G1 X93.914 Y22.126 E27.36043
G1 X94.385 Y21.943 E27.37724
G1 X94.88 Y21.837 E27.39408
G1 X95.532 Y21.801 E27.4158
G1 X124.047 Y21.8 E28.36421
G1 X124.745 Y21.81 E28.38743
G1 X125.248 Y21.857 E28.40423
G1 X125.738 Y21.983 E28.42106
G1 X126.202 Y22.185 E28.43789
G1 X126.628 Y22.457 E28.4547
G1 X127.006 Y22.792 E28.4715
G1 X127.326 Y23.183 E28.4883
G1 X127.581 Y23.62 E28.50513
G1 X127.764 Y24.091 E28.52194
G1 X127.871 Y24.585 E28.53875
G1 X127.907 Y25.24 E28.56057
G1 X127.908 Y179.686 E33.69746
G1 X127.896 Y180.439 E33.72251
G1 X127.888 Y180.609 E33.72817
G1 X127.842 Y181.273 E33.75031
G1 X127.753 Y182.337 E33.78582
G1 X127.677 Y183.097 E33.81123
G1 X127.578 Y183.653 E33.83001
G1 X127.478 Y184.068 E33.84421
G1 X127.172 Y185.276 E33.88565
G1 X126.995 Y185.933 E33.90829
G1 X126.814 Y186.451 E33.92654
G1 X126.6 Y186.954 E33.94472
G1 X126.151 Y187.976 E33.98184
G1 X125.833 Y188.673 E34.00733
G1 X125.626 Y189.056 E34.02181
G1 X125.255 Y189.642 E34.04487
G1 X124.659 Y190.553 E34.08108
G1 X124.257 Y191.15 E34.10502
G1 X123.912 Y191.587 E34.12354
G1 X123.521 Y192.02 E34.14294
G1 X122.775 Y192.83 E34.17957
G1 X122.28 Y193.353 E34.20352
G1 X121.856 Y193.736 E34.22252
G1 X121.493 Y194.026 E34.23798
G1 X120.54 Y194.768 E34.27815
G1 X119.966 Y195.202 E34.30208
G1 X119.508 Y195.495 E34.32017
G1 X119.017 Y195.767 E34.33884
G1 X118.017 Y196.308 E34.37665
G1 X117.397 Y196.633 E34.39993
G1 X116.918 Y196.839 E34.41728
G1 X116.394 Y197.028 E34.4358
G1 X115.243 Y197.422 E34.47627
G1 X114.597 Y197.632 E34.49886
G1 X114.037 Y197.768 E34.51803
G1 X113.573 Y197.85 E34.5337
G1 X112.376 Y198.05 E34.57406
G1 X111.679 Y198.155 E34.59751
G1 X111.159 Y198.194 E34.61485
G1 X110.627 Y198.2 E34.63255
G1 X109.443 Y198.2 E34.67193
G1 X108.726 Y198.189 E34.69578
G1 X108.189 Y198.139 E34.71371
G1 X107.694 Y198.062 E34.73038
G1 X106.505 Y197.863 E34.77047
G1 X105.824 Y197.739 E34.79349
G1 X105.284 Y197.597 E34.81207
G1 X104.725 Y197.412 E34.83165
G1 X103.683 Y197.053 E34.86831
G1 X103.016 Y196.813 E34.89188
G1 X102.515 Y196.588 E34.91015
G1 X101.996 Y196.315 E34.92965
G1 X101.02 Y195.787 E34.96656
G1 X100.39 Y195.434 E34.99058
G1 X99.934 Y195.129 E35.00883
G1 X99.535 Y194.826 E35.02549
G1 X98.559 Y194.067 E35.06661
G1 X98.043 Y193.652 E35.08864
G1 X97.628 Y193.26 E35.10762
G1 X97.293 Y192.906 E35.12384
G1 X96.491 Y192.033 E35.16326
G1 X96.013 Y191.498 E35.18713
G1 X95.679 Y191.061 E35.20542
G1 X95.387 Y190.624 E35.2229
G1 X94.753 Y189.653 E35.26147
G1 X94.372 Y189.051 E35.28517
G1 X94.104 Y188.545 E35.30421
G1 X93.89 Y188.072 E35.32148
G1 X93.432 Y187.026 E35.35946
G1 X93.15 Y186.358 E35.38357
G1 X92.978 Y185.84 E35.40173
G1 X92.836 Y185.309 E35.42001
G1 X92.556 Y184.198 E35.45812
G1 X92.391 Y183.51 E35.48165
G1 X92.303 Y182.948 E35.50057
G1 X92.256 Y182.447 E35.5173
G1 X92.162 Y181.309 E35.55528
G1 X92.108 Y180.53 E35.58126
G1 X92.1 Y180.349 E35.58728
G1 X92.092 Y179.705 E35.6087
G1 X92.092 Y25.626 E40.73339
G1 X92.102 Y24.961 E40.75551
G1 X92.15 Y24.458 E40.77232
G1 X92.276 Y23.968 E40.78914
G1 F1800 E33.78914
G1 F300 Z0.4
;MESH:lamp.hanger.console.long.intermediate.amf
G0 F3000 X108.184 Y39.742 Z0.4
;TYPE:WALL-INNER
G1 F300 Z0.2
G1 F1800 E40.78914
G1 F1200 X108.335 Y39.791 E40.79443
G1 X109.432 Y40.061 E40.832
G1 X110.565 Y40.061 E40.86968
G1 X110.724 Y40.047 E40.87499
G1 X111.84 Y39.769 E40.91325
G1 X112.829 Y39.252 E40.95036
G1 X112.967 Y39.174 E40.95564
G1 X113.833 Y38.404 E40.99418
G1 X113.927 Y38.278 E40.99941
G1 X114.565 Y37.353 E41.03678
G1 X114.626 Y37.183 E41.04279
G1 X114.996 Y36.204 E41.0776
G1 X115.141 Y35 E41.11793
G1 X114.996 Y33.796 E41.15827
G1 X114.625 Y32.819 E41.19303
G1 X114.571 Y32.653 E41.19883
G1 X113.842 Y31.601 E41.2414
G1 X112.972 Y30.834 E41.27998
G1 X112.839 Y30.752 E41.28517
G1 X111.84 Y30.231 E41.32265
G1 X110.732 Y29.957 E41.36061
G1 X110.575 Y29.938 E41.36587
G1 X109.432 Y29.939 E41.40389
G1 X108.342 Y30.208 E41.44123
G1 X108.19 Y30.254 E41.44651
G1 X107.161 Y30.796 E41.48519
G1 X106.213 Y31.634 E41.52728
G1 X105.557 Y32.588 E41.56578
G1 X105.491 Y32.731 E41.57102
G1 X105.091 Y33.788 E41.60861
G1 X104.953 Y34.918 E41.64647
G1 X104.952 Y35.076 E41.65173
G1 X105.091 Y36.213 E41.68983
G1 X105.489 Y37.26 E41.72708
G1 X105.551 Y37.406 E41.73236
G1 X106.211 Y38.36 E41.77094
G1 X106.327 Y38.467 E41.77619
G1 X107.161 Y39.205 E41.81323
G1 X108.184 Y39.742 E41.85166
G0 F3000 X108.34 Y39.372
;TYPE:WALL-OUTER
G1 F1200 X108.445 Y39.406 E41.85533
G1 X109.481 Y39.661 E41.89081
G1 X110.547 Y39.661 E41.92627
G1 X110.657 Y39.651 E41.92994
G1 X111.697 Y39.392 E41.96559
G1 X112.638 Y38.901 E42.00089
G1 X112.733 Y38.847 E42.00453
G1 X113.537 Y38.132 E42.04031
G1 X113.602 Y38.045 E42.04392
G1 X114.206 Y37.168 E42.07934
G1 X114.252 Y37.041 E42.08384
G1 X114.605 Y36.108 E42.11701
G1 X114.738 Y35 E42.15413
G1 X114.605 Y33.892 E42.19125
G1 X114.251 Y32.961 E42.22438
G1 X114.209 Y32.833 E42.22886
G1 X113.541 Y31.869 E42.26786
G1 X112.734 Y31.157 E42.30366
G1 X112.642 Y31.101 E42.30724
G1 X111.697 Y30.608 E42.34269
G1 X110.66 Y30.351 E42.37823
G1 X110.551 Y30.338 E42.38188
G1 X109.481 Y30.339 E42.41747
G1 X108.448 Y30.594 E42.45285
G1 X108.343 Y30.626 E42.45651
G1 X107.39 Y31.128 E42.49233
G1 X106.515 Y31.901 E42.53116
G1 X105.906 Y32.787 E42.56692
G1 X105.86 Y32.886 E42.57055
G1 X105.482 Y33.884 E42.60605
G1 X105.353 Y34.944 E42.64156
G1 X105.352 Y35.053 E42.64519
G1 X105.482 Y36.116 E42.68081
G1 X105.86 Y37.111 E42.71621
G1 X105.903 Y37.212 E42.71986
G1 X106.515 Y38.096 E42.75562
G1 X106.595 Y38.17 E42.75925
G1 X107.39 Y38.873 E42.79454
G1 X108.34 Y39.372 E42.83023
G0 F3000 X108.445 Y39.406
G0 X108.532 Y39.427
G0 X108.426 Y39.854
G1 F1800 E35.83023
G1 F300 Z0.4
G0 F3000 X108.388 Y40.009 Z0.4
G0 X108.798 Y183.369
;TYPE:WALL-INNER
G1 F300 Z0.2
G1 F1800 E42.83023
G1 F1200 X108.948 Y183.416 E42.83546
G1 X109.61 Y183.579 E42.85814
G1 X110.306 Y183.579 E42.88129
G1 X110.463 Y183.562 E42.88654
G1 X111.146 Y183.394 E42.90993
G1 X111.75 Y183.079 E42.93259
G1 X111.885 Y182.997 E42.93784
G1 X112.423 Y182.522 E42.96171
G1 X112.901 Y181.835 E42.98955
G1 X112.945 Y181.699 E42.9943
G1 X113.168 Y181.112 E43.01519
G1 X113.248 Y180.459 E43.03707
G1 X113.247 Y180.222 E43.04495
G1 X113.168 Y179.573 E43.0667
G1 X112.948 Y178.991 E43.08739
G1 X112.896 Y178.844 E43.09258
G1 X112.511 Y178.286 E43.11513
G1 X112.418 Y178.158 E43.12039
G1 X111.882 Y177.683 E43.14421
G1 X111.745 Y177.604 E43.14947
G1 X111.148 Y177.29 E43.1719
G1 X110.456 Y177.119 E43.19561
G1 X110.299 Y177.106 E43.20085
G1 X109.611 Y177.105 E43.22374
G1 X108.943 Y177.269 E43.24661
G1 X108.795 Y177.318 E43.2518
G1 X108.16 Y177.649 E43.27562
G1 X107.547 Y178.197 E43.30296
G1 X107.136 Y178.789 E43.32693
G1 X107.074 Y178.934 E43.33218
G1 X106.833 Y179.567 E43.35471
G1 X106.748 Y180.266 E43.37813
G1 X106.749 Y180.423 E43.38335
G1 X106.833 Y181.116 E43.40657
G1 X107.075 Y181.755 E43.42929
G1 X107.141 Y181.898 E43.43453
G1 X107.546 Y182.487 E43.45831
G1 X108.16 Y183.034 E43.48566
G1 X108.798 Y183.369 E43.50962
G0 F3000 X108.951 Y182.998
;TYPE:WALL-OUTER
G1 F1200 X109.055 Y183.03 E43.51324
G1 X109.659 Y183.179 E43.53393
G1 X110.284 Y183.179 E43.55472
G1 X110.393 Y183.167 E43.55837
G1 X111.004 Y183.017 E43.57929
G1 X111.553 Y182.73 E43.5999
G1 X111.647 Y182.673 E43.60355
G1 X112.122 Y182.254 E43.62462
G1 X112.539 Y181.655 E43.6489
G1 X112.571 Y181.557 E43.65233
G1 X112.777 Y181.015 E43.67161
G1 X112.848 Y180.436 E43.69101
G1 X112.847 Y180.247 E43.6973
G1 X112.777 Y179.669 E43.71666
G1 X112.574 Y179.132 E43.73576
G1 X112.537 Y179.028 E43.73943
G1 X112.185 Y178.518 E43.76004
G1 X112.12 Y178.429 E43.76371
G1 X111.647 Y178.009 E43.78474
G1 X111.552 Y177.954 E43.7884
G1 X111.005 Y177.667 E43.80894
G1 X110.391 Y177.515 E43.82998
G1 X110.282 Y177.506 E43.83362
G1 X109.659 Y177.505 E43.85434
G1 X109.054 Y177.654 E43.87506
G1 X108.951 Y177.688 E43.87867
G1 X108.389 Y177.981 E43.89975
G1 X107.849 Y178.464 E43.92385
G1 X107.488 Y178.984 E43.9449
G1 X107.445 Y179.084 E43.94852
G1 X107.224 Y179.664 E43.96916
