;FLAVOR:Marlin
;TIME:5643
;Filament used: 3.60522m
;Layer height: 0.2
;MINX:91.007
;MINY:69.734
;MINZ:0.2
;MAXX:128.993
;MAXY:150.289
;MAXZ:32.2
;Generated with Cura_SteamEngine master
M82 ;absolute extrusion mode
;Sliced at: Sat 09-07-2022 12:30:46
;Basic settings: Layer height: 0.2 Walls: 0.8 Fill: 30
G21 ;metric values
G90 ;absolute positioning
M82 ;set extruder to absolute mode
M107 ;start with the fan off
M117 Start heating ...
M104 S200
M117 Homing X/Y ...
G28 X0 Y0 ;move X/Y to min endstops
M117 Homing Z ...
G28 Z0 ;move Z to min endstops
G1 Z15.0 F100 ;move the platform down 15mm
M117 Heating ...
M109 S200
M117 Start cleaning ...
G92 E0 ;zero the extruded length
G1 F200 E10 ;extrude 10mm of feed stock
G92 E0 ;zero the extruded length again
M117 Intro line ...
G1 Z2.0 F3000 ; Move Z Axis up little to prevent scratching of Heat Bed
G1 X0.1 Y20 Z0.2 F5000.0 ; Move to start position
G1 X0.1 Y200.0 Z0.2 F1500.0 E15 ; Draw the first line
G1 X0.4 Y200.0 Z0.2 F5000.0 ; Move to side a little
G1 X0.4 Y20 Z0.3 F1500.0 E30 ; Draw the second line
G92 E0 ; Reset Extruder
G1 E-1 F500 ; Retract filiment by 1 mm
G1 Z2.0 F3000 ; Move Z Axis up little to prevent scratching of Heat Bed
G1 X5 Y20 Z0.3 F100 ; Move over to prevent blob squish
G1 F100
G92 E0 ; Reset Extruder
M117 Printing...

G92 E0
G92 E0
G1 F1800 E-7
;LAYER_COUNT:161
;LAYER:0
M107
G1 F300 Z0.4
G0 F3000 X95.01 Y77.197 Z0.4
;TYPE:SKIRT
G1 F300 Z0.2
G1 F1800 E0
G1 F1200 X95.255 Y76.901 E0.01278
G1 X95.998 Y76.032 E0.05081
G1 X96.498 Y75.462 E0.07603
G1 X96.922 Y75.04 E0.09592
G1 X97.346 Y74.668 E0.11468
G1 X98.147 Y73.985 E0.14969
G1 X98.709 Y73.52 E0.17396
G1 X99.124 Y73.211 E0.19116
G1 X99.54 Y72.941 E0.20766
G1 X100.605 Y72.289 E0.24919
G1 X101.246 Y71.909 E0.27398
G1 X101.702 Y71.677 E0.29099
G1 X102.467 Y71.348 E0.31869
G1 X103.32 Y70.995 E0.3494
G1 X103.841 Y70.788 E0.36804
G1 X104.399 Y70.602 E0.3876
G1 X105.52 Y70.311 E0.42612
G1 X106.145 Y70.161 E0.4475
G1 X106.819 Y70.009 E0.47048
G1 X107.4 Y69.917 E0.49005
G1 X108.15 Y69.848 E0.5151
G1 X109.026 Y69.78 E0.54432
G1 X109.755 Y69.735 E0.56861
G1 X110.306 Y69.734 E0.58694
G1 X111.301 Y69.794 E0.6201
G1 X112.072 Y69.855 E0.64582
G1 X112.744 Y69.918 E0.66827
G1 X113.256 Y69.997 E0.6855
G1 X113.636 Y70.077 E0.69841
G1 X114.931 Y70.387 E0.7427
G1 X115.497 Y70.532 E0.76214
G1 X115.98 Y70.68 E0.77894
G1 X116.223 Y70.767 E0.78752
G1 X117.033 Y71.087 E0.81649
G1 X117.734 Y71.377 E0.84172
G1 X118.436 Y71.681 E0.86717
G1 X119.113 Y72.04 E0.89265
G1 X119.218 Y72.102 E0.89671
G1 X120.303 Y72.766 E0.93902
G1 X120.955 Y73.179 E0.96469
G1 X121.399 Y73.502 E0.98295
G1 X121.981 Y73.983 E1.00806
G1 X122.708 Y74.605 E1.03988
G1 X123.256 Y75.088 E1.06418
G1 X123.681 Y75.518 E1.08429
G1 X124.042 Y75.929 E1.10248
G1 X124.755 Y76.764 E1.139
G1 X125.206 Y77.307 E1.16248
G1 X125.565 Y77.807 E1.18295
G1 X125.862 Y78.276 E1.20142
G1 X126.407 Y79.168 E1.23618
G1 X126.676 Y79.625 E1.25382
G1 X127.087 Y80.411 E1.28332
G1 X127.356 Y81.039 E1.30604
G1 X127.687 Y81.839 E1.33484
G1 X128.008 Y82.65 E1.36385
G1 X128.135 Y83.055 E1.37797
G1 X128.314 Y83.757 E1.40206
G1 X128.526 Y84.645 E1.43243
G1 X128.685 Y85.354 E1.45659
G1 X128.763 Y85.836 E1.47283
G1 X128.881 Y87.045 E1.51324
G1 X128.929 Y87.667 E1.53399
G1 X128.983 Y88.531 E1.56278
G1 X128.993 Y89.166 E1.5839
G1 X128.993 Y145.603 E3.461
G1 X128.984 Y146.33 E3.48519
G1 X128.937 Y146.893 E3.50398
G1 X128.811 Y147.444 E3.52278
G1 X128.609 Y147.972 E3.54158
G1 X128.334 Y148.466 E3.56038
G1 X127.992 Y148.916 E3.57918
G1 X127.59 Y149.314 E3.598
G1 X127.137 Y149.651 E3.61678
G1 X126.64 Y149.921 E3.63559
G1 X126.11 Y150.118 E3.6544
G1 X125.558 Y150.239 E3.67319
G1 X124.775 Y150.287 E3.69928
G1 X124.663 Y150.289 E3.70301
G1 X95.662 Y150.289 E4.66759
G1 X94.964 Y150.28 E4.6908
G1 X94.401 Y150.232 E4.7096
G1 X93.85 Y150.106 E4.7284
G1 X93.322 Y149.904 E4.7472
G1 X92.828 Y149.629 E4.766
G1 X92.378 Y149.287 E4.7848
G1 X91.98 Y148.885 E4.80362
G1 X91.644 Y148.431 E4.8224
G1 X91.374 Y147.934 E4.84121
G1 X91.177 Y147.404 E4.86002
G1 X91.057 Y146.852 E4.87881
G1 X91.008 Y146.055 E4.90537
G1 X91.007 Y89.286 E6.79351
G1 X91.018 Y88.568 E6.8174
G1 X91.05 Y88.123 E6.83223
G1 X91.233 Y86.689 E6.88032
G1 X91.317 Y86.085 E6.9006
G1 X91.347 Y85.902 E6.90677
G1 X91.453 Y85.334 E6.92598
G1 X91.48 Y85.2 E6.93053
G1 X91.63 Y84.53 E6.95337
G1 X91.816 Y83.754 E6.97991
G1 X91.989 Y83.075 E7.00321
G1 X92.141 Y82.596 E7.01993
G1 X92.322 Y82.122 E7.0368
G1 X92.804 Y80.962 E7.07858
G1 X93.05 Y80.388 E7.09935
G1 X93.274 Y79.945 E7.11586
G1 X93.916 Y78.848 E7.15814
G1 X94.188 Y78.405 E7.17543
G1 X94.611 Y77.737 E7.20173
G1 X95.01 Y77.197 E7.22406
G0 F3000 X95.324 Y77.445
G1 F1200 X95.559 Y77.161 E7.23632
G1 X96.299 Y76.296 E7.27418
G1 X96.799 Y75.726 E7.2994
G1 X97.194 Y75.334 E7.31791
G1 X97.571 Y75.002 E7.33462
G1 X98.402 Y74.293 E7.37095
G1 X99.045 Y73.763 E7.39866
G1 X99.654 Y73.342 E7.42329
G1 X99.749 Y73.282 E7.42702
G1 X100.809 Y72.633 E7.46836
G1 X101.45 Y72.253 E7.49315
G1 X101.861 Y72.044 E7.50848
G1 X102.62 Y71.717 E7.53597
G1 X103.468 Y71.366 E7.5665
G1 X103.989 Y71.159 E7.58514
G1 X104.5 Y70.989 E7.60306
G1 X105.614 Y70.7 E7.64133
G1 X106.233 Y70.551 E7.66251
G1 X106.907 Y70.399 E7.68549
G1 X107.437 Y70.315 E7.70334
G1 X108.182 Y70.247 E7.72822
G1 X109.051 Y70.179 E7.75721
G1 X109.661 Y70.14 E7.77754
G1 X110.282 Y70.133 E7.7982
G1 X111.269 Y70.193 E7.83109
G1 X112.035 Y70.254 E7.85664
G1 X112.707 Y70.317 E7.87909
G1 X113.436 Y70.443 E7.9037
G1 X113.543 Y70.466 E7.90734
G1 X114.831 Y70.775 E7.95139
G1 X115.397 Y70.92 E7.97083
G1 X116.076 Y71.139 E7.99456
G1 X116.88 Y71.456 E8.0233
G1 X117.575 Y71.744 E8.04832
G1 X118.277 Y72.048 E8.07377
G1 X118.915 Y72.387 E8.0978
G1 X120.04 Y73.073 E8.14162
G1 X120.741 Y73.517 E8.16922
G1 X121.144 Y73.81 E8.18579
G1 X121.721 Y74.287 E8.21069
G1 X122.443 Y74.905 E8.2423
G1 X122.991 Y75.388 E8.2666
G1 X123.386 Y75.789 E8.28532
G1 X123.737 Y76.189 E8.30302
G1 X124.447 Y77.02 E8.33937
G1 X124.898 Y77.563 E8.36285
G1 X125.232 Y78.028 E8.38189
G1 X125.524 Y78.489 E8.40004
G1 X126.038 Y79.329 E8.43279
G1 X126.325 Y79.818 E8.45165
G1 X126.719 Y80.569 E8.47986
G1 X126.987 Y81.192 E8.50242
G1 X127.316 Y81.987 E8.53103
G1 X127.591 Y82.678 E8.55577
G1 X127.747 Y83.154 E8.57243
G1 X127.925 Y83.851 E8.59636
G1 X128.136 Y84.732 E8.62649
G1 X128.295 Y85.441 E8.65065
G1 X128.365 Y85.875 E8.66528
G1 X128.476 Y86.999 E8.70284
G1 X128.53 Y87.692 E8.72596
G1 X128.578 Y88.439 E8.75086
G1 X128.593 Y89.17 E8.77518
G1 X128.593 Y145.598 E10.65198
G1 X128.584 Y146.325 E10.67616
G1 X128.537 Y146.859 E10.69399
G1 X128.412 Y147.38 E10.71181
G1 X128.21 Y147.877 E10.72965
G1 X127.937 Y148.339 E10.7475
G1 X127.599 Y148.755 E10.76533
G1 X127.202 Y149.116 E10.78318
G1 X126.756 Y149.414 E10.80102
G1 X126.271 Y149.642 E10.81884
G1 X125.757 Y149.796 E10.83669
G1 X125.085 Y149.879 E10.85921
G1 X124.663 Y149.889 E10.87325
G1 X95.668 Y149.889 E11.83763
G1 X94.97 Y149.88 E11.86084
G1 X94.435 Y149.833 E11.87871
G1 X93.914 Y149.707 E11.89654
G1 X93.417 Y149.505 E11.91438
G1 X92.956 Y149.232 E11.9322
G1 X92.54 Y148.893 E11.95005
G1 X92.179 Y148.497 E11.96787
G1 X91.881 Y148.051 E11.98571
G1 X91.653 Y147.565 E12.00357
G1 X91.5 Y147.051 E12.0214
G1 X91.417 Y146.377 E12.04399
G1 X91.407 Y145.947 E12.05829
G1 X91.407 Y89.292 E13.94265
G1 X91.418 Y88.574 E13.96653
G1 X91.447 Y88.174 E13.97987
G1 X91.629 Y86.744 E14.02782
G1 X91.713 Y86.14 E14.0481
G1 X91.74 Y85.976 E14.05363
G1 X91.846 Y85.408 E14.07284
G1 X91.871 Y85.286 E14.07699
G1 X92.019 Y84.623 E14.09958
G1 X92.203 Y83.853 E14.12591
G1 X92.376 Y83.174 E14.14922
G1 X92.647 Y82.389 E14.17684
G1 X92.692 Y82.276 E14.18088
G1 X93.172 Y81.12 E14.22252
G1 X93.418 Y80.546 E14.24329
G1 X93.619 Y80.147 E14.25815
G1 X94.258 Y79.056 E14.3002
G1 X94.526 Y78.619 E14.31725
G1 X94.949 Y77.951 E14.34355
G1 X95.324 Y77.445 E14.36449
G0 F3000 X95.637 Y77.693
G1 F1200 X95.864 Y77.421 E14.37628
G1 X96.599 Y76.56 E14.41393
G1 X97.099 Y75.99 E14.43915
G1 X97.465 Y75.628 E14.45627
G1 X97.865 Y75.276 E14.47399
G1 X98.657 Y74.602 E14.50858
G1 X99.291 Y74.078 E14.53594
G1 X99.874 Y73.676 E14.55949
G1 X101.013 Y72.977 E14.60394
G1 X101.654 Y72.597 E14.62872
G1 X102.019 Y72.412 E14.64233
G1 X102.773 Y72.087 E14.66964
G1 X103.615 Y71.738 E14.69996
G1 X104.136 Y71.531 E14.7186
G1 X104.601 Y71.377 E14.7349
G1 X105.707 Y71.089 E14.77291
G1 X106.321 Y70.941 E14.79392
G1 X106.995 Y70.789 E14.8169
G1 X107.474 Y70.713 E14.83303
G1 X108.213 Y70.646 E14.85771
G1 X109.077 Y70.579 E14.88653
G1 X109.782 Y70.535 E14.91002
G1 X110.258 Y70.533 E14.92586
G1 X111.238 Y70.592 E14.95851
G1 X111.998 Y70.652 E14.98387
G1 X112.67 Y70.715 E15.00632
G1 X113.355 Y70.834 E15.02944
G1 X114.732 Y71.162 E15.07652
G1 X115.298 Y71.307 E15.09595
G1 X115.929 Y71.511 E15.11801
G1 X116.727 Y71.826 E15.14654
G1 X117.416 Y72.112 E15.17136
G1 X118.118 Y72.416 E15.1968
G1 X118.717 Y72.735 E15.21937
G1 X118.801 Y72.784 E15.22261
G1 X119.875 Y73.442 E15.2645
G1 X120.527 Y73.855 E15.29017
G1 X120.889 Y74.118 E15.30505
G1 X121.461 Y74.591 E15.32974
G1 X122.179 Y75.205 E15.36116
G1 X122.727 Y75.688 E15.38546
G1 X123.091 Y76.059 E15.40274
G1 X123.433 Y76.449 E15.42
G1 X124.14 Y77.275 E15.45616
G1 X124.591 Y77.818 E15.47964
G1 X124.899 Y78.25 E15.49728
G1 X125.185 Y78.702 E15.51507
G1 X125.719 Y79.576 E15.54914
G1 X125.975 Y80.01 E15.5659
G1 X126.352 Y80.727 E15.59284
G1 X126.617 Y81.345 E15.6152
G1 X126.944 Y82.135 E15.64364
G1 X127.256 Y82.922 E15.6718
G1 X127.359 Y83.253 E15.68333
G1 X127.536 Y83.944 E15.70705
G1 X127.745 Y84.82 E15.73701
G1 X127.904 Y85.529 E15.76118
G1 X127.967 Y85.915 E15.77418
G1 X128.084 Y87.107 E15.81402
G1 X128.13 Y87.718 E15.8344
G1 X128.183 Y88.559 E15.86243
G1 X128.193 Y89.173 E15.88285
G1 X128.193 Y145.593 E17.75939
G1 X128.184 Y146.32 E17.78357
G1 X128.138 Y146.823 E17.80037
G1 X128.013 Y147.313 E17.81719
G1 X127.812 Y147.777 E17.83401
G1 X127.541 Y148.204 E17.85083
G1 X127.206 Y148.583 E17.86765
G1 X126.816 Y148.904 E17.88445
G1 X126.38 Y149.16 E17.90127
G1 X125.909 Y149.343 E17.91808
G1 X125.415 Y149.451 E17.93489
G1 X124.753 Y149.488 E17.95695
G1 X95.673 Y149.489 E18.92415
G1 X94.975 Y149.48 E18.94737
G1 X94.471 Y149.433 E18.9642
G1 X93.981 Y149.308 E18.98102
G1 X93.517 Y149.107 E18.99784
G1 X93.091 Y148.836 E19.01464
G1 X92.712 Y148.501 E19.03146
G1 X92.391 Y148.11 E19.04829
G1 X92.136 Y147.674 E19.06508
G1 X91.952 Y147.203 E19.0819
G1 X91.845 Y146.709 E19.09871
G1 X91.808 Y146.033 E19.12123
G1 X91.807 Y89.298 E21.00825
G1 X91.818 Y88.58 E21.03213
G1 X91.844 Y88.224 E21.044
G1 X92.026 Y86.799 E21.09178
G1 X92.11 Y86.195 E21.11206
G1 X92.133 Y86.049 E21.11698
G1 X92.239 Y85.481 E21.1362
G1 X92.261 Y85.373 E21.13986
G1 X92.408 Y84.716 E21.16226
G1 X92.591 Y83.952 E21.18839
G1 X92.764 Y83.273 E21.21169
G1 X93.021 Y82.53 E21.23784
G1 X93.061 Y82.429 E21.24145
G1 X93.54 Y81.277 E21.28295
G1 X93.786 Y80.703 E21.30372
G1 X93.965 Y80.348 E21.31694
G1 X94.599 Y79.265 E21.35868
G1 X94.863 Y78.833 E21.37552
G1 X95.286 Y78.165 E21.40182
G1 X95.637 Y77.693 E21.42138
G1 F1800 E14.42138
G1 F300 Z0.4
;MESH:lamp.hanger.core.front.screw.head.amf
G0 F3000 X95.907 Y115.29 Z0.4
;TYPE:WALL-INNER
G1 F300 Z0.2
G1 F1800 E21.42138
G1 F1200 X95.907 Y145.49 E22.42584
G1 X98.093 Y145.49 E22.49855
G1 X98.093 Y143.49 E22.56507
G1 X99.443 Y143.49 E22.60997
G1 X99.443 Y138.89 E22.76296
G1 X98.093 Y138.89 E22.80786
G1 X98.093 Y138.09 E22.83447
G1 X101.893 Y138.09 E22.96086
G1 X101.893 Y143.89 E23.15377
G1 X118.093 Y143.89 E23.69258
G1 X118.093 Y138.09 E23.88549
G1 X121.893 Y138.09 E24.01188
G1 X121.893 Y138.89 E24.03849
G1 X120.543 Y138.89 E24.08339
G1 X120.543 Y143.49 E24.23639
G1 X121.893 Y143.49 E24.28129
G1 X121.893 Y145.49 E24.34781
G1 X124.093 Y145.49 E24.42098
G1 X124.093 Y115.29 E25.42544
G1 X119.893 Y115.29 E25.56513
G1 X119.893 Y115.79 E25.58176
G1 X100.107 Y115.79 E26.23985
G1 X100.107 Y115.29 E26.25648
G1 X95.907 Y115.29 E26.39617
G0 F3000 X96.307 Y115.69
;TYPE:WALL-OUTER
G1 F1200 X96.307 Y145.09 E27.37402
G1 X97.693 Y145.09 E27.42011
G1 X97.693 Y143.09 E27.48663
G1 X99.043 Y143.09 E27.53154
G1 X99.043 Y139.29 E27.65792
G1 X97.693 Y139.29 E27.70283
G1 X97.693 Y137.69 E27.75604
G1 X102.293 Y137.69 E27.90904
G1 X102.293 Y143.49 E28.10195
G1 X117.693 Y143.49 E28.61415
G1 X117.693 Y137.69 E28.80706
G1 X122.293 Y137.69 E28.96006
G1 X122.293 Y139.29 E29.01327
G1 X120.943 Y139.29 E29.05818
G1 X120.943 Y143.09 E29.18456
G1 X122.293 Y143.09 E29.22947
G1 X122.293 Y145.09 E29.29599
G1 X123.693 Y145.09 E29.34255
G1 X123.693 Y115.69 E30.3204
G1 X120.293 Y115.69 E30.43348
G1 X120.293 Y116.19 E30.45011
G1 X99.707 Y116.19 E31.13481
G1 X99.707 Y115.69 E31.15144
G1 X96.307 Y115.69 E31.26452
G0 F3000 X96.307 Y115.89
G0 X95.867 Y115.89
G1 F1800 E24.26452
G1 F300 Z0.4
G0 F3000 X95.807 Y115.89 Z0.4
G0 X109.711 Y91.878
;TYPE:WALL-INNER
G1 F300 Z0.2
G1 F1800 E31.26452
G1 F1200 X110.422 Y91.879 E31.28817
G1 X110.572 Y91.847 E31.29327
G1 X111.226 Y91.687 E31.31566
G1 X111.842 Y91.363 E31.33881
G1 X111.97 Y91.279 E31.3439
G1 X112.496 Y90.812 E31.3673
G1 X112.894 Y90.238 E31.39053
G1 X113.008 Y90.001 E31.39928
G1 X113.234 Y89.405 E31.42048
G1 X113.314 Y88.752 E31.44236
G1 X113.313 Y88.525 E31.44991
G1 X113.234 Y87.877 E31.47162
G1 X113.012 Y87.289 E31.49253
G1 X112.965 Y87.151 E31.49738
G1 X112.497 Y86.469 E31.52489
G1 X111.966 Y85.998 E31.54849
G1 X111.839 Y85.916 E31.55352
G1 X111.227 Y85.593 E31.57654
G1 X110.568 Y85.431 E31.59911
G1 X110.418 Y85.402 E31.60419
G1 X109.707 Y85.401 E31.62784
G1 X109.557 Y85.433 E31.63294
G1 X108.903 Y85.593 E31.65533
G1 X108.285 Y85.918 E31.67856
G1 X108.16 Y86.003 E31.68358
G1 X107.632 Y86.467 E31.70696
G1 X107.234 Y87.044 E31.73028
G1 X107.121 Y87.279 E31.73895
G1 X106.895 Y87.876 E31.76018
G1 X106.815 Y88.528 E31.78203
G1 X106.816 Y88.755 E31.78958
G1 X106.895 Y89.404 E31.81133
G1 X107.115 Y89.986 E31.83202
G1 X107.164 Y90.13 E31.83708
G1 X107.631 Y90.811 E31.86454
G1 X108.163 Y91.283 E31.8882
G1 X108.29 Y91.365 E31.89323
G1 X108.902 Y91.687 E31.91623
G1 X109.561 Y91.849 E31.9388
G1 X109.711 Y91.878 E31.94388
G0 F3000 X109.75 Y91.478
;TYPE:WALL-OUTER
G1 F1200 X110.38 Y91.479 E31.96483
G1 X110.483 Y91.457 E31.96834
G1 X111.083 Y91.31 E31.98888
G1 X111.638 Y91.019 E32.00972
G1 X111.725 Y90.961 E32.0132
G1 X112.195 Y90.545 E32.03408
G1 X112.547 Y90.036 E32.05466
G1 X112.64 Y89.843 E32.06179
G1 X112.843 Y89.308 E32.08082
G1 X112.914 Y88.729 E32.10022
G1 X112.913 Y88.55 E32.10618
G1 X112.843 Y87.973 E32.12551
G1 X112.638 Y87.431 E32.14478
G1 X112.604 Y87.332 E32.14826
G1 X112.195 Y86.736 E32.1723
G1 X111.724 Y86.318 E32.19325
G1 X111.637 Y86.262 E32.19669
G1 X111.084 Y85.97 E32.21749
G1 X110.482 Y85.822 E32.23811
G1 X110.379 Y85.802 E32.2416
G1 X109.749 Y85.801 E32.26255
G1 X109.646 Y85.823 E32.26605
G1 X109.046 Y85.97 E32.2866
G1 X108.491 Y86.262 E32.30746
G1 X108.405 Y86.32 E32.31091
G1 X107.933 Y86.735 E32.33181
G1 X107.581 Y87.245 E32.35242
G1 X107.489 Y87.437 E32.35951
G1 X107.286 Y87.973 E32.37857
G1 X107.215 Y88.551 E32.39794
G1 X107.216 Y88.73 E32.40389
G1 X107.286 Y89.308 E32.42326
G1 X107.489 Y89.844 E32.44232
G1 X107.525 Y89.949 E32.44601
G1 X107.933 Y90.544 E32.47001
G1 X108.405 Y90.963 E32.491
G1 X108.492 Y91.019 E32.49444
G1 X109.045 Y91.31 E32.51522
G1 X109.647 Y91.458 E32.53584
G1 X109.75 Y91.478 E32.53933
G0 F3000 X109.95 Y91.478
G0 X109.949 Y91.918
G1 F1800 E25.53933
G1 F300 Z0.4
G0 F3000 X109.949 Y92.078 Z0.4
G0 X95.607 Y89.24
;TYPE:WALL-INNER
G1 F300 Z0.2
G1 F1800 E32.53933
G1 F1200 X95.69 Y89.24 E32.54209
G1 X95.914 Y86.397 E32.63694
G1 X96.434 Y84.223 E32.71129
G1 X97.299 Y82.133 E32.78652
G1 X98.463 Y80.231 E32.86069
G1 X99.926 Y78.515 E32.93569
G1 X101.641 Y77.051 E33.01069
G1 X101.655 Y77.04 E33.01128
G1 X103.566 Y75.871 E33.08579
G1 X105.653 Y75.008 E33.16091
G1 X107.838 Y74.486 E33.23562
G1 X110.081 Y74.312 E33.31045
G1 X112.29 Y74.485 E33.38415
G1 X114.475 Y75.007 E33.45887
G1 X116.559 Y75.869 E33.53388
G1 X118.473 Y77.039 E33.60849
G1 X120.193 Y78.506 E33.68368
G1 X121.652 Y80.212 E33.75834
G1 X121.665 Y80.23 E33.75908
G1 X122.829 Y82.132 E33.83324
