;FLAVOR:Marlin
;TIME:5661
;Filament used: 3.92768m
;Layer height: 0.2
;MINX:91.292
;MINY:39.813
;MINZ:0.2
;MAXX:128.708
;MAXY:180.169
;MAXZ:5.8
;Generated with Cura_SteamEngine master
M82 ;absolute extrusion mode
;Sliced at: Wed 04-05-2022 23:01:47
;Basic settings: Layer height: 0.2 Walls: 0.8 Fill: 20
G21 ;metric values
G90 ;absolute positioning
M82 ;set extruder to absolute mode
M107 ;start with the fan off
M117 Start heating ...
M104 S200
M117 Homing X/Y ...
G28 X0 Y0 ;move X/Y to min endstops
M117 Homing Z ...
G28 Z0 ;move Z to min endstops
G1 Z15.0 F100 ;move the platform down 15mm
M117 Heating ...
M109 S200
M117 Start cleaning ...
G92 E0 ;zero the extruded length
G1 F200 E10 ;extrude 10mm of feed stock
G92 E0 ;zero the extruded length again
M117 Intro line ...
G1 Z2.0 F3000 ; Move Z Axis up little to prevent scratching of Heat Bed
G1 X0.1 Y20 Z0.2 F5000.0 ; Move to start position
G1 X0.1 Y200.0 Z0.2 F1500.0 E15 ; Draw the first line
G1 X0.4 Y200.0 Z0.2 F5000.0 ; Move to side a little
G1 X0.4 Y20 Z0.3 F1500.0 E30 ; Draw the second line
G92 E0 ; Reset Extruder
G1 E-1 F500 ; Retract filiment by 1 mm
G1 Z2.0 F3000 ; Move Z Axis up little to prevent scratching of Heat Bed
G1 X5 Y20 Z0.3 F100 ; Move over to prevent blob squish
G1 F100
G92 E0 ; Reset Extruder
M117 Printing...

G92 E0
G92 E0
G1 F1800 E-7
;LAYER_COUNT:28
;LAYER:0
M107
G1 F300 Z0.4
G0 F3000 X91.682 Y42.12 Z0.4
;TYPE:SKIRT
G1 F300 Z0.2
G1 F1800 E0
G1 F1200 X91.958 Y41.627 E0.01879
G1 X92.301 Y41.178 E0.03758
G1 X92.704 Y40.781 E0.0564
G1 X93.158 Y40.445 E0.07519
G1 X93.656 Y40.176 E0.09401
G1 X94.186 Y39.981 E0.11279
G1 X94.739 Y39.862 E0.13161
G1 X95.51 Y39.815 E0.1573
G1 X95.622 Y39.813 E0.16103
G1 X124.053 Y39.813 E1.10664
G1 X124.751 Y39.822 E1.12986
G1 X125.314 Y39.87 E1.14865
G1 X125.865 Y39.996 E1.16745
G1 X126.393 Y40.198 E1.18626
G1 X126.887 Y40.473 E1.20506
G1 X127.337 Y40.815 E1.22386
G1 X127.735 Y41.217 E1.24268
G1 X128.071 Y41.671 E1.26146
G1 X128.341 Y42.168 E1.28027
G1 X128.538 Y42.698 E1.29908
G1 X128.658 Y43.25 E1.31787
G1 X128.706 Y44.031 E1.34389
G1 X128.708 Y44.143 E1.34762
G1 X128.708 Y160.829 E5.22861
G1 X128.698 Y161.534 E5.25206
G1 X128.656 Y162.294 E5.27738
G1 X128.566 Y163.433 E5.31538
G1 X128.5 Y164.144 E5.33913
G1 X128.368 Y164.9 E5.36465
G1 X128.342 Y165.018 E5.36867
G1 X128.039 Y166.283 E5.41194
G1 X127.854 Y167.009 E5.43686
G1 X127.583 Y167.794 E5.46448
G1 X127.541 Y167.901 E5.4683
G1 X127.085 Y169.002 E5.50794
G1 X126.767 Y169.737 E5.53457
G1 X126.37 Y170.481 E5.56262
G1 X126.31 Y170.583 E5.56656
G1 X125.655 Y171.649 E5.60817
G1 X125.273 Y172.254 E5.63197
G1 X124.756 Y172.936 E5.66043
G1 X123.887 Y173.954 E5.70495
G1 X123.395 Y174.514 E5.72974
G1 X122.791 Y175.095 E5.75762
G1 X122.707 Y175.17 E5.76136
G1 X121.789 Y175.954 E5.80152
G1 X121.184 Y176.454 E5.82762
G1 X120.578 Y176.881 E5.85228
G1 X120.481 Y176.943 E5.85611
G1 X119.34 Y177.643 E5.90063
G1 X118.717 Y178.013 E5.92473
G1 X117.982 Y178.371 E5.95192
G1 X117.876 Y178.417 E5.95576
G1 X116.654 Y178.923 E5.99975
G1 X116.017 Y179.176 E6.02255
G1 X115.227 Y179.416 E6.05001
G1 X113.961 Y179.721 E6.09332
G1 X113.178 Y179.898 E6.12002
G1 X112.372 Y180.011 E6.14709
G1 X112.26 Y180.022 E6.15084
G1 X110.98 Y180.122 E6.19354
G1 X110.256 Y180.169 E6.21767
G1 X109.458 Y180.155 E6.24422
G1 X109.345 Y180.148 E6.24798
G1 X108.045 Y180.045 E6.29135
G1 X107.335 Y179.979 E6.31507
G1 X106.579 Y179.847 E6.3406
G1 X106.461 Y179.821 E6.34462
G1 X105.195 Y179.518 E6.38791
G1 X104.466 Y179.332 E6.41294
G1 X103.683 Y179.061 E6.44049
G1 X103.579 Y179.02 E6.44421
G1 X102.396 Y178.53 E6.4868
G1 X101.747 Y178.251 E6.5103
G1 X101.044 Y177.876 E6.5368
G1 X99.877 Y177.163 E6.58228
G1 X99.225 Y176.752 E6.60792
G1 X98.543 Y176.235 E6.63638
G1 X97.525 Y175.366 E6.6809
G1 X96.965 Y174.874 E6.70569
G1 X96.384 Y174.27 E6.73357
G1 X96.308 Y174.184 E6.73738
G1 X95.48 Y173.213 E6.77983
G1 X95.026 Y172.665 E6.8035
G1 X94.598 Y172.057 E6.82823
G1 X94.536 Y171.96 E6.83205
G1 X93.832 Y170.812 E6.87685
G1 X93.466 Y170.196 E6.90068
G1 X93.108 Y169.461 E6.92787
G1 X93.062 Y169.355 E6.93171
G1 X92.558 Y168.136 E6.97559
G1 X92.304 Y167.498 E6.99842
G1 X92.061 Y166.698 E7.02623
G1 X91.758 Y165.44 E7.06927
G1 X91.58 Y164.649 E7.09624
G1 X91.468 Y163.856 E7.12287
G1 X91.457 Y163.739 E7.12678
G1 X91.357 Y162.457 E7.16955
G1 X91.305 Y161.627 E7.19721
G1 X91.292 Y160.975 E7.2189
G1 X91.292 Y44.427 E11.0953
G1 X91.302 Y43.762 E11.11743
G1 X91.351 Y43.199 E11.13622
G1 X91.478 Y42.648 E11.15503
G1 X91.682 Y42.12 E11.17385
G0 F3000 X92.08 Y42.216
G1 F1200 X92.354 Y41.755 E11.19169
G1 X92.694 Y41.34 E11.20954
G1 X93.092 Y40.981 E11.22736
G1 X93.538 Y40.684 E11.24518
G1 X94.024 Y40.456 E11.26304
G1 X94.538 Y40.304 E11.28087
G1 X95.201 Y40.223 E11.30308
G1 X95.622 Y40.213 E11.31709
G1 X124.047 Y40.213 E12.26251
G1 X124.745 Y40.222 E12.28573
G1 X125.28 Y40.269 E12.30359
G1 X125.801 Y40.395 E12.32142
G1 X126.298 Y40.597 E12.33926
G1 X126.759 Y40.87 E12.35708
G1 X127.175 Y41.209 E12.37493
G1 X127.536 Y41.605 E12.39275
G1 X127.834 Y42.051 E12.41059
G1 X128.062 Y42.537 E12.42845
G1 X128.215 Y43.051 E12.44628
G1 X128.298 Y43.721 E12.46874
G1 X128.308 Y44.143 E12.48278
G1 X128.308 Y160.823 E16.36357
G1 X128.295 Y161.634 E16.39055
G1 X128.257 Y162.268 E16.41167
G1 X128.168 Y163.396 E16.44931
G1 X128.102 Y164.107 E16.47306
G1 X127.977 Y164.819 E16.4971
G1 X127.652 Y166.184 E16.54377
G1 X127.467 Y166.91 E16.56869
G1 X127.209 Y167.652 E16.59482
G1 X127.171 Y167.748 E16.59825
G1 X126.694 Y168.898 E16.63966
G1 X126.4 Y169.579 E16.66433
G1 X126.023 Y170.282 E16.69086
G1 X125.969 Y170.373 E16.69438
G1 X125.317 Y171.435 E16.73583
G1 X124.935 Y172.04 E16.75963
G1 X124.445 Y172.684 E16.78654
G1 X123.586 Y173.69 E16.83054
G1 X123.094 Y174.25 E16.85533
G1 X122.523 Y174.799 E16.88168
G1 X122.447 Y174.866 E16.88505
G1 X121.486 Y175.685 E16.92704
G1 X120.929 Y176.146 E16.95109
G1 X120.359 Y176.546 E16.97425
G1 X120.272 Y176.602 E16.97769
G1 X119.135 Y177.299 E17.02205
G1 X118.512 Y177.669 E17.04615
G1 X117.818 Y178.006 E17.07181
G1 X117.723 Y178.047 E17.07525
G1 X116.506 Y178.551 E17.11906
G1 X115.869 Y178.804 E17.14186
G1 X115.123 Y179.029 E17.16778
G1 X115.027 Y179.054 E17.17108
G1 X113.823 Y179.342 E17.21225
G1 X113.09 Y179.508 E17.23725
G1 X112.33 Y179.614 E17.26277
G1 X111.002 Y179.719 E17.30708
G1 X110.23 Y179.769 E17.33281
G1 X109.478 Y179.755 E17.35782
G1 X109.376 Y179.749 E17.36122
G1 X108.082 Y179.647 E17.40439
G1 X107.372 Y179.581 E17.42811
G1 X106.66 Y179.456 E17.45215
G1 X105.346 Y179.143 E17.49708
G1 X104.565 Y178.944 E17.52389
G1 X103.826 Y178.688 E17.5499
G1 X102.554 Y178.162 E17.59568
G1 X101.905 Y177.883 E17.61918
G1 X101.244 Y177.53 E17.6441
G1 X100.044 Y176.796 E17.69089
G1 X99.439 Y176.414 E17.71468
G1 X98.795 Y175.924 E17.7416
G1 X97.789 Y175.065 E17.7856
G1 X97.229 Y174.573 E17.81039
G1 X96.68 Y174.002 E17.83674
G1 X96.612 Y173.925 E17.84015
G1 X95.788 Y172.958 E17.88241
G1 X95.334 Y172.41 E17.90608
G1 X94.933 Y171.838 E17.92931
G1 X94.877 Y171.75 E17.93278
G1 X94.176 Y170.608 E17.97735
G1 X93.81 Y169.992 E18.00118
G1 X93.473 Y169.297 E18.02687
G1 X93.432 Y169.202 E18.03031
G1 X92.929 Y167.988 E18.07402
G1 X92.675 Y167.35 E18.09686
G1 X92.448 Y166.595 E18.12308
G1 X92.425 Y166.506 E18.12614
G1 X92.136 Y165.298 E18.16745
G1 X91.97 Y164.561 E18.19258
G1 X91.866 Y163.813 E18.21769
G1 X91.856 Y163.708 E18.2212
G1 X91.756 Y162.432 E18.26377
G1 X91.709 Y161.703 E18.28807
G1 X91.692 Y160.97 E18.31246
G1 X91.692 Y44.433 E22.18849
G1 X91.702 Y43.768 E22.21061
G1 X91.75 Y43.234 E22.22844
G1 X91.877 Y42.713 E22.24628
G1 X92.08 Y42.216 E22.26414
G0 F3000 X92.478 Y42.317
G1 F1200 X92.75 Y41.891 E22.28095
G1 X93.086 Y41.514 E22.29774
G1 X93.477 Y41.193 E22.31457
G1 X93.914 Y40.939 E22.33138
G1 X94.385 Y40.756 E22.34819
G1 X94.88 Y40.65 E22.36502
G1 X95.532 Y40.614 E22.38674
G1 X124.042 Y40.613 E23.33499
G1 X124.74 Y40.622 E23.35821
G1 X125.244 Y40.669 E23.37504
G1 X125.734 Y40.794 E23.39186
G1 X126.198 Y40.995 E23.40868
G1 X126.624 Y41.266 E23.42547
G1 X127.003 Y41.601 E23.4423
G1 X127.324 Y41.992 E23.45912
G1 X127.579 Y42.428 E23.47592
G1 X127.763 Y42.899 E23.49274
G1 X127.87 Y43.393 E23.50955
G1 X127.907 Y44.053 E23.53154
G1 X127.908 Y160.817 E27.41513
G1 X127.898 Y161.522 E27.43858
G1 X127.858 Y162.241 E27.46253
G1 X127.769 Y163.359 E27.49983
G1 X127.703 Y164.07 E27.52358
G1 X127.585 Y164.738 E27.54614
G1 X127.275 Y166.04 E27.59066
G1 X127.079 Y166.811 E27.61712
G1 X126.835 Y167.51 E27.64174
G1 X126.327 Y168.739 E27.68597
G1 X126.033 Y169.42 E27.71064
G1 X125.676 Y170.083 E27.73569
G1 X125 Y171.187 E27.77874
G1 X124.597 Y171.826 E27.80387
G1 X124.135 Y172.432 E27.82922
G1 X123.286 Y173.426 E27.87269
G1 X122.794 Y173.986 E27.89749
G1 X122.255 Y174.502 E27.9223
G1 X121.231 Y175.377 E27.9671
G1 X120.674 Y175.838 E27.99115
G1 X120.14 Y176.212 E28.01284
G1 X118.972 Y176.931 E28.05845
G1 X118.308 Y177.325 E28.08413
G1 X117.655 Y177.641 E28.10826
G1 X117.57 Y177.678 E28.11135
G1 X116.358 Y178.179 E28.15496
G1 X115.721 Y178.432 E28.17776
G1 X115.019 Y178.643 E28.20214
G1 X113.774 Y178.943 E28.24474
G1 X113.002 Y179.118 E28.27106
G1 X112.287 Y179.216 E28.29507
G1 X110.928 Y179.323 E28.34041
G1 X110.204 Y179.37 E28.36454
G1 X109.498 Y179.356 E28.38803
G1 X108.164 Y179.252 E28.43253
G1 X107.409 Y179.182 E28.45775
G1 X106.741 Y179.064 E28.48031
G1 X105.393 Y178.743 E28.5264
G1 X104.664 Y178.557 E28.55142
G1 X103.968 Y178.314 E28.57594
G1 X102.752 Y177.812 E28.6197
G1 X102.063 Y177.516 E28.64464
G1 X101.444 Y177.184 E28.668
G1 X100.258 Y176.458 E28.71425
G1 X99.653 Y176.076 E28.73805
G1 X99.047 Y175.614 E28.76339
G1 X98.053 Y174.765 E28.80687
G1 X97.493 Y174.273 E28.83166
G1 X96.977 Y173.734 E28.85648
G1 X96.096 Y172.703 E28.90159
G1 X95.642 Y172.155 E28.92526
G1 X95.267 Y171.619 E28.94701
G1 X94.52 Y170.404 E28.99445
G1 X94.154 Y169.788 E29.01828
G1 X93.838 Y169.134 E29.04244
G1 X93.801 Y169.049 E29.04553
G1 X93.301 Y167.84 E29.08904
G1 X93.047 Y167.202 E29.11188
G1 X92.834 Y166.492 E29.13653
G1 X92.526 Y165.21 E29.18039
G1 X92.36 Y164.473 E29.20551
G1 X92.263 Y163.77 E29.22912
G1 X92.156 Y162.406 E29.27462
G1 X92.104 Y161.596 E29.30162
G1 X92.092 Y160.966 E29.32258
G1 X92.092 Y44.439 E33.19828
G1 X92.102 Y43.774 E33.2204
G1 X92.15 Y43.271 E33.23721
G1 X92.276 Y42.781 E33.25404
G1 X92.478 Y42.317 E33.27087
G1 F1800 E26.27087
G1 F300 Z0.4
;MESH:lamp.hanger.console.short.bottom.amf
G0 F3000 X108.184 Y58.556 Z0.4
;TYPE:WALL-INNER
G1 F300 Z0.2
G1 F1800 E33.27087
G1 F1200 X108.336 Y58.605 E33.27618
G1 X109.433 Y58.874 E33.31375
G1 X110.565 Y58.874 E33.3514
G1 X110.724 Y58.86 E33.35671
G1 X111.84 Y58.583 E33.39495
G1 X112.83 Y58.065 E33.43211
G1 X112.967 Y57.987 E33.43736
G1 X113.833 Y57.218 E33.47588
G1 X113.927 Y57.092 E33.4811
G1 X114.567 Y56.165 E33.51857
G1 X114.626 Y55.996 E33.52452
G1 X114.996 Y55.017 E33.55933
G1 X115.141 Y53.813 E33.59967
G1 X114.996 Y52.61 E33.63997
G1 X114.625 Y51.632 E33.67476
G1 X114.571 Y51.466 E33.68057
G1 X113.842 Y50.414 E33.72314
G1 X112.972 Y49.647 E33.76171
G1 X112.839 Y49.565 E33.76691
G1 X111.839 Y49.044 E33.80441
G1 X110.732 Y48.771 E33.84233
G1 X110.575 Y48.752 E33.84759
G1 X109.432 Y48.753 E33.88561
G1 X108.342 Y49.021 E33.92294
G1 X108.19 Y49.067 E33.92823
G1 X107.161 Y49.609 E33.96691
G1 X106.213 Y50.447 E34.00899
G1 X105.557 Y51.401 E34.0475
G1 X105.491 Y51.544 E34.05274
G1 X105.091 Y52.601 E34.09033
G1 X104.953 Y53.731 E34.12819
G1 X104.952 Y53.889 E34.13345
G1 X105.091 Y55.027 E34.17158
G1 X105.489 Y56.073 E34.2088
G1 X105.551 Y56.219 E34.21408
G1 X106.211 Y57.174 E34.25269
G1 X106.327 Y57.281 E34.25794
G1 X107.161 Y58.018 E34.29495
G1 X108.184 Y58.556 E34.3334
G0 F3000 X108.34 Y58.186
;TYPE:WALL-OUTER
G1 F1200 X108.445 Y58.22 E34.33707
G1 X109.481 Y58.474 E34.37255
G1 X110.547 Y58.474 E34.408
G1 X110.657 Y58.464 E34.41167
G1 X111.697 Y58.206 E34.44731
G1 X112.638 Y57.714 E34.48263
G1 X112.733 Y57.66 E34.48627
G1 X113.537 Y56.946 E34.52203
G1 X113.602 Y56.859 E34.52564
G1 X114.207 Y55.982 E34.56108
G1 X114.252 Y55.854 E34.56559
G1 X114.605 Y54.921 E34.59877
G1 X114.738 Y53.813 E34.63589
G1 X114.605 Y52.706 E34.67297
G1 X114.251 Y51.774 E34.70613
G1 X114.209 Y51.646 E34.71061
G1 X113.541 Y50.682 E34.74962
G1 X112.734 Y49.97 E34.78541
G1 X112.642 Y49.914 E34.78899
G1 X111.697 Y49.421 E34.82445
G1 X110.66 Y49.165 E34.85997
G1 X110.551 Y49.152 E34.86362
G1 X109.481 Y49.153 E34.89921
G1 X108.448 Y49.407 E34.93459
G1 X108.343 Y49.439 E34.93824
G1 X107.39 Y49.941 E34.97407
G1 X106.515 Y50.714 E35.0129
G1 X105.906 Y51.6 E35.04866
G1 X105.86 Y51.699 E35.05229
G1 X105.482 Y52.697 E35.08779
G1 X105.353 Y53.757 E35.1233
G1 X105.352 Y53.866 E35.12693
G1 X105.482 Y54.93 E35.16258
G1 X105.86 Y55.924 E35.19795
G1 X105.903 Y56.025 E35.2016
G1 X106.515 Y56.91 E35.23739
G1 X106.595 Y56.984 E35.24101
G1 X107.39 Y57.686 E35.27629
G1 X108.34 Y58.186 E35.31199
G0 F3000 X108.445 Y58.22
G0 X108.532 Y58.241
G0 X108.427 Y58.668
G1 F1800 E28.31199
G1 F300 Z0.4
G0 F3000 X108.389 Y58.824 Z0.4
G0 X108.864 Y164.475
;TYPE:WALL-INNER
G1 F300 Z0.2
G1 F1800 E35.31199
G1 F1200 X109.614 Y164.66 E35.33769
G1 X110.386 Y164.66 E35.36336
G1 X111.136 Y164.475 E35.38906
G1 X111.82 Y164.117 E35.41473
G1 X112.399 Y163.604 E35.44046
G1 X112.837 Y162.968 E35.46615
G1 X113.111 Y162.245 E35.49186
G1 X113.204 Y161.479 E35.51753
G1 X113.111 Y160.713 E35.54319
G1 X112.837 Y159.99 E35.56891
G1 X112.399 Y159.354 E35.59459
G1 X111.82 Y158.841 E35.62032
G1 X111.136 Y158.483 E35.646
G1 X110.386 Y158.298 E35.67169
G1 X109.614 Y158.298 E35.69737
G1 X108.864 Y158.483 E35.72306
G1 X108.18 Y158.841 E35.74874
G1 X107.601 Y159.354 E35.77447
G1 X107.163 Y159.99 E35.80015
G1 X106.889 Y160.713 E35.82587
G1 X106.796 Y161.479 E35.85153
G1 X106.889 Y162.245 E35.8772
G1 X107.163 Y162.968 E35.90291
G1 X107.601 Y163.604 E35.9286
G1 X108.18 Y164.117 E35.95433
G1 X108.864 Y164.475 E35.98
G0 F3000 X109.007 Y164.098
;TYPE:WALL-OUTER
G1 F1200 X109.663 Y164.26 E36.00248
G1 X110.337 Y164.26 E36.0249
G1 X110.993 Y164.098 E36.04737
G1 X111.591 Y163.785 E36.06982
G1 X112.097 Y163.337 E36.0923
G1 X112.48 Y162.781 E36.11475
G1 X112.72 Y162.149 E36.13724
G1 X112.801 Y161.479 E36.15968
G1 X112.72 Y160.809 E36.18213
G1 X112.48 Y160.177 E36.20462
G1 X112.097 Y159.621 E36.22707
G1 X111.591 Y159.173 E36.24955
G1 X110.993 Y158.86 E36.272
G1 X110.337 Y158.698 E36.29447
G1 X109.663 Y158.698 E36.31689
G1 X109.007 Y158.86 E36.33936
G1 X108.409 Y159.173 E36.36181
G1 X107.903 Y159.621 E36.38429
G1 X107.52 Y160.177 E36.40675
G1 X107.28 Y160.809 E36.42923
G1 X107.199 Y161.479 E36.45168
G1 X107.28 Y162.149 E36.47413
G1 X107.52 Y162.781 E36.49661
G1 X107.903 Y163.337 E36.51907
G1 X108.409 Y163.785 E36.54154
G1 X109.007 Y164.098 E36.56399
G0 F3000 X109.201 Y164.146
G0 X109.096 Y164.572
G1 F1800 E29.56399
G1 F300 Z0.4
G0 F3000 X109.056 Y164.727 Z0.4
G0 X112.209 Y175.411
;TYPE:WALL-INNER
G1 F300 Z0.2
G1 F1800 E36.56399
G1 F1200 X110 Y175.586 E36.6377
G1 X107.791 Y175.411 E36.7114
G1 X105.649 Y174.897 E36.78466
G1 X103.596 Y174.047 E36.85857
G1 X101.706 Y172.889 E36.93229
G1 X100.026 Y171.453 E37.0058
G1 X98.59 Y169.773 E37.07931
G1 X97.432 Y167.883 E37.15303
G1 X96.582 Y165.83 E37.22693
G1 X96.068 Y163.688 E37.3002
G1 X95.892 Y161.461 E37.3745
G1 X95.892 Y44.413 E41.26753
G1 X124.108 Y44.413 E42.206
G1 X124.108 Y161.461 E46.09903
G1 X123.932 Y163.688 E46.17333
G1 X123.418 Y165.83 E46.2466
G1 X122.568 Y167.883 E46.3205
G1 X121.41 Y169.773 E46.39423
G1 X119.974 Y171.453 E46.46773
G1 X118.294 Y172.889 E46.54124
G1 X116.404 Y174.047 E46.61496
G1 X114.351 Y174.897 E46.68887
G1 X112.209 Y175.411 E46.76213
G0 F3000 X112.27 Y175.808
;TYPE:WALL-OUTER
G1 F1200 X110 Y175.987 E46.83787
G1 X107.73 Y175.808 E46.9136
G1 X105.522 Y175.278 E46.98913
G1 X103.416 Y174.406 E47.06494
G1 X101.47 Y173.213 E47.14086
G1 X99.742 Y171.737 E47.21645
G1 X98.266 Y170.009 E47.29203
G1 X97.073 Y168.063 E47.36795
G1 X96.201 Y165.957 E47.44376
G1 X95.671 Y163.749 E47.51929
G1 X95.492 Y161.479 E47.59502
G1 X95.492 Y44.013 E51.50196
G1 X124.508 Y44.013 E52.46703
G1 X124.508 Y161.479 E56.37397
G1 X124.329 Y163.749 E56.4497
