;FLAVOR:Marlin
;TIME:7033
;Filament used: 4.90274m
;Layer height: 0.2
;MINX:35.855
;MINY:35.854
;MINZ:0.2
;MAXX:177.778
;MAXY:177.778
;MAXZ:5.8
;Generated with Cura_SteamEngine master
M82 ;absolute extrusion mode
;Sliced at: Sat 13-05-2023 18:30:33
;Basic settings: Layer height: 0.2 Walls: 0.8 Fill: 20
G21 ;metric values
G90 ;absolute positioning
M82 ;set extruder to absolute mode
M107 ;start with the fan off
M117 Start heating ...
M104 S200
M117 Homing X/Y ...
G28 X0 Y0 ;move X/Y to min endstops
M117 Homing Z ...
G28 Z0 ;move Z to min endstops
G1 Z15.0 F100 ;move the platform down 15mm
M117 Heating ...
M109 S200
M117 Start cleaning ...
G92 E0 ;zero the extruded length
G1 F200 E10 ;extrude 10mm of feed stock
G92 E0 ;zero the extruded length again
M117 Intro line ...
G1 Z2.0 F3000 ; Move Z Axis up little to prevent scratching of Heat Bed
G1 X0.1 Y20 Z0.2 F5000.0 ; Move to start position
G1 X0.1 Y200.0 Z0.2 F1500.0 E15 ; Draw the first line
G1 X0.4 Y200.0 Z0.2 F5000.0 ; Move to side a little
G1 X0.4 Y20 Z0.3 F1500.0 E30 ; Draw the second line
G92 E0 ; Reset Extruder
G1 E-1 F500 ; Retract filiment by 1 mm
G1 Z2.0 F3000 ; Move Z Axis up little to prevent scratching of Heat Bed
G1 X5 Y20 Z0.3 F100 ; Move over to prevent blob squish
G1 F100
G92 E0 ; Reset Extruder
M117 Printing...

G92 E0
G92 E0
G1 F1800 E-7
;LAYER_COUNT:28
;LAYER:0
M107
G1 F300 Z0.4
G0 F3000 X57.363 Y37.447 Z0.4
;TYPE:SKIRT
G1 F300 Z0.2
G1 F1800 E0
G1 F1200 X57.844 Y36.979 E0.02232
G1 X58.276 Y36.614 E0.04113
G1 X58.755 Y36.314 E0.05993
G1 X59.271 Y36.085 E0.07871
G1 X59.815 Y35.93 E0.09752
G1 X60.375 Y35.854 E0.11632
G1 X60.941 Y35.858 E0.13514
G1 X61.5 Y35.941 E0.15394
G1 X62.042 Y36.102 E0.17274
G1 X62.555 Y36.338 E0.19153
G1 X63.031 Y36.644 E0.21035
G1 X63.613 Y37.16 E0.23622
G1 X94.134 Y67.678 E1.67176
G1 X94.667 Y68.227 E1.69721
G1 X94.82 Y68.393 E1.70472
G1 X95.183 Y68.813 E1.72318
G1 X100.123 Y74.627 E1.97693
G1 X101.955 Y76.722 E2.0695
G1 X103.807 Y78.724 E2.16021
G1 X105.472 Y80.43 E2.23949
G1 X172.299 Y147.258 E5.38285
G1 X172.979 Y147.957 E5.41529
G1 X173.105 Y148.092 E5.42143
G1 X173.535 Y148.577 E5.44299
G1 X173.657 Y148.722 E5.44929
G1 X174.075 Y149.241 E5.47146
G1 X174.192 Y149.393 E5.47784
G1 X174.534 Y149.862 E5.49714
G1 X174.729 Y150.146 E5.5086
G1 X175.077 Y150.679 E5.52977
G1 X175.179 Y150.844 E5.53622
G1 X175.524 Y151.433 E5.55893
G1 X175.618 Y151.602 E5.56536
G1 X175.925 Y152.19 E5.58742
G1 X176.032 Y152.41 E5.59556
G1 X176.304 Y153.004 E5.61729
G1 X176.379 Y153.178 E5.62359
G1 X176.633 Y153.812 E5.6463
G1 X176.703 Y154.003 E5.65307
G1 X176.915 Y154.619 E5.67474
G1 X176.973 Y154.8 E5.68106
G1 X177.159 Y155.437 E5.70313
G1 X177.21 Y155.633 E5.70987
G1 X177.376 Y156.331 E5.73373
G1 X177.416 Y156.519 E5.74012
G1 X177.527 Y157.111 E5.76016
G1 X177.558 Y157.297 E5.76643
G1 X177.651 Y157.966 E5.78889
G1 X177.686 Y158.283 E5.7995
G1 X177.738 Y158.901 E5.82013
G1 X177.749 Y159.082 E5.82616
G1 X177.775 Y159.756 E5.84859
G1 X177.778 Y159.951 E5.85508
G1 X177.772 Y160.542 E5.87474
G1 X177.758 Y160.895 E5.88649
G1 X177.72 Y161.501 E5.90668
G1 X177.704 Y161.691 E5.91302
G1 X177.629 Y162.369 E5.93571
G1 X177.603 Y162.562 E5.94219
G1 X177.493 Y163.239 E5.965
G1 X177.444 Y163.489 E5.97348
G1 X177.313 Y164.104 E5.99439
G1 X177.268 Y164.293 E6.00085
G1 X177.097 Y164.94 E6.02311
G1 X177.039 Y165.138 E6.02997
G1 X176.835 Y165.775 E6.05222
G1 X176.775 Y165.949 E6.05834
G1 X176.546 Y166.565 E6.0802
G1 X176.47 Y166.756 E6.08704
G1 X176.196 Y167.391 E6.11004
G1 X176.111 Y167.574 E6.11675
G1 X175.811 Y168.183 E6.13933
G1 X175.73 Y168.34 E6.1452
G1 X175.438 Y168.872 E6.16539
G1 X175.341 Y169.038 E6.17178
G1 X174.962 Y169.656 E6.1959
G1 X174.843 Y169.838 E6.20313
G1 X174.448 Y170.409 E6.22622
G1 X174.294 Y170.621 E6.23494
G1 X173.925 Y171.102 E6.2551
G1 X173.807 Y171.248 E6.26134
G1 X173.388 Y171.744 E6.28294
G1 X173.25 Y171.899 E6.28984
G1 X172.756 Y172.426 E6.31387
G1 X172.623 Y172.561 E6.32017
G1 X172.158 Y173.012 E6.34172
G1 X172.02 Y173.14 E6.34798
G1 X171.493 Y173.603 E6.37131
G1 X171.321 Y173.746 E6.37875
G1 X170.799 Y174.16 E6.40091
G1 X170.653 Y174.27 E6.40699
G1 X170.123 Y174.651 E6.4287
G1 X169.911 Y174.796 E6.43724
G1 X169.456 Y175.089 E6.45524
G1 X169.173 Y175.26 E6.46624
G1 X168.625 Y175.575 E6.48726
G1 X168.467 Y175.661 E6.49324
G1 X167.909 Y175.949 E6.51413
G1 X167.731 Y176.036 E6.52072
G1 X167.072 Y176.336 E6.5448
G1 X166.886 Y176.415 E6.55152
G1 X166.268 Y176.658 E6.57361
G1 X166.012 Y176.752 E6.58268
G1 X165.434 Y176.948 E6.60298
G1 X165.244 Y177.007 E6.6096
G1 X164.559 Y177.201 E6.63327
G1 X164.366 Y177.249 E6.63989
G1 X163.75 Y177.392 E6.66092
G1 X163.564 Y177.431 E6.66724
G1 X162.906 Y177.55 E6.68948
G1 X162.614 Y177.594 E6.6993
G1 X162.023 Y177.67 E6.71912
G1 X161.827 Y177.691 E6.72568
G1 X161.129 Y177.746 E6.74897
G1 X160.937 Y177.756 E6.75536
G1 X160.251 Y177.777 E6.77819
G1 X160.055 Y177.778 E6.78471
G1 X159.418 Y177.765 E6.8059
G1 X159.15 Y177.753 E6.81482
G1 X158.536 Y177.711 E6.83529
G1 X158.345 Y177.693 E6.84167
G1 X157.686 Y177.616 E6.86374
G1 X157.481 Y177.587 E6.87063
G1 X156.791 Y177.47 E6.8939
G1 X156.6 Y177.433 E6.90037
G1 X155.923 Y177.284 E6.92343
G1 X155.733 Y177.237 E6.92994
G1 X155.112 Y177.068 E6.95135
G1 X154.922 Y177.011 E6.95794
G1 X154.284 Y176.803 E6.98026
G1 X154.113 Y176.743 E6.98629
G1 X153.508 Y176.515 E7.00779
G1 X153.321 Y176.439 E7.01451
G1 X152.69 Y176.164 E7.0374
G1 X152.506 Y176.078 E7.04416
G1 X151.881 Y175.767 E7.06738
G1 X151.696 Y175.669 E7.07434
G1 X151.087 Y175.325 E7.0976
G1 X150.93 Y175.231 E7.10369
G1 X150.386 Y174.89 E7.12504
G1 X150.226 Y174.784 E7.13143
G1 X149.687 Y174.408 E7.15328
G1 X149.437 Y174.222 E7.16365
G1 X148.949 Y173.843 E7.1842
G1 X148.801 Y173.722 E7.19056
G1 X148.32 Y173.31 E7.21162
G1 X148.186 Y173.19 E7.2176
G1 X147.624 Y172.663 E7.24323
G1 X80.43 Y105.472 E10.40376
G1 X78.452 Y103.55 E10.49549
G1 X76.426 Y101.689 E10.58699
G1 X74.662 Y100.152 E10.66481
G1 X68.863 Y95.225 E10.9179
G1 X68.245 Y94.683 E10.94524
G1 X67.762 Y94.219 E10.96751
G1 X37.438 Y63.895 E12.39386
G1 X36.979 Y63.423 E12.41576
G1 X36.615 Y62.991 E12.43455
G1 X36.315 Y62.511 E12.45338
G1 X36.086 Y61.995 E12.47215
G1 X35.931 Y61.451 E12.49097
G1 X35.855 Y60.891 E12.50976
G1 X35.859 Y60.325 E12.52859
G1 X35.942 Y59.766 E12.54738
G1 X36.104 Y59.224 E12.5662
G1 X36.34 Y58.711 E12.58498
G1 X36.646 Y58.235 E12.6038
G1 X37.151 Y57.661 E12.62923
G1 X57.363 Y37.447 E13.57999
G0 F3000 X57.642 Y37.734
G1 F1200 X58.123 Y37.266 E13.60231
G1 X58.534 Y36.921 E13.62016
G1 X58.991 Y36.642 E13.63796
G1 X59.486 Y36.434 E13.65582
G1 X60.005 Y36.301 E13.67364
G1 X60.539 Y36.247 E13.69149
G1 X61.074 Y36.273 E13.70931
G1 X61.6 Y36.378 E13.72715
G1 X62.105 Y36.561 E13.74501
G1 X62.576 Y36.816 E13.76283
G1 X63.109 Y37.233 E13.78534
G1 X63.408 Y37.517 E13.79905
G1 X93.847 Y67.956 E15.23081
G1 X94.38 Y68.505 E15.25626
G1 X94.517 Y68.655 E15.26302
G1 X94.879 Y69.072 E15.28138
G1 X99.855 Y74.929 E15.537
G1 X101.642 Y76.975 E15.62735
G1 X103.492 Y78.973 E15.71792
G1 X105.156 Y80.678 E15.79716
G1 X172.012 Y147.537 E18.94193
G1 X172.692 Y148.236 E18.97436
G1 X172.806 Y148.358 E18.97992
G1 X173.236 Y148.843 E19.00148
G1 X173.346 Y148.973 E19.00714
G1 X173.764 Y149.492 E19.0293
G1 X173.869 Y149.629 E19.03505
G1 X174.211 Y150.098 E19.05435
G1 X174.394 Y150.365 E19.06512
G1 X174.742 Y150.898 E19.08629
G1 X174.834 Y151.046 E19.09209
G1 X175.179 Y151.635 E19.11479
G1 X175.263 Y151.787 E19.12056
G1 X175.567 Y152.369 E19.1424
G1 X175.668 Y152.576 E19.15006
G1 X175.94 Y153.17 E19.17179
G1 X176.007 Y153.327 E19.17747
G1 X176.286 Y154.025 E19.20247
G1 X176.325 Y154.133 E19.20629
G1 X176.537 Y154.749 E19.22796
G1 X176.589 Y154.912 E19.23365
G1 X176.775 Y155.549 E19.25572
G1 X176.821 Y155.725 E19.26177
G1 X176.987 Y156.423 E19.28563
G1 X177.023 Y156.593 E19.29141
G1 X177.134 Y157.185 E19.31145
G1 X177.162 Y157.352 E19.31708
G1 X177.255 Y158.021 E19.33954
G1 X177.287 Y158.316 E19.34941
G1 X177.339 Y158.934 E19.37004
G1 X177.349 Y159.097 E19.37547
G1 X177.375 Y159.771 E19.39791
G1 X177.378 Y159.947 E19.40376
G1 X177.372 Y160.538 E19.42342
G1 X177.359 Y160.87 E19.43447
G1 X177.321 Y161.476 E19.45467
G1 X177.306 Y161.647 E19.46037
G1 X177.231 Y162.325 E19.48306
G1 X177.208 Y162.498 E19.48887
G1 X177.1 Y163.164 E19.51131
G1 X177.053 Y163.406 E19.51951
G1 X176.922 Y164.021 E19.54042
G1 X176.881 Y164.191 E19.54624
G1 X176.71 Y164.838 E19.5685
G1 X176.658 Y165.016 E19.57466
G1 X176.454 Y165.653 E19.59691
G1 X176.4 Y165.809 E19.6024
G1 X176.171 Y166.425 E19.62426
G1 X176.102 Y166.597 E19.63042
G1 X175.828 Y167.232 E19.65343
G1 X175.752 Y167.397 E19.65947
G1 X175.452 Y168.006 E19.68205
G1 X175.379 Y168.147 E19.68733
G1 X175.087 Y168.679 E19.70751
G1 X175 Y168.829 E19.71328
G1 X174.621 Y169.447 E19.73739
G1 X174.514 Y169.611 E19.74391
G1 X174.123 Y170.176 E19.76676
G1 X173.976 Y170.377 E19.77504
G1 X173.607 Y170.858 E19.7952
G1 X173.501 Y170.99 E19.80083
G1 X173.082 Y171.486 E19.82243
G1 X172.958 Y171.625 E19.82863
G1 X172.464 Y172.152 E19.85265
G1 X172.344 Y172.274 E19.85834
G1 X171.879 Y172.725 E19.87989
G1 X171.755 Y172.84 E19.88551
G1 X171.236 Y173.297 E19.90851
G1 X171.072 Y173.433 E19.9156
G1 X170.55 Y173.847 E19.93776
G1 X170.419 Y173.946 E19.94322
G1 X169.895 Y174.323 E19.96469
G1 X169.694 Y174.46 E19.97278
G1 X169.239 Y174.753 E19.99078
G1 X168.974 Y174.913 E20.00108
G1 X168.426 Y175.228 E20.0221
G1 X168.283 Y175.306 E20.02752
G1 X167.725 Y175.594 E20.0484
G1 X167.566 Y175.671 E20.05428
G1 X166.907 Y175.971 E20.07836
G1 X166.739 Y176.043 E20.08444
G1 X166.128 Y176.284 E20.10629
G1 X165.883 Y176.373 E20.11496
G1 X165.305 Y176.569 E20.13526
G1 X165.134 Y176.623 E20.14122
G1 X164.547 Y176.79 E20.16152
G1 X164.275 Y176.86 E20.17086
G1 X163.659 Y177.003 E20.19189
G1 X163.492 Y177.037 E20.19756
G1 X162.843 Y177.155 E20.2195
G1 X162.563 Y177.198 E20.22892
G1 X161.972 Y177.274 E20.24874
G1 X161.796 Y177.292 E20.25463
G1 X161.098 Y177.347 E20.27791
G1 X160.925 Y177.356 E20.28367
G1 X160.239 Y177.377 E20.3065
G1 X160.062 Y177.378 E20.31239
G1 X159.435 Y177.366 E20.33325
G1 X159.177 Y177.354 E20.34184
G1 X158.563 Y177.312 E20.36231
G1 X158.391 Y177.296 E20.36805
G1 X157.732 Y177.219 E20.39012
G1 X157.548 Y177.192 E20.39631
G1 X156.858 Y177.075 E20.41958
G1 X156.686 Y177.042 E20.42541
G1 X156.009 Y176.893 E20.44846
G1 X155.838 Y176.851 E20.45432
G1 X155.217 Y176.682 E20.47573
G1 X155.046 Y176.631 E20.48166
G1 X154.408 Y176.423 E20.50398
G1 X154.254 Y176.369 E20.50941
G1 X153.649 Y176.141 E20.53091
G1 X153.481 Y176.072 E20.53695
G1 X152.85 Y175.797 E20.55985
G1 X152.684 Y175.72 E20.56593
G1 X152.059 Y175.409 E20.58915
G1 X151.892 Y175.321 E20.59543
G1 X151.283 Y174.977 E20.61869
G1 X151.142 Y174.892 E20.62417
G1 X150.598 Y174.551 E20.64552
G1 X150.454 Y174.456 E20.65126
G1 X149.925 Y174.086 E20.67273
G1 X149.683 Y173.906 E20.68276
G1 X149.195 Y173.527 E20.70331
G1 X149.061 Y173.418 E20.70906
G1 X148.58 Y173.006 E20.73012
G1 X148.46 Y172.898 E20.73549
G1 X147.814 Y172.291 E20.76498
G1 X80.672 Y105.15 E23.92311
G1 X78.7 Y103.234 E24.01456
G1 X76.715 Y101.41 E24.10422
G1 X74.921 Y99.848 E24.18333
G1 X69.126 Y94.924 E24.43626
G1 X68.515 Y94.388 E24.46329
G1 X68.041 Y93.933 E24.48515
G1 X37.725 Y63.616 E25.91114
G1 X37.266 Y63.144 E25.93304
G1 X36.922 Y62.733 E25.95087
G1 X36.643 Y62.275 E25.9687
G1 X36.434 Y61.781 E25.98654
G1 X36.302 Y61.261 E26.00439
G1 X36.248 Y60.727 E26.02224
G1 X36.274 Y60.192 E26.04005
G1 X36.38 Y59.666 E26.0579
G1 X36.562 Y59.161 E26.07575
G1 X36.817 Y58.69 E26.09357
G1 X37.22 Y58.173 E26.11537
G1 X37.524 Y57.85 E26.13012
G1 X57.642 Y37.734 E27.07637
G0 F3000 X57.92 Y38.02
G1 F1200 X58.401 Y37.552 E27.09869
G1 X58.791 Y37.23 E27.11551
G1 X59.226 Y36.972 E27.13233
G1 X59.696 Y36.786 E27.14914
G1 X60.189 Y36.677 E27.16593
G1 X60.694 Y36.647 E27.18276
G1 X61.197 Y36.696 E27.19957
G1 X61.686 Y36.824 E27.21638
G1 X62.149 Y37.028 E27.23321
G1 X62.574 Y37.302 E27.25003
G1 X63.063 Y37.74 E27.27186
G1 X93.527 Y68.201 E28.70473
G1 X94.093 Y68.784 E28.73175
G1 X94.215 Y68.917 E28.73775
G1 X94.574 Y69.331 E28.75598
G1 X99.55 Y75.188 E29.0116
G1 X101.347 Y77.244 E29.10242
G1 X103.213 Y79.261 E29.19381
G1 X104.873 Y80.961 E29.27284
G1 X171.726 Y147.816 E32.41744
G1 X172.406 Y148.515 E32.44988
G1 X172.506 Y148.623 E32.45477
G1 X172.936 Y149.108 E32.47633
G1 X173.034 Y149.224 E32.48138
G1 X173.452 Y149.743 E32.50355
G1 X173.546 Y149.865 E32.50867
G1 X173.943 Y150.412 E32.53115
G1 X174.059 Y150.584 E32.53805
G1 X174.407 Y151.117 E32.55922
G1 X174.489 Y151.249 E32.56439
G1 X174.834 Y151.838 E32.58709
G1 X174.909 Y151.972 E32.5922
G1 X175.183 Y152.496 E32.61187
G1 X175.304 Y152.743 E32.62102
G1 X175.576 Y153.337 E32.64275
G1 X175.636 Y153.476 E32.64778
G1 X175.885 Y154.097 E32.67003
G1 X175.947 Y154.264 E32.67596
G1 X176.159 Y154.88 E32.69763
G1 X176.205 Y155.024 E32.70265
G1 X176.391 Y155.661 E32.72473
G1 X176.432 Y155.818 E32.73012
G1 X176.598 Y156.516 E32.75399
G1 X176.63 Y156.666 E32.75909
G1 X176.741 Y157.258 E32.77912
G1 X176.766 Y157.407 E32.78415
G1 X176.859 Y158.076 E32.80661
G1 X176.889 Y158.35 E32.81578
G1 X176.941 Y158.968 E32.83641
G1 X176.95 Y159.113 E32.84124
G1 X176.976 Y159.787 E32.86367
G1 X176.978 Y159.942 E32.86883
G1 X176.972 Y160.533 E32.88849
G1 X176.96 Y160.845 E32.89887
G1 X176.922 Y161.451 E32.91907
G1 X176.909 Y161.603 E32.92414
G1 X176.834 Y162.281 E32.94683
G1 X176.813 Y162.435 E32.952
G1 X176.707 Y163.09 E32.97407
G1 X176.662 Y163.323 E32.98196
G1 X176.531 Y163.938 E33.00287
G1 X176.495 Y164.089 E33.00804
G1 X176.324 Y164.736 E33.03029
G1 X176.278 Y164.894 E33.03577
G1 X176.074 Y165.531 E33.05801
G1 X176.025 Y165.67 E33.06292
G1 X175.796 Y166.286 E33.08477
G1 X175.735 Y166.439 E33.09025
G1 X175.461 Y167.074 E33.11325
G1 X175.394 Y167.22 E33.1186
G1 X175.094 Y167.829 E33.14118
G1 X175.028 Y167.955 E33.14591
G1 X174.736 Y168.487 E33.16609
G1 X174.659 Y168.62 E33.1712
G1 X174.28 Y169.238 E33.19532
G1 X174.185 Y169.384 E33.20111
G1 X173.798 Y169.943 E33.22372
G1 X173.659 Y170.134 E33.23158
G1 X173.29 Y170.615 E33.25174
G1 X173.196 Y170.732 E33.25674
G1 X172.777 Y171.228 E33.27833
G1 X172.667 Y171.351 E33.28382
G1 X172.173 Y171.878 E33.30784
G1 X172.066 Y171.987 E33.31292
G1 X171.601 Y172.438 E33.33447
G1 X171.49 Y172.54 E33.33948
G1 X170.979 Y172.99 E33.36213
G1 X170.823 Y173.119 E33.36886
G1 X170.301 Y173.533 E33.39102
G1 X170.185 Y173.621 E33.39587
G1 X169.667 Y173.994 E33.4171
G1 X169.478 Y174.123 E33.42471
G1 X169.023 Y174.416 E33.44271
G1 X168.775 Y174.566 E33.45235
G1 X168.227 Y174.881 E33.47337
G1 X168.1 Y174.951 E33.47819
G1 X167.542 Y175.239 E33.49908
G1 X167.4 Y175.307 E33.50431
G1 X166.741 Y175.607 E33.5284
G1 X166.592 Y175.671 E33.53379
G1 X165.988 Y175.909 E33.55538
G1 X165.755 Y175.995 E33.56364
G1 X165.177 Y176.191 E33.58394
G1 X165.025 Y176.238 E33.58924
G1 X164.36 Y176.426 E33.61222
G1 X164.185 Y176.47 E33.61822
G1 X163.569 Y176.613 E33.63925
G1 X163.42 Y176.644 E33.64432
G1 X162.781 Y176.76 E33.66592
G1 X162.512 Y176.801 E33.67497
G1 X161.921 Y176.877 E33.69479
G1 X161.764 Y176.893 E33.70003
G1 X161.066 Y176.948 E33.72332
G1 X160.913 Y176.957 E33.72842
G1 X160.227 Y176.978 E33.75125
G1 X160.07 Y176.978 E33.75647
G1 X159.452 Y176.966 E33.77703
G1 X159.205 Y176.955 E33.78525
G1 X158.591 Y176.913 E33.80572
G1 X158.438 Y176.898 E33.81083
G1 X157.779 Y176.821 E33.8329
G1 X157.615 Y176.798 E33.83841
G1 X156.925 Y176.681 E33.86169
G1 X156.772 Y176.651 E33.86687
G1 X156.095 Y176.502 E33.88993
G1 X155.943 Y176.465 E33.89513
G1 X155.322 Y176.296 E33.91654
G1 X155.17 Y176.25 E33.92182
G1 X154.532 Y176.042 E33.94414
G1 X154.396 Y175.994 E33.94894
G1 X153.791 Y175.766 E33.97044
G1 X153.641 Y175.706 E33.97581
G1 X153.01 Y175.431 E33.99871
G1 X152.862 Y175.362 E34.00414
G1 X152.237 Y175.051 E34.02736
G1 X152.089 Y174.972 E34.03294
G1 X151.48 Y174.628 E34.0562
G1 X151.354 Y174.553 E34.06108
G1 X150.81 Y174.212 E34.08243
G1 X150.682 Y174.128 E34.08752
G1 X150.235 Y173.817 E34.10563
G1 X149.928 Y173.59 E34.11833
G1 X149.44 Y173.211 E34.13888
G1 X149.321 Y173.114 E34.14399
G1 X148.84 Y172.702 E34.16506
