;FLAVOR:Marlin
;TIME:5488
;Filament used: 3.80744m
;Layer height: 0.2
;MINX:77.373
;MINY:54.567
;MINZ:0.2
;MAXX:142.649
;MAXY:165.433
;MAXZ:5.8
;Generated with Cura_SteamEngine master
M82 ;absolute extrusion mode
;Sliced at: Sun 10-04-2022 15:09:29
;Basic settings: Layer height: 0.2 Walls: 0.8 Fill: 20
G21 ;metric values
G90 ;absolute positioning
M82 ;set extruder to absolute mode
M107 ;start with the fan off
M117 Start heating ...
M104 S200
M117 Homing X/Y ...
G28 X0 Y0 ;move X/Y to min endstops
M117 Homing Z ...
G28 Z0 ;move Z to min endstops
G1 Z15.0 F100 ;move the platform down 15mm
M117 Heating ...
M109 S200
M117 Start cleaning ...
G92 E0 ;zero the extruded length
G1 F200 E10 ;extrude 10mm of feed stock
G92 E0 ;zero the extruded length again
M117 Intro line ...
G1 Z2.0 F3000 ; Move Z Axis up little to prevent scratching of Heat Bed
G1 X0.1 Y20 Z0.2 F5000.0 ; Move to start position
G1 X0.1 Y200.0 Z0.2 F1500.0 E15 ; Draw the first line
G1 X0.4 Y200.0 Z0.2 F5000.0 ; Move to side a little
G1 X0.4 Y20 Z0.3 F1500.0 E30 ; Draw the second line
G92 E0 ; Reset Extruder
G1 E-1 F500 ; Retract filiment by 1 mm
G1 Z2.0 F3000 ; Move Z Axis up little to prevent scratching of Heat Bed
G1 X5 Y20 Z0.3 F100 ; Move over to prevent blob squish
G1 F100
G92 E0 ; Reset Extruder
M117 Printing...

G92 E0
G92 E0
G1 F1800 E-7
;LAYER_COUNT:28
;LAYER:0
M107
G1 F300 Z0.4
G0 F3000 X105.624 Y56.874 Z0.4
;TYPE:SKIRT
G1 F300 Z0.2
G1 F1800 E0
G1 F1200 X105.9 Y56.381 E0.01879
G1 X106.243 Y55.932 E0.03758
G1 X106.646 Y55.535 E0.0564
G1 X107.1 Y55.199 E0.07519
G1 X107.598 Y54.93 E0.09401
G1 X108.128 Y54.735 E0.11279
G1 X108.681 Y54.616 E0.13161
G1 X109.452 Y54.569 E0.1573
G1 X109.564 Y54.567 E0.16103
G1 X137.999 Y54.567 E1.10678
G1 X138.697 Y54.577 E1.13
G1 X139.261 Y54.625 E1.14882
G1 X139.811 Y54.752 E1.1676
G1 X140.339 Y54.956 E1.18642
G1 X140.833 Y55.231 E1.20523
G1 X141.282 Y55.574 E1.22402
G1 X141.679 Y55.976 E1.24281
G1 X142.016 Y56.431 E1.26164
G1 X142.284 Y56.928 E1.28042
G1 X142.48 Y57.458 E1.29922
G1 X142.6 Y58.011 E1.31804
G1 X142.647 Y58.785 E1.34383
G1 X142.649 Y58.897 E1.34756
G1 X142.649 Y160.747 E4.7351
G1 X142.64 Y161.474 E4.75928
G1 X142.593 Y162.037 E4.77807
G1 X142.467 Y162.588 E4.79687
G1 X142.265 Y163.116 E4.81568
G1 X141.99 Y163.61 E4.83448
G1 X141.648 Y164.06 E4.85328
G1 X141.246 Y164.458 E4.87209
G1 X140.793 Y164.795 E4.89087
G1 X140.296 Y165.065 E4.90969
G1 X139.766 Y165.262 E4.92849
G1 X139.214 Y165.383 E4.94729
G1 X138.431 Y165.431 E4.97338
G1 X138.319 Y165.433 E4.9771
G1 X94.999 Y165.433 E6.41793
G1 X94.325 Y165.423 E6.44035
G1 X94.099 Y165.413 E6.44788
G1 X93.242 Y165.351 E6.47646
G1 X92.36 Y165.275 E6.5059
G1 X91.719 Y165.21 E6.52733
G1 X91.147 Y165.109 E6.54665
G1 X90.253 Y164.884 E6.57731
G1 X89.493 Y164.68 E6.60348
G1 X88.848 Y164.498 E6.62577
G1 X88.301 Y164.299 E6.64513
G1 X87.443 Y163.915 E6.6764
G1 X86.781 Y163.605 E6.70071
G1 X86.138 Y163.295 E6.72445
G1 X85.633 Y163.005 E6.74382
G1 X84.884 Y162.497 E6.77392
G1 X84.225 Y162.036 E6.80067
G1 X83.684 Y161.646 E6.82285
G1 X83.241 Y161.275 E6.84207
G1 X82.571 Y160.626 E6.8731
G1 X81.983 Y160.036 E6.9008
G1 X81.549 Y159.589 E6.92152
G1 X81.182 Y159.153 E6.94048
G1 X80.651 Y158.42 E6.97058
G1 X80.187 Y157.757 E6.9975
G1 X79.812 Y157.206 E7.01967
G1 X79.523 Y156.706 E7.03887
G1 X79.102 Y155.841 E7.07087
G1 X78.795 Y155.179 E7.09514
G1 X78.505 Y154.535 E7.11863
G1 X78.305 Y153.988 E7.138
G1 X78.052 Y153.099 E7.16875
G1 X77.843 Y152.317 E7.19567
G1 X77.688 Y151.707 E7.2166
G1 X77.586 Y151.134 E7.23596
G1 X77.49 Y150.198 E7.26725
G1 X77.412 Y149.298 E7.2973
G1 X77.373 Y148.753 E7.31547
G1 X77.373 Y148.186 E7.33433
G1 X77.442 Y147.206 E7.36701
G1 X77.514 Y146.405 E7.39376
G1 X77.576 Y145.796 E7.41412
G1 X77.676 Y145.226 E7.43337
G1 X77.898 Y144.344 E7.46362
G1 X78.104 Y143.576 E7.49006
G1 X78.287 Y142.927 E7.51249
G1 X78.486 Y142.378 E7.53191
G1 X78.863 Y141.538 E7.56254
G1 X79.199 Y140.818 E7.58896
G1 X79.482 Y140.231 E7.61064
G1 X79.772 Y139.726 E7.63001
G1 X80.294 Y138.956 E7.66095
G1 X80.761 Y138.29 E7.688
G1 X81.172 Y137.724 E7.71127
G1 X81.373 Y137.47 E7.72204
G1 X82.009 Y136.729 E7.75452
G1 X83.767 Y134.624 E7.84573
G1 X85.454 Y132.483 E7.93639
G1 X87.082 Y130.294 E8.02713
G1 X88.631 Y128.082 E8.11695
G1 X90.122 Y125.82 E8.20705
G1 X91.559 Y123.5 E8.29782
G1 X92.914 Y121.168 E8.38753
G1 X94.235 Y118.741 E8.47943
G1 X95.432 Y116.38 E8.56747
G1 X96.61 Y113.886 E8.65921
G1 X97.699 Y111.401 E8.74945
G1 X98.727 Y108.868 E8.84037
G1 X99.67 Y106.328 E8.93049
G1 X100.529 Y103.806 E9.0191
G1 X101.347 Y101.16 E9.11122
G1 X102.064 Y98.584 E9.20015
G1 X102.729 Y95.907 E9.2919
G1 X103.306 Y93.27 E9.38168
G1 X103.803 Y90.627 E9.47113
G1 X104.237 Y87.915 E9.56248
G1 X104.588 Y85.236 E9.65234
G1 X104.864 Y82.538 E9.74254
G1 X105.063 Y79.839 E9.83256
G1 X105.186 Y77.133 E9.92265
G1 X105.234 Y74.057 E10.02497
G1 X105.234 Y59.181 E10.51975
G1 X105.244 Y58.516 E10.54187
G1 X105.293 Y57.953 E10.56067
G1 X105.42 Y57.402 E10.57947
G1 X105.624 Y56.874 E10.5983
G0 F3000 X106.022 Y56.97
G1 F1200 X106.296 Y56.509 E10.61614
G1 X106.636 Y56.094 E10.63398
G1 X107.034 Y55.735 E10.65181
G1 X107.48 Y55.438 E10.66963
G1 X107.966 Y55.21 E10.68749
G1 X108.48 Y55.058 E10.70531
G1 X109.143 Y54.977 E10.72753
G1 X109.564 Y54.967 E10.74153
G1 X137.994 Y54.967 E11.68712
G1 X138.692 Y54.977 E11.71034
G1 X139.226 Y55.025 E11.72817
G1 X139.747 Y55.151 E11.746
G1 X140.244 Y55.354 E11.76386
G1 X140.705 Y55.628 E11.78169
G1 X141.12 Y55.967 E11.79951
G1 X141.48 Y56.365 E11.81736
G1 X141.777 Y56.811 E11.83519
G1 X142.005 Y57.297 E11.85304
G1 X142.157 Y57.811 E11.87087
G1 X142.239 Y58.476 E11.89315
G1 X142.249 Y58.897 E11.90716
G1 X142.249 Y160.742 E15.29454
G1 X142.24 Y161.469 E15.31872
G1 X142.193 Y162.003 E15.33655
G1 X142.068 Y162.524 E15.35437
G1 X141.866 Y163.021 E15.37221
G1 X141.593 Y163.483 E15.39006
G1 X141.255 Y163.899 E15.40789
G1 X140.858 Y164.26 E15.42574
G1 X140.412 Y164.558 E15.44358
G1 X139.927 Y164.786 E15.4614
G1 X139.413 Y164.94 E15.47925
G1 X138.741 Y165.023 E15.50177
G1 X138.319 Y165.033 E15.51581
G1 X95.005 Y165.033 E16.95644
G1 X94.331 Y165.023 E16.97886
G1 X94.128 Y165.014 E16.98562
G1 X93.276 Y164.953 E17.01403
G1 X92.401 Y164.877 E17.04324
G1 X91.76 Y164.812 E17.06467
G1 X91.245 Y164.721 E17.08206
G1 X90.356 Y164.497 E17.11256
G1 X89.601 Y164.295 E17.13855
G1 X88.956 Y164.113 E17.16084
G1 X88.464 Y163.934 E17.17825
G1 X87.613 Y163.553 E17.20927
G1 X86.955 Y163.245 E17.23343
G1 X86.312 Y162.935 E17.25717
G1 X85.857 Y162.674 E17.27462
G1 X85.113 Y162.169 E17.30453
G1 X84.459 Y161.711 E17.33108
G1 X83.918 Y161.321 E17.35326
G1 X83.519 Y160.988 E17.37055
G1 X82.854 Y160.343 E17.40136
G1 X82.27 Y159.758 E17.42885
G1 X81.836 Y159.311 E17.44958
G1 X81.506 Y158.918 E17.46664
G1 X80.979 Y158.191 E17.49651
G1 X80.518 Y157.531 E17.52329
G1 X80.143 Y156.98 E17.54545
G1 X79.882 Y156.531 E17.56273
G1 X79.465 Y155.672 E17.59449
G1 X79.159 Y155.015 E17.61859
G1 X78.869 Y154.371 E17.64208
G1 X78.69 Y153.879 E17.6595
G1 X78.439 Y152.995 E17.69006
G1 X78.231 Y152.219 E17.71678
G1 X78.076 Y151.609 E17.73772
G1 X77.984 Y151.092 E17.75518
G1 X77.889 Y150.164 E17.78621
G1 X77.811 Y149.269 E17.81609
G1 X77.772 Y148.724 E17.83426
G1 X77.772 Y148.214 E17.85122
G1 X77.841 Y147.242 E17.88363
G1 X77.912 Y146.445 E17.91025
G1 X77.974 Y145.836 E17.93061
G1 X78.063 Y145.324 E17.94789
G1 X78.284 Y144.448 E17.97794
G1 X78.489 Y143.685 E18.00422
G1 X78.672 Y143.036 E18.02665
G1 X78.851 Y142.542 E18.04412
G1 X79.226 Y141.707 E18.07457
G1 X79.559 Y140.992 E18.1008
G1 X79.842 Y140.405 E18.12247
G1 X80.104 Y139.95 E18.13994
G1 X80.622 Y139.186 E18.17064
G1 X81.085 Y138.525 E18.19748
G1 X81.496 Y137.959 E18.22074
G1 X81.677 Y137.73 E18.23045
G1 X82.304 Y136.999 E18.26248
G1 X84.086 Y134.865 E18.35495
G1 X85.774 Y132.724 E18.44563
G1 X87.398 Y130.54 E18.53616
G1 X88.965 Y128.303 E18.627
G1 X90.47 Y126.02 E18.71794
G1 X91.897 Y123.716 E18.80808
G1 X93.277 Y121.339 E18.8995
G1 X94.563 Y118.975 E18.98901
G1 X95.806 Y116.525 E19.08038
G1 X96.981 Y114.039 E19.17184
G1 X98.051 Y111.595 E19.26058
G1 X99.103 Y109.003 E19.35362
G1 X100.036 Y106.491 E19.44274
G1 X100.927 Y103.873 E19.53472
G1 X101.719 Y101.313 E19.62385
G1 X102.454 Y98.674 E19.71496
G1 X103.112 Y96.025 E19.80575
G1 X103.703 Y93.325 E19.89768
G1 X104.198 Y90.693 E19.98675
G1 X104.63 Y87.993 E20.0777
G1 X104.987 Y85.261 E20.16934
G1 X105.263 Y82.572 E20.25924
G1 X105.463 Y79.85 E20.35002
G1 X105.585 Y77.157 E20.43968
G1 X105.634 Y74.063 E20.5426
G1 X105.634 Y59.187 E21.03738
G1 X105.644 Y58.522 E21.0595
G1 X105.692 Y57.988 E21.07733
G1 X105.819 Y57.467 E21.09517
G1 X106.022 Y56.97 E21.11302
G0 F3000 X106.42 Y57.071
G1 F1200 X106.692 Y56.645 E21.12983
G1 X107.028 Y56.268 E21.14663
G1 X107.419 Y55.947 E21.16346
G1 X107.856 Y55.693 E21.18027
G1 X108.327 Y55.51 E21.19707
G1 X108.822 Y55.404 E21.21391
G1 X109.474 Y55.368 E21.23563
G1 X137.988 Y55.367 E22.18401
G1 X138.686 Y55.377 E22.20723
G1 X139.189 Y55.424 E22.22403
G1 X139.679 Y55.55 E22.24086
G1 X140.143 Y55.752 E22.25769
G1 X140.569 Y56.024 E22.2745
G1 X140.947 Y56.359 E22.2913
G1 X141.267 Y56.75 E22.3081
G1 X141.522 Y57.187 E22.32493
G1 X141.705 Y57.658 E22.34174
G1 X141.812 Y58.152 E22.35855
G1 X141.848 Y58.807 E22.38037
G1 X141.849 Y160.737 E25.77057
G1 X141.84 Y161.464 E25.79476
G1 X141.794 Y161.967 E25.81156
G1 X141.669 Y162.457 E25.82838
G1 X141.468 Y162.921 E25.84519
G1 X141.197 Y163.348 E25.86201
G1 X140.862 Y163.727 E25.87884
G1 X140.472 Y164.048 E25.89564
G1 X140.036 Y164.304 E25.91246
G1 X139.565 Y164.487 E25.92926
G1 X139.071 Y164.595 E25.94608
G1 X138.409 Y164.632 E25.96813
G1 X95.011 Y164.633 E27.41156
G1 X94.337 Y164.623 E27.43398
G1 X94.156 Y164.615 E27.44
G1 X93.311 Y164.554 E27.46818
G1 X92.441 Y164.479 E27.49722
G1 X91.8 Y164.414 E27.51865
G1 X91.343 Y164.333 E27.53409
G1 X90.46 Y164.111 E27.56437
G1 X89.71 Y163.91 E27.5902
G1 X89.065 Y163.728 E27.61249
G1 X88.628 Y163.569 E27.62795
G1 X87.782 Y163.191 E27.65877
G1 X87.128 Y162.884 E27.6828
G1 X86.485 Y162.574 E27.70655
G1 X86.082 Y162.342 E27.72201
G1 X85.342 Y161.841 E27.75173
G1 X84.693 Y161.387 E27.77808
G1 X84.152 Y160.997 E27.80026
G1 X83.798 Y160.7 E27.81563
G1 X83.137 Y160.061 E27.84621
G1 X82.557 Y159.479 E27.87354
G1 X82.123 Y159.032 E27.89426
G1 X81.829 Y158.683 E27.90943
G1 X81.307 Y157.962 E27.93904
G1 X80.849 Y157.306 E27.96565
G1 X80.474 Y156.755 E27.98782
G1 X80.242 Y156.356 E28.00317
G1 X79.828 Y155.504 E28.03468
G1 X79.524 Y154.851 E28.05863
G1 X79.234 Y154.207 E28.08212
G1 X79.074 Y153.769 E28.09763
G1 X78.825 Y152.892 E28.12796
G1 X78.619 Y152.12 E28.15453
G1 X78.464 Y151.51 E28.17546
G1 X78.382 Y151.051 E28.19097
G1 X78.287 Y150.129 E28.2218
G1 X78.21 Y149.24 E28.25148
G1 X78.171 Y148.695 E28.26965
G1 X78.171 Y148.242 E28.28472
G1 X78.239 Y147.277 E28.3169
G1 X78.309 Y146.486 E28.34331
G1 X78.371 Y145.877 E28.36367
G1 X78.451 Y145.421 E28.37907
G1 X78.67 Y144.551 E28.4089
G1 X78.874 Y143.794 E28.43498
G1 X79.057 Y143.145 E28.45741
G1 X79.216 Y142.705 E28.47297
G1 X79.588 Y141.876 E28.50319
G1 X79.92 Y141.165 E28.52929
G1 X80.203 Y140.578 E28.55096
G1 X80.435 Y140.174 E28.56646
G1 X80.949 Y139.415 E28.59695
G1 X81.409 Y138.76 E28.62357
G1 X81.82 Y138.194 E28.64683
G1 X81.98 Y137.99 E28.65546
G1 X82.638 Y137.223 E28.68907
G1 X84.392 Y135.124 E28.78005
G1 X86.093 Y132.966 E28.87144
G1 X87.719 Y130.779 E28.96208
G1 X89.294 Y128.53 E29.0534
G1 X90.811 Y126.229 E29.14507
G1 X92.24 Y123.922 E29.23533
G1 X93.616 Y121.552 E29.32648
G1 X94.928 Y119.141 E29.41777
G1 X96.167 Y116.698 E29.50888
G1 X97.331 Y114.234 E29.59951
G1 X98.43 Y111.725 E29.69062
G1 X99.473 Y109.156 E29.78284
G1 X100.418 Y106.611 E29.87313
G1 X101.302 Y104.015 E29.96434
G1 X102.103 Y101.424 E30.05454
G1 X102.839 Y98.781 E30.1458
G1 X103.507 Y96.094 E30.23789
G1 X104.092 Y93.419 E30.32896
G1 X104.593 Y90.758 E30.41902
G1 X105.028 Y88.036 E30.5107
G1 X105.384 Y85.317 E30.60191
G1 X105.661 Y82.606 E30.69255
G1 X105.861 Y79.9 E30.78279
G1 X105.986 Y77.147 E30.87445
G1 X106.034 Y74.07 E30.97681
G1 X106.034 Y59.193 E31.47162
G1 X106.044 Y58.528 E31.49374
G1 X106.092 Y58.025 E31.51055
G1 X106.218 Y57.535 E31.52737
G1 X106.42 Y57.071 E31.5442
G1 F1800 E24.5442
G1 F300 Z0.4
;MESH:lamp.hanger.console.left.stl
G0 F3000 X122.126 Y73.309 Z0.4
;TYPE:WALL-INNER
G1 F300 Z0.2
G1 F1800 E31.5442
G1 F1200 X122.277 Y73.358 E31.54948
G1 X123.374 Y73.628 E31.58706
G1 X124.507 Y73.628 E31.62474
G1 X124.666 Y73.614 E31.63005
G1 X125.783 Y73.336 E31.66834
G1 X126.772 Y72.818 E31.70547
G1 X126.909 Y72.74 E31.71071
G1 X127.775 Y71.971 E31.74923
G1 X127.869 Y71.845 E31.75446
G1 X128.509 Y70.918 E31.79193
G1 X128.568 Y70.749 E31.79788
G1 X128.938 Y69.771 E31.83266
G1 X129.083 Y68.567 E31.873
G1 X128.938 Y67.363 E31.91333
G1 X128.573 Y66.4 E31.94758
G1 X128.513 Y66.22 E31.95389
G1 X127.784 Y65.168 E31.99646
G1 X126.915 Y64.401 E32.03501
G1 X126.78 Y64.319 E32.04027
G1 X125.782 Y63.798 E32.07771
G1 X124.674 Y63.524 E32.11567
G1 X124.517 Y63.505 E32.12093
G1 X123.374 Y63.506 E32.15895
G1 X122.284 Y63.775 E32.19629
G1 X122.132 Y63.821 E32.20157
G1 X121.103 Y64.362 E32.24024
G1 X120.155 Y65.201 E32.28235
G1 X119.499 Y66.154 E32.32083
G1 X119.432 Y66.296 E32.32605
G1 X119.032 Y67.355 E32.3637
G1 X118.895 Y68.485 E32.40156
G1 X118.894 Y68.642 E32.40678
G1 X119.032 Y69.78 E32.44491
G1 X119.43 Y70.826 E32.48213
G1 X119.492 Y70.972 E32.48741
G1 X120.153 Y71.927 E32.52604
G1 X120.269 Y72.034 E32.53129
G1 X121.103 Y72.771 E32.5683
G1 X122.126 Y73.309 E32.60675
G0 F3000 X122.282 Y72.939
;TYPE:WALL-OUTER
G1 F1200 X122.387 Y72.973 E32.61042
G1 X123.423 Y73.228 E32.6459
G1 X124.489 Y73.228 E32.68136
G1 X124.599 Y73.218 E32.68503
G1 X125.64 Y72.959 E32.72071
G1 X126.58 Y72.467 E32.756
G1 X126.675 Y72.413 E32.75964
G1 X127.479 Y71.699 E32.7954
G1 X127.544 Y71.612 E32.79901
G1 X128.149 Y70.735 E32.83445
G1 X128.194 Y70.607 E32.83896
G1 X128.547 Y69.675 E32.87211
G1 X128.68 Y68.567 E32.90923
G1 X128.547 Y67.459 E32.94634
G1 X128.193 Y66.527 E32.9795
G1 X128.151 Y66.4 E32.98395
G1 X127.483 Y65.436 E33.02296
G1 X126.676 Y64.724 E33.05875
G1 X126.583 Y64.667 E33.06238
G1 X125.639 Y64.175 E33.09779
G1 X124.602 Y63.918 E33.13332
G1 X124.493 Y63.905 E33.13697
G1 X123.423 Y63.906 E33.17256
G1 X122.39 Y64.161 E33.20795
G1 X122.285 Y64.193 E33.2116
G1 X121.332 Y64.694 E33.24741
G1 X120.457 Y65.468 E33.28627
G1 X119.847 Y66.354 E33.32204
G1 X119.801 Y66.452 E33.32564
G1 X119.423 Y67.451 E33.36117
G1 X119.295 Y68.511 E33.39668
G1 X119.294 Y68.62 E33.40031
G1 X119.423 Y69.683 E33.43592
G1 X119.801 Y70.677 E33.47129
G1 X119.844 Y70.778 E33.47494
G1 X120.457 Y71.663 E33.51075
G1 X120.537 Y71.737 E33.51437
G1 X121.332 Y72.439 E33.54965
G1 X122.282 Y72.939 E33.58536
G0 F3000 X122.387 Y72.973
G0 X122.474 Y72.994
G0 X122.368 Y73.421
G1 F1800 E26.58536
G1 F300 Z0.4
G0 F3000 X122.33 Y73.576 Z0.4
G0 X93.58 Y151.602
;TYPE:WALL-INNER
G1 F300 Z0.2
G1 F1800 E33.58536
G1 F1200 X94.234 Y151.681 E33.60727
G1 X94.47 Y151.68 E33.61512
G1 X95.12 Y151.602 E33.63689
G1 X95.702 Y151.381 E33.6576
G1 X95.847 Y151.33 E33.66271
G1 X96.408 Y150.943 E33.68538
G1 X96.535 Y150.849 E33.69063
G1 X97.012 Y150.313 E33.7145
G1 X97.089 Y150.176 E33.71972
G1 X97.402 Y149.582 E33.74205
G1 X97.574 Y148.89 E33.76577
G1 X97.587 Y148.733 E33.77101
G1 X97.588 Y148.044 E33.79393
G1 X97.424 Y147.377 E33.81677
G1 X97.375 Y147.227 E33.82202
G1 X97.042 Y146.594 E33.84581
G1 X96.497 Y145.98 E33.87312
G1 X95.904 Y145.569 E33.89711
G1 X95.759 Y145.507 E33.90236
G1 X95.126 Y145.266 E33.92489
G1 X94.427 Y145.181 E33.94831
G1 X94.27 Y145.182 E33.95353
G1 X93.576 Y145.266 E33.97678
G1 X92.937 Y145.508 E33.99951
G1 X92.794 Y145.574 E34.00474
G1 X92.204 Y145.979 E34.02855
G1 X91.659 Y146.594 E34.05588
G1 X91.323 Y147.231 E34.07983
G1 X91.276 Y147.381 E34.08506
G1 X91.113 Y148.043 E34.10773
G1 X91.113 Y148.74 E34.13092
G1 X91.13 Y148.897 E34.13617
G1 X91.298 Y149.581 E34.15959
G1 X91.615 Y150.183 E34.18222
G1 X91.696 Y150.318 E34.18746
G1 X92.17 Y150.856 E34.21131
G1 X92.857 Y151.334 E34.23914
G1 X93.001 Y151.381 E34.24418
G1 X93.58 Y151.602 E34.2648
