;FLAVOR:Marlin
;TIME:8944
;Filament used: 6.41246m
;Layer height: 0.2
;MINX:91.292
;MINY:20.975
;MINZ:0.2
;MAXX:128.708
;MAXY:199.007
;MAXZ:8.8
;Generated with Cura_SteamEngine master
M82 ;absolute extrusion mode
;Sliced at: Mon 22-08-2022 21:30:01
;Basic settings: Layer height: 0.2 Walls: 0.8 Fill: 30.0
G21 ;metric values
G90 ;absolute positioning
M82 ;set extruder to absolute mode
M107 ;start with the fan off
M117 Start heating ...
M104 S200
M117 Homing X/Y ...
G28 X0 Y0 ;move X/Y to min endstops
M117 Homing Z ...
G28 Z0 ;move Z to min endstops
G1 Z15.0 F100 ;move the platform down 15mm
M117 Heating ...
M109 S200
M117 Start cleaning ...
G92 E0 ;zero the extruded length
G1 F200 E10 ;extrude 10mm of feed stock
G92 E0 ;zero the extruded length again
M117 Intro line ...
G1 Z2.0 F3000 ; Move Z Axis up little to prevent scratching of Heat Bed
G1 X0.1 Y20 Z0.2 F5000.0 ; Move to start position
G1 X0.1 Y200.0 Z0.2 F1500.0 E15 ; Draw the first line
G1 X0.4 Y200.0 Z0.2 F5000.0 ; Move to side a little
G1 X0.4 Y20 Z0.3 F1500.0 E30 ; Draw the second line
G92 E0 ; Reset Extruder
G1 E-1 F500 ; Retract filiment by 1 mm
G1 Z2.0 F3000 ; Move Z Axis up little to prevent scratching of Heat Bed
G1 X5 Y20 Z0.3 F100 ; Move over to prevent blob squish
G1 F100
G92 E0 ; Reset Extruder
M117 Printing...

G92 E0
G92 E0
G1 F1800 E-7
;LAYER_COUNT:43
;LAYER:0
M107
G1 F300 Z0.4
G0 F3000 X91.478 Y23.81 Z0.4
;TYPE:SKIRT
G1 F300 Z0.2
G1 F1800 E0
G1 F1200 X91.682 Y23.282 E0.01883
G1 X91.958 Y22.789 E0.03762
G1 X92.301 Y22.34 E0.05641
G1 X92.704 Y21.943 E0.07523
G1 X93.158 Y21.607 E0.09401
G1 X93.656 Y21.338 E0.11284
G1 X94.186 Y21.143 E0.13162
G1 X94.739 Y21.024 E0.15043
G1 X95.51 Y20.977 E0.17613
G1 X95.622 Y20.975 E0.17985
G1 X124.053 Y20.975 E1.12547
G1 X124.751 Y20.984 E1.14869
G1 X125.314 Y21.032 E1.16748
G1 X125.865 Y21.158 E1.18628
G1 X126.393 Y21.36 E1.20508
G1 X126.887 Y21.635 E1.22389
G1 X127.337 Y21.977 E1.24269
G1 X127.735 Y22.379 E1.2615
G1 X128.071 Y22.833 E1.28029
G1 X128.341 Y23.33 E1.2991
G1 X128.538 Y23.86 E1.31791
G1 X128.658 Y24.412 E1.33669
G1 X128.706 Y25.193 E1.36272
G1 X128.708 Y25.305 E1.36645
G1 X128.708 Y179.667 E6.50055
G1 X128.698 Y180.372 E6.524
G1 X128.656 Y181.132 E6.54931
G1 X128.566 Y182.271 E6.58732
G1 X128.5 Y182.982 E6.61106
G1 X128.368 Y183.738 E6.63659
G1 X128.342 Y183.856 E6.64061
G1 X128.039 Y185.121 E6.68387
G1 X127.854 Y185.847 E6.70879
G1 X127.583 Y186.632 E6.73641
G1 X127.541 Y186.739 E6.74024
G1 X127.085 Y187.84 E6.77987
G1 X126.767 Y188.575 E6.80651
G1 X126.37 Y189.319 E6.83456
G1 X126.31 Y189.421 E6.83849
G1 X125.655 Y190.487 E6.88011
G1 X125.273 Y191.092 E6.9039
G1 X124.756 Y191.774 E6.93237
G1 X123.887 Y192.792 E6.97688
G1 X123.395 Y193.352 E7.00168
G1 X122.791 Y193.933 E7.02955
G1 X122.707 Y194.008 E7.0333
G1 X121.789 Y194.792 E7.07345
G1 X121.184 Y195.292 E7.09956
G1 X120.578 Y195.719 E7.12421
G1 X120.481 Y195.781 E7.12804
G1 X119.34 Y196.481 E7.17256
G1 X118.717 Y196.851 E7.19666
G1 X117.982 Y197.209 E7.22386
G1 X117.876 Y197.255 E7.2277
G1 X116.654 Y197.761 E7.27169
G1 X116.017 Y198.014 E7.29449
G1 X115.227 Y198.254 E7.32195
G1 X113.961 Y198.559 E7.36526
G1 X113.178 Y198.736 E7.39196
G1 X112.372 Y198.849 E7.41903
G1 X112.26 Y198.86 E7.42277
G1 X110.98 Y198.96 E7.46547
G1 X110.256 Y199.007 E7.48961
G1 X109.458 Y198.993 E7.51615
G1 X109.345 Y198.986 E7.51992
G1 X108.045 Y198.883 E7.56329
G1 X107.335 Y198.817 E7.58701
G1 X106.579 Y198.685 E7.61253
G1 X106.461 Y198.659 E7.61655
G1 X105.195 Y198.356 E7.65985
G1 X104.466 Y198.17 E7.68487
G1 X103.683 Y197.899 E7.71243
G1 X103.579 Y197.858 E7.71615
G1 X102.396 Y197.368 E7.75874
G1 X101.747 Y197.089 E7.78223
G1 X101.044 Y196.714 E7.80873
G1 X99.877 Y196.001 E7.85422
G1 X99.225 Y195.59 E7.87985
G1 X98.543 Y195.073 E7.90832
G1 X97.525 Y194.204 E7.95283
G1 X96.965 Y193.712 E7.97763
G1 X96.384 Y193.108 E8.0055
G1 X96.308 Y193.022 E8.00932
G1 X95.48 Y192.051 E8.05176
G1 X95.026 Y191.503 E8.07543
G1 X94.598 Y190.895 E8.10016
G1 X94.536 Y190.798 E8.10399
G1 X93.832 Y189.65 E8.14878
G1 X93.466 Y189.034 E8.17261
G1 X93.108 Y188.299 E8.1998
G1 X93.062 Y188.193 E8.20365
G1 X92.558 Y186.974 E8.24752
G1 X92.304 Y186.336 E8.27036
G1 X92.061 Y185.536 E8.29817
G1 X91.758 Y184.278 E8.34121
G1 X91.58 Y183.487 E8.36817
G1 X91.468 Y182.694 E8.39481
G1 X91.457 Y182.577 E8.39872
G1 X91.357 Y181.295 E8.44149
G1 X91.305 Y180.465 E8.46915
G1 X91.292 Y179.813 E8.49084
G1 X91.292 Y25.589 E13.62035
G1 X91.302 Y24.924 E13.64247
G1 X91.351 Y24.361 E13.66127
G1 X91.478 Y23.81 E13.68007
G0 F3000 X91.877 Y23.875
G1 F1200 X92.08 Y23.378 E13.69793
G1 X92.354 Y22.917 E13.71577
G1 X92.694 Y22.502 E13.73361
G1 X93.092 Y22.143 E13.75144
G1 X93.538 Y21.846 E13.76926
G1 X94.024 Y21.618 E13.78711
G1 X94.538 Y21.466 E13.80494
G1 X95.201 Y21.385 E13.82716
G1 X95.622 Y21.375 E13.84116
G1 X124.047 Y21.375 E14.78658
G1 X124.745 Y21.384 E14.8098
G1 X125.28 Y21.431 E14.82766
G1 X125.801 Y21.557 E14.84549
G1 X126.298 Y21.759 E14.86333
G1 X126.759 Y22.032 E14.88115
G1 X127.175 Y22.371 E14.899
G1 X127.536 Y22.767 E14.91682
G1 X127.834 Y23.213 E14.93467
G1 X128.062 Y23.699 E14.95252
G1 X128.215 Y24.213 E14.97036
G1 X128.298 Y24.883 E14.99281
G1 X128.308 Y25.305 E15.00685
G1 X128.308 Y179.661 E20.14075
G1 X128.295 Y180.472 E20.16773
G1 X128.257 Y181.106 E20.18885
G1 X128.168 Y182.234 E20.22649
G1 X128.102 Y182.945 E20.25024
G1 X127.977 Y183.657 E20.27428
G1 X127.652 Y185.022 E20.32095
G1 X127.467 Y185.748 E20.34587
G1 X127.209 Y186.49 E20.372
G1 X127.171 Y186.586 E20.37543
G1 X126.694 Y187.736 E20.41684
G1 X126.4 Y188.417 E20.44151
G1 X126.023 Y189.12 E20.46804
G1 X125.969 Y189.211 E20.47156
G1 X125.317 Y190.273 E20.51301
G1 X124.935 Y190.878 E20.53681
G1 X124.445 Y191.522 E20.56372
G1 X123.586 Y192.528 E20.60772
G1 X123.094 Y193.088 E20.63251
G1 X122.523 Y193.637 E20.65886
G1 X122.447 Y193.704 E20.66223
G1 X121.486 Y194.523 E20.70423
G1 X120.929 Y194.984 E20.72827
G1 X120.359 Y195.384 E20.75143
G1 X120.272 Y195.44 E20.75488
G1 X119.135 Y196.137 E20.79923
G1 X118.512 Y196.507 E20.82333
G1 X117.818 Y196.844 E20.84899
G1 X117.723 Y196.885 E20.85243
G1 X116.506 Y197.389 E20.89625
G1 X115.869 Y197.642 E20.91904
G1 X115.123 Y197.867 E20.94496
G1 X115.027 Y197.892 E20.94826
G1 X113.823 Y198.18 E20.98943
G1 X113.09 Y198.346 E21.01443
G1 X112.33 Y198.452 E21.03995
G1 X111.002 Y198.557 E21.08426
G1 X110.23 Y198.607 E21.10999
G1 X109.478 Y198.593 E21.13501
G1 X109.376 Y198.587 E21.1384
G1 X108.082 Y198.485 E21.18158
G1 X107.372 Y198.419 E21.20529
G1 X106.66 Y198.294 E21.22934
G1 X105.346 Y197.981 E21.27426
G1 X104.565 Y197.782 E21.30107
G1 X103.826 Y197.526 E21.32708
G1 X102.554 Y197 E21.37286
G1 X101.905 Y196.721 E21.39636
G1 X101.244 Y196.368 E21.42128
G1 X100.044 Y195.634 E21.46807
G1 X99.439 Y195.252 E21.49187
G1 X98.795 Y194.762 E21.51878
G1 X97.789 Y193.903 E21.56278
G1 X97.229 Y193.411 E21.58757
G1 X96.68 Y192.84 E21.61392
G1 X96.612 Y192.763 E21.61733
G1 X95.788 Y191.796 E21.65959
G1 X95.334 Y191.248 E21.68326
G1 X94.933 Y190.676 E21.70649
G1 X94.877 Y190.588 E21.70996
G1 X94.176 Y189.446 E21.75453
G1 X93.81 Y188.83 E21.77836
G1 X93.473 Y188.135 E21.80405
G1 X93.432 Y188.04 E21.80749
G1 X92.929 Y186.826 E21.8512
G1 X92.675 Y186.188 E21.87404
G1 X92.448 Y185.433 E21.90026
G1 X92.425 Y185.344 E21.90332
G1 X92.136 Y184.136 E21.94463
G1 X91.97 Y183.399 E21.96976
G1 X91.866 Y182.651 E21.99488
G1 X91.856 Y182.546 E21.99838
G1 X91.756 Y181.27 E22.04095
G1 X91.709 Y180.541 E22.06525
G1 X91.692 Y179.808 E22.08964
G1 X91.692 Y25.595 E27.21878
G1 X91.702 Y24.93 E27.2409
G1 X91.75 Y24.396 E27.25874
G1 X91.877 Y23.875 E27.27657
G0 F3000 X92.276 Y23.943
G1 F1200 X92.478 Y23.479 E27.2934
G1 X92.75 Y23.053 E27.31021
G1 X93.086 Y22.676 E27.32701
G1 X93.477 Y22.355 E27.34384
G1 X93.914 Y22.101 E27.36065
G1 X94.385 Y21.918 E27.37745
G1 X94.88 Y21.812 E27.39429
G1 X95.532 Y21.776 E27.41601
G1 X124.042 Y21.775 E28.36426
G1 X124.74 Y21.784 E28.38747
G1 X125.244 Y21.831 E28.40431
G1 X125.734 Y21.956 E28.42113
G1 X126.198 Y22.157 E28.43795
G1 X126.624 Y22.428 E28.45474
G1 X127.003 Y22.763 E28.47156
G1 X127.324 Y23.154 E28.48839
G1 X127.579 Y23.59 E28.50519
G1 X127.763 Y24.061 E28.52201
G1 X127.87 Y24.555 E28.53882
G1 X127.907 Y25.215 E28.56081
G1 X127.908 Y179.655 E33.6975
G1 X127.898 Y180.36 E33.72095
G1 X127.858 Y181.079 E33.7449
G1 X127.769 Y182.197 E33.78221
G1 X127.703 Y182.908 E33.80596
G1 X127.585 Y183.576 E33.82852
G1 X127.275 Y184.878 E33.87303
G1 X127.079 Y185.649 E33.89949
G1 X126.835 Y186.348 E33.92412
G1 X126.327 Y187.577 E33.96835
G1 X126.033 Y188.258 E33.99302
G1 X125.676 Y188.921 E34.01806
G1 X125 Y190.025 E34.06112
G1 X124.597 Y190.664 E34.08625
G1 X124.135 Y191.27 E34.11159
G1 X123.286 Y192.264 E34.15507
G1 X122.794 Y192.824 E34.17986
G1 X122.255 Y193.34 E34.20468
G1 X121.231 Y194.215 E34.24948
G1 X120.674 Y194.676 E34.27353
G1 X120.14 Y195.05 E34.29521
G1 X118.972 Y195.769 E34.34083
G1 X118.308 Y196.163 E34.36651
G1 X117.655 Y196.479 E34.39064
G1 X117.57 Y196.516 E34.39372
G1 X116.358 Y197.017 E34.43734
G1 X115.721 Y197.27 E34.46014
G1 X115.019 Y197.481 E34.48452
G1 X113.774 Y197.781 E34.52711
G1 X113.002 Y197.956 E34.55344
G1 X112.287 Y198.054 E34.57744
G1 X110.928 Y198.161 E34.62278
G1 X110.204 Y198.208 E34.64691
G1 X109.498 Y198.194 E34.6704
G1 X108.164 Y198.09 E34.7149
G1 X107.409 Y198.02 E34.74012
G1 X106.741 Y197.902 E34.76269
G1 X105.393 Y197.581 E34.80877
G1 X104.664 Y197.395 E34.8338
G1 X103.968 Y197.152 E34.85832
G1 X102.752 Y196.65 E34.90207
G1 X102.063 Y196.354 E34.92701
G1 X101.444 Y196.022 E34.95038
G1 X100.258 Y195.296 E34.99663
G1 X99.653 Y194.914 E35.02042
G1 X99.047 Y194.452 E35.04577
G1 X98.053 Y193.603 E35.08925
G1 X97.493 Y193.111 E35.11404
G1 X96.977 Y192.572 E35.13886
G1 X96.096 Y191.541 E35.18396
G1 X95.642 Y190.993 E35.20763
G1 X95.267 Y190.457 E35.22939
G1 X94.52 Y189.242 E35.27683
G1 X94.154 Y188.626 E35.30066
G1 X93.838 Y187.972 E35.32482
G1 X93.801 Y187.887 E35.3279
G1 X93.301 Y186.678 E35.37142
G1 X93.047 Y186.04 E35.39426
G1 X92.834 Y185.33 E35.41891
G1 X92.526 Y184.048 E35.46276
G1 X92.36 Y183.311 E35.48789
G1 X92.263 Y182.608 E35.51149
G1 X92.156 Y181.244 E35.557
G1 X92.104 Y180.434 E35.584
G1 X92.092 Y179.804 E35.60495
G1 X92.092 Y25.601 E40.73377
G1 X92.102 Y24.936 E40.75589
G1 X92.15 Y24.433 E40.77269
G1 X92.276 Y23.943 E40.78952
G1 F1800 E33.78952
G1 F300 Z0.4
G0 F3000 X108.269 Y31.905 Z0.4
;TYPE:SUPPORT
G1 F300 Z0.2
G1 F1800 E40.78952
G1 F1200 X111.815 Y31.905 E40.90746
G1 X113.587 Y34.975 E41.02536
G1 X111.815 Y38.046 E41.14328
G1 X108.269 Y38.046 E41.26122
G1 X106.497 Y34.975 E41.37915
G1 X108.269 Y31.905 E41.49705
G1 F1800 E34.49705
G1 F300 Z0.4
G0 F3000 X107.556 Y33.682 Z0.4
G1 F300 Z0.2
G1 F1800 E41.49705
G1 F1200 X107.323 Y34.287 E41.51861
G1 X107.246 Y34.95 E41.54081
G1 X107.316 Y35.622 E41.56328
G1 X107.562 Y36.287 E41.58686
G1 X107.94 Y36.822 E41.60865
G1 X108.433 Y37.276 E41.63094
G1 X109.051 Y37.594 E41.65406
G1 X109.733 Y37.756 E41.67737
G1 X110.37 Y37.756 E41.69856
G1 X111.019 Y37.603 E41.72074
G1 X111.64 Y37.283 E41.74397
G1 X112.146 Y36.822 E41.76674
G1 X112.532 Y36.274 E41.78903
G1 X112.767 Y35.628 E41.8119
G1 X112.841 Y34.945 E41.83475
G1 X112.756 Y34.296 E41.85652
G1 X112.521 Y33.667 E41.87885
G1 X112.129 Y33.109 E41.90153
G1 X111.636 Y32.676 E41.92336
G1 X111.044 Y32.36 E41.94568
G1 X110.383 Y32.194 E41.96834
G1 X109.665 Y32.194 E41.99222
G1 X109.065 Y32.358 E42.01291
G1 X108.484 Y32.646 E42.03448
G1 X107.932 Y33.123 E42.05874
G1 X107.556 Y33.682 E42.08115
G0 F3000 X107.117 Y34.671
G1 F1200 X106.857 Y34.671 E42.0898
G1 F1800 E35.0898
G1 F300 Z0.4
G0 F3000 X108.045 Y37.338 Z0.4
G1 F300 Z0.2
G1 F1800 E42.0898
G1 F1200 X108.265 Y37.338 E42.09712
G1 F1800 E35.09712
G1 F300 Z0.4
G0 F3000 X111.816 Y37.338 Z0.4
G1 F300 Z0.2
G1 F1800 E42.09712
G1 F1200 X112.038 Y37.338 E42.1045
G1 X112.014 Y37.383
G1 X112.014 Y37.158 E42.11198
G1 F1800 E35.11198
G1 F300 Z0.4
G0 F3000 X112.965 Y34.671 Z0.4
G1 F300 Z0.2
G1 F1800 E42.11198
G1 F1200 X113.228 Y34.671 E42.12073
G1 F1800 E35.12073
G1 F300 Z0.4
G0 F3000 X112.014 Y32.793 Z0.4
G1 F300 Z0.2
G1 F1800 E42.12073
G1 F1200 X112.014 Y32.569 E42.12818
G1 F1800 E35.12818
G1 F300 Z0.4
;MESH:lamp.hanger_console_nut.stl
G0 F3000 X104.649 Y34.975 Z0.4
;TYPE:WALL-INNER
G1 F300 Z0.2
G1 F1800 E42.12818
G1 F1200 X107.346 Y39.646 E42.30758
G1 X112.738 Y39.646 E42.48692
G1 X115.435 Y34.975 E42.66631
G1 X112.738 Y30.305 E42.84568
G1 X107.346 Y30.305 E43.02502
G1 X104.649 Y34.975 E43.20438
G0 F3000 X105.111 Y34.975
;TYPE:WALL-OUTER
G1 F1200 X107.577 Y39.246 E43.36841
G1 X112.507 Y39.246 E43.53239
G1 X114.973 Y34.975 E43.69642
G1 X112.507 Y30.705 E43.86042
G1 X107.577 Y30.705 E44.0244
G1 X105.111 Y34.975 E44.1884
G0 F3000 X105.211 Y35.148
G0 X104.829 Y35.368
G1 F1800 E37.1884
G1 F300 Z0.4
G0 F3000 X104.691 Y35.448 Z0.4
G0 X108.864 Y183.313
;TYPE:WALL-INNER
G1 F300 Z0.2
G1 F1800 E44.1884
G1 F1200 X109.614 Y183.498 E44.21409
G1 X110.386 Y183.498 E44.23977
G1 X111.136 Y183.313 E44.26546
G1 X111.82 Y182.955 E44.29114
G1 X112.399 Y182.442 E44.31687
G1 X112.837 Y181.806 E44.34255
G1 X113.111 Y181.083 E44.36827
G1 X113.204 Y180.317 E44.39393
G1 X113.111 Y179.551 E44.4196
G1 X112.837 Y178.828 E44.44531
G1 X112.399 Y178.192 E44.471
G1 X111.82 Y177.679 E44.49673
G1 X111.136 Y177.321 E44.5224
G1 X110.386 Y177.136 E44.5481
G1 X109.614 Y177.136 E44.57377
G1 X108.864 Y177.321 E44.59947
G1 X108.18 Y177.679 E44.62514
G1 X107.601 Y178.192 E44.65087
G1 X107.163 Y178.828 E44.67656
G1 X106.889 Y179.551 E44.70227
G1 X106.796 Y180.317 E44.72794
G1 X106.889 Y181.083 E44.7536
G1 X107.163 Y181.806 E44.77932
G1 X107.601 Y182.442 E44.805
G1 X108.18 Y182.955 E44.83073
G1 X108.864 Y183.313 E44.85641
G0 F3000 X109.007 Y182.936
;TYPE:WALL-OUTER
G1 F1200 X109.663 Y183.098 E44.87888
G1 X110.337 Y183.098 E44.9013
G1 X110.993 Y182.936 E44.92377
G1 X111.591 Y182.623 E44.94622
G1 X112.097 Y182.175 E44.9687
G1 X112.48 Y181.619 E44.99116
G1 X112.72 Y180.987 E45.01364
G1 X112.801 Y180.317 E45.03609
G1 X112.72 Y179.647 E45.05854
G1 X112.48 Y179.015 E45.08102
G1 X112.097 Y178.459 E45.10348
G1 X111.591 Y178.011 E45.12595
G1 X110.993 Y177.698 E45.1484
G1 X110.337 Y177.536 E45.17088
G1 X109.663 Y177.536 E45.1933
G1 X109.007 Y177.698 E45.21577
G1 X108.409 Y178.011 E45.23822
G1 X107.903 Y178.459 E45.2607
G1 X107.52 Y179.015 E45.28315
G1 X107.28 Y179.647 E45.30564
G1 X107.199 Y180.317 E45.32808
G1 X107.28 Y180.987 E45.35053
G1 X107.52 Y181.619 E45.37302
G1 X107.903 Y182.175 E45.39547
G1 X108.409 Y182.623 E45.41795
G1 X109.007 Y182.936 E45.4404
G0 F3000 X109.201 Y182.984
G0 X109.096 Y183.41
G1 F1800 E38.4404
G1 F300 Z0.4
G0 F3000 X109.056 Y183.565 Z0.4
G0 X112.209 Y194.249
;TYPE:WALL-INNER
G1 F300 Z0.2
G1 F1800 E45.4404
G1 F1200 X110 Y194.424 E45.5141
G1 X107.791 Y194.249 E45.5878
G1 X105.649 Y193.735 E45.66107
G1 X103.596 Y192.885 E45.73497
G1 X101.706 Y191.727 E45.80869
G1 X100.026 Y190.291 E45.8822
G1 X98.59 Y188.611 E45.95571
G1 X97.432 Y186.721 E46.02943
G1 X96.582 Y184.668 E46.10334
G1 X96.068 Y182.526 E46.1766
G1 X95.892 Y180.299 E46.2509
G1 X95.892 Y25.575 E51.39704
G1 X124.108 Y25.575 E52.33551
G1 X124.108 Y180.299 E57.48165
G1 X123.932 Y182.526 E57.55596
G1 X123.418 Y184.668 E57.62922
G1 X122.568 Y186.721 E57.70313
G1 X121.41 Y188.611 E57.77685
G1 X119.974 Y190.291 E57.85036
G1 X118.294 Y191.727 E57.92386
G1 X116.404 Y192.885 E57.99759
G1 X114.351 Y193.735 E58.07149
G1 X112.209 Y194.249 E58.14476
G0 F3000 X112.27 Y194.646
;TYPE:WALL-OUTER
G1 F1200 X110 Y194.825 E58.22049
G1 X107.73 Y194.646 E58.29623
G1 X105.522 Y194.116 E58.37175
G1 X103.416 Y193.244 E58.44756
G1 X101.47 Y192.051 E58.52348
G1 X99.742 Y190.575 E58.59907
G1 X98.266 Y188.847 E58.67465
G1 X97.073 Y186.901 E58.75057
G1 X96.201 Y184.795 E58.82639
G1 X95.671 Y182.587 E58.90191
G1 X95.492 Y180.317 E58.97764
G1 X95.492 Y25.175 E64.13769
G1 X124.508 Y25.175 E65.10276
G1 X124.508 Y180.317 E70.26281
G1 X124.329 Y182.587 E70.33854
G1 X123.799 Y184.795 E70.41407
G1 X122.927 Y186.901 E70.48988
G1 X121.734 Y188.847 E70.5658
G1 X120.258 Y190.575 E70.64139
G1 X118.53 Y192.051 E70.71697
