;FLAVOR:Marlin
;TIME:5913
;Filament used: 3.6696m
;Layer height: 0.2
;MINX:91.006
;MINY:69.734
;MINZ:0.2
;MAXX:128.994
;MAXY:150.289
;MAXZ:23.8
;Generated with Cura_SteamEngine master
M82 ;absolute extrusion mode
;Sliced at: Sat 09-07-2022 12:31:45
;Basic settings: Layer height: 0.2 Walls: 0.8 Fill: 30
G21 ;metric values
G90 ;absolute positioning
M82 ;set extruder to absolute mode
M107 ;start with the fan off
M117 Start heating ...
M104 S200
M117 Homing X/Y ...
G28 X0 Y0 ;move X/Y to min endstops
M117 Homing Z ...
G28 Z0 ;move Z to min endstops
G1 Z15.0 F100 ;move the platform down 15mm
M117 Heating ...
M109 S200
M117 Start cleaning ...
G92 E0 ;zero the extruded length
G1 F200 E10 ;extrude 10mm of feed stock
G92 E0 ;zero the extruded length again
M117 Intro line ...
G1 Z2.0 F3000 ; Move Z Axis up little to prevent scratching of Heat Bed
G1 X0.1 Y20 Z0.2 F5000.0 ; Move to start position
G1 X0.1 Y200.0 Z0.2 F1500.0 E15 ; Draw the first line
G1 X0.4 Y200.0 Z0.2 F5000.0 ; Move to side a little
G1 X0.4 Y20 Z0.3 F1500.0 E30 ; Draw the second line
G92 E0 ; Reset Extruder
G1 E-1 F500 ; Retract filiment by 1 mm
G1 Z2.0 F3000 ; Move Z Axis up little to prevent scratching of Heat Bed
G1 X5 Y20 Z0.3 F100 ; Move over to prevent blob squish
G1 F100
G92 E0 ; Reset Extruder
M117 Printing...

G92 E0
G92 E0
G1 F1800 E-7
;LAYER_COUNT:118
;LAYER:0
M107
G1 F300 Z0.4
G0 F3000 X94.981 Y77.234 Z0.4
;TYPE:SKIRT
G1 F300 Z0.2
G1 F1800 E0
G1 F1200 X95.326 Y76.819 E0.01795
G1 X95.99 Y76.041 E0.05197
G1 X96.504 Y75.457 E0.07784
G1 X96.913 Y75.049 E0.09706
G1 X97.319 Y74.692 E0.11504
G1 X98.19 Y73.948 E0.15314
G1 X98.692 Y73.531 E0.17485
G1 X99.144 Y73.197 E0.19354
G1 X99.592 Y72.909 E0.21125
G1 X100.604 Y72.29 E0.25071
G1 X101.241 Y71.913 E0.27533
G1 X101.732 Y71.663 E0.29365
G1 X102.468 Y71.347 E0.32029
G1 X103.32 Y70.995 E0.35096
G1 X103.841 Y70.788 E0.3696
G1 X104.399 Y70.602 E0.38916
G1 X105.52 Y70.311 E0.42769
G1 X106.145 Y70.161 E0.44906
G1 X106.819 Y70.009 E0.47204
G1 X107.4 Y69.917 E0.49161
G1 X108.15 Y69.848 E0.51666
G1 X109.026 Y69.78 E0.54588
G1 X109.755 Y69.735 E0.57017
G1 X110.306 Y69.734 E0.5885
G1 X111.301 Y69.794 E0.62166
G1 X112.072 Y69.855 E0.64738
G1 X112.744 Y69.918 E0.66983
G1 X113.256 Y69.997 E0.68706
G1 X113.636 Y70.077 E0.69997
G1 X114.931 Y70.387 E0.74426
G1 X115.497 Y70.532 E0.7637
G1 X115.98 Y70.68 E0.7805
G1 X116.223 Y70.767 E0.78908
G1 X117.033 Y71.087 E0.81805
G1 X117.734 Y71.377 E0.84328
G1 X118.436 Y71.681 E0.86873
G1 X119.113 Y72.04 E0.89421
G1 X119.218 Y72.102 E0.89827
G1 X120.303 Y72.766 E0.94058
G1 X120.955 Y73.179 E0.96625
G1 X121.399 Y73.502 E0.98451
G1 X121.981 Y73.983 E1.00962
G1 X122.708 Y74.605 E1.04144
G1 X123.256 Y75.088 E1.06574
G1 X123.67 Y75.506 E1.08531
G1 X124.017 Y75.9 E1.10277
G1 X124.755 Y76.765 E1.14059
G1 X125.201 Y77.302 E1.16381
G1 X125.558 Y77.797 E1.1841
G1 X125.889 Y78.321 E1.20472
G1 X126.406 Y79.168 E1.23772
G1 X126.675 Y79.625 E1.25536
G1 X127.086 Y80.411 E1.28486
G1 X127.355 Y81.039 E1.30758
G1 X127.686 Y81.839 E1.33638
G1 X128.007 Y82.65 E1.36539
G1 X128.134 Y83.056 E1.37954
G1 X128.322 Y83.795 E1.4049
G1 X128.526 Y84.647 E1.43404
G1 X128.687 Y85.367 E1.45858
G1 X128.763 Y85.843 E1.47461
G1 X128.878 Y87.003 E1.51338
G1 X128.929 Y87.658 E1.53523
G1 X128.976 Y88.381 E1.55933
G1 X128.994 Y89.145 E1.58475
G1 X128.994 Y145.608 E3.46272
G1 X128.984 Y146.335 E3.4869
G1 X128.936 Y146.898 E3.50569
G1 X128.809 Y147.449 E3.5245
G1 X128.606 Y147.977 E3.54331
G1 X128.331 Y148.471 E3.56212
G1 X127.989 Y148.921 E3.58092
G1 X127.586 Y149.318 E3.59973
G1 X127.132 Y149.654 E3.61852
G1 X126.635 Y149.923 E3.63731
G1 X126.105 Y150.12 E3.65612
G1 X125.552 Y150.239 E3.67493
G1 X124.776 Y150.287 E3.70079
G1 X124.664 Y150.289 E3.70452
G1 X95.661 Y150.289 E4.66916
G1 X94.963 Y150.28 E4.69238
G1 X94.4 Y150.232 E4.71117
G1 X93.849 Y150.106 E4.72997
G1 X93.321 Y149.904 E4.74878
G1 X92.827 Y149.629 E4.76758
G1 X92.377 Y149.287 E4.78638
G1 X91.979 Y148.885 E4.80519
G1 X91.643 Y148.431 E4.82398
G1 X91.373 Y147.934 E4.84279
G1 X91.176 Y147.404 E4.8616
G1 X91.056 Y146.852 E4.88039
G1 X91.007 Y146.055 E4.90694
G1 X91.006 Y89.286 E6.79509
G1 X91.017 Y88.568 E6.81897
G1 X91.049 Y88.123 E6.83381
G1 X91.233 Y86.682 E6.88213
G1 X91.319 Y86.072 E6.90262
G1 X91.347 Y85.901 E6.90838
G1 X91.453 Y85.329 E6.92773
G1 X91.482 Y85.186 E6.93258
G1 X91.616 Y84.588 E6.95297
G1 X91.829 Y83.702 E6.98327
G1 X91.989 Y83.075 E7.0048
G1 X92.27 Y82.258 E7.03353
G1 X92.799 Y80.977 E7.07963
G1 X93.055 Y80.381 E7.1012
G1 X93.276 Y79.942 E7.11755
G1 X93.916 Y78.848 E7.15971
G1 X94.188 Y78.405 E7.177
G1 X94.611 Y77.737 E7.20329
G1 X94.981 Y77.234 E7.22406
G0 F3000 X95.295 Y77.482
G1 F1200 X95.63 Y77.078 E7.24152
G1 X96.291 Y76.306 E7.27532
G1 X96.805 Y75.722 E7.3012
G1 X97.186 Y75.342 E7.31909
G1 X97.609 Y74.97 E7.33783
G1 X98.446 Y74.256 E7.37442
G1 X98.948 Y73.839 E7.39613
G1 X99.361 Y73.533 E7.41322
G1 X99.801 Y73.25 E7.43062
G1 X100.807 Y72.634 E7.46986
G1 X101.444 Y72.257 E7.49448
G1 X101.89 Y72.03 E7.51112
G1 X102.621 Y71.716 E7.53758
G1 X103.468 Y71.366 E7.56806
G1 X103.989 Y71.159 E7.58671
G1 X104.5 Y70.989 E7.60462
G1 X105.614 Y70.7 E7.6429
G1 X106.233 Y70.551 E7.66408
G1 X106.907 Y70.399 E7.68706
G1 X107.437 Y70.315 E7.7049
G1 X108.182 Y70.247 E7.72979
G1 X109.051 Y70.179 E7.75878
G1 X109.661 Y70.14 E7.77911
G1 X110.282 Y70.133 E7.79976
G1 X111.269 Y70.193 E7.83265
G1 X112.035 Y70.254 E7.85821
G1 X112.707 Y70.317 E7.88066
G1 X113.436 Y70.443 E7.90527
G1 X113.543 Y70.466 E7.90891
G1 X114.831 Y70.775 E7.95296
G1 X115.397 Y70.92 E7.97239
G1 X116.076 Y71.139 E7.99612
G1 X116.88 Y71.456 E8.02487
G1 X117.575 Y71.744 E8.04989
G1 X118.277 Y72.048 E8.07533
G1 X118.915 Y72.387 E8.09936
G1 X120.04 Y73.073 E8.14319
G1 X120.741 Y73.517 E8.17079
G1 X121.144 Y73.81 E8.18736
G1 X121.721 Y74.287 E8.21226
G1 X122.443 Y74.905 E8.24387
G1 X122.991 Y75.388 E8.26816
G1 X123.375 Y75.777 E8.28634
G1 X123.716 Y76.164 E8.3035
G1 X124.447 Y77.021 E8.34096
G1 X124.893 Y77.558 E8.36418
G1 X125.226 Y78.02 E8.38312
G1 X125.548 Y78.529 E8.40316
G1 X126.062 Y79.372 E8.43599
G1 X126.324 Y79.818 E8.4532
G1 X126.718 Y80.569 E8.48141
G1 X126.986 Y81.192 E8.50396
G1 X127.315 Y81.987 E8.53258
G1 X127.59 Y82.678 E8.55732
G1 X127.746 Y83.155 E8.57401
G1 X127.933 Y83.888 E8.59917
G1 X128.135 Y84.734 E8.6281
G1 X128.296 Y85.454 E8.65264
G1 X128.365 Y85.883 E8.66709
G1 X128.479 Y87.034 E8.70556
G1 X128.529 Y87.683 E8.72721
G1 X128.581 Y88.503 E8.75454
G1 X128.594 Y89.149 E8.77603
G1 X128.594 Y145.603 E10.65369
G1 X128.584 Y146.33 E10.67788
G1 X128.536 Y146.864 E10.69571
G1 X128.41 Y147.385 E10.71354
G1 X128.208 Y147.882 E10.73138
G1 X127.934 Y148.343 E10.74922
G1 X127.595 Y148.758 E10.76704
G1 X127.198 Y149.119 E10.78489
G1 X126.752 Y149.416 E10.80271
G1 X126.266 Y149.644 E10.82056
G1 X125.752 Y149.797 E10.8384
G1 X125.085 Y149.879 E10.86075
G1 X124.664 Y149.889 E10.87476
G1 X95.667 Y149.889 E11.8392
G1 X94.969 Y149.88 E11.86242
G1 X94.434 Y149.833 E11.88028
G1 X93.913 Y149.707 E11.89811
G1 X93.416 Y149.505 E11.91595
G1 X92.955 Y149.232 E11.93377
G1 X92.539 Y148.893 E11.95162
G1 X92.178 Y148.497 E11.96945
G1 X91.88 Y148.051 E11.98729
G1 X91.652 Y147.565 E12.00514
G1 X91.499 Y147.051 E12.02298
G1 X91.416 Y146.377 E12.04556
G1 X91.406 Y145.947 E12.05987
G1 X91.406 Y89.292 E13.94422
G1 X91.417 Y88.574 E13.96811
G1 X91.446 Y88.174 E13.98145
G1 X91.629 Y86.737 E14.02963
G1 X91.715 Y86.127 E14.05012
G1 X91.74 Y85.974 E14.05527
G1 X91.846 Y85.402 E14.07462
G1 X91.873 Y85.273 E14.079
G1 X92.005 Y84.682 E14.09915
G1 X92.217 Y83.801 E14.12928
G1 X92.377 Y83.174 E14.15081
G1 X92.644 Y82.4 E14.17804
G1 X92.682 Y82.304 E14.18147
G1 X93.166 Y81.135 E14.22355
G1 X93.422 Y80.539 E14.24513
G1 X93.622 Y80.144 E14.25985
G1 X94.258 Y79.056 E14.30177
G1 X94.526 Y78.619 E14.31882
G1 X94.949 Y77.951 E14.34512
G1 X95.295 Y77.482 E14.3645
G0 F3000 X95.608 Y77.731
G1 F1200 X95.934 Y77.338 E14.38149
G1 X96.591 Y76.57 E14.4151
G1 X97.105 Y75.986 E14.44098
G1 X97.54 Y75.561 E14.4612
G1 X97.869 Y75.274 E14.47573
G1 X98.701 Y74.563 E14.51213
G1 X99.203 Y74.146 E14.53383
G1 X99.944 Y73.633 E14.56381
G1 X101.011 Y72.978 E14.60545
G1 X101.648 Y72.601 E14.63007
G1 X102.047 Y72.398 E14.64496
G1 X102.774 Y72.086 E14.67127
G1 X103.615 Y71.738 E14.70154
G1 X104.136 Y71.531 E14.72019
G1 X104.601 Y71.377 E14.73648
G1 X105.707 Y71.089 E14.77449
G1 X106.321 Y70.941 E14.7955
G1 X106.995 Y70.789 E14.81848
G1 X107.474 Y70.713 E14.83461
G1 X108.213 Y70.646 E14.85929
G1 X109.077 Y70.579 E14.88811
G1 X109.782 Y70.535 E14.91161
G1 X110.258 Y70.533 E14.92744
G1 X111.238 Y70.592 E14.96009
G1 X111.998 Y70.652 E14.98545
G1 X112.67 Y70.715 E15.0079
G1 X113.355 Y70.834 E15.03102
G1 X114.732 Y71.162 E15.0781
G1 X115.298 Y71.307 E15.09754
G1 X115.929 Y71.511 E15.11959
G1 X116.727 Y71.826 E15.14813
G1 X117.416 Y72.112 E15.17294
G1 X118.118 Y72.416 E15.19838
G1 X118.717 Y72.735 E15.22096
G1 X118.801 Y72.784 E15.22419
G1 X119.875 Y73.442 E15.26608
G1 X120.527 Y73.855 E15.29175
G1 X120.889 Y74.118 E15.30664
G1 X121.461 Y74.591 E15.33132
G1 X122.179 Y75.205 E15.36274
G1 X122.727 Y75.688 E15.38704
G1 X123.081 Y76.047 E15.40381
G1 X123.441 Y76.457 E15.42196
G1 X124.14 Y77.276 E15.45777
G1 X124.586 Y77.813 E15.48099
G1 X124.893 Y78.242 E15.49853
G1 X125.184 Y78.702 E15.51664
G1 X125.718 Y79.576 E15.5507
G1 X125.974 Y80.01 E15.56746
G1 X126.351 Y80.727 E15.5944
G1 X126.616 Y81.345 E15.61677
G1 X126.943 Y82.135 E15.64521
G1 X127.255 Y82.922 E15.67336
G1 X127.359 Y83.254 E15.68494
G1 X127.544 Y83.981 E15.70989
G1 X127.745 Y84.822 E15.73865
G1 X127.906 Y85.542 E15.76318
G1 X127.967 Y85.923 E15.77602
G1 X128.08 Y87.065 E15.81419
G1 X128.13 Y87.709 E15.83567
G1 X128.182 Y88.519 E15.86267
G1 X128.194 Y89.153 E15.88376
G1 X128.194 Y145.597 E17.76109
G1 X128.184 Y146.324 E17.78528
G1 X128.137 Y146.827 E17.80208
G1 X128.011 Y147.317 E17.81891
G1 X127.81 Y147.781 E17.83572
G1 X127.538 Y148.207 E17.85253
G1 X127.203 Y148.586 E17.86936
G1 X126.812 Y148.906 E17.88616
G1 X126.376 Y149.161 E17.90296
G1 X125.905 Y149.345 E17.91978
G1 X125.41 Y149.451 E17.93662
G1 X124.754 Y149.488 E17.95847
G1 X95.672 Y149.489 E18.92574
G1 X94.974 Y149.48 E18.94896
G1 X94.47 Y149.433 E18.9658
G1 X93.98 Y149.308 E18.98262
G1 X93.516 Y149.107 E18.99943
G1 X93.09 Y148.836 E19.01623
G1 X92.711 Y148.501 E19.03305
G1 X92.39 Y148.11 E19.04988
G1 X92.135 Y147.674 E19.06668
G1 X91.951 Y147.203 E19.0835
G1 X91.844 Y146.709 E19.10031
G1 X91.807 Y146.033 E19.12282
G1 X91.806 Y89.298 E21.00984
G1 X91.817 Y88.58 E21.03372
G1 X91.843 Y88.224 E21.04559
G1 X92.025 Y86.793 E21.09357
G1 X92.111 Y86.183 E21.11406
G1 X92.134 Y86.047 E21.11865
G1 X92.263 Y85.36 E21.1419
G1 X92.394 Y84.775 E21.16184
G1 X92.604 Y83.9 E21.19177
G1 X92.764 Y83.273 E21.21329
G1 X93.018 Y82.543 E21.239
G1 X93.517 Y81.333 E21.28253
G1 X93.79 Y80.697 E21.30555
G1 X93.967 Y80.346 E21.31862
G1 X94.599 Y79.265 E21.36027
G1 X94.863 Y78.833 E21.37711
G1 X95.286 Y78.165 E21.40341
G1 X95.608 Y77.731 E21.42138
G1 F1800 E14.42138
G1 F300 Z0.4
;MESH:lamp.hanger.core.front.bottom.amf
G0 F3000 X109.235 Y134.4 Z0.4
;TYPE:WALL-INNER
G1 F300 Z0.2
G1 F1800 E21.42138
G1 F1200 X110 Y134.492 E21.44701
G1 X110.764 Y134.401 E21.4726
G1 X111.485 Y134.128 E21.49824
G1 X112.096 Y133.708 E21.5229
G1 X112.163 Y133.645 E21.52596
G1 X112.614 Y133.136 E21.54858
G1 X112.663 Y133.06 E21.55159
G1 X112.98 Y132.457 E21.57425
G1 X113.01 Y132.371 E21.57728
G1 X113.17 Y131.718 E21.59964
G1 X113.181 Y131.63 E21.60259
G1 X113.182 Y130.953 E21.6251
G1 X113.172 Y130.86 E21.62821
G1 X113.01 Y130.204 E21.65069
G1 X112.98 Y130.118 E21.65372
G1 X112.662 Y129.514 E21.67642
G1 X112.613 Y129.439 E21.6794
G1 X112.153 Y128.92 E21.70247
G1 X112.083 Y128.86 E21.70553
G1 X111.519 Y128.47 E21.72834
G1 X111.437 Y128.432 E21.73135
G1 X110.803 Y128.191 E21.75391
G1 X110.714 Y128.171 E21.75694
G1 X109.991 Y128.084 E21.78116
G1 X109.287 Y128.17 E21.80475
G1 X109.198 Y128.19 E21.80778
G1 X108.564 Y128.431 E21.83034
G1 X108.482 Y128.469 E21.83335
G1 X107.918 Y128.859 E21.85616
G1 X107.848 Y128.919 E21.85922
G1 X107.388 Y129.438 E21.88229
G1 X107.339 Y129.513 E21.88527
G1 X107.021 Y130.117 E21.90797
G1 X106.991 Y130.203 E21.911
G1 X106.83 Y130.859 E21.93347
G1 X106.819 Y130.95 E21.93652
G1 X106.818 Y131.628 E21.95907
G1 X106.829 Y131.717 E21.96205
G1 X106.989 Y132.37 E21.98441
G1 X107.019 Y132.456 E21.98744
G1 X107.336 Y133.059 E22.0101
G1 X107.385 Y133.135 E22.01311
G1 X107.836 Y133.644 E22.03572
G1 X107.903 Y133.707 E22.03878
G1 X108.514 Y134.127 E22.06344
G1 X109.235 Y134.4 E22.08908
G0 F3000 X109.331 Y134.009
;TYPE:WALL-OUTER
G1 F1200 X110 Y134.089 E22.11149
G1 X110.668 Y134.01 E22.13387
G1 X111.298 Y133.771 E22.15628
G1 X111.845 Y133.395 E22.17836
G1 X111.876 Y133.366 E22.17977
G1 X112.295 Y132.892 E22.20081
G1 X112.318 Y132.857 E22.2022
G1 X112.612 Y132.297 E22.22324
G1 X112.626 Y132.257 E22.22465
G1 X112.776 Y131.646 E22.24557
G1 X112.781 Y131.605 E22.24695
G1 X112.782 Y130.975 E22.2679
G1 X112.777 Y130.931 E22.26937
G1 X112.626 Y130.318 E22.29037
G1 X112.612 Y130.278 E22.29178
G1 X112.317 Y129.718 E22.31283
G1 X112.294 Y129.683 E22.31423
G1 X111.872 Y129.206 E22.33541
G1 X111.839 Y129.178 E22.33685
G1 X111.318 Y128.818 E22.35791
G1 X111.28 Y128.8 E22.35931
G1 X110.688 Y128.575 E22.38037
G1 X110.647 Y128.566 E22.38177
G1 X109.991 Y128.487 E22.40375
G1 X109.354 Y128.565 E22.42509
G1 X109.313 Y128.574 E22.42649
G1 X108.721 Y128.799 E22.44755
G1 X108.683 Y128.817 E22.44895
G1 X108.162 Y129.177 E22.47001
G1 X108.129 Y129.205 E22.47145
G1 X107.707 Y129.682 E22.49263
G1 X107.684 Y129.717 E22.49403
G1 X107.389 Y130.277 E22.51508
G1 X107.375 Y130.317 E22.51649
G1 X107.224 Y130.93 E22.53749
G1 X107.219 Y130.973 E22.53893
G1 X107.218 Y131.604 E22.55991
G1 X107.223 Y131.645 E22.56129
G1 X107.373 Y132.256 E22.58221
G1 X107.387 Y132.296 E22.58362
G1 X107.681 Y132.856 E22.60466
G1 X107.704 Y132.891 E22.60605
G1 X108.123 Y133.365 E22.62709
G1 X108.154 Y133.394 E22.62851
G1 X108.701 Y133.77 E22.65058
G1 X109.331 Y134.009 E22.67299
G0 F3000 X109.529 Y134.032
G0 X109.476 Y134.469
G1 F1800 E15.67299
G1 F300 Z0.4
G0 F3000 X109.457 Y134.628 Z0.4
G0 X109.711 Y91.878
;TYPE:WALL-INNER
G1 F300 Z0.2
G1 F1800 E22.67299
G1 F1200 X110.422 Y91.879 E22.69664
G1 X110.572 Y91.847 E22.70174
G1 X111.226 Y91.687 E22.72414
G1 X111.842 Y91.363 E22.74729
G1 X111.968 Y91.278 E22.75234
G1 X112.496 Y90.813 E22.77574
G1 X112.893 Y90.238 E22.79898
G1 X113.007 Y90.001 E22.80773
G1 X113.234 Y89.405 E22.82894
G1 X113.313 Y88.752 E22.85082
G1 X113.312 Y88.525 E22.85837
G1 X113.234 Y87.877 E22.88008
G1 X113.011 Y87.289 E22.90099
G1 X112.963 Y87.151 E22.90585
G1 X112.497 Y86.469 E22.93333
G1 X111.965 Y85.998 E22.95696
G1 X111.838 Y85.916 E22.96199
G1 X111.227 Y85.593 E22.98497
G1 X110.568 Y85.431 E23.00754
G1 X110.418 Y85.402 E23.01263
G1 X109.707 Y85.401 E23.03627
G1 X109.557 Y85.433 E23.04138
G1 X108.902 Y85.593 E23.0638
G1 X108.285 Y85.918 E23.087
G1 X108.16 Y86.003 E23.09202
G1 X107.632 Y86.467 E23.1154
G1 X107.234 Y87.044 E23.13872
G1 X107.121 Y87.279 E23.14739
G1 X106.895 Y87.876 E23.16862
G1 X106.815 Y88.528 E23.19047
G1 X106.816 Y88.755 E23.19802
G1 X106.895 Y89.404 E23.21976
G1 X107.115 Y89.986 E23.24046
G1 X107.164 Y90.13 E23.24552
G1 X107.631 Y90.811 E23.27298
G1 X108.163 Y91.283 E23.29664
G1 X108.29 Y91.365 E23.30166
G1 X108.901 Y91.687 E23.32464
G1 X109.561 Y91.849 E23.34724
G1 X109.711 Y91.878 E23.35232
G0 F3000 X109.75 Y91.478
;TYPE:WALL-OUTER
G1 F1200 X110.38 Y91.479 E23.37327
G1 X110.483 Y91.457 E23.37678
G1 X111.083 Y91.31 E23.39732
G1 X111.637 Y91.019 E23.41814
G1 X111.723 Y90.961 E23.42159
G1 X112.195 Y90.545 E23.44251
G1 X112.546 Y90.036 E23.46308
G1 X112.639 Y89.843 E23.4702
G1 X112.843 Y89.308 E23.48925
G1 X112.913 Y88.729 E23.50864
G1 X112.912 Y88.55 E23.5146
G1 X112.843 Y87.973 E23.53393
G1 X112.637 Y87.431 E23.55321
G1 X112.603 Y87.333 E23.55666
G1 X112.195 Y86.736 E23.58071
G1 X111.723 Y86.318 E23.60168
G1 X111.636 Y86.262 E23.60512
G1 X111.084 Y85.97 E23.62589
G1 X110.482 Y85.822 E23.64651
G1 X110.379 Y85.802 E23.65
G1 X109.749 Y85.801 E23.67096
