;FLAVOR:Marlin
;TIME:2690
;Filament used: 1.59302m
;Layer height: 0.2
;MINX:93
;MINY:85.85
;MINZ:0.2
;MAXX:127
;MAXY:134.128
;MAXZ:23.6
;Generated with Cura_SteamEngine master
M82 ;absolute extrusion mode
;Sliced at: Fri 06-05-2022 12:03:54
;Basic settings: Layer height: 0.2 Walls: 0.8 Fill: 20
G21 ;metric values
G90 ;absolute positioning
M82 ;set extruder to absolute mode
M107 ;start with the fan off
M117 Start heating ...
M104 S200
M117 Homing X/Y ...
G28 X0 Y0 ;move X/Y to min endstops
M117 Homing Z ...
G28 Z0 ;move Z to min endstops
G1 Z15.0 F100 ;move the platform down 15mm
M117 Heating ...
M109 S200
M117 Start cleaning ...
G92 E0 ;zero the extruded length
G1 F200 E10 ;extrude 10mm of feed stock
G92 E0 ;zero the extruded length again
M117 Intro line ...
G1 Z2.0 F3000 ; Move Z Axis up little to prevent scratching of Heat Bed
G1 X0.1 Y20 Z0.2 F5000.0 ; Move to start position
G1 X0.1 Y200.0 Z0.2 F1500.0 E15 ; Draw the first line
G1 X0.4 Y200.0 Z0.2 F5000.0 ; Move to side a little
G1 X0.4 Y20 Z0.3 F1500.0 E30 ; Draw the second line
G92 E0 ; Reset Extruder
G1 E-1 F500 ; Retract filiment by 1 mm
G1 Z2.0 F3000 ; Move Z Axis up little to prevent scratching of Heat Bed
G1 X5 Y20 Z0.3 F100 ; Move over to prevent blob squish
G1 F100
G92 E0 ; Reset Extruder
M117 Printing...

G92 E0
G92 E0
G1 F1800 E-7
;LAYER_COUNT:118
;LAYER:0
M107
G1 F300 Z0.4
G0 F3000 X94.584 Y87.132 Z0.4
;TYPE:SKIRT
G1 F300 Z0.2
G1 F1800 E0
G1 F1200 X94.997 Y86.747 E0.01878
G1 X95.461 Y86.424 E0.03758
G1 X95.966 Y86.169 E0.0564
G1 X96.501 Y85.988 E0.07518
G1 X97.057 Y85.885 E0.09399
G1 X97.718 Y85.852 E0.116
G1 X97.83 Y85.85 E0.11973
G1 X101.85 Y85.85 E0.25344
G1 X102.551 Y85.86 E0.27675
G1 X105.899 Y86.052 E0.38829
G1 X108.571 Y86.129 E0.4772
G1 X111.314 Y86.129 E0.56843
G1 X113.986 Y86.054 E0.65734
G1 X116.812 Y85.894 E0.75148
G1 X117.398 Y85.861 E0.771
G1 X117.83 Y85.85 E0.78538
G1 X121.85 Y85.85 E0.91908
G1 X122.548 Y85.86 E0.9423
G1 X123.112 Y85.908 E0.96113
G1 X123.662 Y86.035 E0.9799
G1 X124.19 Y86.239 E0.99873
G1 X124.684 Y86.514 E1.01753
G1 X125.133 Y86.857 E1.03632
G1 X125.53 Y87.259 E1.05512
G1 X125.867 Y87.714 E1.07395
G1 X126.135 Y88.211 E1.09273
G1 X126.331 Y88.741 E1.11152
G1 X126.451 Y89.294 E1.13034
G1 X126.494 Y89.806 E1.14743
G1 X126.602 Y92.279 E1.22976
G1 X126.799 Y95.014 E1.32097
G1 X126.899 Y96.022 E1.35466
G1 X126.975 Y96.908 E1.38423
G1 X126.998 Y97.459 E1.40258
G1 X127 Y97.58 E1.4066
G1 X127 Y116.497 E2.03578
G1 X126.991 Y117.161 E2.05787
G1 X126.98 Y117.398 E2.06576
G1 X126.914 Y118.305 E2.09601
G1 X126.846 Y119.08 E2.12188
G1 X126.772 Y119.8 E2.14596
G1 X126.674 Y120.36 E2.16487
G1 X126.467 Y121.187 E2.19322
G1 X126.23 Y122.068 E2.22356
G1 X126.067 Y122.645 E2.24351
G1 X125.87 Y123.189 E2.26275
G1 X125.484 Y124.054 E2.29425
G1 X125.186 Y124.691 E2.31764
G1 X124.862 Y125.362 E2.34243
G1 X124.573 Y125.865 E2.36172
G1 X124.061 Y126.621 E2.39209
G1 X123.64 Y127.222 E2.4165
G1 X123.213 Y127.816 E2.44083
G1 X122.838 Y128.264 E2.46026
G1 X122.201 Y128.921 E2.4907
G1 X121.603 Y129.517 E2.51878
G1 X121.156 Y129.951 E2.5395
G1 X120.72 Y130.318 E2.55845
G1 X120.002 Y130.838 E2.58794
G1 X119.322 Y131.314 E2.61555
G1 X118.769 Y131.69 E2.63779
G1 X118.272 Y131.978 E2.65689
G1 X117.421 Y132.392 E2.68837
G1 X116.786 Y132.688 E2.71167
G1 X116.096 Y132.998 E2.73683
G1 X115.557 Y133.195 E2.75592
G1 X114.709 Y133.437 E2.78525
G1 X113.892 Y133.654 E2.81337
G1 X113.269 Y133.812 E2.83474
G1 X112.701 Y133.913 E2.85393
G1 X111.745 Y134.013 E2.8859
G1 X110.993 Y134.078 E2.91101
G1 X110.324 Y134.127 E2.93332
G1 X109.747 Y134.128 E2.95251
G1 X108.776 Y134.058 E2.98489
G1 X108.07 Y133.996 E3.00846
G1 X107.35 Y133.922 E3.03253
G1 X106.79 Y133.824 E3.05144
G1 X105.963 Y133.617 E3.0798
G1 X105.083 Y133.381 E3.1101
G1 X104.505 Y133.218 E3.13007
G1 X103.957 Y133.019 E3.14946
G1 X103.091 Y132.631 E3.18103
G1 X102.418 Y132.317 E3.20573
G1 X101.788 Y132.013 E3.22899
G1 X101.285 Y131.723 E3.2483
G1 X100.543 Y131.22 E3.27812
G1 X99.892 Y130.764 E3.30455
G1 X99.327 Y130.357 E3.32771
G1 X98.881 Y129.983 E3.34707
G1 X98.25 Y129.371 E3.37631
G1 X97.672 Y128.794 E3.40347
G1 X97.201 Y128.309 E3.42596
G1 X96.835 Y127.873 E3.44489
G1 X96.265 Y127.087 E3.47719
G1 X95.864 Y126.514 E3.50045
G1 X95.451 Y125.904 E3.52495
G1 X95.167 Y125.413 E3.54382
G1 X94.757 Y124.57 E3.57499
G1 X94.461 Y123.934 E3.59833
G1 X94.151 Y123.243 E3.62352
G1 X93.955 Y122.707 E3.6425
G1 X93.713 Y121.859 E3.67183
G1 X93.496 Y121.042 E3.69994
G1 X93.338 Y120.419 E3.72132
G1 X93.237 Y119.851 E3.74051
G1 X93.137 Y118.895 E3.77248
G1 X93.072 Y118.141 E3.79765
G1 X93.024 Y117.48 E3.81969
G1 X93.014 Y117.253 E3.82725
G1 X93 Y116.371 E3.85659
G1 X93 Y97.895 E4.4711
G1 X93.011 Y97.188 E4.49462
G1 X93.075 Y96.401 E4.52088
G1 X93.304 Y93.696 E4.61117
G1 X93.461 Y90.916 E4.70379
G1 X93.514 Y89.688 E4.74467
G1 X93.578 Y89.126 E4.76348
G1 X93.72 Y88.579 E4.78228
G1 X93.939 Y88.057 E4.8011
G1 X94.228 Y87.572 E4.81988
G1 X94.584 Y87.132 E4.83871
G0 F3000 X94.972 Y87.306
G1 F1200 X95.379 Y86.957 E4.85654
G1 X95.834 Y86.673 E4.87438
G1 X96.326 Y86.459 E4.89222
G1 X96.844 Y86.321 E4.91005
G1 X97.409 Y86.26 E4.92895
G1 X97.83 Y86.25 E4.94296
G1 X101.844 Y86.25 E5.07647
G1 X102.545 Y86.26 E5.09978
G1 X103.114 Y86.295 E5.11875
G1 X105.83 Y86.45 E5.20923
G1 X108.594 Y86.529 E5.3012
G1 X111.289 Y86.529 E5.39083
G1 X114.056 Y86.452 E5.4829
G1 X116.843 Y86.293 E5.57574
G1 X117.409 Y86.26 E5.5946
G1 X117.83 Y86.25 E5.60861
G1 X121.845 Y86.25 E5.74215
G1 X122.543 Y86.26 E5.76537
G1 X123.077 Y86.308 E5.7832
G1 X123.598 Y86.434 E5.80103
G1 X124.095 Y86.637 E5.81888
G1 X124.556 Y86.911 E5.83672
G1 X124.971 Y87.25 E5.85454
G1 X125.331 Y87.648 E5.87239
G1 X125.628 Y88.094 E5.89021
G1 X125.856 Y88.58 E5.90807
G1 X126.008 Y89.094 E5.9259
G1 X126.085 Y89.65 E5.94456
G1 X126.095 Y89.823 E5.95033
G1 X126.204 Y92.326 E6.03366
G1 X126.4 Y95.047 E6.12439
G1 X126.501 Y96.056 E6.15812
G1 X126.577 Y96.942 E6.1877
G1 X126.598 Y97.471 E6.20531
G1 X126.6 Y97.58 E6.20893
G1 X126.6 Y116.492 E6.83795
G1 X126.591 Y117.156 E6.86003
G1 X126.581 Y117.369 E6.86713
G1 X126.515 Y118.27 E6.89717
G1 X126.448 Y119.039 E6.92285
G1 X126.374 Y119.759 E6.94692
G1 X126.286 Y120.263 E6.96394
G1 X126.08 Y121.083 E6.99206
G1 X125.845 Y121.96 E7.02226
G1 X125.682 Y122.537 E7.0422
G1 X125.505 Y123.026 E7.0595
G1 X125.121 Y123.885 E7.09079
G1 X124.826 Y124.517 E7.11399
G1 X124.502 Y125.188 E7.13877
G1 X124.242 Y125.64 E7.15611
G1 X123.733 Y126.391 E7.18629
G1 X123.315 Y126.988 E7.21053
G1 X122.888 Y127.582 E7.23486
G1 X122.551 Y127.986 E7.25236
G1 X121.918 Y128.638 E7.28258
G1 X121.325 Y129.23 E7.31045
G1 X120.878 Y129.664 E7.33117
G1 X120.485 Y129.994 E7.34824
G1 X119.773 Y130.511 E7.37751
G1 X119.097 Y130.983 E7.40493
G1 X118.544 Y131.359 E7.42717
G1 X118.097 Y131.618 E7.44436
G1 X117.252 Y132.029 E7.47561
G1 X116.622 Y132.323 E7.49873
G1 X115.932 Y132.633 E7.52389
G1 X115.447 Y132.81 E7.54106
G1 X114.605 Y133.05 E7.57018
G1 X113.794 Y133.267 E7.59811
G1 X113.171 Y133.425 E7.61948
G1 X112.66 Y133.516 E7.63675
G1 X111.71 Y133.614 E7.66851
G1 X110.964 Y133.679 E7.69342
G1 X110.295 Y133.728 E7.71573
G1 X109.775 Y133.729 E7.73302
G1 X108.811 Y133.659 E7.76517
G1 X108.111 Y133.598 E7.78854
G1 X107.391 Y133.524 E7.81261
G1 X106.887 Y133.436 E7.82963
G1 X106.067 Y133.23 E7.85775
G1 X105.192 Y132.996 E7.88788
G1 X104.614 Y132.833 E7.90785
G1 X104.121 Y132.654 E7.9253
G1 X103.26 Y132.269 E7.95667
G1 X102.591 Y131.956 E7.98123
G1 X101.961 Y131.652 E8.0045
G1 X101.509 Y131.392 E8.02184
G1 X100.772 Y130.893 E8.05144
G1 X100.126 Y130.439 E8.0777
G1 X99.561 Y130.032 E8.10086
G1 X99.159 Y129.696 E8.11829
G1 X98.533 Y129.088 E8.14732
G1 X97.959 Y128.515 E8.17429
G1 X97.488 Y128.03 E8.19678
G1 X97.159 Y127.638 E8.2138
G1 X96.593 Y126.858 E8.24585
G1 X96.195 Y126.289 E8.26895
G1 X95.782 Y125.679 E8.29345
G1 X95.527 Y125.238 E8.31039
G1 X95.12 Y124.401 E8.34135
G1 X94.826 Y123.771 E8.36447
G1 X94.516 Y123.08 E8.38966
G1 X94.34 Y122.597 E8.40676
G1 X94.1 Y121.755 E8.43588
G1 X93.883 Y120.944 E8.4638
G1 X93.725 Y120.321 E8.48518
G1 X93.634 Y119.81 E8.50244
G1 X93.536 Y118.86 E8.53421
G1 X93.47 Y118.112 E8.55918
G1 X93.422 Y117.451 E8.58122
G1 X93.413 Y117.247 E8.58802
G1 X93.4 Y116.428 E8.61526
G1 X93.4 Y97.901 E9.23147
G1 X93.411 Y97.194 E9.25499
G1 X93.473 Y96.44 E9.28015
G1 X93.704 Y93.717 E9.37104
G1 X93.858 Y90.988 E9.46195
G1 X93.913 Y89.705 E9.50467
G1 X93.976 Y89.172 E9.52252
G1 X94.117 Y88.655 E9.54034
G1 X94.334 Y88.164 E9.5582
G1 X94.621 Y87.711 E9.57603
G1 X94.972 Y87.306 E9.59386
G0 F3000 X95.013 Y87.858
G1 F1200 X95.359 Y87.49 E9.61066
G1 X95.759 Y87.181 E9.62747
G1 X96.203 Y86.938 E9.6443
G1 X96.679 Y86.769 E9.6611
G1 X97.42 Y86.66 E9.68601
G1 X97.83 Y86.65 E9.69966
G1 X101.839 Y86.65 E9.833
G1 X102.54 Y86.66 E9.85631
G1 X105.83 Y86.85 E9.96592
G1 X108.583 Y86.929 E10.05752
G1 X111.301 Y86.929 E10.14792
G1 X114.052 Y86.852 E10.23946
G1 X116.812 Y86.697 E10.3314
G1 X117.321 Y86.665 E10.34836
G1 X117.83 Y86.65 E10.3653
G1 X121.839 Y86.65 E10.49864
G1 X122.537 Y86.66 E10.52186
G1 X123.04 Y86.707 E10.53866
G1 X123.53 Y86.833 E10.55549
G1 X123.994 Y87.035 E10.57232
G1 X124.42 Y87.307 E10.58913
G1 X124.798 Y87.642 E10.60593
G1 X125.118 Y88.033 E10.62274
G1 X125.373 Y88.47 E10.63956
G1 X125.556 Y88.941 E10.65637
G1 X125.686 Y89.674 E10.68113
G1 X125.695 Y89.841 E10.68669
G1 X125.804 Y92.334 E10.76969
G1 X126.001 Y95.082 E10.86132
G1 X126.102 Y96.091 E10.89505
G1 X126.178 Y96.977 E10.92463
G1 X126.199 Y97.483 E10.94147
G1 X126.2 Y116.486 E11.57351
G1 X126.191 Y117.15 E11.5956
G1 X126.183 Y117.34 E11.60193
G1 X126.117 Y118.235 E11.63177
G1 X126.05 Y118.998 E11.65725
G1 X125.976 Y119.718 E11.68132
G1 X125.898 Y120.166 E11.69645
G1 X125.694 Y120.98 E11.72436
G1 X125.46 Y121.851 E11.75436
G1 X125.297 Y122.428 E11.7743
G1 X125.14 Y122.863 E11.78968
G1 X124.759 Y123.716 E11.82075
G1 X124.466 Y124.343 E11.84377
G1 X124.142 Y125.014 E11.86855
G1 X123.91 Y125.416 E11.88399
G1 X123.405 Y126.162 E11.91395
G1 X122.99 Y126.755 E11.93803
G1 X122.563 Y127.349 E11.96236
G1 X122.263 Y127.708 E11.97792
G1 X121.636 Y128.355 E12.00789
G1 X121.046 Y128.943 E12.03559
G1 X120.599 Y129.377 E12.05631
G1 X120.25 Y129.67 E12.07147
G1 X119.544 Y130.183 E12.10049
G1 X118.872 Y130.652 E12.12775
G1 X118.319 Y131.028 E12.14999
G1 X117.922 Y131.259 E12.16527
G1 X117.083 Y131.667 E12.1963
G1 X116.458 Y131.958 E12.21923
G1 X115.768 Y132.268 E12.24439
G1 X115.337 Y132.426 E12.25966
G1 X114.502 Y132.664 E12.28853
G1 X113.696 Y132.879 E12.31628
G1 X113.073 Y133.037 E12.33766
G1 X112.618 Y133.118 E12.35303
G1 X111.675 Y133.216 E12.38456
G1 X110.935 Y133.28 E12.40927
G1 X110.266 Y133.329 E12.43158
G1 X109.804 Y133.33 E12.44694
G1 X108.846 Y133.261 E12.47889
G1 X108.152 Y133.2 E12.50206
G1 X107.432 Y133.126 E12.52613
G1 X106.984 Y133.048 E12.54126
G1 X106.17 Y132.844 E12.56917
G1 X105.3 Y132.611 E12.59913
G1 X104.722 Y132.448 E12.6191
G1 X104.284 Y132.289 E12.6346
G1 X103.429 Y131.906 E12.66576
G1 X102.765 Y131.596 E12.69013
G1 X102.135 Y131.292 E12.7134
G1 X101.733 Y131.061 E12.72882
G1 X101.002 Y130.566 E12.75818
G1 X100.36 Y130.114 E12.78429
G1 X99.795 Y129.707 E12.80745
G1 X99.438 Y129.409 E12.82292
G1 X98.815 Y128.805 E12.85178
G1 X98.246 Y128.236 E12.87855
G1 X97.775 Y127.751 E12.90103
G1 X97.482 Y127.403 E12.91616
G1 X96.92 Y126.629 E12.94798
G1 X96.526 Y126.065 E12.97086
G1 X96.113 Y125.455 E12.99536
G1 X95.886 Y125.063 E13.01043
G1 X95.482 Y124.232 E13.04116
G1 X95.191 Y123.607 E13.06409
G1 X94.881 Y122.916 E13.08928
G1 X94.725 Y122.487 E13.10446
G1 X94.486 Y121.652 E13.13335
G1 X94.271 Y120.846 E13.16109
G1 X94.113 Y120.223 E13.18247
G1 X94.032 Y119.768 E13.19784
G1 X93.934 Y118.825 E13.22938
G1 X93.869 Y118.083 E13.25415
G1 X93.821 Y117.422 E13.27619
G1 X93.813 Y117.241 E13.28222
G1 X93.8 Y116.422 E13.30946
G1 X93.8 Y97.907 E13.92527
G1 X93.811 Y97.2 E13.94879
G1 X93.871 Y96.48 E13.97282
G1 X94.103 Y93.737 E14.06438
G1 X94.26 Y90.962 E14.15682
G1 X94.313 Y89.722 E14.1981
G1 X94.374 Y89.22 E14.21492
G1 X94.514 Y88.734 E14.23175
G1 X94.729 Y88.276 E14.24857
G1 X95.013 Y87.858 E14.26538
G1 F1800 E7.26538
G1 F300 Z0.4
;MESH:lamp.hanger.core.intermediate.amf
G0 F3000 X108.864 Y120.185 Z0.4
;TYPE:WALL-INNER
G1 F300 Z0.2
G1 F1800 E14.26538
G1 F1200 X109.614 Y120.37 E14.29107
G1 X110.386 Y120.37 E14.31675
G1 X111.136 Y120.185 E14.34244
G1 X111.82 Y119.827 E14.36812
G1 X112.399 Y119.314 E14.39385
G1 X112.837 Y118.679 E14.41951
G1 X113.111 Y117.955 E14.44526
G1 X113.204 Y117.189 E14.47092
G1 X113.111 Y116.423 E14.49658
G1 X112.837 Y115.7 E14.5223
G1 X112.399 Y115.064 E14.54798
G1 X111.82 Y114.551 E14.57371
G1 X111.136 Y114.193 E14.59939
G1 X110.386 Y114.008 E14.62508
G1 X109.614 Y114.008 E14.65076
G1 X108.864 Y114.193 E14.67645
G1 X108.18 Y114.551 E14.70213
G1 X107.601 Y115.064 E14.72786
G1 X107.163 Y115.7 E14.75354
G1 X106.889 Y116.423 E14.77926
G1 X106.796 Y117.189 E14.80492
G1 X106.889 Y117.955 E14.83059
G1 X107.163 Y118.679 E14.85634
G1 X107.601 Y119.314 E14.88199
G1 X108.18 Y119.827 E14.90772
G1 X108.864 Y120.185 E14.9334
G0 F3000 X109.007 Y119.808
;TYPE:WALL-OUTER
G1 F1200 X109.663 Y119.97 E14.95587
G1 X110.337 Y119.97 E14.97829
G1 X110.993 Y119.808 E15.00077
G1 X111.591 Y119.495 E15.02321
G1 X112.097 Y119.047 E15.04569
G1 X112.48 Y118.492 E15.06812
G1 X112.72 Y117.859 E15.09064
G1 X112.801 Y117.189 E15.11308
G1 X112.72 Y116.519 E15.13553
G1 X112.48 Y115.887 E15.15802
G1 X112.097 Y115.331 E15.18047
G1 X111.591 Y114.883 E15.20295
G1 X110.993 Y114.57 E15.2254
G1 X110.337 Y114.408 E15.24787
G1 X109.663 Y114.408 E15.27029
G1 X109.007 Y114.57 E15.29276
G1 X108.409 Y114.883 E15.31521
G1 X107.903 Y115.331 E15.33769
G1 X107.52 Y115.887 E15.36015
G1 X107.28 Y116.519 E15.38263
G1 X107.199 Y117.189 E15.40508
G1 X107.28 Y117.859 E15.42752
G1 X107.52 Y118.492 E15.45004
G1 X107.903 Y119.047 E15.47247
G1 X108.409 Y119.495 E15.49495
G1 X109.007 Y119.808 E15.5174
G0 F3000 X109.201 Y119.856
G0 X109.096 Y120.282
G1 F1800 E8.5174
G1 F300 Z0.4
G0 F3000 X109.056 Y120.437 Z0.4
G0 X122.4 Y97.85
;TYPE:WALL-INNER
G1 F300 Z0.2
G1 F1800 E15.5174
G1 F1200 X122.4 Y117.138 E16.15892
G1 X122.21 Y119.302 E16.23117
G1 X121.651 Y121.39 E16.30306
G1 X120.739 Y123.345 E16.37481
G1 X119.495 Y125.122 E16.44696
G1 X117.972 Y126.644 E16.51857
G1 X116.195 Y127.889 E16.59074
G1 X114.24 Y128.801 E16.66249
G1 X112.152 Y129.36 E16.73438
G1 X110 Y129.549 E16.80623
G1 X107.848 Y129.36 E16.87809
G1 X105.76 Y128.801 E16.94998
G1 X103.805 Y127.889 E17.02173
G1 X102.028 Y126.644 E17.09389
G1 X100.505 Y125.122 E17.16551
G1 X99.261 Y123.345 E17.23766
G1 X98.349 Y121.39 E17.30941
G1 X97.79 Y119.302 E17.3813
G1 X97.6 Y117.138 E17.45355
G1 X97.6 Y97.85 E18.09507
G1 X98.1 Y97.85 E18.1117
G1 X98.1 Y95.85 E18.17822
G1 X99.45 Y95.85 E18.22312
G1 X99.45 Y91.25 E18.37612
G1 X98.1 Y91.25 E18.42102
G1 X98.1 Y90.45 E18.44763
G1 X101.9 Y90.45 E18.57402
G1 X101.9 Y96.25 E18.76693
G1 X118.1 Y96.25 E19.30574
G1 X118.1 Y90.45 E19.49865
G1 X121.9 Y90.45 E19.62504
G1 X121.9 Y91.25 E19.65165
G1 X120.55 Y91.25 E19.69655
G1 X120.55 Y95.85 E19.84954
G1 X121.9 Y95.85 E19.89445
G1 X121.9 Y97.85 E19.96097
G1 X122.4 Y97.85 E19.9776
G0 F3000 X122.3 Y97.45
;TYPE:WALL-OUTER
G1 F1200 X122.8 Y97.45 E19.99423
G1 X122.8 Y117.15 E20.64945
G1 X122.605 Y119.371 E20.72361
G1 X122.028 Y121.527 E20.79784
G1 X121.085 Y123.548 E20.87201
G1 X119.802 Y125.381 E20.94643
G1 X118.231 Y126.951 E21.0203
G1 X116.398 Y128.235 E21.09474
G1 X114.377 Y129.178 E21.16891
G1 X112.221 Y129.755 E21.24315
G1 X110 Y129.95 E21.3173
G1 X107.779 Y129.755 E21.39146
G1 X105.623 Y129.178 E21.46569
G1 X103.602 Y128.235 E21.53986
G1 X101.769 Y126.951 E21.6143
G1 X100.198 Y125.381 E21.68817
G1 X98.915 Y123.548 E21.76259
G1 X97.972 Y121.527 E21.83676
G1 X97.395 Y119.371 E21.911
G1 X97.2 Y117.15 E21.98515
G1 X97.2 Y97.45 E22.64038
G1 X97.7 Y97.45 E22.65701
G1 X97.7 Y95.45 E22.72353
G1 X99.05 Y95.45 E22.76843
G1 X99.05 Y91.65 E22.89482
G1 X97.7 Y91.65 E22.93972
G1 X97.7 Y90.05 E22.99293
G1 X102.3 Y90.05 E23.14593
G1 X102.3 Y95.85 E23.33884
G1 X117.7 Y95.85 E23.85104
G1 X117.7 Y90.05 E24.04395
