;FLAVOR:Marlin
;TIME:7500
;Filament used: 4.19196m
;Layer height: 0.2
;MINX:91.071
;MINY:69.48
;MINZ:0.2
;MAXX:128.929
;MAXY:150.539
;MAXZ:23.8
;Generated with Cura_SteamEngine master
M82 ;absolute extrusion mode
;Sliced at: Sat 27-08-2022 01:59:23
;Basic settings: Layer height: 0.2 Walls: 0.8 Fill: 30.0
G21 ;metric values
G90 ;absolute positioning
M82 ;set extruder to absolute mode
M107 ;start with the fan off
M117 Start heating ...
M104 S200
M117 Homing X/Y ...
G28 X0 Y0 ;move X/Y to min endstops
M117 Homing Z ...
G28 Z0 ;move Z to min endstops
G1 Z15.0 F100 ;move the platform down 15mm
M117 Heating ...
M109 S200
M117 Start cleaning ...
G92 E0 ;zero the extruded length
G1 F200 E10 ;extrude 10mm of feed stock
G92 E0 ;zero the extruded length again
M117 Intro line ...
G1 Z2.0 F3000 ; Move Z Axis up little to prevent scratching of Heat Bed
G1 X0.1 Y20 Z0.2 F5000.0 ; Move to start position
G1 X0.1 Y200.0 Z0.2 F1500.0 E15 ; Draw the first line
G1 X0.4 Y200.0 Z0.2 F5000.0 ; Move to side a little
G1 X0.4 Y20 Z0.3 F1500.0 E30 ; Draw the second line
G92 E0 ; Reset Extruder
G1 E-1 F500 ; Retract filiment by 1 mm
G1 Z2.0 F3000 ; Move Z Axis up little to prevent scratching of Heat Bed
G1 X5 Y20 Z0.3 F100 ; Move over to prevent blob squish
G1 F100
G92 E0 ; Reset Extruder
M117 Printing...

G92 E0
G92 E0
G1 F1800 E-7
;LAYER_COUNT:118
;LAYER:0
M107
G1 F300 Z0.4
G0 F3000 X95.026 Y76.85 Z0.4
;TYPE:SKIRT
G1 F300 Z0.2
G1 F1800 E0
G1 F1200 X95.103 Y76.756 E0.00404
G1 X95.949 Y75.767 E0.04733
G1 X96.452 Y75.195 E0.07266
G1 X96.989 Y74.672 E0.09759
G1 X97.088 Y74.585 E0.10198
G1 X98.14 Y73.687 E0.14798
G1 X98.69 Y73.232 E0.17172
G1 X99.294 Y72.807 E0.19629
G1 X99.401 Y72.739 E0.2005
G1 X100.577 Y72.018 E0.24638
G1 X101.188 Y71.655 E0.27002
G1 X101.939 Y71.291 E0.29778
G1 X102.036 Y71.249 E0.3013
G1 X103.3 Y70.727 E0.34678
G1 X103.912 Y70.484 E0.36868
G1 X104.656 Y70.256 E0.39456
G1 X106.093 Y69.909 E0.44373
G1 X106.784 Y69.753 E0.46729
G1 X107.539 Y69.645 E0.49266
G1 X107.66 Y69.633 E0.4967
G1 X109.024 Y69.526 E0.54221
G1 X109.741 Y69.48 E0.56611
G1 X110.665 Y69.501 E0.59685
G1 X112.003 Y69.607 E0.64149
G1 X112.702 Y69.672 E0.66484
G1 X113.44 Y69.799 E0.68974
G1 X113.567 Y69.827 E0.69407
G1 X114.903 Y70.149 E0.73978
G1 X115.599 Y70.327 E0.76367
G1 X116.378 Y70.595 E0.79107
G1 X116.494 Y70.641 E0.79522
G1 X117.72 Y71.15 E0.83937
G1 X118.345 Y71.418 E0.86199
G1 X119.064 Y71.799 E0.88906
G1 X120.328 Y72.572 E0.93834
G1 X120.92 Y72.948 E0.96166
G1 X121.551 Y73.424 E0.98795
G1 X121.643 Y73.5 E0.99192
G1 X122.64 Y74.353 E1.03556
G1 X123.197 Y74.843 E1.06023
G1 X123.732 Y75.395 E1.0858
G1 X124.65 Y76.468 E1.13277
G1 X125.162 Y77.085 E1.15944
G1 X125.567 Y77.659 E1.1828
G1 X125.626 Y77.751 E1.18644
G1 X126.355 Y78.939 E1.23279
G1 X126.735 Y79.58 E1.25758
G1 X127.075 Y80.276 E1.28334
G1 X127.12 Y80.379 E1.28708
G1 X127.633 Y81.616 E1.33162
G1 X127.903 Y82.293 E1.35586
G1 X128.131 Y83.03 E1.38152
G1 X128.469 Y84.428 E1.42936
G1 X128.637 Y85.17 E1.45466
G1 X128.744 Y85.915 E1.4797
G1 X128.864 Y87.401 E1.52928
G1 X128.911 Y88.134 E1.55371
G1 X128.929 Y88.85 E1.57753
G1 X128.929 Y145.858 E3.47363
G1 X128.919 Y146.585 E3.49781
G1 X128.871 Y147.148 E3.5166
G1 X128.744 Y147.699 E3.53541
G1 X128.541 Y148.227 E3.55422
G1 X128.266 Y148.721 E3.57303
G1 X127.924 Y149.171 E3.59183
G1 X127.521 Y149.568 E3.61064
G1 X127.067 Y149.904 E3.62943
G1 X126.57 Y150.173 E3.64823
G1 X126.04 Y150.37 E3.66703
G1 X125.487 Y150.489 E3.68585
G1 X124.711 Y150.537 E3.7117
G1 X124.599 Y150.539 E3.71543
G1 X95.726 Y150.539 E4.67575
G1 X95.028 Y150.53 E4.69897
G1 X94.465 Y150.482 E4.71776
G1 X93.914 Y150.356 E4.73656
G1 X93.386 Y150.154 E4.75536
G1 X92.892 Y149.879 E4.77417
G1 X92.442 Y149.537 E4.79297
G1 X92.044 Y149.135 E4.81178
G1 X91.708 Y148.681 E4.83057
G1 X91.438 Y148.184 E4.84938
G1 X91.241 Y147.654 E4.86819
G1 X91.121 Y147.102 E4.88697
G1 X91.072 Y146.305 E4.91353
G1 X91.071 Y89.04 E6.81817
G1 X91.081 Y88.334 E6.84166
G1 X91.123 Y87.571 E6.86707
G1 X91.211 Y86.45 E6.90447
G1 X91.283 Y85.676 E6.93033
G1 X91.413 Y84.927 E6.95561
G1 X91.758 Y83.487 E7.00486
G1 X91.937 Y82.787 E7.02889
G1 X92.187 Y82.057 E7.05456
G1 X92.23 Y81.948 E7.05846
G1 X92.747 Y80.701 E7.10335
G1 X93.039 Y80.025 E7.12785
G1 X93.389 Y79.363 E7.15275
G1 X94.13 Y78.148 E7.20009
G1 X94.547 Y77.487 E7.22608
G1 X95.026 Y76.85 E7.25259
G0 F3000 X95.338 Y77.1
G1 F1200 X96.216 Y76.07 E7.2976
G1 X96.753 Y75.459 E7.32466
G1 X97.258 Y74.968 E7.34809
G1 X97.348 Y74.889 E7.35207
G1 X98.395 Y73.995 E7.39786
G1 X98.945 Y73.54 E7.4216
G1 X99.513 Y73.141 E7.44469
G1 X100.781 Y72.362 E7.49418
G1 X101.392 Y71.999 E7.51782
G1 X102.102 Y71.656 E7.54405
G1 X103.447 Y71.099 E7.59247
G1 X104.059 Y70.856 E7.61437
G1 X104.76 Y70.643 E7.63874
G1 X104.856 Y70.618 E7.64204
G1 X106.181 Y70.299 E7.68737
G1 X106.872 Y70.143 E7.71093
G1 X107.583 Y70.042 E7.73481
G1 X108.997 Y69.929 E7.78199
G1 X109.767 Y69.879 E7.80766
G1 X110.634 Y69.9 E7.8365
G1 X111.966 Y70.005 E7.88094
G1 X112.665 Y70.07 E7.90429
G1 X113.359 Y70.191 E7.92772
G1 X113.473 Y70.216 E7.9316
G1 X114.804 Y70.536 E7.97713
G1 X115.5 Y70.714 E8.00103
G1 X116.236 Y70.969 E8.02693
G1 X116.341 Y71.01 E8.03068
G1 X117.563 Y71.517 E8.07469
G1 X118.188 Y71.785 E8.0973
G1 X118.865 Y72.146 E8.12282
G1 X120.113 Y72.91 E8.17149
G1 X120.705 Y73.286 E8.19482
G1 X121.3 Y73.736 E8.21963
G1 X122.376 Y74.653 E8.26665
G1 X122.933 Y75.143 E8.29133
G1 X123.435 Y75.663 E8.31537
G1 X124.38 Y76.768 E8.36372
G1 X124.854 Y77.34 E8.38843
G1 X125.232 Y77.877 E8.41027
G1 X125.285 Y77.96 E8.41355
G1 X126.011 Y79.143 E8.45972
G1 X126.391 Y79.784 E8.4845
G1 X126.71 Y80.439 E8.50873
G1 X127.262 Y81.764 E8.55647
G1 X127.532 Y82.441 E8.58071
G1 X127.745 Y83.135 E8.60486
G1 X128.091 Y84.569 E8.65392
G1 X128.247 Y85.258 E8.67742
G1 X128.346 Y85.958 E8.70093
G1 X128.356 Y86.055 E8.70418
G1 X128.465 Y87.427 E8.74995
G1 X128.512 Y88.16 E8.77438
G1 X128.529 Y88.853 E8.79744
G1 X128.529 Y145.853 E10.69327
G1 X128.519 Y146.58 E10.71745
G1 X128.471 Y147.114 E10.73528
G1 X128.345 Y147.635 E10.75311
G1 X128.143 Y148.132 E10.77095
G1 X127.869 Y148.593 E10.78879
G1 X127.53 Y149.008 E10.80661
G1 X127.133 Y149.369 E10.82446
G1 X126.687 Y149.666 E10.84228
G1 X126.201 Y149.894 E10.86014
G1 X125.687 Y150.047 E10.87797
G1 X125.02 Y150.129 E10.90033
G1 X124.599 Y150.139 E10.91433
G1 X95.732 Y150.139 E11.87445
G1 X95.034 Y150.13 E11.89767
G1 X94.499 Y150.083 E11.91553
G1 X93.978 Y149.957 E11.93336
G1 X93.481 Y149.755 E11.9512
G1 X93.02 Y149.482 E11.96902
G1 X92.604 Y149.143 E11.98687
G1 X92.243 Y148.747 E12.0047
G1 X91.945 Y148.301 E12.02254
G1 X91.717 Y147.815 E12.04039
G1 X91.564 Y147.301 E12.05823
G1 X91.481 Y146.627 E12.08081
G1 X91.471 Y146.197 E12.09512
G1 X91.471 Y89.046 E13.99597
G1 X91.484 Y88.238 E14.02285
G1 X91.522 Y87.598 E14.04417
G1 X91.609 Y86.487 E14.08124
G1 X91.681 Y85.713 E14.10709
G1 X91.805 Y85.009 E14.13087
G1 X92.145 Y83.586 E14.17953
G1 X92.324 Y82.886 E14.20356
G1 X92.561 Y82.199 E14.22773
G1 X93.114 Y80.859 E14.27595
G1 X93.406 Y80.183 E14.30044
G1 X93.736 Y79.562 E14.32383
G1 X93.787 Y79.475 E14.32718
G1 X94.499 Y78.311 E14.37256
G1 X94.885 Y77.7 E14.3966
G1 X95.338 Y77.1 E14.42161
G0 F3000 X95.65 Y77.35
G1 F1200 X96.55 Y76.295 E14.46773
G1 X97.053 Y75.723 E14.49306
G1 X97.528 Y75.263 E14.51506
G1 X97.607 Y75.193 E14.51857
G1 X98.65 Y74.303 E14.56417
G1 X99.2 Y73.848 E14.58791
G1 X99.733 Y73.475 E14.60955
G1 X100.986 Y72.706 E14.65845
G1 X101.597 Y72.343 E14.68209
G1 X102.264 Y72.022 E14.70671
G1 X103.595 Y71.471 E14.75462
G1 X104.207 Y71.228 E14.77652
G1 X104.865 Y71.029 E14.79938
G1 X106.225 Y70.7 E14.84592
G1 X106.96 Y70.534 E14.87098
G1 X107.626 Y70.44 E14.89335
G1 X109.028 Y70.328 E14.94013
G1 X109.792 Y70.279 E14.9656
G1 X110.602 Y70.299 E14.99255
G1 X111.929 Y70.404 E15.03682
G1 X112.628 Y70.469 E15.06017
G1 X113.279 Y70.583 E15.08215
G1 X113.38 Y70.605 E15.08559
G1 X114.705 Y70.924 E15.13092
G1 X115.401 Y71.102 E15.15481
G1 X116.095 Y71.343 E15.17925
G1 X117.405 Y71.885 E15.2264
G1 X118.03 Y72.153 E15.24902
G1 X118.666 Y72.493 E15.273
G1 X119.899 Y73.248 E15.32109
G1 X120.491 Y73.624 E15.34442
G1 X121.05 Y74.048 E15.36775
G1 X122.112 Y74.953 E15.41416
G1 X122.669 Y75.443 E15.43883
G1 X123.139 Y75.932 E15.46139
G1 X123.202 Y76.003 E15.46455
G1 X124.072 Y77.023 E15.50914
G1 X124.546 Y77.595 E15.53385
G1 X124.897 Y78.096 E15.55419
G1 X124.944 Y78.169 E15.55708
G1 X125.667 Y79.347 E15.60305
G1 X126.047 Y79.988 E15.62784
G1 X126.345 Y80.603 E15.65057
G1 X126.873 Y81.87 E15.69622
G1 X127.16 Y82.59 E15.722
G1 X127.359 Y83.24 E15.74461
G1 X127.701 Y84.657 E15.79309
G1 X127.857 Y85.346 E15.81659
G1 X127.949 Y86.001 E15.83859
G1 X128.062 Y87.402 E15.88534
G1 X128.117 Y88.27 E15.91426
G1 X128.129 Y88.857 E15.93379
G1 X128.129 Y145.847 E17.82929
G1 X128.119 Y146.574 E17.85347
G1 X128.072 Y147.077 E17.87027
G1 X127.946 Y147.567 E17.8871
G1 X127.745 Y148.031 E17.90392
G1 X127.473 Y148.457 E17.92073
G1 X127.138 Y148.836 E17.93755
G1 X126.747 Y149.156 E17.95436
G1 X126.311 Y149.411 E17.97116
G1 X125.84 Y149.595 E17.98798
G1 X125.345 Y149.701 E18.00481
G1 X124.689 Y149.738 E18.02667
G1 X95.737 Y149.739 E18.98961
G1 X95.039 Y149.73 E19.01283
G1 X94.535 Y149.683 E19.02967
G1 X94.045 Y149.558 E19.04649
G1 X93.581 Y149.357 E19.06331
G1 X93.155 Y149.086 E19.0801
G1 X92.776 Y148.751 E19.09692
G1 X92.455 Y148.36 E19.11375
G1 X92.2 Y147.924 E19.13055
G1 X92.016 Y147.453 E19.14737
G1 X91.909 Y146.959 E19.16418
G1 X91.872 Y146.283 E19.18669
G1 X91.871 Y89.052 E21.09021
G1 X91.881 Y88.346 E21.11369
G1 X91.921 Y87.625 E21.13771
G1 X92.008 Y86.524 E21.17444
G1 X92.08 Y85.75 E21.2003
G1 X92.196 Y85.091 E21.22255
G1 X92.217 Y84.997 E21.22575
G1 X92.533 Y83.685 E21.27064
G1 X92.712 Y82.985 E21.29467
G1 X92.935 Y82.341 E21.31734
G1 X92.969 Y82.254 E21.32044
G1 X93.481 Y81.018 E21.36494
G1 X93.773 Y80.342 E21.38943
G1 X94.083 Y79.761 E21.41134
G1 X94.838 Y78.525 E21.45951
G1 X95.224 Y77.914 E21.48355
G1 X95.65 Y77.35 E21.50705
G1 F1800 E14.50705
G1 F300 Z0.4
;MESH:lamp.hanger_cap_reverse_closed.stl
G0 F3000 X108.798 Y91.417 Z0.4
;TYPE:WALL-INNER
G1 F300 Z0.2
G1 F1800 E21.50705
G1 F1200 X108.948 Y91.464 E21.51228
G1 X109.61 Y91.627 E21.53496
G1 X110.306 Y91.627 E21.55811
G1 X110.463 Y91.61 E21.56336
G1 X111.146 Y91.442 E21.58675
G1 X111.75 Y91.127 E21.60941
G1 X111.885 Y91.045 E21.61466
G1 X112.423 Y90.57 E21.63853
G1 X112.901 Y89.884 E21.66634
G1 X112.952 Y89.728 E21.6718
G1 X113.168 Y89.161 E21.69198
G1 X113.248 Y88.507 E21.7139
G1 X113.247 Y88.27 E21.72178
G1 X113.168 Y87.621 E21.74353
G1 X112.948 Y87.039 E21.76422
G1 X112.896 Y86.892 E21.76941
G1 X112.51 Y86.333 E21.792
G1 X112.416 Y86.206 E21.79726
G1 X111.88 Y85.729 E21.82112
G1 X111.743 Y85.652 E21.82635
G1 X111.149 Y85.338 E21.84869
G1 X110.456 Y85.167 E21.87243
G1 X110.299 Y85.154 E21.87767
G1 X109.611 Y85.153 E21.90056
G1 X108.944 Y85.317 E21.9234
G1 X108.794 Y85.366 E21.92865
G1 X108.161 Y85.699 E21.95244
G1 X107.547 Y86.244 E21.97975
G1 X107.136 Y86.837 E22.00374
G1 X107.074 Y86.982 E22.00899
G1 X106.833 Y87.615 E22.03152
G1 X106.748 Y88.314 E22.05494
G1 X106.749 Y88.471 E22.06016
G1 X106.833 Y89.165 E22.08341
G1 X107.075 Y89.805 E22.10617
G1 X107.143 Y89.949 E22.11146
G1 X107.546 Y90.536 E22.13515
G1 X108.161 Y91.082 E22.1625
G1 X108.798 Y91.417 E22.18644
G0 F3000 X108.951 Y91.046
;TYPE:WALL-OUTER
G1 F1200 X109.055 Y91.078 E22.19006
G1 X109.659 Y91.227 E22.21075
G1 X110.284 Y91.227 E22.23153
G1 X110.393 Y91.215 E22.23518
G1 X111.004 Y91.065 E22.25611
G1 X111.553 Y90.778 E22.27671
G1 X111.647 Y90.721 E22.28037
G1 X112.122 Y90.302 E22.30143
G1 X112.539 Y89.704 E22.32568
G1 X112.571 Y89.605 E22.32914
G1 X112.777 Y89.064 E22.3484
G1 X112.848 Y88.484 E22.36783
G1 X112.847 Y88.295 E22.37412
G1 X112.777 Y87.717 E22.39348
G1 X112.574 Y87.18 E22.41258
G1 X112.537 Y87.076 E22.41625
G1 X112.185 Y86.566 E22.43686
G1 X112.119 Y86.477 E22.44054
G1 X111.647 Y86.057 E22.46156
G1 X111.552 Y86.004 E22.46518
G1 X111.005 Y85.715 E22.48575
G1 X110.391 Y85.563 E22.50679
G1 X110.282 Y85.554 E22.51043
G1 X109.659 Y85.553 E22.53115
G1 X109.054 Y85.702 E22.55187
G1 X108.95 Y85.736 E22.55551
G1 X108.39 Y86.03 E22.57655
G1 X107.849 Y86.511 E22.60063
G1 X107.488 Y87.032 E22.62171
G1 X107.445 Y87.132 E22.62533
G1 X107.224 Y87.712 E22.64597
G1 X107.148 Y88.336 E22.66688
G1 X107.149 Y88.445 E22.67051
G1 X107.224 Y89.069 E22.69141
G1 X107.444 Y89.649 E22.71204
G1 X107.491 Y89.749 E22.71572
G1 X107.848 Y90.269 E22.7367
G1 X108.39 Y90.751 E22.76082
G1 X108.951 Y91.046 E22.7819
G0 F3000 X109.055 Y91.078
G0 X109.144 Y91.1
G0 X109.039 Y91.526
G1 F1800 E15.7819
G1 F300 Z0.4
G0 F3000 X109.001 Y91.682 Z0.4
G0 X100.65 Y141.439
;TYPE:WALL-INNER
G1 F300 Z0.2
G1 F1800 E22.7819
G1 F1200 X100.65 Y145.74 E22.92495
G1 X119.35 Y145.74 E23.54692
G1 X119.35 Y141.439 E23.68997
G1 X100.65 Y141.439 E24.31193
G0 F3000 X101.05 Y141.839
;TYPE:WALL-OUTER
G1 F1200 X101.05 Y145.34 E24.42838
G1 X118.95 Y145.34 E25.02373
G1 X118.95 Y141.839 E25.14018
G1 X101.05 Y141.839 E25.73553
G0 F3000 X101.05 Y142.039
G0 X100.61 Y142.039
G1 F1800 E18.73553
G1 F300 Z0.4
G0 F3000 X100.45 Y142.039 Z0.4
G0 X109.405 Y133.802
;TYPE:WALL-INNER
G1 F300 Z0.2
G1 F1800 E25.73553
G1 F1200 X110.197 Y133.835 E25.7619
G1 X110.974 Y133.671 E25.78831
G1 X111.683 Y133.322 E25.8146
G1 X112.288 Y132.81 E25.84096
G1 X112.748 Y132.165 E25.86731
G1 X113.036 Y131.427 E25.89366
G1 X113.133 Y130.644 E25.9199
G1 X113.052 Y129.927 E25.9439
G1 X112.816 Y129.251 E25.96771
G1 X112.434 Y128.643 E25.99159
G1 X111.927 Y128.136 E26.01544
G1 X111.319 Y127.754 E26.03932
G1 X110.643 Y127.518 E26.06314
G1 X109.926 Y127.437 E26.08714
G1 X109.145 Y127.533 E26.11331
G1 X108.408 Y127.82 E26.13961
G1 X107.764 Y128.279 E26.16592
G1 X107.274 Y128.857 E26.19112
G1 X107.225 Y128.934 E26.19416
G1 X106.923 Y129.548 E26.21691
G1 X106.89 Y129.634 E26.21998
G1 X106.746 Y130.322 E26.24336
G1 X106.737 Y130.412 E26.24637
G1 X106.765 Y131.118 E26.26987
G1 X106.78 Y131.209 E26.27293
G1 X106.977 Y131.874 E26.296
G1 X107.013 Y131.96 E26.2991
G1 X107.37 Y132.559 E26.32229
G1 X107.426 Y132.634 E26.32541
G1 X107.964 Y133.171 E26.35069
G1 X108.646 Y133.577 E26.37709
G1 X109.405 Y133.802 E26.40342
G0 F3000 X109.471 Y133.404
;TYPE:WALL-OUTER
G1 F1200 X110.164 Y133.433 E26.42649
G1 X110.842 Y133.29 E26.44953
G1 X111.462 Y132.985 E26.47252
G1 X111.991 Y132.537 E26.49557
G1 X112.393 Y131.973 E26.51861
G1 X112.645 Y131.328 E26.54164
G1 X112.73 Y130.642 E26.56463
G1 X112.66 Y130.017 E26.58555
G1 X112.453 Y129.426 E26.60638
G1 X112.119 Y128.894 E26.62727
G1 X111.676 Y128.451 E26.64811
G1 X111.144 Y128.117 E26.669
G1 X110.553 Y127.91 E26.68983
G1 X109.928 Y127.84 E26.71074
G1 X109.244 Y127.924 E26.73367
G1 X108.6 Y128.175 E26.75665
G1 X108.037 Y128.576 E26.77964
G1 X107.597 Y129.094 E26.80225
G1 X107.575 Y129.129 E26.80362
G1 X107.29 Y129.708 E26.82509
G1 X107.275 Y129.747 E26.82648
G1 X107.142 Y130.383 E26.84809
G1 X107.138 Y130.424 E26.84946
G1 X107.164 Y131.077 E26.8712
G1 X107.171 Y131.119 E26.87261
G1 X107.354 Y131.739 E26.89411
G1 X107.371 Y131.779 E26.89556
G1 X107.703 Y132.337 E26.91715
G1 X107.729 Y132.372 E26.9186
G1 X108.211 Y132.853 E26.94125
G1 X108.807 Y133.208 E26.96433
G1 X109.471 Y133.404 E26.98735
G0 F3000 X109.671 Y133.412
G0 X109.652 Y133.852
G1 F1800 E19.98735
G1 F300 Z0.4
G0 F3000 X109.645 Y134.012 Z0.4
G0 X124.329 Y145.939
;TYPE:WALL-INNER
G1 F300 Z0.2
G1 F1800 E26.98735
G1 F1200 X119.35 Y145.939 E27.15295
G1 X100.65 Y145.939 E27.46316
G1 X95.671 Y145.939 E27.62876
G1 X95.671 Y88.408 E29.54225
G1 X95.849 Y86.147 E29.61768
G1 X96.372 Y83.965 E29.69231
G1 X97.234 Y81.888 E29.76711
G1 X98.409 Y79.968 E29.84197
G1 X99.869 Y78.26 E29.91671
G1 X101.576 Y76.801 E29.9914
G1 X103.497 Y75.624 E30.06633
G1 X105.578 Y74.763 E30.14123
G1 X107.757 Y74.24 E30.21576
G1 X110 Y74.062 E30.2906
G1 X112.243 Y74.24 E30.36544
G1 X114.422 Y74.763 E30.43997
G1 X116.503 Y75.624 E30.51488
G1 X118.424 Y76.801 E30.58981
G1 X120.131 Y78.26 E30.6645
G1 X121.591 Y79.968 E30.73923
G1 X122.766 Y81.888 E30.8141
G1 X123.628 Y83.965 E30.88889
G1 X124.151 Y86.147 E30.96352
