;FLAVOR:Marlin
;TIME:5498
;Filament used: 3.80484m
;Layer height: 0.2
;MINX:77.351
;MINY:54.609
;MINZ:0.2
;MAXX:142.627
;MAXY:165.391
;MAXZ:5.8
;Generated with Cura_SteamEngine master
M82 ;absolute extrusion mode
;Sliced at: Sun 10-04-2022 15:10:02
;Basic settings: Layer height: 0.2 Walls: 0.8 Fill: 20
G21 ;metric values
G90 ;absolute positioning
M82 ;set extruder to absolute mode
M107 ;start with the fan off
M117 Start heating ...
M104 S200
M117 Homing X/Y ...
G28 X0 Y0 ;move X/Y to min endstops
M117 Homing Z ...
G28 Z0 ;move Z to min endstops
G1 Z15.0 F100 ;move the platform down 15mm
M117 Heating ...
M109 S200
M117 Start cleaning ...
G92 E0 ;zero the extruded length
G1 F200 E10 ;extrude 10mm of feed stock
G92 E0 ;zero the extruded length again
M117 Intro line ...
G1 Z2.0 F3000 ; Move Z Axis up little to prevent scratching of Heat Bed
G1 X0.1 Y20 Z0.2 F5000.0 ; Move to start position
G1 X0.1 Y200.0 Z0.2 F1500.0 E15 ; Draw the first line
G1 X0.4 Y200.0 Z0.2 F5000.0 ; Move to side a little
G1 X0.4 Y20 Z0.3 F1500.0 E30 ; Draw the second line
G92 E0 ; Reset Extruder
G1 E-1 F500 ; Retract filiment by 1 mm
G1 Z2.0 F3000 ; Move Z Axis up little to prevent scratching of Heat Bed
G1 X5 Y20 Z0.3 F100 ; Move over to prevent blob squish
G1 F100
G92 E0 ; Reset Extruder
M117 Printing...

G92 E0
G92 E0
G1 F1800 E-7
;LAYER_COUNT:28
;LAYER:0
M107
G1 F300 Z0.4
G0 F3000 X78.017 Y56.423 Z0.4
;TYPE:SKIRT
G1 F300 Z0.2
G1 F1800 E0
G1 F1200 X78.36 Y55.974 E0.01879
G1 X78.763 Y55.577 E0.03761
G1 X79.217 Y55.241 E0.05639
G1 X79.715 Y54.972 E0.07522
G1 X80.245 Y54.777 E0.094
G1 X80.798 Y54.658 E0.11282
G1 X81.569 Y54.611 E0.13851
G1 X81.681 Y54.609 E0.14223
G1 X110.116 Y54.609 E1.08799
G1 X110.814 Y54.619 E1.1112
G1 X111.378 Y54.667 E1.13003
G1 X111.928 Y54.794 E1.1488
G1 X112.456 Y54.998 E1.16763
G1 X112.95 Y55.273 E1.18644
G1 X113.399 Y55.616 E1.20523
G1 X113.796 Y56.018 E1.22402
G1 X114.133 Y56.473 E1.24285
G1 X114.401 Y56.97 E1.26163
G1 X114.597 Y57.5 E1.28043
G1 X114.717 Y58.053 E1.29925
G1 X114.764 Y58.827 E1.32504
G1 X114.766 Y58.939 E1.32876
G1 X114.766 Y74.027 E1.83059
G1 X114.806 Y76.827 E1.92373
G1 X114.919 Y79.497 E2.01262
G1 X115.111 Y82.204 E2.10288
G1 X115.381 Y84.925 E2.19382
G1 X115.724 Y87.611 E2.28388
G1 X116.147 Y90.302 E2.37449
G1 X116.649 Y93 E2.46576
G1 X117.209 Y95.604 E2.55435
G1 X117.851 Y98.224 E2.64407
G1 X118.581 Y100.878 E2.73562
G1 X119.381 Y103.491 E2.82651
G1 X120.239 Y106.032 E2.91571
G1 X121.185 Y108.599 E3.00671
G1 X122.191 Y111.103 E3.09646
G1 X123.277 Y113.6 E3.18703
G1 X124.43 Y116.059 E3.27736
G1 X125.668 Y118.517 E3.36889
G1 X126.939 Y120.871 E3.45787
G1 X128.287 Y123.208 E3.5476
G1 X129.717 Y125.532 E3.63836
G1 X131.211 Y127.814 E3.72908
G1 X132.767 Y130.048 E3.81963
G1 X134.366 Y132.213 E3.90915
G1 X136.045 Y134.355 E3.99967
G1 X138.281 Y137.028 E4.11558
G1 X138.82 Y137.673 E4.14354
G1 X139.326 Y138.371 E4.17221
G1 X139.815 Y139.07 E4.20058
G1 X140.19 Y139.622 E4.22278
G1 X140.475 Y140.115 E4.24172
G1 X140.882 Y140.948 E4.27255
G1 X141.215 Y141.662 E4.29876
G1 X141.494 Y142.283 E4.3214
G1 X141.691 Y142.822 E4.34049
G1 X141.941 Y143.698 E4.37079
G1 X142.155 Y144.5 E4.3984
G1 X142.314 Y145.129 E4.41997
G1 X142.414 Y145.695 E4.43909
G1 X142.506 Y146.577 E4.46859
G1 X142.583 Y147.461 E4.4981
G1 X142.627 Y148.068 E4.51834
G1 X142.627 Y148.637 E4.53727
G1 X142.56 Y149.592 E4.56911
G1 X142.492 Y150.358 E4.59469
G1 X142.425 Y151.023 E4.61692
G1 X142.325 Y151.594 E4.6362
G1 X142.107 Y152.464 E4.66603
G1 X141.88 Y153.309 E4.69513
G1 X141.717 Y153.886 E4.71507
G1 X141.52 Y154.43 E4.73431
G1 X141.133 Y155.297 E4.76589
G1 X140.817 Y155.973 E4.79071
G1 X140.513 Y156.603 E4.81398
G1 X140.222 Y157.107 E4.83333
G1 X139.727 Y157.838 E4.8627
G1 X139.266 Y158.495 E4.88939
G1 X138.856 Y159.064 E4.91272
G1 X138.483 Y159.51 E4.93206
G1 X137.917 Y160.094 E4.95911
G1 X137.282 Y160.73 E4.989
G1 X136.81 Y161.189 E5.0109
G1 X136.371 Y161.558 E5.02997
G1 X135.607 Y162.111 E5.06134
G1 X135.005 Y162.531 E5.08575
G1 X134.405 Y162.938 E5.10987
G1 X133.915 Y163.223 E5.12872
G1 X133.095 Y163.622 E5.15905
G1 X132.392 Y163.95 E5.18485
G1 X131.761 Y164.234 E5.20787
G1 X131.218 Y164.432 E5.22709
G1 X130.313 Y164.69 E5.25839
G1 X129.544 Y164.895 E5.28486
G1 X128.918 Y165.054 E5.30634
G1 X128.347 Y165.156 E5.32563
G1 X127.434 Y165.25 E5.35616
G1 X126.656 Y165.317 E5.38213
G1 X125.974 Y165.367 E5.40488
G1 X125.746 Y165.377 E5.41247
G1 X124.867 Y165.391 E5.44171
G1 X82.001 Y165.391 E6.86744
G1 X81.303 Y165.381 E6.89065
G1 X80.739 Y165.333 E6.90948
G1 X80.189 Y165.206 E6.92826
G1 X79.661 Y165.002 E6.94708
G1 X79.167 Y164.727 E6.96589
G1 X78.718 Y164.384 E6.98468
G1 X78.321 Y163.982 E7.00347
G1 X77.984 Y163.527 E7.0223
G1 X77.716 Y163.03 E7.04108
G1 X77.52 Y162.5 E7.05988
G1 X77.4 Y161.947 E7.0787
G1 X77.352 Y161.157 E7.10502
G1 X77.351 Y59.223 E10.49536
G1 X77.361 Y58.558 E10.51748
G1 X77.41 Y57.995 E10.53628
G1 X77.537 Y57.444 E10.55509
G1 X77.741 Y56.916 E10.57391
G1 X78.017 Y56.423 E10.5927
G0 F3000 X78.413 Y56.551
G1 F1200 X78.753 Y56.136 E10.61055
G1 X79.151 Y55.777 E10.62838
G1 X79.597 Y55.48 E10.6462
G1 X80.083 Y55.252 E10.66405
G1 X80.597 Y55.1 E10.68188
G1 X81.26 Y55.019 E10.7041
G1 X81.681 Y55.009 E10.7181
G1 X110.111 Y55.009 E11.66369
G1 X110.809 Y55.019 E11.68691
G1 X111.343 Y55.067 E11.70474
G1 X111.864 Y55.193 E11.72257
G1 X112.361 Y55.396 E11.74042
G1 X112.822 Y55.67 E11.75826
G1 X113.237 Y56.009 E11.77608
G1 X113.597 Y56.407 E11.79393
G1 X113.894 Y56.853 E11.81175
G1 X114.122 Y57.339 E11.82961
G1 X114.274 Y57.853 E11.84744
G1 X114.356 Y58.518 E11.86972
G1 X114.366 Y58.939 E11.88373
G1 X114.366 Y74.033 E12.38576
G1 X114.405 Y76.814 E12.47826
G1 X114.521 Y79.542 E12.56908
G1 X114.715 Y82.271 E12.66007
G1 X114.98 Y84.948 E12.74955
G1 X115.33 Y87.687 E12.84139
G1 X115.751 Y90.365 E12.93155
G1 X116.251 Y93.051 E13.02242
G1 X116.812 Y95.662 E13.11125
G1 X117.471 Y98.353 E13.20339
G1 X118.198 Y100.996 E13.29457
G1 X118.992 Y103.588 E13.38473
G1 X119.86 Y106.161 E13.47505
G1 X120.815 Y108.75 E13.56683
G1 X121.824 Y111.262 E13.65687
G1 X122.912 Y113.764 E13.74761
G1 X124.082 Y116.258 E13.83924
G1 X125.302 Y118.681 E13.92946
G1 X126.584 Y121.055 E14.0192
G1 X127.958 Y123.438 E14.11069
G1 X129.374 Y125.74 E14.20058
G1 X130.875 Y128.032 E14.29171
G1 X132.45 Y130.293 E14.38335
G1 X134.045 Y132.452 E14.47263
G1 X135.735 Y134.609 E14.56377
G1 X137.983 Y137.296 E14.68029
G1 X138.496 Y137.908 E14.70686
G1 X138.998 Y138.601 E14.73532
G1 X139.484 Y139.295 E14.7635
G1 X139.859 Y139.847 E14.78569
G1 X140.116 Y140.29 E14.80273
G1 X140.519 Y141.118 E14.83335
G1 X140.85 Y141.826 E14.85935
G1 X141.129 Y142.447 E14.88199
G1 X141.306 Y142.932 E14.89916
G1 X141.555 Y143.802 E14.92926
G1 X141.767 Y144.598 E14.95666
G1 X141.926 Y145.227 E14.97824
G1 X142.017 Y145.736 E14.99544
G1 X142.107 Y146.612 E15.02473
G1 X142.184 Y147.49 E15.05404
G1 X142.228 Y148.097 E15.07428
G1 X142.228 Y148.609 E15.09131
G1 X142.161 Y149.557 E15.12292
G1 X142.094 Y150.318 E15.14833
G1 X142.027 Y150.983 E15.17056
G1 X141.937 Y151.497 E15.18791
G1 X141.72 Y152.361 E15.21754
G1 X141.495 Y153.201 E15.24647
G1 X141.332 Y153.778 E15.26641
G1 X141.155 Y154.267 E15.28371
G1 X140.77 Y155.127 E15.31505
G1 X140.456 Y155.8 E15.33975
G1 X140.152 Y156.43 E15.36301
G1 X139.891 Y156.883 E15.3804
G1 X139.4 Y157.608 E15.40952
G1 X138.942 Y158.262 E15.43608
G1 X138.532 Y158.831 E15.45941
G1 X138.196 Y159.231 E15.47678
G1 X137.591 Y159.856 E15.50571
G1 X137.003 Y160.443 E15.53335
G1 X136.531 Y160.902 E15.55524
G1 X136.136 Y161.234 E15.57241
G1 X135.378 Y161.783 E15.60354
G1 X134.781 Y162.2 E15.62776
G1 X134.181 Y162.607 E15.65187
G1 X133.739 Y162.863 E15.66886
G1 X132.926 Y163.26 E15.69895
G1 X132.228 Y163.585 E15.72456
G1 X131.597 Y163.869 E15.74757
G1 X131.109 Y164.047 E15.76485
G1 X130.21 Y164.304 E15.79595
G1 X129.445 Y164.507 E15.82227
G1 X128.819 Y164.666 E15.84376
G1 X128.305 Y164.758 E15.86112
G1 X127.4 Y164.851 E15.89138
G1 X126.627 Y164.918 E15.91719
G1 X125.945 Y164.968 E15.93993
G1 X125.739 Y164.978 E15.94679
G1 X124.924 Y164.991 E15.9739
G1 X82.006 Y164.991 E17.40136
G1 X81.308 Y164.981 E17.42458
G1 X80.774 Y164.933 E17.44241
G1 X80.253 Y164.807 E17.46024
G1 X79.756 Y164.604 E17.4781
G1 X79.295 Y164.33 E17.49593
G1 X78.88 Y163.991 E17.51376
G1 X78.52 Y163.593 E17.53161
G1 X78.223 Y163.147 E17.54943
G1 X77.995 Y162.661 E17.56728
G1 X77.843 Y162.147 E17.58511
G1 X77.761 Y161.479 E17.6075
G1 X77.751 Y161.049 E17.6218
G1 X77.751 Y59.229 E21.00835
G1 X77.761 Y58.564 E21.03047
G1 X77.809 Y58.03 E21.0483
G1 X77.936 Y57.509 E21.06614
G1 X78.139 Y57.012 E21.08399
G1 X78.413 Y56.551 E21.10183
G0 F3000 X78.809 Y56.687
G1 F1200 X79.145 Y56.31 E21.11863
G1 X79.536 Y55.989 E21.13545
G1 X79.973 Y55.735 E21.15226
G1 X80.444 Y55.552 E21.16907
G1 X80.939 Y55.446 E21.18591
G1 X81.591 Y55.41 E21.20763
G1 X110.105 Y55.409 E22.156
G1 X110.803 Y55.419 E22.17922
G1 X111.306 Y55.466 E22.19603
G1 X111.796 Y55.592 E22.21285
G1 X112.26 Y55.794 E22.22969
G1 X112.686 Y56.066 E22.2465
G1 X113.064 Y56.401 E22.26329
G1 X113.384 Y56.792 E22.2801
G1 X113.639 Y57.229 E22.29693
G1 X113.822 Y57.7 E22.31373
G1 X113.929 Y58.194 E22.33055
G1 X113.965 Y58.849 E22.35236
G1 X113.966 Y74.039 E22.85759
G1 X114.006 Y76.836 E22.95062
G1 X114.121 Y79.553 E23.04107
G1 X114.316 Y82.299 E23.13263
G1 X114.584 Y85.005 E23.22308
G1 X114.932 Y87.728 E23.31438
G1 X115.357 Y90.429 E23.40532
G1 X115.86 Y93.137 E23.49693
G1 X116.432 Y95.794 E23.58733
G1 X117.08 Y98.441 E23.67797
G1 X117.807 Y101.081 E23.76904
G1 X118.617 Y103.728 E23.86111
G1 X119.492 Y106.323 E23.9522
G1 X120.428 Y108.859 E24.04211
G1 X121.462 Y111.434 E24.1344
G1 X122.554 Y113.944 E24.22544
G1 X123.706 Y116.401 E24.3157
G1 X124.936 Y118.844 E24.40667
G1 X126.251 Y121.277 E24.49865
G1 X127.598 Y123.615 E24.5884
G1 X129.058 Y125.988 E24.68107
G1 X130.54 Y128.251 E24.77104
G1 X132.104 Y130.496 E24.86204
G1 X133.742 Y132.712 E24.95369
G1 X135.438 Y134.878 E25.04519
G1 X137.649 Y137.521 E25.1598
G1 X137.998 Y137.923 E25.17751
G1 X138.173 Y138.142 E25.18683
G1 X138.671 Y138.83 E25.21508
G1 X139.153 Y139.52 E25.24308
G1 X139.528 Y140.072 E25.26527
G1 X139.756 Y140.466 E25.28041
G1 X140.157 Y141.287 E25.3108
G1 X140.485 Y141.99 E25.3366
G1 X140.764 Y142.611 E25.35925
G1 X140.922 Y143.042 E25.37451
G1 X141.168 Y143.905 E25.40436
G1 X141.379 Y144.696 E25.43159
G1 X141.538 Y145.325 E25.45317
G1 X141.619 Y145.777 E25.46844
G1 X141.709 Y146.647 E25.49753
G1 X141.785 Y147.519 E25.52664
G1 X141.829 Y148.126 E25.54689
G1 X141.829 Y148.581 E25.56202
G1 X141.763 Y149.521 E25.59336
G1 X141.696 Y150.278 E25.61864
G1 X141.629 Y150.943 E25.64087
G1 X141.549 Y151.4 E25.6563
G1 X141.334 Y152.258 E25.68572
G1 X141.11 Y153.092 E25.71444
G1 X140.947 Y153.669 E25.73438
G1 X140.79 Y154.104 E25.74976
G1 X140.408 Y154.958 E25.78088
G1 X140.096 Y155.626 E25.8054
G1 X139.792 Y156.256 E25.82867
G1 X139.56 Y156.659 E25.84413
G1 X139.072 Y157.379 E25.87306
G1 X138.617 Y158.028 E25.89943
G1 X138.207 Y158.597 E25.92275
G1 X137.909 Y158.953 E25.93819
G1 X137.308 Y159.573 E25.96691
G1 X136.724 Y160.156 E25.99436
G1 X136.252 Y160.615 E26.01626
G1 X135.901 Y160.911 E26.03153
G1 X135.149 Y161.456 E26.06242
G1 X134.556 Y161.869 E26.08645
G1 X133.956 Y162.276 E26.11057
G1 X133.564 Y162.504 E26.12565
G1 X132.757 Y162.897 E26.1555
G1 X132.063 Y163.22 E26.18096
G1 X131.432 Y163.504 E26.20398
G1 X130.999 Y163.663 E26.21932
G1 X130.107 Y163.917 E26.25017
G1 X129.347 Y164.12 E26.27633
G1 X128.721 Y164.279 E26.29781
G1 X128.264 Y164.36 E26.31325
G1 X127.365 Y164.453 E26.34331
G1 X126.598 Y164.519 E26.36892
G1 X125.916 Y164.569 E26.39166
G1 X125.733 Y164.578 E26.39776
G1 X124.918 Y164.591 E26.42487
G1 X82.012 Y164.591 E27.85192
G1 X81.314 Y164.581 E27.87514
G1 X80.811 Y164.534 E27.89195
G1 X80.321 Y164.408 E27.90877
G1 X79.857 Y164.206 E27.9256
G1 X79.431 Y163.934 E27.94242
G1 X79.053 Y163.599 E27.95921
G1 X78.733 Y163.208 E27.97602
G1 X78.478 Y162.771 E27.99285
G1 X78.295 Y162.3 E28.00965
G1 X78.188 Y161.806 E28.02647
G1 X78.152 Y161.136 E28.04878
G1 X78.151 Y59.235 E31.43802
G1 X78.161 Y58.57 E31.46014
G1 X78.209 Y58.067 E31.47695
G1 X78.335 Y57.577 E31.49378
G1 X78.537 Y57.113 E31.51061
G1 X78.809 Y56.687 E31.52742
G1 F1800 E24.52742
G1 F300 Z0.4
;MESH:lamp.hanger.console.right.stl
G0 F3000 X94.242 Y73.352 Z0.4
;TYPE:WALL-INNER
G1 F300 Z0.2
G1 F1800 E31.52742
G1 F1200 X94.394 Y73.401 E31.53273
G1 X95.491 Y73.67 E31.5703
G1 X96.623 Y73.67 E31.60795
G1 X96.782 Y73.656 E31.61326
G1 X97.898 Y73.379 E31.6515
G1 X98.888 Y72.861 E31.68867
G1 X99.025 Y72.783 E31.69391
G1 X99.891 Y72.013 E31.73245
G1 X99.985 Y71.887 E31.73768
G1 X100.623 Y70.962 E31.77505
G1 X100.684 Y70.792 E31.78106
G1 X101.054 Y69.813 E31.81587
G1 X101.2 Y68.609 E31.85621
G1 X101.054 Y67.404 E31.89658
G1 X100.683 Y66.428 E31.93131
G1 X100.629 Y66.262 E31.93711
G1 X99.9 Y65.21 E31.97968
G1 X99.03 Y64.443 E32.01826
G1 X98.897 Y64.361 E32.02346
G1 X97.898 Y63.84 E32.06093
G1 X96.79 Y63.566 E32.09889
G1 X96.633 Y63.547 E32.10415
G1 X95.49 Y63.548 E32.14217
G1 X94.4 Y63.817 E32.17951
G1 X94.248 Y63.863 E32.18479
G1 X93.219 Y64.405 E32.22347
G1 X92.271 Y65.243 E32.26556
G1 X91.615 Y66.197 E32.30407
G1 X91.549 Y66.34 E32.3093
G1 X91.149 Y67.397 E32.34689
G1 X91.012 Y68.527 E32.38475
G1 X91.011 Y68.684 E32.38997
G1 X91.149 Y69.823 E32.42813
G1 X91.547 Y70.869 E32.46536
G1 X91.609 Y71.015 E32.47063
G1 X92.269 Y71.969 E32.50922
G1 X92.385 Y72.076 E32.51447
G1 X93.219 Y72.814 E32.55151
G1 X94.242 Y73.352 E32.58995
G0 F3000 X94.398 Y72.982
;TYPE:WALL-OUTER
G1 F1200 X94.503 Y73.016 E32.59362
G1 X95.539 Y73.27 E32.6291
G1 X96.605 Y73.27 E32.66455
G1 X96.715 Y73.26 E32.66823
G1 X97.755 Y73.002 E32.70387
G1 X98.696 Y72.51 E32.73918
G1 X98.791 Y72.456 E32.74282
G1 X99.595 Y71.741 E32.7786
G1 X99.66 Y71.654 E32.78222
G1 X100.264 Y70.777 E32.81763
G1 X100.31 Y70.65 E32.82213
G1 X100.663 Y69.717 E32.85531
G1 X100.797 Y68.609 E32.89243
G1 X100.663 Y67.501 E32.92955
G1 X100.309 Y66.57 E32.96267
G1 X100.267 Y66.442 E32.96716
G1 X99.599 Y65.478 E33.00616
G1 X98.792 Y64.766 E33.04196
G1 X98.7 Y64.71 E33.04554
G1 X97.755 Y64.217 E33.08099
G1 X96.718 Y63.96 E33.11653
G1 X96.609 Y63.947 E33.12018
G1 X95.539 Y63.948 E33.15576
G1 X94.506 Y64.203 E33.19115
G1 X94.401 Y64.235 E33.1948
G1 X93.448 Y64.737 E33.23063
G1 X92.573 Y65.51 E33.26946
G1 X91.964 Y66.396 E33.30522
G1 X91.918 Y66.495 E33.30885
G1 X91.54 Y67.493 E33.34435
G1 X91.412 Y68.553 E33.37986
G1 X91.411 Y68.662 E33.38348
G1 X91.54 Y69.726 E33.41913
G1 X91.918 Y70.72 E33.4545
G1 X91.961 Y70.821 E33.45815
G1 X92.573 Y71.705 E33.49391
G1 X92.653 Y71.779 E33.49754
G1 X93.448 Y72.482 E33.53284
G1 X94.398 Y72.982 E33.56854
G0 F3000 X94.503 Y73.016
G0 X94.59 Y73.037
G0 X94.485 Y73.464
G1 F1800 E26.56854
G1 F300 Z0.4
G0 F3000 X94.447 Y73.62 Z0.4
G0 X124.874 Y151.558
;TYPE:WALL-INNER
G1 F300 Z0.2
G1 F1800 E33.56854
G1 F1200 X125.573 Y151.643 E33.59196
G1 X125.73 Y151.642 E33.59718
G1 X126.424 Y151.558 E33.62044
G1 X127.063 Y151.316 E33.64316
G1 X127.206 Y151.25 E33.6484
G1 X127.796 Y150.845 E33.6722
G1 X128.341 Y150.23 E33.69953
G1 X128.677 Y149.593 E33.72349
G1 X128.724 Y149.443 E33.72871
G1 X128.887 Y148.781 E33.75139
G1 X128.887 Y148.084 E33.77457
G1 X128.87 Y147.927 E33.77983
G1 X128.702 Y147.243 E33.80325
G1 X128.385 Y146.641 E33.82588
G1 X128.304 Y146.506 E33.83112
G1 X127.83 Y145.968 E33.85496
G1 X127.144 Y145.49 E33.88277
G1 X127.004 Y145.444 E33.88768
G1 X126.42 Y145.222 E33.90846
G1 X125.766 Y145.143 E33.93037
G1 X125.53 Y145.144 E33.93821
G1 X124.88 Y145.222 E33.95999
G1 X124.298 Y145.443 E33.98069
G1 X124.153 Y145.494 E33.98581
G1 X123.592 Y145.881 E34.00848
G1 X123.465 Y145.975 E34.01373
G1 X122.988 Y146.511 E34.0376
G1 X122.911 Y146.648 E34.04282
G1 X122.598 Y147.242 E34.06515
G1 X122.426 Y147.934 E34.08887
G1 X122.413 Y148.091 E34.09411
G1 X122.412 Y148.78 E34.11703
G1 X122.576 Y149.447 E34.13987
G1 X122.625 Y149.597 E34.14512
G1 X122.958 Y150.23 E34.16891
G1 X123.503 Y150.844 E34.19621
G1 X124.096 Y151.255 E34.22021
G1 X124.241 Y151.317 E34.22546
G1 X124.874 Y151.558 E34.24799
