;FLAVOR:Marlin
;TIME:5509
;Filament used: 3.62654m
;Layer height: 0.2
;MINX:91.292
;MINY:39.839
;MINZ:0.2
;MAXX:128.708
;MAXY:180.161
;MAXZ:5.8
;Generated with Cura_SteamEngine master
M82 ;absolute extrusion mode
;Sliced at: Sun 10-04-2022 15:10:36
;Basic settings: Layer height: 0.2 Walls: 0.8 Fill: 20
G21 ;metric values
G90 ;absolute positioning
M82 ;set extruder to absolute mode
M107 ;start with the fan off
M117 Start heating ...
M104 S200
M117 Homing X/Y ...
G28 X0 Y0 ;move X/Y to min endstops
M117 Homing Z ...
G28 Z0 ;move Z to min endstops
G1 Z15.0 F100 ;move the platform down 15mm
M117 Heating ...
M109 S200
M117 Start cleaning ...
G92 E0 ;zero the extruded length
G1 F200 E10 ;extrude 10mm of feed stock
G92 E0 ;zero the extruded length again
M117 Intro line ...
G1 Z2.0 F3000 ; Move Z Axis up little to prevent scratching of Heat Bed
G1 X0.1 Y20 Z0.2 F5000.0 ; Move to start position
G1 X0.1 Y200.0 Z0.2 F1500.0 E15 ; Draw the first line
G1 X0.4 Y200.0 Z0.2 F5000.0 ; Move to side a little
G1 X0.4 Y20 Z0.3 F1500.0 E30 ; Draw the second line
G92 E0 ; Reset Extruder
G1 E-1 F500 ; Retract filiment by 1 mm
G1 Z2.0 F3000 ; Move Z Axis up little to prevent scratching of Heat Bed
G1 X5 Y20 Z0.3 F100 ; Move over to prevent blob squish
G1 F100
G92 E0 ; Reset Extruder
M117 Printing...

G92 E0
G92 E0
G1 F1800 E-7
;LAYER_COUNT:28
;LAYER:0
M107
G1 F300 Z0.4
G0 F3000 X91.682 Y42.146 Z0.4
;TYPE:SKIRT
G1 F300 Z0.2
G1 F1800 E0
G1 F1200 X91.958 Y41.653 E0.01879
G1 X92.301 Y41.204 E0.03758
G1 X92.704 Y40.807 E0.0564
G1 X93.158 Y40.471 E0.07519
G1 X93.656 Y40.202 E0.09401
G1 X94.186 Y40.007 E0.11279
G1 X94.739 Y39.888 E0.13161
G1 X95.51 Y39.841 E0.1573
G1 X95.622 Y39.839 E0.16103
G1 X124.058 Y39.839 E1.10681
G1 X124.756 Y39.849 E1.13003
G1 X125.32 Y39.897 E1.14885
G1 X125.87 Y40.024 E1.16763
G1 X126.398 Y40.228 E1.18646
G1 X126.892 Y40.503 E1.20526
G1 X127.341 Y40.846 E1.22405
G1 X127.738 Y41.248 E1.24284
G1 X128.075 Y41.703 E1.26168
G1 X128.343 Y42.2 E1.28046
G1 X128.539 Y42.73 E1.29925
G1 X128.659 Y43.283 E1.31807
G1 X128.706 Y44.057 E1.34386
G1 X128.708 Y44.169 E1.34759
G1 X128.707 Y160.861 E5.22878
G1 X128.695 Y161.614 E5.25383
G1 X128.686 Y161.827 E5.26092
G1 X128.639 Y162.501 E5.28339
G1 X128.549 Y163.579 E5.31937
G1 X128.473 Y164.339 E5.34477
G1 X128.363 Y164.968 E5.36601
G1 X128.234 Y165.502 E5.38428
G1 X127.95 Y166.62 E5.42265
G1 X127.762 Y167.318 E5.44669
G1 X127.599 Y167.803 E5.46371
G1 X127.552 Y167.919 E5.46787
G1 X127.317 Y168.472 E5.48786
G1 X126.87 Y169.488 E5.52478
G1 X126.563 Y170.162 E5.54941
G1 X126.308 Y170.637 E5.56734
G1 X125.93 Y171.233 E5.59082
G1 X125.321 Y172.165 E5.62784
G1 X124.917 Y172.764 E5.65188
G1 X124.609 Y173.166 E5.66872
G1 X124.506 Y173.285 E5.67395
G1 X124.109 Y173.724 E5.69364
G1 X123.356 Y174.542 E5.73062
G1 X122.861 Y175.065 E5.75457
G1 X122.473 Y175.426 E5.7722
G1 X122.02 Y175.791 E5.79155
G1 X121.022 Y176.568 E5.83361
G1 X120.448 Y177.002 E5.85755
G1 X119.975 Y177.311 E5.87634
G1 X119.398 Y177.632 E5.8983
G1 X118.388 Y178.179 E5.9365
G1 X117.768 Y178.504 E5.95979
G1 X117.228 Y178.74 E5.97939
G1 X116.601 Y178.964 E6.00153
G1 X115.525 Y179.333 E6.03937
G1 X114.861 Y179.551 E6.06261
G1 X114.318 Y179.69 E6.08125
G1 X113.662 Y179.809 E6.10343
G1 X112.473 Y180.006 E6.14351
G1 X111.811 Y180.106 E6.16578
G1 X111.252 Y180.152 E6.18444
G1 X110.667 Y180.161 E6.2039
G1 X109.431 Y180.161 E6.24501
G1 X108.713 Y180.15 E6.26889
G1 X108.158 Y180.104 E6.28741
G1 X107.649 Y180.027 E6.30453
G1 X106.314 Y179.804 E6.34955
G1 X105.717 Y179.696 E6.36973
G1 X105.053 Y179.525 E6.39253
G1 X104.49 Y179.339 E6.41226
G1 X103.415 Y178.968 E6.45008
G1 X102.747 Y178.728 E6.47369
G1 X102.261 Y178.518 E6.4913
G1 X102.143 Y178.458 E6.4957
G1 X101.615 Y178.181 E6.51553
G1 X100.629 Y177.647 E6.55283
G1 X99.999 Y177.294 E6.57685
G1 X99.52 Y176.98 E6.5959
G1 X99.044 Y176.619 E6.61576
G1 X98.058 Y175.852 E6.65731
G1 X97.542 Y175.437 E6.67934
G1 X97.126 Y175.053 E6.69817
G1 X96.74 Y174.647 E6.7168
G1 X95.894 Y173.728 E6.75835
G1 X95.416 Y173.193 E6.78221
G1 X95.075 Y172.756 E6.80064
G1 X94.717 Y172.224 E6.82197
G1 X94.077 Y171.243 E6.86093
G1 X93.696 Y170.641 E6.88462
G1 X93.43 Y170.152 E6.90314
G1 X93.157 Y169.554 E6.925
G1 X92.699 Y168.508 E6.96298
G1 X92.409 Y167.819 E6.98785
G1 X92.237 Y167.322 E7.00534
G1 X92.069 Y166.698 E7.02683
G1 X91.787 Y165.581 E7.06515
G1 X91.613 Y164.854 E7.09001
G1 X91.517 Y164.279 E7.1094
G1 X91.461 Y163.705 E7.12858
G1 X91.364 Y162.527 E7.1679
G1 X91.31 Y161.748 E7.19387
G1 X91.3 Y161.521 E7.20143
G1 X91.292 Y160.877 E7.22285
G1 X91.292 Y44.453 E11.09512
G1 X91.302 Y43.788 E11.11724
G1 X91.351 Y43.225 E11.13604
G1 X91.478 Y42.674 E11.15485
G1 X91.682 Y42.146 E11.17367
G0 F3000 X92.08 Y42.242
G1 F1200 X92.354 Y41.781 E11.19151
G1 X92.694 Y41.366 E11.20936
G1 X93.092 Y41.007 E11.22718
G1 X93.538 Y40.71 E11.245
G1 X94.024 Y40.482 E11.26286
G1 X94.538 Y40.33 E11.28069
G1 X95.201 Y40.249 E11.3029
G1 X95.622 Y40.239 E11.31691
G1 X124.053 Y40.239 E12.26253
G1 X124.751 Y40.249 E12.28575
G1 X125.285 Y40.297 E12.30358
G1 X125.806 Y40.423 E12.32141
G1 X126.303 Y40.626 E12.33926
G1 X126.764 Y40.9 E12.3571
G1 X127.179 Y41.239 E12.37492
G1 X127.539 Y41.637 E12.39277
G1 X127.836 Y42.083 E12.41059
G1 X128.064 Y42.569 E12.42845
G1 X128.216 Y43.083 E12.44628
G1 X128.298 Y43.748 E12.46856
G1 X128.308 Y44.169 E12.48257
G1 X128.308 Y160.854 E16.36353
G1 X128.296 Y161.607 E16.38857
G1 X128.287 Y161.799 E16.39497
G1 X128.241 Y162.468 E16.41727
G1 X128.157 Y163.479 E16.45101
G1 X128.075 Y164.299 E16.47842
G1 X127.975 Y164.874 E16.49783
G1 X127.847 Y165.404 E16.51597
G1 X127.564 Y166.516 E16.55413
G1 X127.376 Y167.214 E16.57818
G1 X127.184 Y167.763 E16.59752
G1 X126.951 Y168.311 E16.61733
G1 X126.506 Y169.322 E16.65406
G1 X126.199 Y169.996 E16.6787
G1 X125.915 Y170.513 E16.69832
G1 X125.595 Y171.015 E16.71812
G1 X124.99 Y171.941 E16.75491
G1 X124.586 Y172.54 E16.77894
G1 X124.209 Y173.017 E16.79916
G1 X123.815 Y173.453 E16.81871
G1 X123.066 Y174.267 E16.8555
G1 X122.571 Y174.79 E16.87945
G1 X122.106 Y175.211 E16.90031
G1 X121.739 Y175.504 E16.91593
G1 X120.822 Y176.218 E16.95458
G1 X120.207 Y176.683 E16.98023
G1 X119.773 Y176.966 E16.99746
G1 X119.207 Y177.281 E17.019
G1 X118.202 Y177.824 E17.057
G1 X117.582 Y178.149 E17.08028
G1 X117.085 Y178.366 E17.09832
G1 X116.471 Y178.585 E17.12
G1 X115.4 Y178.953 E17.15767
G1 X114.736 Y179.171 E17.18091
G1 X114.237 Y179.298 E17.19804
G1 X113.596 Y179.414 E17.2197
G1 X112.414 Y179.611 E17.25956
G1 X111.752 Y179.711 E17.28183
G1 X111.237 Y179.753 E17.29901
G1 X110.662 Y179.761 E17.31814
G1 X109.437 Y179.761 E17.35888
G1 X108.719 Y179.75 E17.38277
G1 X108.207 Y179.707 E17.39985
G1 X107.71 Y179.632 E17.41657
G1 X106.385 Y179.41 E17.46126
G1 X105.788 Y179.302 E17.48143
G1 X105.179 Y179.145 E17.50235
G1 X104.62 Y178.961 E17.52193
G1 X103.55 Y178.592 E17.55957
G1 X102.882 Y178.352 E17.58318
G1 X102.329 Y178.104 E17.60334
G1 X101.806 Y177.829 E17.62299
G1 X100.824 Y177.298 E17.66012
G1 X100.194 Y176.945 E17.68414
G1 X99.755 Y176.656 E17.70162
G1 X99.29 Y176.303 E17.72104
G1 X98.309 Y175.54 E17.76237
G1 X97.793 Y175.125 E17.7844
G1 X97.408 Y174.771 E17.80179
G1 X96.999 Y174.338 E17.8216
G1 X96.192 Y173.462 E17.86122
G1 X95.714 Y172.927 E17.88508
G1 X95.402 Y172.525 E17.90201
G1 X95.075 Y172.04 E17.92146
G1 X94.415 Y171.029 E17.96162
G1 X94.034 Y170.427 E17.98531
G1 X93.789 Y169.975 E18.00241
G1 X93.542 Y169.435 E18.02216
G1 X93.068 Y168.353 E18.06145
G1 X92.778 Y167.664 E18.08632
G1 X92.593 Y167.113 E18.10565
G1 X92.444 Y166.549 E18.12505
G1 X92.176 Y165.488 E18.16145
G1 X92.002 Y164.761 E18.18631
G1 X91.914 Y164.231 E18.20418
G1 X91.855 Y163.623 E18.2245
G1 X91.763 Y162.499 E18.26201
G1 X91.709 Y161.72 E18.28798
G1 X91.7 Y161.516 E18.29477
G1 X91.692 Y160.872 E18.31619
G1 X91.692 Y44.459 E22.1881
G1 X91.702 Y43.794 E22.21022
G1 X91.75 Y43.26 E22.22806
G1 X91.877 Y42.739 E22.24589
G1 X92.08 Y42.242 E22.26375
G0 F3000 X92.478 Y42.343
G1 F1200 X92.75 Y41.917 E22.28056
G1 X93.086 Y41.54 E22.29736
G1 X93.477 Y41.219 E22.31418
G1 X93.914 Y40.965 E22.33099
G1 X94.385 Y40.782 E22.3478
G1 X94.88 Y40.676 E22.36464
G1 X95.532 Y40.64 E22.38636
G1 X124.047 Y40.639 E23.33477
G1 X124.745 Y40.649 E23.35799
G1 X125.248 Y40.696 E23.37479
G1 X125.738 Y40.822 E23.39162
G1 X126.202 Y41.024 E23.40845
G1 X126.628 Y41.296 E23.42526
G1 X127.006 Y41.631 E23.44206
G1 X127.326 Y42.022 E23.45886
G1 X127.581 Y42.459 E23.47569
G1 X127.764 Y42.93 E23.4925
G1 X127.871 Y43.424 E23.50931
G1 X127.907 Y44.079 E23.53113
G1 X127.908 Y160.848 E27.41488
G1 X127.896 Y161.601 E27.43993
G1 X127.888 Y161.771 E27.44559
G1 X127.842 Y162.435 E27.46773
G1 X127.753 Y163.499 E27.50324
G1 X127.677 Y164.259 E27.52864
G1 X127.586 Y164.781 E27.54627
G1 X127.459 Y165.305 E27.5642
G1 X127.178 Y166.412 E27.60219
G1 X126.99 Y167.11 E27.62623
G1 X126.815 Y167.607 E27.64375
G1 X126.585 Y168.151 E27.6634
G1 X126.142 Y169.156 E27.69993
G1 X125.835 Y169.83 E27.72456
G1 X125.577 Y170.298 E27.74234
G1 X125.26 Y170.796 E27.76197
G1 X124.658 Y171.717 E27.79857
G1 X124.254 Y172.316 E27.8226
G1 X123.912 Y172.749 E27.84095
G1 X123.521 Y173.182 E27.86035
G1 X122.775 Y173.992 E27.89698
G1 X122.28 Y174.515 E27.92093
G1 X121.856 Y174.898 E27.93993
G1 X121.493 Y175.188 E27.95539
G1 X120.54 Y175.93 E27.99556
G1 X119.966 Y176.364 E28.01949
G1 X119.508 Y176.657 E28.03758
G1 X119.017 Y176.929 E28.05624
G1 X118.017 Y177.47 E28.09406
G1 X117.397 Y177.795 E28.11734
G1 X116.874 Y178.018 E28.13625
G1 X116.341 Y178.207 E28.15506
G1 X115.275 Y178.573 E28.19255
G1 X114.611 Y178.791 E28.21579
G1 X114.077 Y178.921 E28.23407
G1 X113.531 Y179.02 E28.25253
G1 X112.354 Y179.215 E28.29221
G1 X111.692 Y179.315 E28.31448
G1 X111.144 Y179.355 E28.33275
G1 X110.657 Y179.361 E28.34895
G1 X109.443 Y179.361 E28.38933
G1 X108.725 Y179.35 E28.41321
G1 X108.166 Y179.298 E28.43189
G1 X107.732 Y179.23 E28.4465
G1 X106.456 Y179.017 E28.48952
G1 X105.859 Y178.909 E28.5097
G1 X105.304 Y178.765 E28.52877
G1 X104.75 Y178.583 E28.54817
G1 X103.685 Y178.216 E28.58563
G1 X103.017 Y177.976 E28.60924
G1 X102.515 Y177.75 E28.62755
G1 X101.996 Y177.477 E28.64706
G1 X101.02 Y176.949 E28.68397
G1 X100.39 Y176.596 E28.70798
G1 X99.934 Y176.291 E28.72623
G1 X99.535 Y175.988 E28.7429
G1 X98.559 Y175.229 E28.78402
G1 X98.043 Y174.814 E28.80604
G1 X97.628 Y174.422 E28.82503
G1 X97.293 Y174.068 E28.84124
G1 X96.491 Y173.195 E28.88067
G1 X96.013 Y172.66 E28.90453
G1 X95.679 Y172.223 E28.92282
G1 X95.387 Y171.786 E28.9403
G1 X94.753 Y170.815 E28.97887
G1 X94.372 Y170.213 E29.00257
G1 X94.105 Y169.709 E29.02154
G1 X93.89 Y169.233 E29.03891
G1 X93.437 Y168.197 E29.07652
G1 X93.147 Y167.508 E29.10138
G1 X92.98 Y167.01 E29.11885
G1 X92.831 Y166.451 E29.13809
G1 X92.565 Y165.395 E29.17431
G1 X92.391 Y164.668 E29.19918
G1 X92.302 Y164.102 E29.21823
G1 X92.254 Y163.59 E29.23534
G1 X92.162 Y162.471 E29.27268
G1 X92.108 Y161.692 E29.29865
G1 X92.1 Y161.511 E29.30468
G1 X92.092 Y160.867 E29.3261
G1 X92.092 Y44.465 E33.19765
G1 X92.102 Y43.8 E33.21977
G1 X92.15 Y43.297 E33.23657
G1 X92.276 Y42.807 E33.2534
G1 X92.478 Y42.343 E33.27023
G1 F1800 E26.27023
G1 F300 Z0.4
;MESH:lamp.hanger.console.straight.stl
G0 F3000 X108.184 Y58.581 Z0.4
;TYPE:WALL-INNER
G1 F300 Z0.2
G1 F1800 E33.27023
G1 F1200 X108.335 Y58.63 E33.27551
G1 X109.432 Y58.9 E33.31309
G1 X110.565 Y58.9 E33.35077
G1 X110.724 Y58.886 E33.35608
G1 X111.841 Y58.608 E33.39437
G1 X112.83 Y58.09 E33.4315
G1 X112.967 Y58.012 E33.43674
G1 X113.833 Y57.243 E33.47526
G1 X113.927 Y57.117 E33.48049
G1 X114.567 Y56.19 E33.51796
G1 X114.626 Y56.021 E33.52391
G1 X114.996 Y55.043 E33.55869
G1 X115.141 Y53.839 E33.59902
G1 X114.996 Y52.635 E33.63936
G1 X114.631 Y51.672 E33.67361
G1 X114.571 Y51.492 E33.67992
G1 X113.842 Y50.439 E33.72252
G1 X112.972 Y49.672 E33.7611
G1 X112.839 Y49.59 E33.76629
G1 X111.839 Y49.069 E33.8038
G1 X110.732 Y48.796 E33.84172
G1 X110.575 Y48.777 E33.84698
G1 X109.432 Y48.778 E33.88499
G1 X108.342 Y49.046 E33.92233
G1 X108.19 Y49.092 E33.92761
G1 X107.161 Y49.634 E33.96629
G1 X106.213 Y50.472 E34.00837
G1 X105.557 Y51.426 E34.04688
G1 X105.491 Y51.569 E34.05212
G1 X105.091 Y52.626 E34.08971
G1 X104.953 Y53.757 E34.12761
G1 X104.952 Y53.915 E34.13286
G1 X105.091 Y55.052 E34.17096
G1 X105.489 Y56.098 E34.20818
G1 X105.551 Y56.244 E34.21346
G1 X106.211 Y57.199 E34.25207
G1 X106.327 Y57.306 E34.25732
G1 X107.161 Y58.043 E34.29434
G1 X108.184 Y58.581 E34.33278
G0 F3000 X108.34 Y58.211
;TYPE:WALL-OUTER
G1 F1200 X108.445 Y58.245 E34.33645
G1 X109.481 Y58.5 E34.37194
G1 X110.547 Y58.5 E34.40739
G1 X110.657 Y58.49 E34.41107
G1 X111.698 Y58.231 E34.44675
G1 X112.638 Y57.739 E34.48203
G1 X112.733 Y57.685 E34.48567
G1 X113.537 Y56.971 E34.52143
G1 X113.602 Y56.884 E34.52504
G1 X114.207 Y56.007 E34.56048
G1 X114.252 Y55.879 E34.56499
G1 X114.605 Y54.947 E34.59814
G1 X114.738 Y53.839 E34.63526
G1 X114.605 Y52.731 E34.67237
G1 X114.251 Y51.799 E34.70553
G1 X114.209 Y51.672 E34.70998
G1 X113.541 Y50.707 E34.74902
G1 X112.734 Y49.995 E34.78481
G1 X112.642 Y49.939 E34.78839
G1 X111.697 Y49.446 E34.82385
G1 X110.66 Y49.19 E34.85937
G1 X110.551 Y49.177 E34.86302
G1 X109.481 Y49.178 E34.89861
G1 X108.448 Y49.432 E34.93399
G1 X108.343 Y49.464 E34.93764
G1 X107.39 Y49.966 E34.97347
G1 X106.515 Y50.739 E35.0123
G1 X105.906 Y51.625 E35.04806
G1 X105.86 Y51.724 E35.05169
G1 X105.482 Y52.722 E35.08718
G1 X105.353 Y53.783 E35.12273
G1 X105.352 Y53.892 E35.12636
G1 X105.482 Y54.955 E35.16198
G1 X105.86 Y55.949 E35.19735
G1 X105.903 Y56.05 E35.201
G1 X106.515 Y56.935 E35.23679
G1 X106.595 Y57.009 E35.24041
G1 X107.39 Y57.711 E35.27569
G1 X108.34 Y58.211 E35.31139
G0 F3000 X108.445 Y58.245
G0 X108.532 Y58.266
G0 X108.426 Y58.693
G1 F1800 E28.31139
G1 F300 Z0.4
G0 F3000 X108.388 Y58.848 Z0.4
G0 X109.658 Y164.742
;TYPE:WALL-INNER
G1 F300 Z0.2
G1 F1800 E35.31139
G1 F1200 X110.345 Y164.743 E35.33424
G1 X110.525 Y164.706 E35.34036
G1 X111.164 Y164.55 E35.36223
G1 X111.766 Y164.234 E35.38485
G1 X111.916 Y164.131 E35.3909
G1 X112.43 Y163.679 E35.41366
G1 X112.897 Y162.995 E35.44121
G1 X113.136 Y162.37 E35.46347
G1 X113.171 Y162.247 E35.46772
G1 X113.248 Y161.618 E35.4888
G1 X113.258 Y161.492 E35.493
G1 X113.171 Y160.75 E35.51785
G1 X113.132 Y160.63 E35.52204
G1 X112.899 Y160.012 E35.54401
G1 X112.43 Y159.33 E35.57154
G1 X111.914 Y158.873 E35.59447
G1 X111.763 Y158.773 E35.60049
G1 X111.165 Y158.458 E35.62297
G1 X110.52 Y158.299 E35.64507
G1 X110.342 Y158.266 E35.65109
G1 X109.655 Y158.265 E35.67394
G1 X109.475 Y158.302 E35.68005
G1 X108.836 Y158.458 E35.70193
G1 X108.234 Y158.774 E35.72454
G1 X108.084 Y158.877 E35.73059
G1 X107.57 Y159.329 E35.75336
G1 X107.103 Y160.013 E35.7809
G1 X106.855 Y160.664 E35.80407
G1 X106.821 Y160.842 E35.8101
G1 X106.74 Y161.504 E35.83228
G1 X106.82 Y162.168 E35.85453
G1 X106.857 Y162.346 E35.86058
G1 X107.101 Y162.995 E35.88364
G1 X107.57 Y163.678 E35.91119
G1 X108.086 Y164.135 E35.93412
G1 X108.237 Y164.235 E35.94014
G1 X108.835 Y164.55 E35.96262
G1 X109.48 Y164.709 E35.98472
G1 X109.658 Y164.742 E35.99074
G0 F3000 X109.695 Y164.342
;TYPE:WALL-OUTER
G1 F1200 X110.305 Y164.343 E36.01103
G1 X110.437 Y164.316 E36.01551
G1 X111.021 Y164.173 E36.03551
G1 X111.559 Y163.891 E36.05571
G1 X111.67 Y163.815 E36.06018
G1 X112.128 Y163.412 E36.08047
G1 X112.54 Y162.808 E36.10479
G1 X112.756 Y162.243 E36.12491
G1 X112.778 Y162.167 E36.12754
G1 X112.85 Y161.578 E36.14728
G1 X112.856 Y161.5 E36.14988
G1 X112.778 Y160.836 E36.17212
G1 X112.754 Y160.762 E36.1747
G1 X112.542 Y160.199 E36.19471
G1 X112.128 Y159.597 E36.21901
G1 X111.67 Y159.191 E36.23937
G1 X111.559 Y159.118 E36.24379
G1 X111.022 Y158.835 E36.26398
G1 X110.436 Y158.69 E36.28406
G1 X110.305 Y158.666 E36.28849
G1 X109.695 Y158.665 E36.30877
G1 X109.563 Y158.692 E36.31326
G1 X108.979 Y158.835 E36.33325
G1 X108.441 Y159.117 E36.35346
G1 X108.33 Y159.193 E36.35793
G1 X107.872 Y159.596 E36.37822
G1 X107.46 Y160.2 E36.40254
G1 X107.241 Y160.774 E36.42297
G1 X107.216 Y160.904 E36.42738
G1 X107.143 Y161.504 E36.44748
G1 X107.215 Y162.104 E36.46758
G1 X107.242 Y162.235 E36.47203
