;FLAVOR:Marlin
;TIME:6397
;Filament used: 4.12508m
;Layer height: 0.2
;MINX:91.007
;MINY:69.73
;MINZ:0.2
;MAXX:128.993
;MAXY:150.289
;MAXZ:34.2
;Generated with Cura_SteamEngine master
M82 ;absolute extrusion mode
;Sliced at: Sat 09-07-2022 12:29:05
;Basic settings: Layer height: 0.2 Walls: 0.8 Fill: 30
G21 ;metric values
G90 ;absolute positioning
M82 ;set extruder to absolute mode
M107 ;start with the fan off
M117 Start heating ...
M104 S200
M117 Homing X/Y ...
G28 X0 Y0 ;move X/Y to min endstops
M117 Homing Z ...
G28 Z0 ;move Z to min endstops
G1 Z15.0 F100 ;move the platform down 15mm
M117 Heating ...
M109 S200
M117 Start cleaning ...
G92 E0 ;zero the extruded length
G1 F200 E10 ;extrude 10mm of feed stock
G92 E0 ;zero the extruded length again
M117 Intro line ...
G1 Z2.0 F3000 ; Move Z Axis up little to prevent scratching of Heat Bed
G1 X0.1 Y20 Z0.2 F5000.0 ; Move to start position
G1 X0.1 Y200.0 Z0.2 F1500.0 E15 ; Draw the first line
G1 X0.4 Y200.0 Z0.2 F5000.0 ; Move to side a little
G1 X0.4 Y20 Z0.3 F1500.0 E30 ; Draw the second line
G92 E0 ; Reset Extruder
G1 E-1 F500 ; Retract filiment by 1 mm
G1 Z2.0 F3000 ; Move Z Axis up little to prevent scratching of Heat Bed
G1 X5 Y20 Z0.3 F100 ; Move over to prevent blob squish
G1 F100
G92 E0 ; Reset Extruder
M117 Printing...

G92 E0
G92 E0
G1 F1800 E-7
;LAYER_COUNT:171
;LAYER:0
M107
G1 F300 Z0.4
G0 F3000 X94.994 Y77.223 Z0.4
;TYPE:SKIRT
G1 F300 Z0.2
G1 F1800 E0
G1 F1200 X95.439 Y76.687 E0.02317
G1 X95.992 Y76.039 E0.0515
G1 X96.512 Y75.45 E0.07764
G1 X96.918 Y75.044 E0.09673
G1 X97.302 Y74.707 E0.11373
G1 X98.211 Y73.93 E0.1535
G1 X98.924 Y73.36 E0.18386
G1 X99.222 Y73.151 E0.19597
G1 X99.895 Y72.724 E0.22248
G1 X100.684 Y72.242 E0.25323
G1 X101.25 Y71.907 E0.2751
G1 X101.755 Y71.652 E0.29392
G1 X102.3 Y71.417 E0.31366
G1 X103.298 Y71.004 E0.34958
G1 X103.937 Y70.749 E0.37247
G1 X104.433 Y70.585 E0.38984
G1 X104.93 Y70.453 E0.40695
G1 X106.118 Y70.169 E0.44757
G1 X106.829 Y70.008 E0.47182
G1 X107.406 Y69.917 E0.49125
G1 X108.11 Y69.852 E0.51476
G1 X109.068 Y69.778 E0.54672
G1 X109.833 Y69.73 E0.57221
G1 X110.688 Y69.748 E0.60066
G1 X112.047 Y69.854 E0.646
G1 X112.776 Y69.923 E0.67035
G1 X113.49 Y70.046 E0.69445
G1 X113.606 Y70.072 E0.6984
G1 X114.935 Y70.389 E0.74384
G1 X115.652 Y70.572 E0.76846
G1 X116.177 Y70.743 E0.78682
G1 X116.865 Y71.017 E0.81145
G1 X117.725 Y71.374 E0.84242
G1 X118.33 Y71.635 E0.86434
G1 X118.852 Y71.899 E0.88379
G1 X119.702 Y72.398 E0.91658
G1 X120.351 Y72.797 E0.94192
G1 X120.909 Y73.15 E0.96388
G1 X121.308 Y73.437 E0.98022
G1 X122.19 Y74.162 E1.0182
G1 X122.711 Y74.609 E1.04103
G1 X123.257 Y75.09 E1.06523
G1 X123.66 Y75.495 E1.08423
G1 X124.01 Y75.894 E1.10189
G1 X124.694 Y76.693 E1.13687
G1 X125.147 Y77.239 E1.16047
G1 X125.435 Y77.632 E1.17667
G1 X126.114 Y78.69 E1.21848
G1 X126.432 Y79.209 E1.23873
G1 X126.799 Y79.83 E1.26272
G1 X127.057 Y80.343 E1.28182
G1 X127.323 Y80.963 E1.30426
G1 X127.719 Y81.923 E1.3388
G1 X127.972 Y82.56 E1.3616
G1 X128.205 Y83.322 E1.3881
G1 X128.236 Y83.443 E1.39225
G1 X128.548 Y84.744 E1.43675
G1 X128.703 Y85.433 E1.46024
G1 X128.805 Y86.128 E1.4836
G1 X128.817 Y86.254 E1.48781
G1 X128.929 Y87.666 E1.53492
G1 X128.981 Y88.513 E1.56315
G1 X128.993 Y89.114 E1.58314
G1 X128.993 Y145.608 E3.46214
G1 X128.983 Y146.335 E3.48632
G1 X128.935 Y146.898 E3.50512
G1 X128.808 Y147.449 E3.52392
G1 X128.605 Y147.977 E3.54274
G1 X128.33 Y148.471 E3.56154
G1 X127.988 Y148.921 E3.58034
G1 X127.585 Y149.318 E3.59916
G1 X127.131 Y149.654 E3.61794
G1 X126.634 Y149.923 E3.63674
G1 X126.104 Y150.12 E3.65554
G1 X125.551 Y150.239 E3.67436
G1 X124.775 Y150.287 E3.70022
G1 X124.663 Y150.289 E3.70394
G1 X95.662 Y150.289 E4.66852
G1 X94.964 Y150.28 E4.69174
G1 X94.401 Y150.232 E4.71053
G1 X93.85 Y150.106 E4.72933
G1 X93.322 Y149.904 E4.74813
G1 X92.828 Y149.629 E4.76694
G1 X92.378 Y149.287 E4.78574
G1 X91.98 Y148.885 E4.80455
G1 X91.644 Y148.431 E4.82334
G1 X91.374 Y147.934 E4.84215
G1 X91.177 Y147.404 E4.86096
G1 X91.057 Y146.852 E4.87974
G1 X91.008 Y146.055 E4.9063
G1 X91.007 Y89.286 E6.79445
G1 X91.018 Y88.568 E6.81833
G1 X91.05 Y88.121 E6.83324
G1 X91.286 Y86.286 E6.89477
G1 X91.372 Y85.712 E6.91408
G1 X91.473 Y85.195 E6.9316
G1 X91.825 Y83.72 E6.98203
G1 X92 Y83.041 E7.00535
G1 X92.26 Y82.284 E7.03198
G1 X92.308 Y82.163 E7.0363
G1 X92.802 Y80.97 E7.07925
G1 X93.097 Y80.284 E7.10409
G1 X93.447 Y79.621 E7.12902
G1 X93.506 Y79.521 E7.13289
G1 X94.199 Y78.388 E7.17706
G1 X94.514 Y77.893 E7.19657
G1 X94.994 Y77.223 E7.22399
G0 F3000 X95.302 Y77.479
G1 F1200 X95.744 Y76.947 E7.24699
G1 X96.335 Y76.255 E7.27726
G1 X96.812 Y75.714 E7.30125
G1 X97.192 Y75.336 E7.31908
G1 X97.562 Y75.011 E7.33545
G1 X98.466 Y74.238 E7.37502
G1 X99.169 Y73.677 E7.40493
G1 X99.437 Y73.489 E7.41582
G1 X100.104 Y73.065 E7.44211
G1 X100.887 Y72.586 E7.47263
G1 X101.453 Y72.251 E7.49451
G1 X101.919 Y72.017 E7.51185
G1 X102.498 Y71.768 E7.53282
G1 X103.447 Y71.375 E7.56698
G1 X104.086 Y71.12 E7.58986
G1 X104.932 Y70.865 E7.61925
G1 X106.161 Y70.569 E7.6613
G1 X106.917 Y70.398 E7.68708
G1 X107.443 Y70.315 E7.70479
G1 X108.142 Y70.251 E7.72813
G1 X109.093 Y70.177 E7.75986
G1 X109.858 Y70.129 E7.78535
G1 X110.657 Y70.147 E7.81194
G1 X112.009 Y70.252 E7.85704
G1 X112.738 Y70.321 E7.88139
G1 X113.409 Y70.438 E7.90405
G1 X113.514 Y70.461 E7.90762
G1 X114.836 Y70.777 E7.95283
G1 X115.553 Y70.96 E7.97744
G1 X116.03 Y71.115 E7.99413
G1 X116.712 Y71.386 E8.01853
G1 X117.567 Y71.741 E8.04933
G1 X118.172 Y72.002 E8.07124
G1 X118.65 Y72.244 E8.08906
G1 X119.493 Y72.739 E8.12157
G1 X120.138 Y73.135 E8.14675
G1 X120.696 Y73.488 E8.16871
G1 X121.054 Y73.747 E8.18341
G1 X121.929 Y74.466 E8.22107
G1 X122.447 Y74.909 E8.24374
G1 X122.993 Y75.39 E8.26795
G1 X123.367 Y75.767 E8.28561
G1 X123.728 Y76.179 E8.30383
G1 X124.424 Y76.993 E8.33945
G1 X124.84 Y77.494 E8.36111
G1 X125.099 Y77.848 E8.3757
G1 X125.773 Y78.899 E8.41722
G1 X126.087 Y79.412 E8.43723
G1 X126.454 Y80.033 E8.46122
G1 X126.689 Y80.501 E8.47864
G1 X126.953 Y81.116 E8.5009
G1 X127.347 Y82.071 E8.53526
G1 X127.6 Y82.708 E8.55805
G1 X127.819 Y83.427 E8.58305
G1 X127.847 Y83.536 E8.5868
G1 X128.158 Y84.832 E8.63113
G1 X128.313 Y85.521 E8.65461
G1 X128.408 Y86.172 E8.6765
G1 X128.419 Y86.286 E8.68031
G1 X128.53 Y87.691 E8.72718
G1 X128.577 Y88.438 E8.75208
G1 X128.593 Y89.118 E8.7747
G1 X128.593 Y145.603 E10.6534
G1 X128.583 Y146.33 E10.67758
G1 X128.535 Y146.864 E10.69541
G1 X128.409 Y147.385 E10.71324
G1 X128.207 Y147.882 E10.73108
G1 X127.933 Y148.343 E10.74892
G1 X127.594 Y148.758 E10.76674
G1 X127.197 Y149.119 E10.78459
G1 X126.751 Y149.416 E10.80241
G1 X126.265 Y149.644 E10.82027
G1 X125.751 Y149.797 E10.8381
G1 X125.084 Y149.879 E10.86046
G1 X124.663 Y149.889 E10.87446
G1 X95.668 Y149.889 E11.83884
G1 X94.97 Y149.88 E11.86206
G1 X94.435 Y149.833 E11.87992
G1 X93.914 Y149.707 E11.89775
G1 X93.417 Y149.505 E11.91559
G1 X92.956 Y149.232 E11.93341
G1 X92.54 Y148.893 E11.95126
G1 X92.179 Y148.497 E11.96908
G1 X91.881 Y148.051 E11.98692
G1 X91.653 Y147.565 E12.00478
G1 X91.5 Y147.051 E12.02262
G1 X91.417 Y146.377 E12.0452
G1 X91.407 Y145.947 E12.05951
G1 X91.407 Y89.292 E13.94386
G1 X91.418 Y88.574 E13.96774
G1 X91.447 Y88.171 E13.98118
G1 X91.693 Y86.261 E14.04523
G1 X91.803 Y85.573 E14.06841
G1 X91.888 Y85.173 E14.08201
G1 X92.229 Y83.753 E14.13058
G1 X92.387 Y83.14 E14.15164
G1 X92.634 Y82.425 E14.1768
G1 X92.677 Y82.316 E14.18069
G1 X93.17 Y81.128 E14.22347
G1 X93.465 Y80.442 E14.24831
G1 X93.794 Y79.82 E14.27171
G1 X94.538 Y78.6 E14.31924
G1 X94.844 Y78.12 E14.33817
G1 X95.302 Y77.479 E14.36438
G0 F3000 X95.61 Y77.734
G1 F1200 X96.048 Y77.207 E14.38717
G1 X96.635 Y76.52 E14.41722
G1 X97.112 Y75.979 E14.44121
G1 X97.546 Y75.555 E14.46139
G1 X97.822 Y75.315 E14.47356
G1 X98.722 Y74.545 E14.51295
G1 X99.413 Y73.993 E14.54237
G1 X99.651 Y73.826 E14.55204
G1 X100.312 Y73.406 E14.57809
G1 X101.091 Y72.93 E14.60845
G1 X101.657 Y72.595 E14.63033
G1 X102.139 Y72.357 E14.6482
G1 X102.651 Y72.138 E14.66673
G1 X103.595 Y71.747 E14.70071
G1 X104.234 Y71.492 E14.72359
G1 X105.036 Y71.252 E14.75144
G1 X105.117 Y71.231 E14.75422
G1 X106.294 Y70.949 E14.79447
G1 X107.005 Y70.788 E14.81872
G1 X107.48 Y70.714 E14.83471
G1 X108.173 Y70.65 E14.85786
G1 X109.118 Y70.576 E14.88939
G1 X109.883 Y70.528 E14.91488
G1 X110.626 Y70.546 E14.9396
G1 X111.972 Y70.65 E14.9845
G1 X112.701 Y70.719 E15.00886
G1 X113.328 Y70.83 E15.03003
G1 X113.421 Y70.85 E15.0332
G1 X114.737 Y71.164 E15.0782
G1 X115.454 Y71.347 E15.10281
G1 X115.882 Y71.487 E15.11779
G1 X116.559 Y71.756 E15.14202
G1 X117.409 Y72.109 E15.17263
G1 X118.014 Y72.37 E15.19454
G1 X118.448 Y72.589 E15.21071
G1 X119.284 Y73.08 E15.24296
G1 X119.924 Y73.473 E15.26794
G1 X120.482 Y73.826 E15.2899
G1 X120.8 Y74.056 E15.30295
G1 X121.669 Y74.77 E15.34036
G1 X122.182 Y75.209 E15.36282
G1 X122.728 Y75.69 E15.38702
G1 X123.14 Y76.112 E15.40663
G1 X123.424 Y76.439 E15.42104
G1 X124.116 Y77.249 E15.45647
G1 X124.532 Y77.75 E15.47813
G1 X124.762 Y78.065 E15.4911
G1 X125.432 Y79.108 E15.53234
G1 X125.743 Y79.616 E15.55215
G1 X126.11 Y80.237 E15.57614
G1 X126.322 Y80.659 E15.59185
G1 X126.583 Y81.268 E15.61388
G1 X126.975 Y82.219 E15.6481
G1 X127.228 Y82.856 E15.67089
G1 X127.434 Y83.533 E15.69443
G1 X127.459 Y83.63 E15.69776
G1 X127.768 Y84.92 E15.74188
G1 X127.923 Y85.609 E15.76537
G1 X128.01 Y86.216 E15.78576
G1 X128.02 Y86.317 E15.78914
G1 X128.131 Y87.716 E15.83582
G1 X128.182 Y88.543 E15.86337
G1 X128.193 Y89.123 E15.88267
G1 X128.193 Y145.597 E17.761
G1 X128.183 Y146.324 E17.78518
G1 X128.136 Y146.827 E17.80199
G1 X128.01 Y147.317 E17.81881
G1 X127.809 Y147.781 E17.83563
G1 X127.537 Y148.207 E17.85244
G1 X127.202 Y148.586 E17.86927
G1 X126.811 Y148.906 E17.88607
G1 X126.375 Y149.161 E17.90287
G1 X125.904 Y149.345 E17.91969
G1 X125.409 Y149.451 E17.93653
G1 X124.753 Y149.488 E17.95838
G1 X95.673 Y149.489 E18.92559
G1 X94.975 Y149.48 E18.9488
G1 X94.471 Y149.433 E18.96564
G1 X93.981 Y149.308 E18.98246
G1 X93.517 Y149.107 E18.99928
G1 X93.091 Y148.836 E19.01607
G1 X92.712 Y148.501 E19.03289
G1 X92.391 Y148.11 E19.04972
G1 X92.136 Y147.674 E19.06652
G1 X91.952 Y147.203 E19.08334
G1 X91.845 Y146.709 E19.10015
G1 X91.808 Y146.033 E19.12267
G1 X91.807 Y89.298 E21.00968
G1 X91.818 Y88.58 E21.03356
G1 X91.844 Y88.222 E21.0455
G1 X92.089 Y86.321 E21.10925
G1 X92.195 Y85.655 E21.13168
G1 X92.277 Y85.266 E21.14491
G1 X92.616 Y83.853 E21.19324
G1 X92.774 Y83.24 E21.21429
G1 X93.009 Y82.566 E21.23803
G1 X93.047 Y82.469 E21.2415
G1 X93.537 Y81.286 E21.28408
G1 X93.832 Y80.6 E21.30892
G1 X94.141 Y80.018 E21.33084
G1 X94.877 Y78.813 E21.3778
G1 X95.173 Y78.346 E21.39619
G1 X95.61 Y77.734 E21.4212
G1 F1800 E14.4212
G1 F300 Z0.4
;MESH:lamp.hanger.core.front.screw.nut.amf
G0 F3000 X95.907 Y115.29 Z0.4
;TYPE:WALL-INNER
G1 F300 Z0.2
G1 F1800 E21.4212
G1 F1200 X95.907 Y145.49 E22.42566
G1 X98.093 Y145.49 E22.49837
G1 X98.093 Y143.49 E22.56489
G1 X99.444 Y143.49 E22.60982
G1 X99.444 Y138.89 E22.76282
G1 X98.093 Y138.89 E22.80775
G1 X98.093 Y138.09 E22.83436
G1 X101.893 Y138.09 E22.96075
G1 X101.893 Y143.89 E23.15366
G1 X118.093 Y143.89 E23.69247
G1 X118.093 Y138.09 E23.88538
G1 X121.893 Y138.09 E24.01177
G1 X121.893 Y138.89 E24.03838
G1 X120.544 Y138.89 E24.08324
G1 X120.544 Y143.49 E24.23624
G1 X121.893 Y143.49 E24.28111
G1 X121.893 Y145.49 E24.34763
G1 X124.093 Y145.49 E24.4208
G1 X124.093 Y115.29 E25.42526
G1 X119.893 Y115.29 E25.56495
G1 X119.893 Y115.79 E25.58158
G1 X100.107 Y115.79 E26.23966
G1 X100.107 Y115.29 E26.25629
G1 X95.907 Y115.29 E26.39599
G0 F3000 X96.307 Y115.69
;TYPE:WALL-OUTER
G1 F1200 X96.307 Y145.09 E27.37384
G1 X97.693 Y145.09 E27.41993
G1 X97.693 Y143.09 E27.48645
G1 X99.044 Y143.09 E27.53139
G1 X99.044 Y139.29 E27.65778
G1 X97.693 Y139.29 E27.70271
G1 X97.693 Y137.69 E27.75593
G1 X102.293 Y137.69 E27.90892
G1 X102.293 Y143.49 E28.10183
G1 X117.693 Y143.49 E28.61404
G1 X117.693 Y137.69 E28.80695
G1 X122.293 Y137.69 E28.95994
G1 X122.293 Y139.29 E29.01316
G1 X120.944 Y139.29 E29.05803
G1 X120.944 Y143.09 E29.18442
G1 X122.293 Y143.09 E29.22929
G1 X122.293 Y145.09 E29.29581
G1 X123.693 Y145.09 E29.34237
G1 X123.693 Y115.69 E30.32022
G1 X120.293 Y115.69 E30.4333
G1 X120.293 Y116.19 E30.44993
G1 X99.707 Y116.19 E31.13463
G1 X99.707 Y115.69 E31.15126
G1 X96.307 Y115.69 E31.26434
G0 F3000 X96.307 Y115.89
G0 X95.867 Y115.89
G1 F1800 E24.26434
G1 F300 Z0.4
G0 F3000 X95.807 Y115.89 Z0.4
G0 X108.928 Y91.636
;TYPE:WALL-INNER
G1 F300 Z0.2
G1 F1800 E31.26434
G1 F1200 X109.678 Y91.821 E31.29003
G1 X110.451 Y91.821 E31.31574
G1 X111.2 Y91.636 E31.3414
G1 X111.883 Y91.278 E31.36705
G1 X112.462 Y90.766 E31.39276
G1 X112.902 Y90.131 E31.41845
G1 X113.176 Y89.407 E31.4442
G1 X113.267 Y88.64 E31.46989
G1 X113.176 Y87.874 E31.49555
G1 X112.902 Y87.151 E31.52126
G1 X112.462 Y86.514 E31.54701
G1 X111.883 Y86.003 E31.5727
G1 X111.201 Y85.644 E31.59833
G1 X110.451 Y85.459 E31.62402
G1 X109.678 Y85.459 E31.64973
G1 X108.927 Y85.644 E31.67546
G1 X108.244 Y86.003 E31.70112
G1 X107.665 Y86.515 E31.72683
G1 X107.227 Y87.151 E31.75251
G1 X106.953 Y87.874 E31.77823
G1 X106.86 Y88.64 E31.80389
G1 X106.953 Y89.407 E31.82959
G1 X107.227 Y90.13 E31.85531
G1 X107.665 Y90.765 E31.88097
G1 X108.244 Y91.278 E31.90669
G1 X108.928 Y91.636 E31.93237
G0 F3000 X109.071 Y91.259
;TYPE:WALL-OUTER
G1 F1200 X109.727 Y91.421 E31.95485
G1 X110.402 Y91.421 E31.9773
G1 X111.057 Y91.259 E31.99974
G1 X111.654 Y90.946 E32.02216
G1 X112.161 Y90.498 E32.04466
G1 X112.545 Y89.943 E32.06711
G1 X112.785 Y89.311 E32.08959
G1 X112.864 Y88.64 E32.11206
G1 X112.785 Y87.97 E32.1345
G1 X112.545 Y87.338 E32.15699
G1 X112.161 Y86.782 E32.17946
G1 X111.654 Y86.335 E32.20194
G1 X111.058 Y86.021 E32.22435
G1 X110.402 Y85.859 E32.24682
G1 X109.727 Y85.859 E32.26927
G1 X109.07 Y86.021 E32.29178
G1 X108.473 Y86.335 E32.31422
G1 X107.967 Y86.782 E32.33667
G1 X107.584 Y87.338 E32.35913
G1 X107.344 Y87.97 E32.38161
G1 X107.263 Y88.64 E32.40406
G1 X107.344 Y89.311 E32.42654
G1 X107.584 Y89.943 E32.44902
G1 X107.967 Y90.498 E32.47145
G1 X108.473 Y90.946 E32.49393
G1 X109.071 Y91.259 E32.51638
G0 F3000 X109.265 Y91.307
G0 X109.16 Y91.733
G1 F1800 E25.51638
G1 F300 Z0.4
G0 F3000 X109.12 Y91.888 Z0.4
G0 X95.607 Y89.24
;TYPE:WALL-INNER
G1 F300 Z0.2
G1 F1800 E32.51638
G1 F1200 X95.69 Y89.24 E32.51914
G1 X95.911 Y86.404 E32.61375
G1 X96.433 Y84.229 E32.68815
G1 X97.296 Y82.139 E32.76335
G1 X98.48 Y80.209 E32.83866
G1 X99.936 Y78.507 E32.91316
G1 X101.636 Y77.053 E32.98756
G1 X103.562 Y75.874 E33.06267
G1 X105.644 Y75.012 E33.13762
G1 X107.834 Y74.488 E33.21251
G1 X110.073 Y74.313 E33.28721
G1 X112.294 Y74.487 E33.36131
G1 X114.484 Y75.011 E33.4362
G1 X116.562 Y75.871 E33.511
G1 X118.492 Y77.053 E33.58628
G1 X120.199 Y78.514 E33.66101
G1 X121.647 Y80.208 E33.73513
G1 X122.831 Y82.138 E33.81044
G1 X123.694 Y84.228 E33.88564
G1 X124.216 Y86.402 E33.96001
G1 X124.393 Y88.658 E34.03527
G1 X124.393 Y115.29 E34.92106
G1 X124.393 Y145.689 E35.75786
G1 X121.893 Y145.689 E35.8176
G1 X98.093 Y145.689 E36.60919
G1 X95.607 Y145.689 E36.6686
G1 X95.607 Y115.29 E37.5054
G1 X95.607 Y89.24 E38.37183
G0 F3000 X95.32 Y88.84
;TYPE:WALL-OUTER
G1 F1200 X95.514 Y86.343 E38.45513
G1 X96.052 Y84.103 E38.53175
G1 X96.932 Y81.971 E38.60846
G1 X96.942 Y81.951 E38.60921
G1 X98.156 Y79.973 E38.6864
G1 X99.652 Y78.223 E38.76297
G1 X101.393 Y76.735 E38.83915
G1 X101.418 Y76.717 E38.84017
G1 X103.382 Y75.515 E38.91676
G1 X105.501 Y74.638 E38.99303
G1 X105.531 Y74.628 E38.99409
G1 X107.773 Y74.091 E39.07076
G1 X110.047 Y73.913 E39.14663
G1 X110.084 Y73.912 E39.14786
G1 X112.355 Y74.09 E39.22363
G1 X114.597 Y74.627 E39.3003
G1 X114.627 Y74.637 E39.30136
G1 X116.742 Y75.512 E39.37748
G1 X118.709 Y76.716 E39.45419
G1 X118.738 Y76.737 E39.45538
G1 X120.483 Y78.23 E39.53176
G1 X121.971 Y79.972 E39.60796
G1 X123.185 Y81.95 E39.68515
G1 X123.195 Y81.97 E39.6859
G1 X124.075 Y84.102 E39.76261
G1 X124.613 Y86.341 E39.8392
G1 X124.793 Y88.64 E39.9159
G1 X124.793 Y146.089 E41.82666
G1 X95.207 Y146.089 E42.81069
G1 X95.207 Y88.84 E44.7148
G1 X95.32 Y88.84 E44.71856
G0 F3000 X95.335 Y88.641
