;FLAVOR:Marlin
;TIME:4605
;Filament used: 2.45516m
;Layer height: 0.2
;MINX:91.314
;MINY:68.794
;MINZ:0.2
;MAXX:128.593
;MAXY:151.228
;MAXZ:22.2
;Generated with Cura_SteamEngine master
M82 ;absolute extrusion mode
;Sliced at: Sun 10-04-2022 15:08:28
;Basic settings: Layer height: 0.2 Walls: 0.8 Fill: 20
G21 ;metric values
G90 ;absolute positioning
M82 ;set extruder to absolute mode
M107 ;start with the fan off
M117 Start heating ...
M104 S200
M117 Homing X/Y ...
G28 X0 Y0 ;move X/Y to min endstops
M117 Homing Z ...
G28 Z0 ;move Z to min endstops
G1 Z15.0 F100 ;move the platform down 15mm
M117 Heating ...
M109 S200
M117 Start cleaning ...
G92 E0 ;zero the extruded length
G1 F200 E10 ;extrude 10mm of feed stock
G92 E0 ;zero the extruded length again
M117 Intro line ...
G1 Z2.0 F3000 ; Move Z Axis up little to prevent scratching of Heat Bed
G1 X0.1 Y20 Z0.2 F5000.0 ; Move to start position
G1 X0.1 Y200.0 Z0.2 F1500.0 E15 ; Draw the first line
G1 X0.4 Y200.0 Z0.2 F5000.0 ; Move to side a little
G1 X0.4 Y20 Z0.3 F1500.0 E30 ; Draw the second line
G92 E0 ; Reset Extruder
G1 E-1 F500 ; Retract filiment by 1 mm
G1 Z2.0 F3000 ; Move Z Axis up little to prevent scratching of Heat Bed
G1 X5 Y20 Z0.3 F100 ; Move over to prevent blob squish
G1 F100
G92 E0 ; Reset Extruder
M117 Printing...

G92 E0
G92 E0
G1 F1800 E-7
;LAYER_COUNT:110
;LAYER:0
M107
G1 F300 Z0.4
G0 F3000 X96.789 Y75.103 Z0.4
;TYPE:SKIRT
G1 F300 Z0.2
G1 F1800 E0
G1 F1200 X97.164 Y74.656 E0.01941
G1 X97.822 Y73.978 E0.05083
G1 X98.406 Y73.395 E0.07828
G1 X98.844 Y72.97 E0.09858
G1 X99.28 Y72.604 E0.11751
G1 X99.998 Y72.084 E0.14699
G1 X100.678 Y71.608 E0.1746
G1 X101.231 Y71.232 E0.19684
G1 X101.728 Y70.944 E0.21595
G1 X102.579 Y70.53 E0.24742
G1 X103.216 Y70.233 E0.2708
G1 X103.907 Y69.923 E0.29599
G1 X104.443 Y69.727 E0.31497
G1 X105.291 Y69.485 E0.3443
G1 X106.108 Y69.268 E0.37242
G1 X106.731 Y69.11 E0.3938
G1 X107.299 Y69.009 E0.41298
G1 X108.255 Y68.909 E0.44495
G1 X109.007 Y68.844 E0.47006
G1 X109.676 Y68.795 E0.49237
G1 X110.253 Y68.794 E0.51156
G1 X111.224 Y68.864 E0.54394
G1 X111.93 Y68.926 E0.56751
G1 X112.65 Y69 E0.59159
G1 X113.21 Y69.098 E0.61049
G1 X114.037 Y69.305 E0.63885
G1 X114.917 Y69.541 E0.66915
G1 X115.495 Y69.704 E0.68913
G1 X116.042 Y69.903 E0.70849
G1 X116.906 Y70.289 E0.73996
G1 X117.582 Y70.605 E0.76478
G1 X118.212 Y70.909 E0.78805
G1 X118.715 Y71.199 E0.80736
G1 X119.431 Y71.683 E0.8361
G1 X120.108 Y72.158 E0.86361
G1 X120.673 Y72.565 E0.88677
G1 X121.119 Y72.938 E0.90611
G1 X121.741 Y73.542 E0.93494
G1 X122.328 Y74.128 E0.96253
G1 X122.799 Y74.613 E0.98502
G1 X123.165 Y75.049 E1.00395
G1 X123.737 Y75.837 E1.03634
G1 X124.116 Y76.38 E1.05836
G1 X124.547 Y77.015 E1.08389
G1 X124.833 Y77.508 E1.10284
G1 X125.202 Y78.265 E1.13085
G1 X125.537 Y78.985 E1.15726
G1 X125.845 Y79.67 E1.18225
G1 X126.043 Y80.209 E1.20134
G1 X126.292 Y81.083 E1.23157
G1 X126.494 Y81.838 E1.25756
G1 X126.664 Y82.507 E1.28052
G1 X126.765 Y83.077 E1.29978
G1 X126.858 Y83.97 E1.32964
G1 X126.922 Y84.713 E1.35444
G1 X127.062 Y86.62 E1.41804
G1 X127.303 Y89.371 E1.50989
G1 X127.618 Y92.089 E1.6009
G1 X128.008 Y94.785 E1.6915
G1 X128.315 Y96.605 E1.75289
G1 X128.52 Y97.749 E1.79154
G1 X128.581 Y98.321 E1.81067
G1 X128.593 Y98.964 E1.83206
G1 X128.593 Y103.15 E1.97129
G1 X128.582 Y103.86 E1.99491
G1 X128.533 Y104.42 E2.01361
G1 X128.443 Y104.994 E2.03293
G1 X128.156 Y106.668 E2.08942
G1 X127.776 Y109.346 E2.17938
G1 X127.472 Y112.014 E2.2687
G1 X127.241 Y114.738 E2.35962
G1 X127.087 Y117.453 E2.45007
G1 X127 Y121.561 E2.58673
G1 X127 Y133.622 E2.98788
G1 X126.987 Y134.438 E3.01503
G1 X126.977 Y134.621 E3.02112
G1 X126.935 Y135.22 E3.04109
G1 X126.86 Y136.116 E3.071
G1 X126.794 Y136.795 E3.09369
G1 X126.7 Y137.358 E3.11267
G1 X126.559 Y137.948 E3.13285
G1 X126.333 Y138.846 E3.16365
G1 X126.149 Y139.531 E3.18724
G1 X125.968 Y140.059 E3.2058
G1 X125.753 Y140.57 E3.22424
G1 X125.364 Y141.456 E3.25643
G1 X125.058 Y142.125 E3.28089
G1 X124.799 Y142.604 E3.29901
G1 X124.444 Y143.165 E3.32109
G1 X123.958 Y143.908 E3.35062
G1 X123.559 Y144.498 E3.37431
G1 X123.209 Y144.948 E3.39327
G1 X122.851 Y145.348 E3.41112
G1 X122.18 Y146.076 E3.44405
G1 X121.699 Y146.583 E3.46729
G1 X121.303 Y146.95 E3.48525
G1 X120.79 Y147.36 E3.50709
G1 X120.088 Y147.905 E3.53665
G1 X119.506 Y148.344 E3.5609
G1 X119.013 Y148.664 E3.58045
G1 X118.502 Y148.949 E3.59991
G1 X117.681 Y149.393 E3.63095
G1 X117.06 Y149.717 E3.65425
G1 X116.558 Y149.938 E3.67249
G1 X116.013 Y150.135 E3.69177
G1 X115.129 Y150.438 E3.72285
G1 X114.427 Y150.667 E3.74741
G1 X113.905 Y150.801 E3.76533
G1 X113.307 Y150.91 E3.78555
G1 X112.347 Y151.07 E3.81792
G1 X111.665 Y151.173 E3.84086
G1 X111.13 Y151.219 E3.85872
G1 X110.513 Y151.228 E3.87924
G1 X109.572 Y151.228 E3.91054
G1 X108.855 Y151.217 E3.93439
G1 X108.286 Y151.169 E3.95339
G1 X107.727 Y151.083 E3.9722
G1 X106.76 Y150.921 E4.00481
G1 X106.094 Y150.799 E4.02733
G1 X105.571 Y150.667 E4.04527
G1 X105.456 Y150.631 E4.04928
G1 X104.897 Y150.447 E4.06885
G1 X104.107 Y150.175 E4.09664
G1 X103.412 Y149.925 E4.1212
G1 X102.913 Y149.706 E4.13933
G1 X102.356 Y149.414 E4.16025
G1 X101.565 Y148.986 E4.19016
G1 X100.93 Y148.629 E4.21439
G1 X100.453 Y148.317 E4.23335
G1 X99.978 Y147.958 E4.25315
G1 X99.252 Y147.392 E4.28377
G1 X98.705 Y146.955 E4.30705
G1 X98.271 Y146.555 E4.32668
G1 X97.867 Y146.128 E4.34624
G1 X97.251 Y145.458 E4.37651
G1 X96.763 Y144.912 E4.40086
G1 X96.417 Y144.467 E4.41961
G1 X96.03 Y143.892 E4.44266
G1 X95.597 Y143.227 E4.46906
G1 X95.196 Y142.593 E4.49401
G1 X94.932 Y142.108 E4.51237
G1 X94.679 Y141.555 E4.5326
G1 X94.309 Y140.708 E4.56334
G1 X94.032 Y140.054 E4.58697
G1 X93.845 Y139.512 E4.60604
G1 X93.68 Y138.895 E4.62728
G1 X93.466 Y138.049 E4.6563
G1 X93.296 Y137.338 E4.68062
G1 X93.205 Y136.8 E4.69877
G1 X93.14 Y136.127 E4.72125
G1 X93.066 Y135.234 E4.75106
G1 X93.014 Y134.448 E4.77726
G1 X93.007 Y134.254 E4.78371
G1 X93 Y133.699 E4.80217
G1 X93 Y121.63 E5.20359
G1 X92.96 Y118.83 E5.29673
G1 X92.847 Y116.16 E5.38561
G1 X92.653 Y113.42 E5.47697
G1 X92.389 Y110.763 E5.56578
G1 X92.04 Y108.028 E5.65748
G1 X91.493 Y104.63 E5.77196
G1 X91.386 Y104.031 E5.7922
G1 X91.326 Y103.464 E5.81116
G1 X91.314 Y102.821 E5.83255
G1 X91.314 Y99.057 E5.95774
G1 X91.325 Y98.351 E5.98123
G1 X91.392 Y97.684 E6.00352
G1 X91.627 Y96.416 E6.04641
G1 X92.097 Y93.672 E6.13901
G1 X92.48 Y90.979 E6.22948
G1 X92.784 Y88.302 E6.31909
G1 X93.004 Y85.739 E6.40465
G1 X93.089 Y84.576 E6.44343
G1 X93.155 Y83.838 E6.46808
G1 X93.228 Y83.124 E6.49195
G1 X93.326 Y82.562 E6.51092
G1 X93.533 Y81.734 E6.53931
G1 X93.777 Y80.828 E6.57052
G1 X93.933 Y80.276 E6.5896
G1 X94.131 Y79.731 E6.60888
G1 X94.531 Y78.836 E6.64149
G1 X94.835 Y78.187 E6.66532
G1 X95.139 Y77.558 E6.68856
G1 X95.427 Y77.057 E6.70778
G1 X95.964 Y76.265 E6.73961
G1 X96.382 Y75.668 E6.76385
G1 X96.789 Y75.103 E6.78701
G0 F3000 X97.114 Y75.337
G1 F1200 X97.451 Y74.935 E6.80445
G1 X98.105 Y74.261 E6.83569
G1 X98.685 Y73.682 E6.86295
G1 X99.123 Y73.257 E6.88325
G1 X99.515 Y72.928 E6.90027
G1 X100.227 Y72.411 E6.92953
G1 X100.903 Y71.939 E6.95695
G1 X101.456 Y71.563 E6.9792
G1 X101.903 Y71.304 E6.99638
G1 X102.748 Y70.893 E7.02763
G1 X103.379 Y70.598 E7.0508
G1 X104.07 Y70.288 E7.07599
G1 X104.553 Y70.112 E7.09309
G1 X105.395 Y69.872 E7.12221
G1 X106.206 Y69.655 E7.15013
G1 X106.829 Y69.497 E7.17151
G1 X107.34 Y69.406 E7.18877
G1 X108.29 Y69.308 E7.22054
G1 X109.036 Y69.243 E7.24544
G1 X109.705 Y69.194 E7.26775
G1 X110.225 Y69.193 E7.28505
G1 X111.189 Y69.263 E7.31719
G1 X111.889 Y69.324 E7.34057
G1 X112.609 Y69.398 E7.36464
G1 X113.113 Y69.486 E7.38166
G1 X113.933 Y69.692 E7.40978
G1 X114.808 Y69.926 E7.4399
G1 X115.386 Y70.089 E7.45988
G1 X115.879 Y70.268 E7.47732
G1 X116.736 Y70.652 E7.50855
G1 X117.409 Y70.966 E7.53326
G1 X118.039 Y71.27 E7.55652
G1 X118.491 Y71.53 E7.57386
G1 X119.201 Y72.011 E7.60239
G1 X119.874 Y72.483 E7.62973
G1 X120.439 Y72.89 E7.65289
G1 X120.84 Y73.226 E7.67029
G1 X121.458 Y73.825 E7.69891
G1 X122.041 Y74.407 E7.72631
G1 X122.512 Y74.892 E7.7488
G1 X122.841 Y75.284 E7.76582
G1 X123.409 Y76.066 E7.79797
G1 X123.785 Y76.604 E7.8198
G1 X124.216 Y77.239 E7.84532
G1 X124.473 Y77.684 E7.86242
G1 X124.869 Y78.497 E7.89249
G1 X125.172 Y79.149 E7.91641
G1 X125.48 Y79.834 E7.94139
G1 X125.658 Y80.319 E7.95857
G1 X125.906 Y81.186 E7.98856
G1 X126.106 Y81.936 E8.01438
G1 X126.276 Y82.605 E8.03734
G1 X126.368 Y83.119 E8.0547
G1 X126.459 Y84.005 E8.08433
G1 X126.523 Y84.743 E8.10897
G1 X126.663 Y86.655 E8.17273
G1 X126.905 Y89.416 E8.26491
G1 X127.218 Y92.121 E8.35548
G1 X127.61 Y94.83 E8.44652
G1 X127.922 Y96.676 E8.50879
G1 X128.127 Y97.82 E8.54745
G1 X128.181 Y98.334 E8.56464
G1 X128.193 Y98.969 E8.58576
G1 X128.193 Y103.144 E8.72462
G1 X128.182 Y103.854 E8.74824
G1 X128.138 Y104.358 E8.76507
G1 X128.048 Y104.927 E8.78423
G1 X127.764 Y106.586 E8.84021
G1 X127.382 Y109.276 E8.93058
G1 X127.071 Y112.006 E9.02196
G1 X126.841 Y114.716 E9.11242
G1 X126.688 Y117.424 E9.20263
G1 X126.6 Y121.552 E9.33996
G1 X126.6 Y133.616 E9.74121
G1 X126.587 Y134.421 E9.76799
G1 X126.578 Y134.593 E9.77372
G1 X126.537 Y135.187 E9.79352
G1 X126.462 Y136.077 E9.82323
G1 X126.396 Y136.756 E9.84592
G1 X126.309 Y137.274 E9.86339
G1 X126.17 Y137.854 E9.88323
G1 X125.947 Y138.742 E9.91368
G1 X125.763 Y139.427 E9.93727
G1 X125.596 Y139.911 E9.9543
G1 X125.365 Y140.459 E9.97408
G1 X125 Y141.289 E10.00424
G1 X124.694 Y141.958 E10.0287
G1 X124.456 Y142.398 E10.04534
G1 X124.133 Y142.909 E10.06545
G1 X123.627 Y143.684 E10.09623
G1 X123.228 Y144.274 E10.11992
G1 X122.904 Y144.689 E10.13743
G1 X122.557 Y145.077 E10.15475
G1 X121.89 Y145.801 E10.18749
G1 X121.409 Y146.308 E10.21073
G1 X120.963 Y146.711 E10.23073
G1 X120.545 Y147.044 E10.2485
G1 X119.847 Y147.586 E10.27789
G1 X119.265 Y148.025 E10.30214
G1 X118.811 Y148.319 E10.32013
G1 X118.344 Y148.58 E10.33792
G1 X117.496 Y149.039 E10.37
G1 X116.875 Y149.363 E10.39329
G1 X116.414 Y149.566 E10.41005
G1 X115.837 Y149.772 E10.43042
G1 X115.004 Y150.058 E10.45972
G1 X114.302 Y150.287 E10.48428
G1 X113.702 Y150.433 E10.50481
G1 X113.199 Y150.523 E10.52181
G1 X112.288 Y150.675 E10.55253
G1 X111.606 Y150.778 E10.57547
G1 X111.012 Y150.822 E10.59528
G1 X110.508 Y150.828 E10.61204
G1 X109.578 Y150.828 E10.64298
G1 X108.861 Y150.817 E10.66683
G1 X108.339 Y150.772 E10.68425
G1 X107.84 Y150.696 E10.70104
G1 X106.832 Y150.527 E10.73503
G1 X106.166 Y150.405 E10.75755
G1 X105.581 Y150.251 E10.77767
G1 X105.027 Y150.068 E10.79708
G1 X104.242 Y149.799 E10.82468
G1 X103.547 Y149.549 E10.84925
G1 X103.098 Y149.351 E10.86557
G1 X102.546 Y149.063 E10.88628
G1 X101.761 Y148.637 E10.91598
G1 X101.126 Y148.28 E10.94021
G1 X100.686 Y147.992 E10.9577
G1 X100.224 Y147.642 E10.97698
G1 X99.502 Y147.08 E11.00741
G1 X98.955 Y146.643 E11.0307
G1 X98.556 Y146.274 E11.04877
G1 X98.161 Y145.857 E11.06788
G1 X97.549 Y145.191 E11.09796
G1 X97.061 Y144.645 E11.12232
G1 X96.744 Y144.237 E11.1395
G1 X96.366 Y143.673 E11.16208
G1 X95.935 Y143.013 E11.1883
G1 X95.534 Y142.379 E11.21325
G1 X95.291 Y141.931 E11.2302
G1 X95.024 Y141.345 E11.25162
G1 X94.677 Y140.552 E11.28041
G1 X94.4 Y139.898 E11.30403
G1 X94.229 Y139.399 E11.32158
G1 X94.078 Y138.839 E11.34087
G1 X93.855 Y137.956 E11.37116
G1 X93.685 Y137.245 E11.39547
G1 X93.603 Y136.76 E11.41183
G1 X93.538 Y136.094 E11.43409
G1 X93.465 Y135.207 E11.46369
G1 X93.413 Y134.431 E11.48956
G1 X93.407 Y134.249 E11.49562
G1 X93.4 Y133.694 E11.51408
G1 X93.4 Y121.624 E11.91553
G1 X93.361 Y118.843 E12.00803
G1 X93.245 Y116.115 E12.09885
G1 X93.051 Y113.385 E12.18988
G1 X92.786 Y110.709 E12.27932
G1 X92.437 Y107.98 E12.37082
G1 X91.887 Y104.56 E12.48603
G1 X91.78 Y103.961 E12.50627
G1 X91.726 Y103.45 E12.52336
G1 X91.714 Y102.816 E12.54445
G1 X91.714 Y99.063 E12.66928
G1 X91.725 Y98.357 E12.69276
G1 X91.785 Y97.757 E12.71282
G1 X92.03 Y96.436 E12.75751
G1 X92.488 Y93.764 E12.84767
G1 X92.875 Y91.044 E12.93905
G1 X93.182 Y88.345 E13.0294
G1 X93.403 Y85.765 E13.11552
G1 X93.488 Y84.612 E13.15398
G1 X93.553 Y83.879 E13.17845
G1 X93.626 Y83.165 E13.20232
G1 X93.714 Y82.659 E13.21941
G1 X93.92 Y81.838 E13.24756
G1 X94.162 Y80.937 E13.27859
G1 X94.318 Y80.385 E13.29767
G1 X94.496 Y79.894 E13.31504
G1 X94.894 Y79.006 E13.3474
G1 X95.195 Y78.361 E13.37108
G1 X95.499 Y77.732 E13.39431
G1 X95.758 Y77.282 E13.41158
G1 X96.291 Y76.495 E13.4432
G1 X96.707 Y75.902 E13.46729
G1 X97.114 Y75.337 E13.49045
G0 F3000 X97.439 Y75.571
G1 F1200 X97.738 Y75.213 E13.50596
G1 X98.387 Y74.544 E13.53696
G1 X98.964 Y73.969 E13.56406
G1 X99.402 Y73.544 E13.58436
G1 X99.75 Y73.252 E13.59947
G1 X100.456 Y72.739 E13.62849
G1 X101.128 Y72.27 E13.65575
G1 X101.681 Y71.894 E13.67799
G1 X102.078 Y71.663 E13.69327
G1 X102.917 Y71.255 E13.7243
G1 X103.543 Y70.963 E13.74727
G1 X104.234 Y70.653 E13.77246
G1 X104.663 Y70.497 E13.78764
G1 X105.498 Y70.258 E13.81653
G1 X106.304 Y70.043 E13.84428
G1 X106.927 Y69.885 E13.86565
G1 X107.382 Y69.804 E13.88102
G1 X108.325 Y69.706 E13.91256
G1 X109.065 Y69.642 E13.93726
G1 X109.734 Y69.593 E13.95957
G1 X110.196 Y69.592 E13.97494
G1 X111.154 Y69.661 E14.00688
G1 X111.848 Y69.722 E14.03006
G1 X112.568 Y69.796 E14.05413
G1 X113.016 Y69.874 E14.06925
G1 X113.83 Y70.078 E14.09716
G1 X114.7 Y70.311 E14.12712
G1 X115.278 Y70.474 E14.14709
G1 X115.715 Y70.633 E14.16256
G1 X116.567 Y71.014 E14.1936
G1 X117.235 Y71.326 E14.21813
G1 X117.865 Y71.63 E14.24139
G1 X118.267 Y71.861 E14.25681
G1 X118.971 Y72.338 E14.2851
G1 X119.64 Y72.808 E14.31229
G1 X120.205 Y73.215 E14.33545
G1 X120.562 Y73.513 E14.35092
G1 X121.176 Y74.108 E14.37935
G1 X121.754 Y74.686 E14.40654
G1 X122.225 Y75.171 E14.42903
G1 X122.518 Y75.519 E14.44416
G1 X123.081 Y76.295 E14.47604
G1 X123.454 Y76.829 E14.49771
G1 X123.885 Y77.464 E14.52324
G1 X124.113 Y77.859 E14.5384
G1 X124.506 Y78.666 E14.56826
G1 X124.808 Y79.313 E14.59201
G1 X125.116 Y79.998 E14.61699
G1 X125.273 Y80.429 E14.63224
G1 X125.519 Y81.289 E14.66199
G1 X125.718 Y82.035 E14.68767
G1 X125.888 Y82.704 E14.71063
G1 X125.97 Y83.16 E14.72604
G1 X126.061 Y84.039 E14.75543
G1 X126.124 Y84.772 E14.7799
G1 X126.265 Y86.689 E14.84384
G1 X126.508 Y89.464 E14.93649
G1 X126.824 Y92.193 E15.02786
G1 X127.216 Y94.902 E15.1189
G1 X127.528 Y96.747 E15.18114
G1 X127.733 Y97.891 E15.21979
G1 X127.786 Y98.497 E15.24002
G1 X127.793 Y98.974 E15.25589
G1 X127.793 Y103.138 E15.39439
G1 X127.782 Y103.848 E15.418
G1 X127.743 Y104.296 E15.43296
G1 X127.654 Y104.859 E15.45192
G1 X127.368 Y106.528 E15.50824
G1 X126.982 Y109.246 E15.59955
G1 X126.678 Y111.913 E15.68883
G1 X126.442 Y114.698 E15.78179
G1 X126.288 Y117.42 E15.87247
G1 X126.2 Y121.523 E16.00896
G1 X126.2 Y133.61 E16.41098
G1 X126.19 Y134.316 E16.43446
G1 X126.179 Y134.566 E16.44279
G1 X126.138 Y135.153 E16.46236
G1 X126.064 Y136.039 E16.49193
G1 X125.998 Y136.718 E16.51462
G1 X125.899 Y137.272 E16.53334
G1 X125.775 Y137.788 E16.55099
G1 X125.56 Y138.638 E16.58015
G1 X125.376 Y139.323 E16.60374
G1 X125.198 Y139.828 E16.62155
G1 X124.999 Y140.298 E16.63852
G1 X124.636 Y141.123 E16.6685
G1 X124.33 Y141.792 E16.69297
G1 X124.07 Y142.262 E16.71084
G1 X123.774 Y142.728 E16.7292
G1 X123.296 Y143.46 E16.75828
G1 X122.897 Y144.05 E16.78196
G1 X122.543 Y144.493 E16.80083
G1 X122.263 Y144.806 E16.81479
G1 X121.599 Y145.525 E16.84735
G1 X121.118 Y146.032 E16.87059
G1 X120.713 Y146.399 E16.88877
G1 X120.299 Y146.728 E16.90636
G1 X119.606 Y147.267 E16.93556
G1 X119.024 Y147.706 E16.9598
G1 X118.541 Y148.013 E16.97884
G1 X118.121 Y148.246 E16.99481
G1 X117.311 Y148.684 E17.02544
G1 X116.69 Y149.008 E17.04874
G1 X116.187 Y149.223 E17.06693
G1 X115.708 Y149.394 E17.08385
G1 X114.88 Y149.677 E17.11295
G1 X114.178 Y149.906 E17.13751
G1 X113.631 Y150.039 E17.15623
G1 X113.132 Y150.128 E17.17309
G1 X112.228 Y150.279 E17.20358
G1 X111.546 Y150.382 E17.22652
G1 X111.007 Y150.422 E17.24449
G1 X110.503 Y150.428 E17.26126
G1 X109.584 Y150.428 E17.29182
G1 X108.867 Y150.417 E17.31567
G1 X108.323 Y150.366 E17.33385
G1 X107.859 Y150.294 E17.34946
G1 X106.904 Y150.134 E17.38167
G1 X106.238 Y150.012 E17.40419
G1 X105.706 Y149.871 E17.4225
