;FLAVOR:Marlin
;TIME:10213
;Filament used: 10.9879m
;Layer height: 0.2
;MINX:37.2
;MINY:73.789
;MINZ:0.2
;MAXX:186.8
;MAXY:149.35
;MAXZ:27.4
;Generated with Cura_SteamEngine 4.2.1
M140 S60
M105
M190 S60
M104 S200
M105
M109 S200
M82 ;absolute extrusion mode
G21 ;metric values
G90 ;absolute positioning
M82 ;set extruder to absolute mode
M107 ;start with the fan off
G28 X0 Y0 ;move X/Y to min endstops
G28 Z0 ;move Z to min endstops
G1 Z15.0 F100 ;move the platform down 15mm
G92 E0 ;zero the extruded length
G1 F200 E3 ;extrude 3mm of feed stock
G92 E0 ;zero the extruded length again
G1 F100
M117 Printing...
G5
M141 S28
G92 E0
G92 E0
G1 F2400 E-6
;LAYER_COUNT:137
;LAYER:0
M106 S255
M204 S3000
M205 X10 Y10
G0 F3000 X39.98 Y77.43 Z0.2
M204 S1800
M205 X8 Y8
;TYPE:SUPPORT
G1 F2400 E0
G1 F1500 X42.115 Y77.43 E0.09941
G1 X41.897 Y77.489 E0.10993
G1 X40.789 Y79.192 E0.20454
G1 X40.693 Y79.382 E0.21445
G1 X40.506 Y79.814 E0.23637
G1 X40.446 Y80.427 E0.26505
G1 X40.481 Y80.974 E0.29057
G1 X40.727 Y81.668 E0.32486
G1 X41.09 Y82.165 E0.35351
G1 X41.507 Y82.562 E0.38032
G1 X42.099 Y82.878 E0.41157
G1 X42.719 Y83.027 E0.44126
G1 X43.281 Y83.027 E0.46743
G1 X43.877 Y82.898 E0.49583
G1 X44.505 Y82.598 E0.52823
G1 X45.009 Y82.104 E0.5611
G1 X45.326 Y81.604 E0.58866
G1 X45.533 Y81.056 E0.61594
G1 X45.599 Y80.409 E0.64622
G1 X45.542 Y79.99 E0.66591
G1 X45.472 Y79.699 E0.67985
G1 X45.291 Y79.244 E0.70265
G1 X44.939 Y78.745 E0.73109
G1 X44.466 Y78.325 E0.76054
G1 X42.689 Y77.43 E0.85319
G1 X48.907 Y77.43 E1.14272
G1 X48.907 Y81.145 E1.31571
G1 X43.702 Y86.348 E1.6584
G1 X39.98 Y86.348 E1.83171
G1 X39.98 Y77.43 E2.24697
M204 S3000
M205 X10 Y10
G0 F3000 X40.2 Y78.403
M204 S1800
M205 X8 Y8
G1 F1500 X41.467 Y77.672 E2.31509
M204 S3000
M205 X10 Y10
G0 F3000 X40.699 Y78.923
M204 S1800
M205 X8 Y8
G1 F1500 X40.199 Y78.634 E2.34198
M204 S3000
M205 X10 Y10
G0 F3000 X45.521 Y81.707
M204 S1800
M205 X8 Y8
G1 F1500 X47.112 Y82.626 E2.42753
M204 S3000
M205 X10 Y10
G0 F3000 X48 Y81.741
M204 S1800
M205 X8 Y8
G1 F1500 X48 Y77.65 E2.61803
M204 S3000
M205 X10 Y10
G0 F3000 X44.688 Y85.05
M204 S1800
M205 X8 Y8
G1 F1500 X42.822 Y86.127 E2.71835
M204 S3000
M205 X10 Y10
G0 F3000 X43.694 Y137.643
M204 S1800
M205 X8 Y8
G1 F1500 X48.898 Y142.841 E3.06084
G1 X48.898 Y146.57 E3.23448
G1 X39.98 Y146.57 E3.64974
G1 X39.98 Y137.643 E4.06542
G1 X43.694 Y137.643 E4.23836
M204 S3000
M205 X10 Y10
G0 F3000 X43.011 Y140.941
M204 S1800
M205 X8 Y8
G1 F1500 X42.355 Y141.038 E4.26924
G1 X41.834 Y141.246 E4.29536
G1 X41.334 Y141.562 E4.3229
G1 X40.904 Y142.05 E4.35319
G1 X40.599 Y142.609 E4.38284
G1 X40.451 Y143.237 E4.41288
G1 X40.451 Y143.84 E4.44096
G1 X40.605 Y144.453 E4.47039
G1 X40.881 Y144.976 E4.49793
G1 X41.245 Y145.412 E4.52437
G1 X41.841 Y145.852 E4.55887
G1 X42.366 Y146.013 E4.58444
G1 X42.639 Y146.072 E4.59745
G1 X43.048 Y146.102 E4.61654
G1 X43.668 Y146.049 E4.64552
G1 X44.186 Y145.812 E4.67204
G1 X44.683 Y145.518 E4.69893
G1 X45.158 Y144.97 E4.7327
G1 X45.458 Y144.382 E4.76344
G1 X45.577 Y143.743 E4.7937
G1 X45.577 Y143.19 E4.81945
G1 X45.397 Y142.529 E4.85135
G1 X45.081 Y141.993 E4.88033
G1 X44.682 Y141.558 E4.90781
G1 X44.201 Y141.254 E4.93431
G1 X43.698 Y141.044 E4.95969
G1 X43.011 Y140.941 E4.99203
M204 S3000
M205 X10 Y10
G0 F3000 X43.942 Y140.906
M204 S1800
M205 X8 Y8
G1 F1500 X45.658 Y139.915 E5.08431
M204 S3000
M205 X10 Y10
G0 F3000 X48 Y142.255
M204 S1800
M205 X8 Y8
G1 F1500 X48 Y146.35 E5.27499
M204 S3000
M205 X10 Y10
G0 F3000 X45.483 Y146.348
M204 S1800
M205 X8 Y8
G1 F1500 X44.586 Y145.83 E5.32322
M204 S3000
M205 X10 Y10
G0 F3000 X175.093 Y146.57
M204 S1800
M205 X8 Y8
G1 F1500 X175.093 Y142.853 E5.4963
G1 X180.299 Y137.652 E5.83896
G1 X184.02 Y137.652 E6.01222
G1 X184.02 Y146.57 E6.42748
G1 X175.093 Y146.57 E6.84316
M204 S3000
M205 X10 Y10
G0 F3000 X178.417 Y143.621
M204 S1800
M205 X8 Y8
G1 F1500 X178.462 Y144.121 E6.86654
G1 X178.69 Y144.716 E6.89621
G1 X179.035 Y145.242 E6.9255
G1 X179.564 Y145.698 E6.95802
G1 X180.094 Y145.948 E6.98531
G1 X180.639 Y146.099 E7.01164
G1 X181.301 Y146.099 E7.04246
G1 X181.878 Y145.952 E7.07019
G1 X182.412 Y145.686 E7.09797
G1 X182.916 Y145.253 E7.12891
G1 X183.315 Y144.66 E7.16219
G1 X183.497 Y144.085 E7.19027
G1 X183.564 Y143.528 E7.2164
G1 X183.483 Y142.916 E7.24514
G1 X183.278 Y142.349 E7.27322
G1 X182.909 Y141.81 E7.30363
G1 X182.42 Y141.391 E7.33362
G1 X181.638 Y140.993 E7.37448
G1 X181.422 Y140.993 E7.38454
G1 X181.356 Y140.973 E7.38775
G1 X180.639 Y140.973 E7.42113
G1 X179.352 Y141.336 E7.4834
G1 X178.961 Y141.688 E7.5079
G1 X178.471 Y142.904 E7.56894
G1 X178.417 Y143.375 E7.59102
G1 X178.417 Y143.621 E7.60247
M204 S3000
M205 X10 Y10
G0 F3000 X179.394 Y145.841
M204 S1800
M205 X8 Y8
G1 F1500 X178.514 Y146.349 E7.64979
M204 S3000
M205 X10 Y10
G0 F3000 X176 Y146.35
M204 S1800
M205 X8 Y8
G1 F1500 X176 Y142.257 E7.84038
M204 S3000
M205 X10 Y10
G0 F3000 X178.343 Y139.916
M204 S1800
M205 X8 Y8
G1 F1500 X180.058 Y140.907 E7.93261
M204 S3000
M205 X10 Y10
G0 F3000 X180.306 Y86.357
M204 S1800
M205 X8 Y8
G1 F1500 X175.71 Y81.752 E8.23556
G1 X175.102 Y81.145 E8.27556
G1 X175.102 Y77.43 E8.44855
G1 X184.02 Y77.43 E8.86381
G1 X184.02 Y86.357 E9.27949
G1 X180.306 Y86.357 E9.45243
M204 S3000
M205 X10 Y10
G0 F3000 X180.97 Y83.051
M204 S1800
M205 X8 Y8
G1 F1500 X181.566 Y82.987 E9.48034
G1 X182.226 Y82.743 E9.5131
G1 X182.704 Y82.379 E9.54108
G1 X183.108 Y81.951 E9.56848
G1 X183.384 Y81.411 E9.59672
G1 X183.465 Y81.124 E9.61061
G1 X183.549 Y80.767 E9.62769
G1 X183.549 Y80.141 E9.65684
G1 X183.387 Y79.514 E9.68699
G1 X183.091 Y78.985 E9.71522
G1 X182.714 Y78.549 E9.74206
G1 X182.163 Y78.171 E9.77317
G1 X181.593 Y77.961 E9.80146
G1 X180.965 Y77.885 E9.83091
G1 X180.378 Y77.963 E9.85848
G1 X179.792 Y78.173 E9.88747
G1 X179.384 Y78.468 E9.91091
G1 X179.125 Y78.684 E9.92662
G1 X178.822 Y79.075 E9.94965
G1 X178.586 Y79.528 E9.97344
G1 X178.423 Y80.105 E10.00136
G1 X178.423 Y80.756 E10.03167
G1 X178.561 Y81.376 E10.06124
G1 X178.862 Y81.923 E10.09032
G1 X179.249 Y82.369 E10.11781
G1 X179.797 Y82.762 E10.14921
G1 X180.383 Y82.975 E10.17825
G1 X180.97 Y83.051 E10.20581
M204 S3000
M205 X10 Y10
G0 F3000 X179.31 Y85.049
M204 S1800
M205 X8 Y8
G1 F1500 X181.192 Y86.136 E10.30701
M204 S3000
M205 X10 Y10
G0 F3000 X178.488 Y81.701
M204 S1800
M205 X8 Y8
G1 F1500 X176.889 Y82.625 E10.393
M204 S3000
M205 X10 Y10
G0 F3000 X176 Y81.733
M204 S1800
M205 X8 Y8
G1 F1500 X176 Y77.65 E10.58312
M204 S3000
M205 X10 Y10
G0 F3000 X182.493 Y77.649
M204 S1800
M205 X8 Y8
G1 F1500 X183.8 Y78.404 E10.65341
M204 S3000
M205 X10 Y10
G0 F3000 X183.798 Y78.636
M204 S1800
M205 X8 Y8
G1 F1500 X183.307 Y78.919 E10.6798
M204 S3000
M205 X10 Y10
G1 F2400 E4.6798
;MESH:controlbox-frame.stl
G0 F3000 X185.84 Y78.919
G0 X185.84 Y148.35
G0 X185.84 Y148.71
M204 S1800
M205 X8 Y8
;TYPE:WALL-INNER
G1 F2400 E10.6798
G1 F1500 X38.16 Y148.71 E17.5564
G1 X37.84 Y148.71 E17.5713
G1 X37.84 Y148.39 E17.58388
G1 X37.84 Y75.61 E20.97282
G1 X37.84 Y75.29 E20.98772
G1 X38.16 Y75.29 E21.00031
G1 X185.84 Y75.29 E27.87691
G1 X186.16 Y75.29 E27.89181
G1 X186.16 Y75.61 E27.9044
G1 X186.16 Y148.39 E31.29334
G1 X186.16 Y148.71 E31.30824
G1 X185.84 Y148.71 E31.32082
M204 S3000
M205 X10 Y10
G0 F3000 X185.84 Y148.61
G0 X38.09 Y148.46
G0 X38.16 Y148.39
M204 S1800
M205 X8 Y8
G1 F1500 X185.84 Y148.39 E35.25031
G1 X185.84 Y75.61 E37.18685
G1 X38.16 Y75.61 E41.11633
G1 X38.16 Y148.39 E43.05287
M204 S3000
M205 X10 Y10
G0 F3000 X38.72 Y147.83
M204 S1800
M205 X8 Y8
;TYPE:WALL-OUTER
G1 F1500 X185.28 Y147.83 E49.87732
G1 X185.28 Y76.17 E53.21411
G1 X38.72 Y76.17 E60.03856
G1 X38.72 Y147.83 E63.37535
M204 S3000
M205 X10 Y10
G0 F3000 X38.92 Y147.83
G0 X38.92 Y148.49
G0 X37.91 Y148.64
G0 X37.28 Y149.27
M204 S1800
M205 X8 Y8
G1 F1500 X37.28 Y74.73 E66.84624
G1 X186.72 Y74.73 E73.80479
G1 X186.72 Y149.27 E77.27569
G1 X37.28 Y149.27 E84.23424
M204 S3000
M205 X10 Y10
G0 F3000 X37.28 Y149.07
G1 F2400 E78.23424
G1 F600 Z0.275
;MESH:NONMESH
G0 F3000 X39.9 Y77.35 Z0.275
;TIME_ELAPSED:96.301771
;LAYER:1
M140 S60
G0 F4500 X39.9 Y77.35 Z0.475
M204 S1800
M205 X8 Y8
;TYPE:SUPPORT
G1 F600 Z0.4
G1 F2400 E84.23424
G1 F1650 X48.987 Y77.35 E84.53647
G1 X48.987 Y81.179 E84.66383
G1 X43.731 Y86.428 E84.91089
G1 X39.9 Y86.428 E85.03831
G1 X39.9 Y77.35 E85.34024
M204 S3000
M205 X10 Y10
G0 F4500 X41.947 Y77.557
M204 S1800
M205 X8 Y8
G1 F1650 X40.873 Y79.21 E85.40581
G1 X40.771 Y79.401 E85.41301
G1 X40.586 Y79.842 E85.42892
G1 X40.523 Y80.436 E85.44878
G1 X40.567 Y80.969 E85.46657
G1 X40.797 Y81.629 E85.48982
G1 X41.148 Y82.109 E85.5096
G1 X41.558 Y82.501 E85.52846
G1 X42.128 Y82.801 E85.54989
G1 X42.726 Y82.947 E85.57036
G1 X43.277 Y82.947 E85.58869
G1 X43.846 Y82.822 E85.60806
G1 X44.453 Y82.537 E85.63037
G1 X44.946 Y82.054 E85.65332
G1 X45.262 Y81.557 E85.67291
G1 X45.454 Y81.025 E85.69172
G1 X45.52 Y80.411 E85.71226
G1 X45.463 Y80.014 E85.7256
G1 X45.401 Y79.733 E85.73517
G1 X45.216 Y79.279 E85.75148
G1 X44.882 Y78.802 E85.77085
G1 X44.419 Y78.391 E85.79144
G1 X42.48 Y77.413 E85.86367
G1 X41.947 Y77.557 E85.88203
M204 S3000
M205 X10 Y10
G0 F4500 X41.756 Y77.505
M204 S1800
M205 X8 Y8
G1 F1650 X40.04 Y78.496 E85.94794
M204 S3000
M205 X10 Y10
G0 F4500 X40.039 Y78.542
M204 S1800
M205 X8 Y8
G1 F1650 X40.838 Y79.003 E85.97862
M204 S3000
M205 X10 Y10
G0 F4500 X45.382 Y81.627
M204 S1800
M205 X8 Y8
G1 F1650 X47.255 Y82.708 E86.05055
M204 S3000
M205 X10 Y10
G0 F4500 X48 Y81.967
M204 S1800
M205 X8 Y8
G1 F1650 X48 Y77.49 E86.19945
M204 S3000
M205 X10 Y10
G0 F4500 X45.218 Y84.744
M204 S1800
M205 X8 Y8
G1 F1650 X42.544 Y86.287 E86.30214
M204 S3000
M205 X10 Y10
G0 F4500 X43.719 Y137.563
M204 S1800
M205 X8 Y8
G1 F1650 X43.737 Y137.572 E86.3028
G1 X48.978 Y142.815 E86.54937
G1 X48.978 Y146.65 E86.67692
G1 X39.9 Y146.65 E86.97886
G1 X39.9 Y137.563 E87.2811
G1 X43.719 Y137.563 E87.40812
M204 S3000
M205 X10 Y10
G0 F4500 X43.017 Y141.023
M204 S1800
M205 X8 Y8
G1 F1650 X42.382 Y141.113 E87.42945
G1 X41.875 Y141.315 E87.4476
G1 X41.383 Y141.626 E87.46696
G1 X40.97 Y142.096 E87.48777
G1 X40.673 Y142.638 E87.50832
G1 X40.531 Y143.25 E87.52922
G1 X40.531 Y143.826 E87.54838
G1 X40.678 Y144.422 E87.56879
G1 X40.952 Y144.94 E87.58829
G1 X41.307 Y145.358 E87.60653
G1 X41.867 Y145.77 E87.62965
G1 X42.402 Y145.942 E87.64834
G1 X42.672 Y145.994 E87.65749
G1 X43.056 Y146.023 E87.67029
G1 X43.638 Y145.969 E87.68973
G1 X44.142 Y145.748 E87.70804
G1 X44.642 Y145.447 E87.72745
G1 X45.086 Y144.929 E87.75014
G1 X45.38 Y144.363 E87.77135
G1 X45.497 Y143.734 E87.79263
G1 X45.497 Y143.196 E87.81053
G1 X45.322 Y142.561 E87.83244
G1 X45.018 Y142.041 E87.85247
G1 X44.627 Y141.62 E87.87158
G1 X44.167 Y141.324 E87.88977
G1 X43.669 Y141.121 E87.90766
G1 X43.017 Y141.023 E87.92959
M204 S3000
M205 X10 Y10
G0 F4500 X43.764 Y141.009
M204 S1800
M205 X8 Y8
G1 F1650 X45.801 Y139.833 E88.00782
M204 S3000
M205 X10 Y10
G0 F4500 X48 Y142.034
M204 S1800
M205 X8 Y8
G1 F1650 X48 Y146.51 E88.15669
M204 S3000
M205 X10 Y10
G0 F4500 X45.761 Y146.509
M204 S1800
M205 X8 Y8
G1 F1650 X44.428 Y145.739 E88.20789
M204 S3000
M205 X10 Y10
G0 F4500 X40.391 Y143.408
M204 S1800
M205 X8 Y8
G1 F1650 X40.039 Y143.205 E88.22141
M204 S3000
M205 X10 Y10
G0 F4500 X40.041 Y143.159
M204 S1800
M205 X8 Y8
G1 F1650 X40.464 Y142.914 E88.23767
M204 S3000
M205 X10 Y10
G0 F4500 X175.013 Y142.826
M204 S1800
M205 X8 Y8
G1 F1650 X175.018 Y142.814 E88.2381
G1 X180.265 Y137.572 E88.48478
G1 X184.1 Y137.572 E88.61234
G1 X184.1 Y146.65 E88.91427
G1 X175.013 Y146.65 E89.21651
G1 X175.013 Y142.826 E89.34369
M204 S3000
M205 X10 Y10
G0 F4500 X178.497 Y143.387
M204 S1800
M205 X8 Y8
G1 F1650 X178.497 Y143.624 E89.35158
G1 X178.541 Y144.111 E89.36784
G1 X178.765 Y144.684 E89.3883
G1 X179.096 Y145.189 E89.40839
G1 X179.607 Y145.63 E89.43084
G1 X180.122 Y145.873 E89.44978
G1 X180.646 Y146.019 E89.46787
G1 X181.297 Y146.019 E89.48952
G1 X181.846 Y145.878 E89.50837
G1 X182.371 Y145.619 E89.52784
G1 X182.856 Y145.197 E89.54923
G1 X183.244 Y144.625 E89.57221
G1 X183.414 Y144.08 E89.5912
G1 X183.488 Y143.538 E89.6094
G1 X183.402 Y142.927 E89.62992
G1 X183.205 Y142.387 E89.64904
G1 X182.849 Y141.862 E89.67014
G1 X182.374 Y141.461 E89.69081
G1 X181.94 Y141.233 E89.70712
G1 X181.344 Y141.053 E89.72782
G1 X180.65 Y141.053 E89.75091
G1 X179.395 Y141.407 E89.79428
G1 X179.03 Y141.734 E89.81058
G1 X178.547 Y142.928 E89.85341
G1 X178.497 Y143.387 E89.86877
M204 S3000
M205 X10 Y10
G0 F4500 X179.544 Y145.754
M204 S1800
M205 X8 Y8
G1 F1650 X178.237 Y146.509 E89.91897
M204 S3000
M205 X10 Y10
G0 F4500 X176 Y146.51
M204 S1800
M205 X8 Y8
G1 F1650 X176 Y142.029 E90.06801
M204 S3000
M205 X10 Y10
G0 F4500 X178.198 Y139.833
M204 S1800
M205 X8 Y8
G1 F1650 X180.251 Y141.018 E90.14685
M204 S3000
M205 X10 Y10
G0 F4500 X183.541 Y142.918
M204 S1800
M205 X8 Y8
G1 F1650 X183.96 Y143.16 E90.16295
M204 S3000
M205 X10 Y10
G0 F4500 X183.959 Y143.206
M204 S1800
M205 X8 Y8
G1 F1650 X183.611 Y143.406 E90.1763
M204 S3000
M205 X10 Y10
G0 F4500 X184.1 Y86.437
M204 S1800
M205 X8 Y8
G1 F1650 X180.271 Y86.434 E90.30365
G1 X175.022 Y81.172 E90.55085
G1 X175.022 Y77.35 E90.67797
G1 X184.1 Y77.35 E90.97991
G1 X184.1 Y86.437 E91.28214
M204 S3000
M205 X10 Y10
G0 F4500 X180.975 Y82.97
M204 S1800
M205 X8 Y8
G1 F1650 X181.544 Y82.908 E91.30118
G1 X182.183 Y82.675 E91.3238
G1 X182.656 Y82.314 E91.34359
G1 X183.038 Y81.909 E91.36211
G1 X183.308 Y81.387 E91.38166
G1 X183.389 Y81.103 E91.39148
G1 X183.469 Y80.75 E91.40352
G1 X183.469 Y80.152 E91.42341
G1 X183.312 Y79.543 E91.44433
G1 X183.031 Y79.041 E91.46346
G1 X182.664 Y78.609 E91.48231
G1 X182.133 Y78.251 E91.50361
G1 X181.577 Y78.036 E91.52344
G1 X180.968 Y77.969 E91.54382
G1 X180.406 Y78.036 E91.56264
G1 X179.833 Y78.244 E91.58292
G1 X179.36 Y78.582 E91.60225
G1 X179.122 Y78.819 E91.61342
G1 X178.888 Y79.12 E91.62611
G1 X178.659 Y79.561 E91.64263
G1 X178.503 Y80.124 E91.66206
G1 X178.503 Y80.743 E91.68265
G1 X178.638 Y81.356 E91.70353
G1 X178.936 Y81.885 E91.72372
G1 X179.298 Y82.307 E91.74222
G1 X179.834 Y82.691 E91.76415
G1 X180.404 Y82.898 E91.78432
G1 X180.975 Y82.97 E91.80346
M204 S3000
M205 X10 Y10
G0 F4500 X178.625 Y81.622
M204 S1800
M205 X8 Y8
G1 F1650 X176.748 Y82.706 E91.87555
M204 S3000
M205 X10 Y10
G0 F4500 X176 Y81.954
M204 S1800
M205 X8 Y8
G1 F1650 X176 Y77.49 E92.02402
M204 S3000
M205 X10 Y10
G0 F4500 X182.218 Y77.49
M204 S1800
M205 X8 Y8
G1 F1650 X183.959 Y78.496 E92.0909
M204 S3000
M205 X10 Y10
G0 F4500 X183.959 Y78.543
M204 S1800
M205 X8 Y8
G1 F1650 X183.169 Y78.999 E92.12124
M204 S3000
M205 X10 Y10
G0 F4500 X178.782 Y84.745
M204 S1800
M205 X8 Y8
G1 F1650 X181.467 Y86.295 E92.22436
M204 S3000
M205 X10 Y10
G1 F2400 E86.22436
;MESH:controlbox-frame.stl
G0 F4500 X181.467 Y146.885
G0 X181.467 Y148.15
G0 X38.33 Y148.22
G0 X38.4 Y148.15
M204 S1800
M205 X8 Y8
;TYPE:WALL-INNER
G1 F2400 E92.22436
G1 F2250 X185.6 Y148.15 E97.12025
G1 X185.6 Y75.85 E99.52495
G1 X38.4 Y75.85 E104.42085
G1 X38.4 Y148.15 E106.82555
M204 S3000
M205 X10 Y10
G0 F4500 X38.33 Y148.22
G0 X37.67 Y148.88
G0 X37.6 Y148.95
M204 S1800
M205 X8 Y8
G1 F2250 X37.6 Y75.05 E109.28348
G1 X186.4 Y75.05 E114.23259
G1 X186.4 Y148.95 E116.69051
G1 X37.6 Y148.95 E121.63962
M204 S3000
M205 X10 Y10
G0 F4500 X37.2 Y149.35
M204 S1800
M205 X8 Y8
;TYPE:WALL-OUTER
G1 F2250 X37.2 Y74.65 E124.12415
G1 X186.8 Y74.65 E129.09987
G1 X186.8 Y149.35 E131.5844
G1 X37.2 Y149.35 E136.56012
M204 S3000
M205 X10 Y10
G0 F4500 X37.2 Y149.15
G0 X37.67 Y148.88
G0 X38.3 Y147.75
G0 X38.8 Y147.75
M204 S1800
