;FLAVOR:Marlin
;TIME:16281
;Filament used: 11.9198m
;Layer height: 0.2
;MINX:37.2
;MINY:74.65
;MINZ:0.2
;MAXX:186.8
;MAXY:149.35
;MAXZ:18
;Generated with Cura_SteamEngine 4.2.1
M140 S60
M105
M190 S60
M104 S200
M105
M109 S200
M82 ;absolute extrusion mode
G21 ;metric values
G90 ;absolute positioning
M82 ;set extruder to absolute mode
M107 ;start with the fan off
G28 X0 Y0 ;move X/Y to min endstops
G28 Z0 ;move Z to min endstops
G1 Z15.0 F100 ;move the platform down 15mm
G92 E0 ;zero the extruded length
G1 F200 E3 ;extrude 3mm of feed stock
G92 E0 ;zero the extruded length again
G1 F100
M117 Printing...
G5
M141 S28
G92 E0
G92 E0
G1 F2400 E-6
;LAYER_COUNT:90
;LAYER:0
M106 S255
M204 S3000
M205 X10 Y10
G0 F3000 X60.44 Y112.35 Z0.2
M204 S1800
M205 X8 Y8
;TYPE:SUPPORT
G1 F2400 E0
G1 F1500 X62.785 Y111.374 E0.11827
G1 X65.215 Y110.757 E0.23501
G1 X67.741 Y110.5 E0.35324
G1 X70.268 Y110.611 E0.47102
G1 X72.747 Y111.088 E0.58857
G1 X75.128 Y111.919 E0.706
G1 X77.372 Y113.093 E0.82393
G1 X79.416 Y114.579 E0.9416
G1 X81.22 Y116.344 E1.05912
G1 X82.75 Y118.358 E1.17689
G1 X83.971 Y120.567 E1.29442
G1 X84.856 Y122.932 E1.412
G1 X85.389 Y125.408 E1.52994
G1 X85.553 Y127.922 E1.64725
G1 X85.349 Y130.445 E1.76511
G1 X84.782 Y132.906 E1.88271
G1 X83.86 Y135.266 E2.00069
G1 X82.609 Y137.457 E2.11817
G1 X81.052 Y139.442 E2.23564
G1 X79.213 Y141.19 E2.35378
G1 X77.154 Y142.64 E2.47105
G1 X74.903 Y143.775 E2.58843
G1 X72.498 Y144.578 E2.7065
G1 X70.014 Y145.018 E2.82396
G1 X67.48 Y145.089 E2.942
G1 X64.975 Y144.796 E3.05944
G1 X62.538 Y144.141 E3.17695
G1 X60.222 Y143.136 E3.29451
G1 X58.072 Y141.803 E3.4123
G1 X56.134 Y140.165 E3.53046
G1 X54.47 Y138.281 E3.6475
G1 X53.087 Y136.158 E3.76548
G1 X52.037 Y133.869 E3.88275
G1 X51.322 Y131.428 E4.00118
G1 X50.974 Y128.941 E4.11812
G1 X50.994 Y126.416 E4.2357
G1 X51.382 Y123.903 E4.3541
G1 X52.121 Y121.512 E4.47063
G1 X53.223 Y119.205 E4.58968
G1 X54.62 Y117.124 E4.70639
G1 X56.323 Y115.254 E4.82416
G1 X58.279 Y113.647 E4.94204
G1 X60.44 Y112.35 E5.0594
M204 S3000
M205 X10 Y10
G0 F3000 X66.515 Y124.442
M204 S1800
M205 X8 Y8
G1 F1500 X65.76 Y124.945 E5.10164
G1 X65.152 Y125.633 E5.14439
G1 X64.719 Y126.436 E5.18687
G1 X64.495 Y127.305 E5.22866
G1 X64.488 Y128.253 E5.27281
G1 X64.704 Y129.11 E5.31396
G1 X65.113 Y129.92 E5.35621
G1 X65.74 Y130.638 E5.4006
G1 X66.472 Y131.129 E5.44164
G1 X67.286 Y131.457 E5.48251
G1 X68.203 Y131.577 E5.52557
G1 X69.065 Y131.49 E5.56591
G1 X69.869 Y131.215 E5.60548
G1 X70.595 Y130.761 E5.64535
G1 X71.184 Y130.172 E5.68414
G1 X71.643 Y129.441 E5.72433
G1 X71.934 Y128.637 E5.76414
G1 X72.025 Y127.761 E5.80515
G1 X71.936 Y126.988 E5.84138
G1 X71.665 Y126.205 E5.87997
G1 X71.228 Y125.484 E5.91922
G1 X70.63 Y124.864 E5.95933
G1 X69.904 Y124.405 E5.99933
G1 X69.137 Y124.131 E6.03725
G1 X68.277 Y124.025 E6.0776
G1 X67.363 Y124.121 E6.1204
G1 X66.515 Y124.442 E6.16262
M204 S3000
M205 X10 Y10
G0 F3000 X71.219 Y125.158
M204 S1800
M205 X8 Y8
G1 F1500 X82.617 Y118.577 E6.77547
M204 S3000
M205 X10 Y10
G0 F3000 X80 Y115.458
M204 S1800
M205 X8 Y8
G1 F1500 X80 Y140.139 E7.92472
M204 S3000
M205 X10 Y10
G0 F3000 X81.004 Y139.144
M204 S1800
M205 X8 Y8
G1 F1500 X68.268 Y131.791 E8.6095
M204 S3000
M205 X10 Y10
G0 F3000 X64.801 Y129.789
M204 S1800
M205 X8 Y8
G1 F1500 X52.065 Y122.436 E9.29429
M204 S3000
M205 X10 Y10
G0 F3000 X51.206 Y127.475
M204 S1800
M205 X8 Y8
G1 F1500 X76.488 Y112.878 E10.65365
M204 S3000
M205 X10 Y10
G0 F3000 X72 Y111.169
M204 S1800
M205 X8 Y8
G1 F1500 X72 Y126.499 E11.36748
M204 S3000
M205 X10 Y10
G0 F3000 X72 Y129.1
M204 S1800
M205 X8 Y8
G1 F1500 X72 Y144.443 E12.08191
M204 S3000
M205 X10 Y10
G0 F3000 X73.457 Y144.024
M204 S1800
M205 X8 Y8
G1 F1500 X51.534 Y131.367 E13.26066
M204 S3000
M205 X10 Y10
G0 F3000 X53.086 Y135.627
M204 S1800
M205 X8 Y8
G1 F1500 X64.463 Y129.058 E13.87238
M204 S3000
M205 X10 Y10
G0 F3000 X56 Y139.681
M204 S1800
M205 X8 Y8
G1 F1500 X56 Y115.936 E14.97805
M204 S3000
M205 X10 Y10
G0 F3000 X56.278 Y115.63
M204 S1800
M205 X8 Y8
G1 F1500 X84.749 Y132.068 E16.50888
M204 S3000
M205 X10 Y10
G0 F3000 X82.57 Y137.08
M204 S1800
M205 X8 Y8
G1 F1500 X69.161 Y144.821 E17.22983
M204 S3000
M205 X10 Y10
G0 F3000 X64 Y144.306
M204 S1800
M205 X8 Y8
G1 F1500 X64 Y111.291 E18.76715
M204 S3000
M205 X10 Y10
G0 F3000 X64.529 Y111.157
M204 S1800
M205 X8 Y8
G1 F1500 X84.539 Y122.709 E19.84302
M204 S3000
M205 X10 Y10
G0 F3000 X85.227 Y126.308
M204 S1800
M205 X8 Y8
G1 F1500 X58.441 Y141.773 E21.28324
M204 S3000
M205 X10 Y10
G0 F3000 X57.367 Y114.68
M204 S1800
M205 X8 Y8
G1 F1500 X62.417 Y111.764 E21.55478
M204 S3000
M205 X10 Y10
G1 F2400 E15.55478
;MESH:controlbox-front-panel.stl
G0 F3000 X67.471 Y145.406
G0 X67.406 Y146.913
G0 X70.255 Y147.393
M204 S1800
M205 X8 Y8
;TYPE:WALL-INNER
G1 F2400 E21.55478
G1 F1500 X73.087 Y146.89 E21.68871
G1 X75.815 Y145.981 E21.82261
G1 X78.38 Y144.686 E21.9564
G1 X80.731 Y143.03 E22.09031
G1 X82.815 Y141.051 E22.22413
G1 X84.589 Y138.787 E22.35806
G1 X86.016 Y136.29 E22.49198
G1 X87.062 Y133.613 E22.62581
G1 X87.707 Y130.811 E22.75969
G1 X87.937 Y127.944 E22.89362
G1 X87.751 Y125.074 E23.02754
G1 X87.146 Y122.264 E23.16138
G1 X86.139 Y119.571 E23.29526
G1 X84.748 Y117.055 E23.42913
G1 X83.009 Y114.765 E23.56302
G1 X80.953 Y112.756 E23.69688
G1 X78.628 Y111.065 E23.83074
G1 X76.08 Y109.732 E23.96464
G1 X73.366 Y108.784 E24.09851
G1 X70.543 Y108.24 E24.23238
G1 X67.671 Y108.115 E24.36624
G1 X64.81 Y108.406 E24.50014
G1 X62.023 Y109.113 E24.63403
G1 X59.368 Y110.219 E24.76795
G1 X56.904 Y111.698 E24.90177
G1 X54.68 Y113.522 E25.0357
G1 X52.745 Y115.651 E25.16967
G1 X51.141 Y118.037 E25.30354
G1 X49.903 Y120.631 E25.43738
G1 X49.054 Y123.377 E25.57122
G1 X48.614 Y126.218 E25.70508
G1 X48.594 Y129.093 E25.83896
G1 X48.991 Y131.941 E25.97285
G1 X49.798 Y134.7 E26.10671
G1 X50.998 Y137.312 E26.24055
G1 X52.568 Y139.722 E26.37449
G1 X54.471 Y141.877 E26.50836
G1 X56.668 Y143.732 E26.64225
G1 X59.112 Y145.247 E26.77614
G1 X61.749 Y146.392 E26.91001
G1 X64.526 Y147.139 E27.04391
G1 X67.381 Y147.474 E27.17776
G1 X70.255 Y147.393 E27.31164
M204 S3000
M205 X10 Y10
G0 F3000 X98.09 Y141.45
M204 S1800
M205 X8 Y8
G1 F1500 X172.373 Y141.45 E30.77057
G1 X172.39 Y114.43 E32.02873
G1 X172.39 Y114.15 E32.04177
G1 X172.11 Y114.15 E32.05021
G1 X98.09 Y114.15 E35.49689
G1 X98.09 Y141.45 E36.7681
M204 S3000
M205 X10 Y10
G0 F3000 X72.958 Y146.384
G0 X70.478 Y146.824
G0 X38.4 Y148.15
M204 S1800
M205 X8 Y8
G1 F1500 X38.4 Y75.85 E40.13469
G1 X185.6 Y75.85 E46.98894
G1 X185.6 Y148.15 E50.35553
G1 X38.4 Y148.15 E57.20978
M204 S3000
M205 X10 Y10
G0 F3000 X37.84 Y148.71
M204 S1800
M205 X8 Y8
G1 F1500 X37.84 Y75.29 E60.62852
G1 X186.16 Y75.29 E67.53492
G1 X186.16 Y148.71 E70.95366
G1 X37.84 Y148.71 E77.86006
M204 S3000
M205 X10 Y10
G0 F3000 X37.91 Y148.64
G0 X70.202 Y146.873
G0 X72.958 Y146.384
G0 X75.614 Y145.499
G0 X78.111 Y144.239
G0 X80.4 Y142.626
G0 X82.429 Y140.699
G0 X84.156 Y138.496
G0 X85.545 Y136.065
G0 X86.563 Y133.458
G0 X87.191 Y130.731
G0 X87.393 Y128.22
G0 X87.294 Y125.139
G0 X87.195 Y125.152
M204 S1800
M205 X8 Y8
G1 F1500 X86.607 Y122.422 E77.9901
G1 X85.629 Y119.806 E78.12014
G1 X84.278 Y117.361 E78.25022
G1 X82.588 Y115.137 E78.38028
G1 X80.591 Y113.185 E78.51032
G1 X78.332 Y111.542 E78.64038
G1 X75.857 Y110.247 E78.77045
G1 X73.22 Y109.326 E78.90052
G1 X70.477 Y108.798 E79.03059
G1 X67.687 Y108.676 E79.16062
G1 X64.908 Y108.959 E79.2907
G1 X62.2 Y109.646 E79.42079
G1 X59.621 Y110.72 E79.55087
G1 X57.227 Y112.157 E79.68089
G1 X55.067 Y113.929 E79.81098
G1 X53.187 Y115.997 E79.94112
G1 X51.629 Y118.315 E80.07117
G1 X50.426 Y120.835 E80.2012
G1 X49.601 Y123.503 E80.33123
G1 X49.174 Y126.263 E80.46128
G1 X49.154 Y129.056 E80.59134
G1 X49.54 Y131.823 E80.72143
G1 X50.324 Y134.503 E80.85145
G1 X51.49 Y137.041 E80.9815
G1 X53.015 Y139.382 E81.1116
G1 X54.864 Y141.476 E81.24168
G1 X56.998 Y143.278 E81.37173
G1 X59.372 Y144.75 E81.5018
G1 X61.934 Y145.862 E81.63185
G1 X64.632 Y146.588 E81.76195
G1 X67.406 Y146.913 E81.892
G1 X70.198 Y146.834 E82.02206
G1 X72.949 Y146.346 E82.15216
G1 X75.599 Y145.463 E82.28223
G1 X78.091 Y144.205 E82.41221
G1 X80.375 Y142.596 E82.5423
G1 X82.4 Y140.673 E82.67234
G1 X84.123 Y138.474 E82.80242
G1 X85.509 Y136.048 E82.93252
G1 X86.525 Y133.447 E83.06255
G1 X87.152 Y130.725 E83.19261
G1 X87.376 Y127.94 E83.32271
G1 X87.195 Y125.152 E83.45281
M204 S3000
M205 X10 Y10
G0 F3000 X87.294 Y125.139
G0 X98.58 Y140.96
G0 X98.65 Y140.89
M204 S1800
M205 X8 Y8
G1 F1500 X171.813 Y140.89 E86.85958
G1 X171.83 Y114.99 E88.0656
G1 X171.83 Y114.71 E88.07864
G1 X171.55 Y114.71 E88.08708
G1 X98.65 Y114.71 E91.4816
G1 X98.65 Y140.89 E92.70065
M204 S3000
M205 X10 Y10
G0 F3000 X99.21 Y140.33
M204 S1800
M205 X8 Y8
;TYPE:WALL-OUTER
G1 F1500 X171.253 Y140.33 E96.05528
G1 X171.27 Y115.55 E97.20914
G1 X171.27 Y115.27 E97.22218
G1 X170.99 Y115.27 E97.23062
G1 X99.21 Y115.27 E100.57299
G1 X99.21 Y140.33 E101.73989
M204 S3000
M205 X10 Y10
G0 F3000 X99.41 Y140.33
G0 X99.41 Y140.99
G0 X87.297 Y125.187
G0 X86.639 Y125.23
M204 S1800
M205 X8 Y8
G1 F1500 X86.068 Y122.58 E101.86612
G1 X85.119 Y120.041 E101.99234
G1 X83.808 Y117.667 E102.11861
G1 X82.167 Y115.509 E102.24485
G1 X80.229 Y113.614 E102.37107
G1 X78.036 Y112.019 E102.49733
G1 X75.634 Y110.762 E102.62357
G1 X73.074 Y109.868 E102.74983
G1 X70.411 Y109.356 E102.87611
G1 X67.703 Y109.237 E103.00232
G1 X65.006 Y109.512 E103.12856
G1 X62.377 Y110.179 E103.25485
G1 X59.874 Y111.221 E103.3811
G1 X57.55 Y112.616 E103.50731
G1 X55.454 Y114.336 E103.63357
G1 X53.629 Y116.343 E103.75988
G1 X52.117 Y118.593 E103.88611
G1 X50.949 Y121.039 E104.01232
G1 X50.148 Y123.629 E104.13856
G1 X49.734 Y126.308 E104.26479
G1 X49.714 Y129.019 E104.39103
G1 X50.089 Y131.705 E104.51731
G1 X50.85 Y134.306 E104.6435
G1 X51.982 Y136.77 E104.76976
G1 X53.462 Y139.042 E104.89602
G1 X55.257 Y141.075 E105.02231
G1 X57.328 Y142.824 E105.14853
G1 X59.632 Y144.253 E105.27477
G1 X62.119 Y145.332 E105.40101
G1 X64.738 Y146.037 E105.5273
G1 X67.431 Y146.352 E105.65355
G1 X70.141 Y146.275 E105.77979
G1 X72.811 Y145.802 E105.90606
G1 X75.383 Y144.945 E106.03229
G1 X77.802 Y143.724 E106.15847
G1 X80.019 Y142.162 E106.28475
G1 X81.985 Y140.295 E106.411
G1 X83.657 Y138.161 E106.53723
G1 X85.002 Y135.806 E106.66351
G1 X85.988 Y133.281 E106.78974
G1 X86.597 Y130.639 E106.91598
G1 X86.815 Y127.936 E107.04226
G1 X86.639 Y125.23 E107.16852
M204 S3000
M205 X10 Y10
G0 F3000 X86.597 Y125.035
G0 X87.242 Y124.897
G0 X87.416 Y127.94
G0 X87.191 Y130.731
G0 X86.563 Y133.458
G0 X85.545 Y136.065
G0 X84.156 Y138.496
G0 X82.429 Y140.699
G0 X80.4 Y142.626
G0 X78.111 Y144.239
G0 X75.614 Y145.499
G0 X72.958 Y146.384
G0 X70.478 Y146.824
G0 X37.91 Y148.64
G0 X37.28 Y149.27
M204 S1800
M205 X8 Y8
G1 F1500 X37.28 Y74.73 E110.63942
G1 X186.72 Y74.73 E117.59797
G1 X186.72 Y149.27 E121.06887
G1 X37.28 Y149.27 E128.02742
M204 S3000
M205 X10 Y10
G0 F3000 X37.28 Y149.07
G0 X37.91 Y148.64
G0 X38.95 Y147.6
M204 S1800
M205 X8 Y8
;TYPE:SKIN
G1 F1500 X38.95 Y76.4 E131.34279
G1 X185.05 Y76.4 E138.14582
G1 X185.05 Y147.6 E141.46119
G1 X72.232 Y147.6 E146.71447
G1 X73.223 Y147.424 E146.76133
G1 X76.027 Y146.49 E146.89895
G1 X78.663 Y145.159 E147.03646
G1 X81.081 Y143.456 E147.17417
G1 X83.223 Y141.422 E147.31171
G1 X85.047 Y139.095 E147.44939
G1 X86.513 Y136.528 E147.58704
G1 X87.589 Y133.776 E147.72463
G1 X88.252 Y130.895 E147.86229
G1 X88.489 Y127.948 E147.99996
G1 X88.297 Y124.998 E148.13761
G1 X87.675 Y122.109 E148.27522
G1 X86.64 Y119.341 E148.41282
G1 X85.21 Y116.754 E148.55046
G1 X83.422 Y114.4 E148.68811
G1 X81.309 Y112.335 E148.82568
G1 X78.919 Y110.596 E148.96331
G1 X76.3 Y109.226 E149.10094
G1 X73.509 Y108.252 E149.23859
G1 X70.608 Y107.692 E149.37616
G1 X67.655 Y107.563 E149.5138
G1 X64.714 Y107.863 E149.65146
G1 X61.848 Y108.59 E149.78914
G1 X59.119 Y109.726 E149.92678
G1 X56.586 Y111.247 E150.06436
G1 X54.3 Y113.123 E150.20206
G1 X52.311 Y115.311 E150.33974
G1 X50.662 Y117.764 E150.47738
G1 X49.39 Y120.43 E150.61492
G1 X48.516 Y123.253 E150.75253
G1 X48.064 Y126.173 E150.89012
G1 X48.044 Y129.129 E151.02776
G1 X48.452 Y132.057 E151.16542
G1 X49.281 Y134.893 E151.303
G1 X50.515 Y137.579 E151.44064
G1 X52.13 Y140.056 E151.57833
G1 X54.086 Y142.272 E151.71596
G1 X56.344 Y144.178 E151.85356
G1 X58.856 Y145.736 E151.9912
G1 X61.567 Y146.913 E152.12882
G1 X64.121 Y147.6 E152.25197
G1 X38.95 Y147.6 E153.42404
M204 S3000
M205 X10 Y10
G0 F3000 X70.202 Y146.873
G0 X97.54 Y142
M204 S1800
M205 X8 Y8
G1 F1500 X172.923 Y142 E156.93418
G1 X172.94 Y113.6 E158.25661
G1 X97.54 Y113.6 E161.76755
G1 X97.54 Y142 E163.08997
M204 S3000
M205 X10 Y10
G0 F3000 X70.202 Y146.873
G0 X39.632 Y147.339
M204 S1800
M205 X8 Y8
G1 F1500 X39.209 Y146.916 E163.11782
M204 S3000
M205 X10 Y10
G0 F3000 X39.209 Y146.124
M204 S1800
M205 X8 Y8
G1 F1500 X40.424 Y147.339 E163.19783
M204 S3000
M205 X10 Y10
G0 F3000 X41.216 Y147.339
M204 S1800
M205 X8 Y8
G1 F1500 X39.209 Y145.332 E163.33
M204 S3000
M205 X10 Y10
G0 F3000 X39.209 Y144.54
M204 S1800
M205 X8 Y8
G1 F1500 X42.008 Y147.339 E163.51432
M204 S3000
M205 X10 Y10
G0 F3000 X42.8 Y147.339
M204 S1800
M205 X8 Y8
G1 F1500 X39.209 Y143.748 E163.75079
M204 S3000
M205 X10 Y10
G0 F3000 X39.209 Y142.956
M204 S1800
M205 X8 Y8
G1 F1500 X43.592 Y147.339 E164.03942
M204 S3000
M205 X10 Y10
G0 F3000 X44.384 Y147.339
M204 S1800
M205 X8 Y8
G1 F1500 X39.209 Y142.164 E164.3802
M204 S3000
M205 X10 Y10
G0 F3000 X39.209 Y141.372
M204 S1800
M205 X8 Y8
G1 F1500 X45.176 Y147.339 E164.77314
M204 S3000
M205 X10 Y10
G0 F3000 X45.968 Y147.339
M204 S1800
M205 X8 Y8
G1 F1500 X39.209 Y140.58 E165.21823
M204 S3000
M205 X10 Y10
G0 F3000 X39.209 Y139.788
M204 S1800
M205 X8 Y8
G1 F1500 X46.76 Y147.339 E165.71548
M204 S3000
M205 X10 Y10
G0 F3000 X47.552 Y147.339
M204 S1800
M205 X8 Y8
G1 F1500 X39.209 Y138.996 E166.26488
M204 S3000
M205 X10 Y10
G0 F3000 X39.209 Y138.204
M204 S1800
M205 X8 Y8
G1 F1500 X48.344 Y147.339 E166.86643
M204 S3000
M205 X10 Y10
G0 F3000 X49.136 Y147.339
M204 S1800
M205 X8 Y8
G1 F1500 X39.209 Y137.412 E167.52014
M204 S3000
M205 X10 Y10
G0 F3000 X39.209 Y136.62
M204 S1800
M205 X8 Y8
G1 F1500 X49.928 Y147.339 E168.22601
M204 S3000
M205 X10 Y10
G0 F3000 X50.72 Y147.339
M204 S1800
M205 X8 Y8
G1 F1500 X39.209 Y135.828 E168.98403
M204 S3000
M205 X10 Y10
G0 F3000 X39.209 Y135.036
M204 S1800
M205 X8 Y8
G1 F1500 X51.512 Y147.339 E169.7942
M204 S3000
M205 X10 Y10
G0 F3000 X52.303 Y147.339
M204 S1800
M205 X8 Y8
G1 F1500 X39.209 Y134.244 E170.6565
M204 S3000
M205 X10 Y10
G0 F3000 X39.209 Y133.452
M204 S1800
M205 X8 Y8
G1 F1500 X53.095 Y147.339 E171.57095
M204 S3000
M205 X10 Y10
G0 F3000 X53.887 Y147.339
M204 S1800
M205 X8 Y8
G1 F1500 X39.209 Y132.661 E172.53752
M204 S3000
M205 X10 Y10
G0 F3000 X39.209 Y131.869
M204 S1800
M205 X8 Y8
G1 F1500 X54.679 Y147.339 E173.55624
M204 S3000
M205 X10 Y10
G0 F3000 X55.471 Y147.339
M204 S1800
M205 X8 Y8
G1 F1500 X39.209 Y131.077 E174.62712
M204 S3000
M205 X10 Y10
G0 F3000 X39.209 Y130.285
M204 S1800
M205 X8 Y8
G1 F1500 X56.263 Y147.339 E175.75016
M204 S3000
M205 X10 Y10
G0 F3000 X57.055 Y147.339
M204 S1800
M205 X8 Y8
G1 F1500 X39.209 Y129.493 E176.92535
M204 S3000
M205 X10 Y10
G0 F3000 X39.209 Y128.701
M204 S1800
M205 X8 Y8
G1 F1500 X57.847 Y147.339 E178.15269
M204 S3000
M205 X10 Y10
G0 F3000 X58.639 Y147.339
M204 S1800
M205 X8 Y8
G1 F1500 X39.209 Y127.909 E179.43219
M204 S3000
M205 X10 Y10
G0 F3000 X39.209 Y127.117
M204 S1800
M205 X8 Y8
