;FLAVOR:Marlin
;TIME:2222
;Filament used: 1.9747m
;Layer height: 0.2
;MINX:94.224
;MINY:94.213
;MINZ:0.2
;MAXX:129.776
;MAXY:129.787
;MAXZ:13.8
;Generated with Cura_SteamEngine 4.2.1
M140 S60
M105
M190 S60
M104 S200
M105
M109 S200
M82 ;absolute extrusion mode
G21 ;metric values
G90 ;absolute positioning
M82 ;set extruder to absolute mode
M107 ;start with the fan off
G28 X0 Y0 ;move X/Y to min endstops
G28 Z0 ;move Z to min endstops
G1 Z15.0 F100 ;move the platform down 15mm
G92 E0 ;zero the extruded length
G1 F200 E3 ;extrude 3mm of feed stock
G92 E0 ;zero the extruded length again
G1 F100
M117 Printing...
G5
M141 S28
G92 E0
G92 E0
G1 F2400 E-6
;LAYER_COUNT:69
;LAYER:0
M106 S255
M204 S3000
M205 X10 Y10
;MESH:controlbox-button-with-hole.stl
G0 F3000 X116.177 Y95.944 Z0.2
M204 S1800
M205 X8 Y8
;TYPE:WALL-INNER
G1 F2400 E0
G1 F1500 X118.468 Y96.726 E0.11272
G1 X120.623 Y97.834 E0.22555
G1 X122.589 Y99.241 E0.33813
G1 X124.34 Y100.929 E0.45138
G1 X125.819 Y102.845 E0.56408
G1 X127 Y104.948 E0.67639
G1 X127.867 Y107.218 E0.78954
G1 X128.395 Y109.583 E0.90238
G1 X128.572 Y112 E1.01522
G1 X128.395 Y114.417 E1.12807
G1 X127.867 Y116.782 E1.24091
G1 X127 Y119.052 E1.35405
G1 X125.819 Y121.155 E1.46636
G1 X124.34 Y123.071 E1.57907
G1 X122.589 Y124.759 E1.69232
G1 X120.623 Y126.166 E1.80489
G1 X118.468 Y127.274 E1.91773
G1 X116.177 Y128.056 E2.03045
G1 X113.796 Y128.497 E2.1432
G1 X111.366 Y128.585 E2.25643
G1 X108.965 Y128.32 E2.36891
G1 X106.611 Y127.705 E2.4822
G1 X104.392 Y126.761 E2.59449
G1 X102.311 Y125.492 E2.70798
G1 X100.467 Y123.957 E2.8197
G1 X98.837 Y122.138 E2.93343
G1 X97.506 Y120.128 E3.04569
G1 X96.471 Y117.92 E3.15924
G1 X95.777 Y115.613 E3.27142
G1 X95.424 Y113.211 E3.38446
G1 X95.424 Y110.789 E3.49724
G1 X95.777 Y108.387 E3.61029
G1 X96.471 Y106.08 E3.72247
G1 X97.506 Y103.872 E3.83602
G1 X98.837 Y101.862 E3.94827
G1 X100.467 Y100.043 E4.06201
G1 X102.311 Y98.508 E4.17373
G1 X104.392 Y97.239 E4.28722
G1 X106.611 Y96.295 E4.39951
G1 X108.965 Y95.68 E4.5128
G1 X111.366 Y95.415 E4.62528
G1 X113.796 Y95.503 E4.7385
G1 X116.177 Y95.944 E4.85126
M204 S3000
M205 X10 Y10
G0 F3000 X116.317 Y95.4
M204 S1800
M205 X8 Y8
G1 F1500 X118.687 Y96.209 E4.96787
G1 X120.914 Y97.354 E5.08447
G1 X122.95 Y98.811 E5.20105
G1 X124.756 Y100.552 E5.31786
G1 X126.287 Y102.535 E5.43451
G1 X127.509 Y104.712 E5.55076
G1 X128.406 Y107.059 E5.66776
G1 X128.951 Y109.501 E5.78426
G1 X129.134 Y112 E5.90094
G1 X128.951 Y114.499 E6.01761
G1 X128.406 Y116.941 E6.13412
G1 X127.509 Y119.288 E6.25112
G1 X126.287 Y121.465 E6.36737
G1 X124.756 Y123.448 E6.48402
G1 X122.95 Y125.189 E6.60083
G1 X120.914 Y126.646 E6.71741
G1 X118.687 Y127.791 E6.83401
G1 X116.317 Y128.6 E6.95062
G1 X113.857 Y129.055 E7.06711
G1 X111.346 Y129.146 E7.18411
G1 X108.863 Y128.873 E7.30042
G1 X106.434 Y128.238 E7.41733
G1 X104.132 Y127.259 E7.53381
G1 X101.988 Y125.951 E7.65076
G1 X100.074 Y124.358 E7.76671
G1 X98.393 Y122.482 E7.884
G1 X97.016 Y120.402 E8.00016
G1 X95.948 Y118.123 E8.11735
G1 X95.229 Y115.733 E8.23357
G1 X94.864 Y113.252 E8.35034
G1 X94.864 Y110.748 E8.46693
G1 X95.229 Y108.267 E8.5837
G1 X95.948 Y105.877 E8.69992
G1 X97.016 Y103.598 E8.81711
G1 X98.393 Y101.518 E8.93327
G1 X100.074 Y99.642 E9.05056
G1 X101.988 Y98.049 E9.16651
G1 X104.132 Y96.741 E9.28346
G1 X106.434 Y95.762 E9.39994
G1 X108.863 Y95.127 E9.51685
G1 X111.346 Y94.854 E9.63316
G1 X113.857 Y94.945 E9.75016
G1 X116.317 Y95.4 E9.86665
M204 S3000
M205 X10 Y10
G0 F3000 X116.457 Y94.856
M204 S1800
M205 X8 Y8
;TYPE:WALL-OUTER
G1 F1500 X118.906 Y95.692 E9.98715
G1 X121.205 Y96.874 E10.10752
G1 X123.311 Y98.381 E10.22811
G1 X125.172 Y100.175 E10.34847
G1 X126.755 Y102.225 E10.46907
G1 X128.018 Y104.475 E10.58922
G1 X128.945 Y106.9 E10.71011
G1 X129.507 Y109.42 E10.83033
G1 X129.696 Y112 E10.95079
G1 X129.507 Y114.58 E11.07125
G1 X128.945 Y117.1 E11.19147
G1 X128.018 Y119.525 E11.31236
G1 X126.755 Y121.775 E11.43251
G1 X125.172 Y123.825 E11.55311
G1 X123.311 Y125.619 E11.67347
G1 X121.205 Y127.126 E11.79406
G1 X118.906 Y128.308 E11.91443
G1 X116.457 Y129.144 E12.03493
G1 X113.918 Y129.613 E12.15515
G1 X111.326 Y129.707 E12.27593
G1 X108.761 Y129.426 E12.39608
G1 X106.257 Y128.771 E12.5166
G1 X103.872 Y127.757 E12.63728
G1 X101.665 Y126.41 E12.75767
G1 X99.681 Y124.759 E12.87786
G1 X97.949 Y122.826 E12.99871
G1 X96.526 Y120.676 E13.11877
G1 X95.425 Y118.326 E13.23961
G1 X94.681 Y115.853 E13.35986
G1 X94.304 Y113.293 E13.48035
G1 X94.304 Y110.707 E13.60076
G1 X94.681 Y108.147 E13.72125
G1 X95.425 Y105.674 E13.84151
G1 X96.526 Y103.324 E13.96235
G1 X97.949 Y101.174 E14.0824
G1 X99.681 Y99.241 E14.20326
G1 X101.665 Y97.59 E14.32344
G1 X103.872 Y96.243 E14.44384
G1 X106.257 Y95.229 E14.56451
G1 X108.761 Y94.574 E14.68503
G1 X111.326 Y94.293 E14.80518
G1 X113.918 Y94.387 E14.92596
G1 X116.457 Y94.856 E15.04619
M204 S3000
M205 X10 Y10
G0 F3000 X116.646 Y94.92
G0 X116.432 Y95.544
G0 X116.031 Y96.475
M204 S1800
M205 X8 Y8
;TYPE:SKIN
G1 F1500 X118.253 Y97.234 E15.15552
G1 X120.333 Y98.304 E15.26444
G1 X122.241 Y99.67 E15.3737
G1 X123.925 Y101.293 E15.48261
G1 X125.363 Y103.155 E15.59216
G1 X126.499 Y105.177 E15.70015
G1 X127.34 Y107.383 E15.81008
G1 X127.85 Y109.662 E15.91883
G1 X128.022 Y112 E16.02799
G1 X127.85 Y114.338 E16.13715
G1 X127.34 Y116.617 E16.2459
G1 X126.499 Y118.823 E16.35583
G1 X125.363 Y120.845 E16.46382
G1 X123.925 Y122.707 E16.57337
G1 X122.241 Y124.33 E16.68227
G1 X120.333 Y125.696 E16.79154
G1 X118.253 Y126.766 E16.90046
G1 X116.031 Y127.525 E17.00979
G1 X113.744 Y127.949 E17.1181
G1 X111.379 Y128.033 E17.22829
G1 X109.068 Y127.779 E17.33655
G1 X106.791 Y127.184 E17.44614
G1 X104.648 Y126.272 E17.55459
G1 X102.63 Y125.042 E17.66463
G1 X100.849 Y123.56 E17.77252
G1 X99.271 Y121.798 E17.88266
G1 X97.988 Y119.861 E17.99084
G1 X96.987 Y117.724 E18.10073
G1 X96.314 Y115.489 E18.20941
G1 X95.974 Y113.171 E18.31851
G1 X95.974 Y110.829 E18.42756
G1 X96.314 Y108.511 E18.53665
G1 X96.987 Y106.276 E18.64534
G1 X97.988 Y104.139 E18.75522
G1 X99.271 Y102.202 E18.86341
G1 X100.849 Y100.44 E18.97354
G1 X102.63 Y98.958 E19.08143
G1 X104.648 Y97.728 E19.19148
G1 X106.791 Y96.816 E19.29992
G1 X109.068 Y96.221 E19.40951
G1 X111.379 Y95.967 E19.51777
G1 X113.744 Y96.051 E19.62796
G1 X116.031 Y96.475 E19.73627
M204 S3000
M205 X10 Y10
G0 F3000 X124.027 Y101.853
M204 S1800
M205 X8 Y8
G1 F1500 X121.98 Y99.805 E19.8711
G1 X121.91 Y99.735
M204 S3000
M205 X10 Y10
G0 F3000 X119.607 Y98.224
M204 S1800
M205 X8 Y8
G1 F1500 X125.739 Y104.356 E20.2749
G1 X125.809 Y104.426
M204 S3000
M205 X10 Y10
G0 F3000 X126.497 Y105.906
M204 S1800
M205 X8 Y8
G1 F1500 X118.022 Y97.431 E20.833
G1 X117.952 Y97.361
M204 S3000
M205 X10 Y10
G0 F3000 X116.818 Y97.02
M204 S1800
M205 X8 Y8
G1 F1500 X126.985 Y107.186 E21.50248
M204 S3000
M205 X10 Y10
G0 F3000 X127.27 Y108.262
M204 S1800
M205 X8 Y8
G1 F1500 X115.681 Y96.674 E22.2656
M204 S3000
M205 X10 Y10
G0 F3000 X114.708 Y96.493
M204 S1800
M205 X8 Y8
G1 F1500 X127.497 Y109.282 E23.10778
M204 S3000
M205 X10 Y10
G0 F3000 X127.628 Y110.205
M204 S1800
M205 X8 Y8
G1 F1500 X113.736 Y96.312 E24.02262
M204 S3000
M205 X10 Y10
G0 F3000 X112.912 Y96.281
M204 S1800
M205 X8 Y8
G1 F1500 X127.691 Y111.06 E24.99585
M204 S3000
M205 X10 Y10
G0 F3000 X127.754 Y111.915
M204 S1800
M205 X8 Y8
G1 F1500 X112.091 Y96.252 E26.02728
M204 S3000
M205 X10 Y10
G0 F3000 X111.286 Y96.239
M204 S1800
M205 X8 Y8
G1 F1500 X127.711 Y112.664 E27.1089
M204 S3000
M205 X10 Y10
G0 F3000 X127.657 Y113.402
M204 S1800
M205 X8 Y8
G1 F1500 X110.572 Y96.317 E28.23397
M204 S3000
M205 X10 Y10
G0 F3000 X109.858 Y96.394
M204 S1800
M205 X8 Y8
G1 F1500 X127.603 Y114.139 E29.40251
M204 S3000
M205 X10 Y10
G0 F3000 X127.477 Y114.806
M204 S1800
M205 X8 Y8
G1 F1500 X109.144 Y96.472 E30.6098
M204 S3000
M205 X10 Y10
G0 F3000 X108.513 Y96.633
M204 S1800
M205 X8 Y8
G1 F1500 X127.333 Y115.454 E31.84916
M204 S3000
M205 X10 Y10
G0 F3000 X127.188 Y116.101
M204 S1800
M205 X8 Y8
G1 F1500 X107.886 Y96.798 E33.12027
M204 S3000
M205 X10 Y10
G0 F3000 X107.258 Y96.962
M204 S1800
M205 X8 Y8
G1 F1500 X127.019 Y116.724 E34.4216
M204 S3000
M205 X10 Y10
G0 F3000 X126.801 Y117.297
M204 S1800
M205 X8 Y8
G1 F1500 X106.659 Y97.155 E35.74798
M204 S3000
M205 X10 Y10
G0 F3000 X106.103 Y97.391
M204 S1800
M205 X8 Y8
G1 F1500 X126.582 Y117.871 E37.09659
M204 S3000
M205 X10 Y10
G0 F3000 X126.364 Y118.444
M204 S1800
M205 X8 Y8
G1 F1500 X105.547 Y97.628 E38.46739
M204 S3000
M205 X10 Y10
G0 F3000 X104.991 Y97.864
M204 S1800
M205 X8 Y8
G1 F1500 X126.111 Y118.983 E39.85815
M204 S3000
M205 X10 Y10
G0 F3000 X125.826 Y119.49
M204 S1800
M205 X8 Y8
G1 F1500 X104.473 Y98.137 E41.26428
M204 S3000
M205 X10 Y10
G0 F3000 X103.982 Y98.438
M204 S1800
M205 X8 Y8
G1 F1500 X125.541 Y119.997 E42.68398
M204 S3000
M205 X10 Y10
G0 F3000 X125.256 Y120.504
M204 S1800
M205 X8 Y8
G1 F1500 X103.49 Y98.738 E44.11731
M204 S3000
M205 X10 Y10
G0 F3000 X102.998 Y99.038
M204 S1800
M205 X8 Y8
G1 F1500 X124.934 Y120.974 E45.56183
M204 S3000
M205 X10 Y10
G0 F3000 X124.589 Y121.421
M204 S1800
M205 X8 Y8
G1 F1500 X102.539 Y99.371 E47.01386
M204 S3000
M205 X10 Y10
G0 F3000 X102.106 Y99.731
M204 S1800
M205 X8 Y8
G1 F1500 X124.243 Y121.867 E48.47158
M204 S3000
M205 X10 Y10
G0 F3000 X123.898 Y122.314
M204 S1800
M205 X8 Y8
G1 F1500 X101.674 Y100.09 E49.93507
M204 S3000
M205 X10 Y10
G0 F3000 X101.242 Y100.45
M204 S1800
M205 X8 Y8
G1 F1500 X123.523 Y122.731 E51.40232
M204 S3000
M205 X10 Y10
G0 F3000 X123.12 Y123.12
M204 S1800
M205 X8 Y8
G1 F1500 X100.839 Y100.839 E52.86956
M204 S3000
M205 X10 Y10
G0 F3000 X100.465 Y101.256
M204 S1800
M205 X8 Y8
G1 F1500 X122.716 Y123.508 E54.33486
M204 S3000
M205 X10 Y10
G0 F3000 X122.313 Y123.897
M204 S1800
M205 X8 Y8
G1 F1500 X100.09 Y101.674 E55.79828
M204 S3000
M205 X10 Y10
G0 F3000 X99.716 Y102.092
M204 S1800
M205 X8 Y8
G1 F1500 X121.886 Y124.261 E57.25818
M204 S3000
M205 X10 Y10
G0 F3000 X121.424 Y124.592
M204 S1800
M205 X8 Y8
G1 F1500 X99.364 Y102.531 E58.7109
M204 S3000
M205 X10 Y10
G0 F3000 X99.047 Y103.007
M204 S1800
M205 X8 Y8
G1 F1500 X120.963 Y124.923 E60.15411
M204 S3000
M205 X10 Y10
G0 F3000 X120.501 Y125.253
M204 S1800
M205 X8 Y8
G1 F1500 X98.732 Y103.484 E61.58763
M204 S3000
M205 X10 Y10
G0 F3000 X98.417 Y103.96
M204 S1800
M205 X8 Y8
G1 F1500 X120.019 Y125.563 E63.01019
M204 S3000
M205 X10 Y10
G0 F3000 X119.496 Y125.832
M204 S1800
M205 X8 Y8
G1 F1500 X98.124 Y104.46 E64.41758
M204 S3000
M205 X10 Y10
G0 F3000 X97.872 Y104.999
M204 S1800
M205 X8 Y8
G1 F1500 X118.973 Y126.101 E65.80715
M204 S3000
M205 X10 Y10
G0 F3000 X118.45 Y126.369
M204 S1800
M205 X8 Y8
G1 F1500 X97.618 Y105.538 E67.17894
M204 S3000
M205 X10 Y10
G0 F3000 X97.366 Y106.078
M204 S1800
M205 X8 Y8
G1 F1500 X117.898 Y126.61 E68.531
M204 S3000
M205 X10 Y10
G0 F3000 X117.308 Y126.811
M204 S1800
M205 X8 Y8
G1 F1500 X97.145 Y106.648 E69.85877
M204 S3000
M205 X10 Y10
G0 F3000 X96.962 Y107.257
M204 S1800
M205 X8 Y8
G1 F1500 X116.718 Y127.014 E71.15977
M204 S3000
M205 X10 Y10
G0 F3000 X116.128 Y127.215
M204 S1800
M205 X8 Y8
G1 F1500 X96.778 Y107.866 E72.43397
M204 S3000
M205 X10 Y10
G0 F3000 X96.595 Y108.475
M204 S1800
M205 X8 Y8
G1 F1500 X115.481 Y127.361 E73.67764
M204 S3000
M205 X10 Y10
G0 F3000 X114.813 Y127.484
M204 S1800
M205 X8 Y8
G1 F1500 X96.481 Y109.153 E74.8848
M204 S3000
M205 X10 Y10
G0 F3000 X96.38 Y109.844
M204 S1800
M205 X8 Y8
G1 F1500 X114.146 Y127.609 E76.05469
M204 S3000
M205 X10 Y10
G0 F3000 X113.442 Y127.697
M204 S1800
M205 X8 Y8
G1 F1500 X96.278 Y110.534 E77.18494
M204 S3000
M205 X10 Y10
G0 F3000 X96.233 Y111.28
M204 S1800
M205 X8 Y8
G1 F1500 X112.678 Y127.725 E78.26787
M204 S3000
M205 X10 Y10
G0 F3000 X111.913 Y127.752
M204 S1800
M205 X8 Y8
G1 F1500 X96.233 Y112.072 E79.30042
M204 S3000
M205 X10 Y10
G0 F3000 X96.233 Y112.864
M204 S1800
M205 X8 Y8
G1 F1500 X111.109 Y127.74 E80.28003
M204 S3000
M205 X10 Y10
G0 F3000 X110.22 Y127.644
M204 S1800
M205 X8 Y8
G1 F1500 X96.32 Y113.743 E81.19541
M204 S3000
M205 X10 Y10
G0 F3000 X96.456 Y114.671
M204 S1800
M205 X8 Y8
G1 F1500 X109.332 Y127.547 E82.04331
M204 S3000
M205 X10 Y10
G0 F3000 X108.303 Y127.31
M204 S1800
M205 X8 Y8
G1 F1500 X96.629 Y115.636 E82.81206
G1 X96.559 Y115.566
M204 S3000
M205 X10 Y10
G0 F3000 X96.971 Y116.77
M204 S1800
M205 X8 Y8
G1 F1500 X107.229 Y127.028 E83.48757
G1 X107.299 Y127.098
M204 S3000
M205 X10 Y10
G0 F3000 X105.952 Y126.543
M204 S1800
M205 X8 Y8
G1 F1500 X97.399 Y117.99 E84.0508
G1 X97.329 Y117.92
M204 S3000
M205 X10 Y10
G0 F3000 X98.097 Y119.48
M204 S1800
M205 X8 Y8
G1 F1500 X104.482 Y125.865 E84.47126
G1 X104.552 Y125.935
M204 S3000
M205 X10 Y10
G0 F3000 X102.023 Y124.198
M204 S1800
M205 X8 Y8
G1 F1500 X99.607 Y121.782 E84.63036
G1 X99.537 Y121.712
M204 S3000
M205 X10 Y10
;MESH:NONMESH
G0 F600 X99.537 Y121.712 Z0.4
G0 F3000 X116.269 Y95.554
;TIME_ELAPSED:80.397439
;LAYER:1
M140 S60
M204 S1800
M205 X8 Y8
;TYPE:WALL-INNER
;MESH:controlbox-button-with-hole.stl
G1 F2250 X118.623 Y96.358 E84.7131
G1 X120.834 Y97.494 E84.79577
G1 X122.843 Y98.932 E84.87795
G1 X124.639 Y100.662 E84.96089
G1 X126.149 Y102.618 E85.04307
G1 X127.364 Y104.783 E85.12565
G1 X128.258 Y107.116 E85.20875
G1 X128.792 Y109.519 E85.29062
G1 X128.974 Y112 E85.37336
G1 X128.792 Y114.481 E85.4561
G1 X128.258 Y116.884 E85.53797
G1 X127.364 Y119.217 E85.62107
G1 X126.149 Y121.382 E85.70364
G1 X124.639 Y123.338 E85.78583
G1 X122.843 Y125.068 E85.86877
G1 X120.834 Y126.506 E85.95094
G1 X118.623 Y127.642 E86.03362
G1 X116.269 Y128.446 E86.11636
G1 X113.842 Y128.895 E86.19845
G1 X111.359 Y128.985 E86.28109
G1 X108.879 Y128.713 E86.36407
G1 X106.486 Y128.087 E86.44634
G1 X104.206 Y127.118 E86.52873
G1 X102.087 Y125.824 E86.61132
G1 X100.18 Y124.237 E86.69383
G1 X98.527 Y122.394 E86.77617
G1 X97.15 Y120.312 E86.8592
G1 X96.101 Y118.076 E86.94134
G1 X95.386 Y115.697 E87.02397
G1 X95.024 Y113.237 E87.10667
G1 X95.024 Y110.763 E87.18895
G1 X95.386 Y108.303 E87.27165
G1 X96.101 Y105.924 E87.35428
G1 X97.15 Y103.688 E87.43642
G1 X98.527 Y101.606 E87.51945
G1 X100.18 Y99.763 E87.60179
G1 X102.087 Y98.176 E87.68431
G1 X104.206 Y96.882 E87.76689
G1 X106.486 Y95.913 E87.84928
G1 X108.879 Y95.287 E87.93155
G1 X111.359 Y95.015 E88.01453
G1 X113.842 Y95.105 E88.09717
G1 X116.269 Y95.554 E88.17926
M204 S3000
M205 X10 Y10
G0 F4500 X116.375 Y95.167
M204 S1800
M205 X8 Y8
G1 F2250 X118.78 Y95.988 E88.26379
G1 X121.041 Y97.15 E88.34834
G1 X123.102 Y98.625 E88.43263
G1 X124.937 Y100.393 E88.51739
G1 X126.485 Y102.398 E88.60164
G1 X127.728 Y104.613 E88.68611
G1 X128.64 Y106.995 E88.77095
G1 X129.189 Y109.464 E88.85507
G1 X129.375 Y112 E88.93965
G1 X129.189 Y114.536 E89.02422
G1 X128.64 Y117.005 E89.10835
G1 X127.728 Y119.387 E89.19318
G1 X126.485 Y121.602 E89.27766
G1 X124.937 Y123.607 E89.36191
G1 X123.102 Y125.375 E89.44666
G1 X121.041 Y126.85 E89.53096
G1 X118.78 Y128.012 E89.61551
G1 X116.375 Y128.833 E89.70003
G1 X113.882 Y129.294 E89.78435
G1 X111.343 Y129.386 E89.86886
G1 X108.809 Y129.108 E89.95364
G1 X106.358 Y128.467 E90.03791
G1 X104.021 Y127.474 E90.12236
G1 X101.855 Y126.151 E90.20678
G1 X99.9 Y124.524 E90.29137
G1 X98.208 Y122.637 E90.37567
G1 X96.802 Y120.512 E90.46042
G1 X95.727 Y118.219 E90.54465
G1 X94.994 Y115.782 E90.62929
G1 X94.624 Y113.268 E90.71381
G1 X94.624 Y110.732 E90.79816
G1 X94.994 Y108.218 E90.88267
G1 X95.727 Y105.781 E90.96731
G1 X96.802 Y103.488 E91.05154
G1 X98.208 Y101.363 E91.13629
G1 X99.9 Y99.476 E91.22059
G1 X101.855 Y97.849 E91.30519
