;FLAVOR:Marlin
;TIME:24209
;Filament used: 29.7225m
;Layer height: 0.3
;MINX:12.563
;MINY:59
;MINZ:0.3
;MAXX:206.354
;MAXY:161.502
;MAXZ:35.9
;Generated with Cura_SteamEngine master
M82 ;absolute extrusion mode
;Sliced at: Sun 11-08-2024 21:57:25
;Basic settings: Layer height: 0.3 Walls: 0.8 Fill: 20
G21 ;metric values
G90 ;absolute positioning
M82 ;set extruder to absolute mode
M107 ;start with the fan off
M117 Start heating ...
M104 S200
M117 Homing X/Y ...
G28 X0 Y0 ;move X/Y to min endstops
M117 Homing Z ...
G28 Z0 ;move Z to min endstops
G1 Z15.0 F100 ;move the platform down 15mm
M117 Heating ...
M109 S200
M117 Start cleaning ...
G92 E0 ;zero the extruded length
G1 F200 E10 ;extrude 10mm of feed stock
G92 E0 ;zero the extruded length again
M117 Intro line ...
G1 Z2.0 F3000 ; Move Z Axis up little to prevent scratching of Heat Bed
G1 X0.1 Y20 Z0.3 F5000.0 ; Move to start position
G1 X0.1 Y200.0 Z0.3 F1500.0 E15 ; Draw the first line
G1 X0.4 Y200.0 Z0.3 F5000.0 ; Move to side a little
G1 X0.4 Y20 Z0.3 F1500.0 E30 ; Draw the second line
G92 E0 ; Reset Extruder
G1 E-1 F500 ; Retract filiment by 1 mm
G1 Z2.0 F3000 ; Move Z Axis up little to prevent scratching of Heat Bed
G1 X5 Y20 Z0.3 F100 ; Move over to prevent blob squish
G1 F100
G92 E0 ; Reset Extruder
M117 Printing...

G92 E0
G92 E0
G1 F1800 E-7
;LAYER_COUNT:119
;LAYER:0
M107
G1 F300 Z0.5
G0 F3000 X17.513 Y59.168 Z0.5
;TYPE:SKIRT
G1 F300 Z0.3
G1 F1800 E0
G1 X18.066 Y59.049 E0.02822
G1 X18.837 Y59.002 E0.06676
G1 X18.949 Y59 E0.07235
G1 X199.731 Y59 E9.0916
G1 X200.429 Y59.01 E9.12642
G1 X200.993 Y59.058 E9.15466
G1 X201.543 Y59.185 E9.18283
G1 X202.071 Y59.389 E9.21106
G1 X202.565 Y59.664 E9.23927
G1 X203.014 Y60.007 E9.26746
G1 X203.411 Y60.409 E9.29565
G1 X203.748 Y60.864 E9.3239
G1 X204.016 Y61.361 E9.35207
G1 X204.212 Y61.891 E9.38026
G1 X204.332 Y62.444 E9.40849
G1 X204.379 Y63.218 E9.44718
G1 X204.381 Y63.33 E9.45277
G1 X204.381 Y78.567 E10.21294
G1 X204.421 Y81.367 E10.35265
G1 X204.534 Y84.037 E10.48598
G1 X204.726 Y86.744 E10.62137
G1 X204.994 Y89.454 E10.75723
G1 X205.173 Y90.809 E10.82542
G1 X205.342 Y92.199 E10.89528
G1 X205.374 Y92.702 E10.92042
G1 X205.387 Y93.647 E10.96757
G1 X205.394 Y93.729 E10.97168
G1 X205.42 Y95.566 E11.06334
G1 X205.48 Y96.93 E11.13145
G1 X205.532 Y98.617 E11.21566
G1 X205.578 Y100.68 E11.31861
G1 X205.714 Y103.385 E11.45373
G1 X205.929 Y106.118 E11.5905
G1 X206.166 Y108.37 E11.70347
G1 X206.324 Y109.731 E11.77183
G1 X206.35 Y110.239 E11.79721
G1 X206.354 Y110.543 E11.81238
G1 X206.354 Y114.617 E12.01563
G1 X206.344 Y115.318 E12.0506
G1 X206.277 Y115.992 E12.0844
G1 X206.023 Y117.352 E12.15342
G1 X206.009 Y117.42 E12.15688
G1 X205.553 Y120.079 E12.29148
G1 X205.161 Y122.814 E12.42932
G1 X204.856 Y125.494 E12.56389
G1 X204.625 Y128.194 E12.69909
G1 X204.469 Y130.902 E12.83441
G1 X204.392 Y133.59 E12.96857
G1 X204.381 Y135.055 E13.04166
G1 X204.381 Y152.819 E13.92791
G1 X204.371 Y153.546 E13.96419
G1 X204.323 Y154.109 E13.99238
G1 X204.196 Y154.66 E14.02059
G1 X203.993 Y155.188 E14.04881
G1 X203.718 Y155.682 E14.07702
G1 X203.376 Y156.132 E14.10522
G1 X202.973 Y156.529 E14.13344
G1 X202.519 Y156.865 E14.16162
G1 X202.022 Y157.134 E14.18981
G1 X201.492 Y157.331 E14.21802
G1 X200.939 Y157.45 E14.24624
G1 X200.163 Y157.498 E14.28503
G1 X200.051 Y157.5 E14.29062
G1 X134.549 Y157.5 E17.55853
G1 X131.749 Y157.54 E17.69823
G1 X129.079 Y157.653 E17.83156
G1 X126.372 Y157.845 E17.96695
G1 X123.651 Y158.115 E18.10337
G1 X120.965 Y158.458 E18.23846
G1 X118.274 Y158.881 E18.37437
G1 X115.576 Y159.383 E18.51128
G1 X112.972 Y159.943 E18.64416
G1 X110.348 Y160.586 E18.77895
G1 X107.615 Y161.34 E18.92039
G1 X107.368 Y161.4 E18.93308
G1 X106.622 Y161.491 E18.97057
G1 X106.19 Y161.502 E18.99213
G1 X104.687 Y161.502 E19.06711
G1 X103.973 Y161.491 E19.10274
G1 X103.696 Y161.477 E19.11658
G1 X100.893 Y161.239 E19.25692
G1 X98.186 Y161.086 E19.39219
G1 X94.097 Y161 E19.59624
G1 X93.815 Y161 E19.61031
G1 X93.104 Y160.989 E19.64578
G1 X92.546 Y160.941 E19.67372
G1 X91.368 Y160.756 E19.73321
G1 X88.637 Y160.366 E19.87085
G1 X85.958 Y160.061 E20.00537
G1 X83.289 Y159.833 E20.13901
G1 X80.514 Y159.675 E20.27768
G1 X77.844 Y159.598 E20.41094
G1 X75.101 Y159.598 E20.54779
G1 X72.428 Y159.673 E20.6812
G1 X69.687 Y159.827 E20.81816
G1 X66.96 Y160.057 E20.9547
G1 X64.289 Y160.361 E21.08881
G1 X61.613 Y160.74 E21.22365
G1 X60.932 Y160.852 E21.25808
G1 X60.169 Y160.935 E21.29637
G1 X59.737 Y160.946 E21.31793
G1 X57.982 Y160.946 E21.40549
G1 X55.908 Y160.984 E21.50898
G1 X54.444 Y161 E21.58202
G1 X46.42 Y161 E21.98234
G1 X45.719 Y160.99 E22.01732
G1 X45.048 Y160.923 E22.05096
G1 X44.588 Y160.838 E22.0743
G1 X42.625 Y160.443 E22.1742
G1 X40.682 Y160.11 E22.27255
G1 X40.129 Y160.006 E22.30062
G1 X39.08 Y159.779 E22.35417
G1 X38.632 Y159.675 E22.37711
G1 X35.948 Y159.133 E22.51372
G1 X33.278 Y158.673 E22.64889
G1 X30.576 Y158.286 E22.78507
G1 X27.874 Y157.975 E22.92076
G1 X25.175 Y157.742 E23.05592
G1 X22.473 Y157.586 E23.19094
G1 X19.63 Y157.505 E23.33284
G1 X18.568 Y157.489 E23.38583
G1 X18.004 Y157.44 E23.41407
G1 X17.454 Y157.313 E23.44223
G1 X16.926 Y157.109 E23.47047
G1 X16.433 Y156.833 E23.49866
G1 X15.983 Y156.49 E23.52689
G1 X15.587 Y156.087 E23.55508
G1 X15.251 Y155.633 E23.58326
G1 X14.982 Y155.135 E23.6115
G1 X14.787 Y154.605 E23.63967
G1 X14.643 Y153.832 E23.6789
G1 X14.555 Y152.81 E23.73008
G1 X14.505 Y152.104 E23.76539
G1 X14.24 Y149.446 E23.89865
G1 X13.893 Y146.73 E24.03526
G1 X13.466 Y144.012 E24.17252
G1 X12.98 Y141.404 E24.30487
G1 X12.923 Y141.137 E24.31849
G1 X12.651 Y139.785 E24.3873
G1 X12.574 Y139.108 E24.42129
G1 X12.563 Y138.676 E24.44285
G1 X12.563 Y135.539 E24.59936
G1 X12.574 Y134.833 E24.63458
G1 X12.641 Y134.165 E24.66808
G1 X12.83 Y133.149 E24.71963
G1 X13.003 Y132.289 E24.7634
G1 X13.465 Y129.588 E24.90011
G1 X13.846 Y126.907 E25.03521
G1 X14.147 Y124.249 E25.16867
G1 X14.379 Y121.519 E25.30536
G1 X14.533 Y118.804 E25.44103
G1 X14.619 Y114.713 E25.64517
G1 X14.619 Y63.614 E28.19451
G1 X14.629 Y62.949 E28.22769
G1 X14.678 Y62.386 E28.25589
G1 X14.805 Y61.835 E28.2841
G1 X15.009 Y61.307 E28.31234
G1 X15.285 Y60.814 E28.34052
G1 X15.628 Y60.365 E28.36871
G1 X16.031 Y59.968 E28.39694
G1 X16.485 Y59.632 E28.42512
G1 X16.983 Y59.363 E28.45335
G1 X17.513 Y59.168 E28.48153
G0 F3000 X17.865 Y59.491
G1 F1800 X18.528 Y59.41 E28.51485
G1 X18.949 Y59.4 E28.53586
G1 X199.726 Y59.4 E37.55486
G1 X200.424 Y59.41 E37.58969
G1 X200.958 Y59.458 E37.61644
G1 X201.479 Y59.584 E37.64318
G1 X201.976 Y59.787 E37.66996
G1 X202.437 Y60.061 E37.69672
G1 X202.852 Y60.4 E37.72345
G1 X203.212 Y60.798 E37.75023
G1 X203.509 Y61.244 E37.77696
G1 X203.737 Y61.73 E37.80374
G1 X203.889 Y62.244 E37.83048
G1 X203.971 Y62.909 E37.86391
G1 X203.981 Y63.33 E37.88492
G1 X203.981 Y78.573 E38.6454
G1 X204.02 Y81.354 E38.78416
G1 X204.136 Y84.082 E38.92038
G1 X204.33 Y86.811 E39.05687
G1 X204.595 Y89.489 E39.19113
G1 X204.776 Y90.858 E39.26003
G1 X204.945 Y92.248 E39.32988
G1 X204.976 Y92.789 E39.35692
G1 X204.987 Y93.68 E39.40138
G1 X204.994 Y93.735 E39.40414
G1 X205.02 Y95.554 E39.4949
G1 X205.08 Y96.942 E39.56421
G1 X205.132 Y98.626 E39.64827
G1 X205.178 Y100.709 E39.75222
G1 X205.313 Y103.401 E39.88669
G1 X205.53 Y106.155 E40.02451
G1 X205.769 Y108.417 E40.13799
G1 X205.915 Y109.665 E40.20068
G1 X205.95 Y110.252 E40.23002
G1 X205.954 Y110.547 E40.24474
G1 X205.954 Y114.611 E40.44749
G1 X205.944 Y115.312 E40.48247
G1 X205.883 Y115.919 E40.5129
G1 X205.617 Y117.346 E40.58532
G1 X205.155 Y120.032 E40.72129
G1 X204.766 Y122.749 E40.85823
G1 X204.459 Y125.447 E40.9937
G1 X204.226 Y128.173 E41.1302
G1 X204.071 Y130.868 E41.26487
G1 X203.991 Y133.663 E41.40437
G1 X203.981 Y135.052 E41.47367
G1 X203.981 Y152.814 E42.35982
G1 X203.971 Y153.541 E42.3961
G1 X203.923 Y154.075 E42.42285
G1 X203.797 Y154.596 E42.44959
G1 X203.595 Y155.093 E42.47635
G1 X203.321 Y155.554 E42.50311
G1 X202.982 Y155.969 E42.52984
G1 X202.585 Y156.33 E42.55661
G1 X202.139 Y156.627 E42.58335
G1 X201.653 Y156.855 E42.61013
G1 X201.139 Y157.008 E42.63688
G1 X200.472 Y157.09 E42.67041
G1 X200.051 Y157.1 E42.69142
G1 X134.543 Y157.1 E45.95963
G1 X131.762 Y157.139 E46.09839
G1 X129.034 Y157.255 E46.23461
G1 X126.305 Y157.449 E46.3711
G1 X123.628 Y157.714 E46.50531
G1 X120.889 Y158.064 E46.64307
G1 X118.211 Y158.485 E46.77832
G1 X115.525 Y158.985 E46.91463
G1 X112.898 Y159.55 E47.04869
G1 X110.219 Y160.206 E47.18629
G1 X107.509 Y160.954 E47.32655
G1 X107.282 Y161.009 E47.3382
G1 X106.611 Y161.092 E47.37193
G1 X106.19 Y161.102 E47.39294
G1 X104.694 Y161.102 E47.46758
G1 X103.98 Y161.091 E47.5032
G1 X103.73 Y161.078 E47.51569
G1 X100.914 Y160.839 E47.65669
G1 X98.218 Y160.687 E47.79141
G1 X94.105 Y160.6 E47.99665
G1 X93.821 Y160.6 E48.01082
G1 X93.11 Y160.589 E48.0463
G1 X92.608 Y160.545 E48.07144
G1 X91.459 Y160.365 E48.12946
G1 X88.707 Y159.972 E48.26815
G1 X86.001 Y159.664 E48.40402
G1 X83.275 Y159.431 E48.54052
G1 X80.583 Y159.277 E48.67505
G1 X77.821 Y159.198 E48.8129
G1 X75.126 Y159.198 E48.94735
G1 X72.358 Y159.275 E49.0855
G1 X69.666 Y159.427 E49.22002
G1 X66.952 Y159.656 E49.3559
G1 X64.225 Y159.966 E49.49283
G1 X61.536 Y160.347 E49.62833
G1 X60.787 Y160.469 E49.66619
G1 X60.158 Y160.536 E49.69774
G1 X59.737 Y160.546 E49.71875
G1 X57.975 Y160.546 E49.80666
G1 X55.903 Y160.584 E49.91005
G1 X54.439 Y160.6 E49.98309
G1 X46.426 Y160.6 E50.38286
G1 X45.725 Y160.59 E50.41784
G1 X45.121 Y160.53 E50.44812
G1 X44.667 Y160.445 E50.47117
G1 X42.734 Y160.056 E50.56954
G1 X40.755 Y159.717 E50.66971
G1 X40.213 Y159.614 E50.69723
G1 X39.17 Y159.39 E50.75045
G1 X38.695 Y159.28 E50.77478
G1 X36.023 Y158.741 E50.91077
G1 X33.331 Y158.276 E51.04706
G1 X30.607 Y157.886 E51.18435
G1 X27.953 Y157.581 E51.31763
G1 X25.199 Y157.343 E51.45554
G1 X22.508 Y157.188 E51.59002
G1 X19.604 Y157.105 E51.73496
G1 X18.574 Y157.089 E51.78635
G1 X18.04 Y157.041 E51.8131
G1 X17.519 Y156.914 E51.83985
G1 X17.022 Y156.711 E51.86664
G1 X16.561 Y156.437 E51.89339
G1 X16.146 Y156.097 E51.92016
G1 X15.786 Y155.699 E51.94693
G1 X15.49 Y155.253 E51.97364
G1 X15.262 Y154.767 E52.00042
G1 X15.11 Y154.253 E52.02716
G1 X15.041 Y153.798 E52.05012
G1 X14.954 Y152.781 E52.10105
G1 X14.903 Y152.072 E52.13651
G1 X14.637 Y149.392 E52.27087
G1 X14.287 Y146.654 E52.40858
G1 X13.867 Y143.983 E52.54348
G1 X13.369 Y141.312 E52.67903
G1 X13.315 Y141.058 E52.69199
G1 X13.043 Y139.706 E52.76079
G1 X12.973 Y139.097 E52.79137
G1 X12.963 Y138.676 E52.81238
G1 X12.963 Y135.545 E52.96859
G1 X12.974 Y134.839 E53.00381
G1 X13.034 Y134.238 E53.03395
G1 X13.222 Y133.228 E53.0852
G1 X13.402 Y132.33 E53.13089
G1 X13.856 Y129.676 E53.26523
G1 X14.24 Y126.977 E53.40124
G1 X14.549 Y124.257 E53.53781
G1 X14.779 Y121.541 E53.6738
G1 X14.932 Y118.835 E53.80902
G1 X15.019 Y114.721 E54.01431
G1 X15.019 Y63.62 E56.56375
G1 X15.029 Y62.955 E56.59693
G1 X15.077 Y62.421 E56.62368
G1 X15.204 Y61.9 E56.65043
G1 X15.407 Y61.403 E56.67722
G1 X15.681 Y60.942 E56.70397
G1 X16.021 Y60.527 E56.73074
G1 X16.419 Y60.168 E56.75748
G1 X16.865 Y59.871 E56.78421
G1 X17.351 Y59.643 E56.81099
G1 X17.865 Y59.491 E56.83773
G0 F3000 X17.712 Y59.943
G1 F1800 X18.207 Y59.837 E56.86299
G1 X18.859 Y59.801 E56.89557
G1 X199.72 Y59.8 E65.91876
G1 X200.418 Y59.81 E65.95359
G1 X200.921 Y59.857 E65.97879
G1 X201.411 Y59.983 E66.00403
G1 X201.875 Y60.185 E66.02928
G1 X202.301 Y60.457 E66.0545
G1 X202.679 Y60.792 E66.0797
G1 X202.999 Y61.183 E66.1049
G1 X203.254 Y61.62 E66.13014
G1 X203.437 Y62.091 E66.15535
G1 X203.544 Y62.585 E66.18057
G1 X203.58 Y63.24 E66.2133
G1 X203.581 Y78.579 E66.97856
G1 X203.621 Y81.376 E67.11812
G1 X203.736 Y84.093 E67.2538
G1 X203.931 Y86.839 E67.39114
G1 X204.199 Y89.549 E67.527
G1 X204.379 Y90.906 E67.59529
G1 X204.548 Y92.296 E67.66515
G1 X204.576 Y92.794 E67.69004
G1 X204.587 Y93.654 E67.73295
G1 X204.594 Y93.741 E67.7373
G1 X204.62 Y95.578 E67.82896
G1 X204.68 Y96.954 E67.89767
G1 X204.732 Y98.635 E67.98158
G1 X204.778 Y100.702 E68.08473
G1 X204.916 Y103.454 E68.2222
G1 X205.131 Y106.189 E68.35907
G1 X205.371 Y108.463 E68.47315
G1 X205.527 Y109.802 E68.5404
G1 X205.552 Y110.338 E68.56717
G1 X205.554 Y110.551 E68.5778
G1 X205.554 Y114.606 E68.7801
G1 X205.544 Y115.307 E68.81508
G1 X205.49 Y115.846 E68.84211
G1 X205.223 Y117.278 E68.91478
G1 X204.759 Y119.979 E69.05151
G1 X204.367 Y122.713 E69.1893
G1 X204.061 Y125.404 E69.32442
G1 X203.829 Y128.117 E69.46027
G1 X203.671 Y130.867 E69.59769
G1 X203.591 Y133.652 E69.73669
G1 X203.581 Y135.049 E69.80639
G1 X203.581 Y152.808 E70.69239
G1 X203.571 Y153.535 E70.72867
G1 X203.524 Y154.038 E70.75387
G1 X203.398 Y154.528 E70.77911
G1 X203.197 Y154.992 E70.80434
G1 X202.925 Y155.418 E70.82956
G1 X202.59 Y155.797 E70.85479
G1 X202.199 Y156.117 E70.88
G1 X201.763 Y156.372 E70.9052
G1 X201.292 Y156.556 E70.93043
G1 X200.797 Y156.662 E70.95568
G1 X200.141 Y156.699 E70.98846
G1 X134.537 Y156.7 E74.26146
G1 X131.74 Y156.74 E74.40102
G1 X129.023 Y156.855 E74.53669
G1 X126.277 Y157.05 E74.67403
G1 X123.571 Y157.318 E74.8097
G1 X120.848 Y157.666 E74.94665
G1 X118.147 Y158.091 E75.08306
G1 X115.439 Y158.594 E75.22048
G1 X112.782 Y159.166 E75.35607
G1 X110.154 Y159.809 E75.49105
G1 X107.402 Y160.569 E75.63349
G1 X107.196 Y160.619 E75.64406
G1 X106.6 Y160.692 E75.67402
G1 X106.19 Y160.702 E75.69448
G1 X104.7 Y160.702 E75.76882
G1 X103.986 Y160.691 E75.80444
G1 X103.764 Y160.679 E75.81554
G1 X100.971 Y160.442 E75.95538
G1 X98.219 Y160.287 E76.0929
G1 X94.114 Y160.2 E76.29774
G1 X93.827 Y160.2 E76.31206
G1 X93.116 Y160.189 E76.34754
G1 X92.67 Y160.15 E76.36987
G1 X91.515 Y159.969 E76.4282
G1 X88.737 Y159.572 E76.5682
G1 X86.044 Y159.266 E76.70342
G1 X83.331 Y159.033 E76.83927
G1 X80.583 Y158.877 E76.97659
G1 X77.832 Y158.798 E77.11389
G1 X75.114 Y158.798 E77.24949
G1 X72.362 Y158.875 E77.38685
G1 X69.644 Y159.028 E77.52266
G1 X66.91 Y159.259 E77.65955
G1 X64.16 Y159.571 E77.79763
G1 X61.459 Y159.954 E77.93373
G1 X60.731 Y160.073 E77.97053
G1 X60.146 Y160.136 E77.99988
G1 X59.737 Y160.146 E78.0203
G1 X57.968 Y160.146 E78.10855
G1 X55.899 Y160.184 E78.21179
G1 X54.435 Y160.2 E78.28484
G1 X46.431 Y160.2 E78.68416
G1 X45.73 Y160.19 E78.71913
G1 X45.194 Y160.137 E78.746
G1 X44.745 Y160.053 E78.76879
G1 X42.808 Y159.664 E78.86736
G1 X40.828 Y159.324 E78.96759
G1 X40.297 Y159.223 E78.99456
G1 X39.26 Y159 E79.04747
G1 X38.785 Y158.89 E79.0718
G1 X36.072 Y158.342 E79.20989
G1 X33.419 Y157.885 E79.34419
G1 X30.677 Y157.492 E79.48239
G1 X27.961 Y157.18 E79.61878
G1 X25.255 Y156.946 E79.75429
G1 X22.508 Y156.788 E79.89157
G1 X19.623 Y156.705 E80.03556
G1 X18.58 Y156.689 E80.0876
G1 X18.076 Y156.641 E80.11286
G1 X17.587 Y156.515 E80.13805
G1 X17.123 Y156.313 E80.1633
G1 X16.697 Y156.041 E80.18851
G1 X16.319 Y155.705 E80.21375
G1 X15.999 Y155.314 E80.23895
G1 X15.745 Y154.877 E80.26417
G1 X15.562 Y154.406 E80.28938
G1 X15.44 Y153.764 E80.32198
G1 X15.353 Y152.753 E80.37261
G1 X15.302 Y152.04 E80.40827
G1 X15.033 Y149.334 E80.54394
G1 X14.685 Y146.612 E80.68085
G1 X14.262 Y143.919 E80.81685
G1 X13.759 Y141.219 E80.95387
G1 X13.707 Y140.979 E80.96612
G1 X13.435 Y139.627 E81.03492
G1 X13.373 Y139.086 E81.06209
G1 X13.363 Y138.676 E81.08255
G1 X13.363 Y135.551 E81.23846
G1 X13.374 Y134.845 E81.27369
G1 X13.428 Y134.311 E81.30046
G1 X13.615 Y133.306 E81.35146
G1 X13.789 Y132.438 E81.39563
G1 X14.253 Y129.728 E81.5328
G1 X14.635 Y127.041 E81.6682
G1 X14.946 Y124.3 E81.80583
G1 X15.178 Y121.562 E81.94292
G1 X15.332 Y118.838 E82.07904
G1 X15.419 Y114.75 E82.28303
G1 X15.419 Y63.626 E84.83362
G1 X15.429 Y62.961 E84.8668
G1 X15.477 Y62.458 E84.89201
G1 X15.603 Y61.968 E84.91725
G1 X15.805 Y61.504 E84.9425
G1 X16.077 Y61.078 E84.96771
G1 X16.413 Y60.701 E84.99291
G1 X16.804 Y60.38 E85.01815
G1 X17.241 Y60.126 E85.04336
G1 X17.712 Y59.943 E85.06857
G1 F1800 E78.06857
G1 F300 Z0.5
G0 F3000 X17.619 Y135.094 Z0.5
;TYPE:SUPPORT
G1 F300 Z0.3
G1 F1800 E85.06857
G1 X17.619 Y138.806 E85.25377
G1 X16.763 Y138.806 E85.29647
G1 X16.763 Y135.094 E85.48166
G1 X17.619 Y135.094 E85.52437
G0 F3000 X17.458 Y136.017
G1 F1800 X16.922 Y136.017 E85.55111
G1 F1800 E78.55111
