;FLAVOR:Marlin
;TIME:2678
;Filament used: 3.86506m
;Layer height: 0.3
;MINX:89.052
;MINY:52.2
;MINZ:0.3
;MAXX:134.948
;MAXY:171.8
;MAXZ:4.2
;Generated with Cura_SteamEngine 4.2.1
M140 S60
M105
M190 S60
M104 S200
M105
M109 S200
M82 ;absolute extrusion mode
G21 ;metric values
G90 ;absolute positioning
M82 ;set extruder to absolute mode
M107 ;start with the fan off
G28 X0 Y0 ;move X/Y to min endstops
G28 Z0 ;move Z to min endstops
G1 Z15.0 F100 ;move the platform down 15mm
G92 E0 ;zero the extruded length
G1 F200 E3 ;extrude 3mm of feed stock
G92 E0 ;zero the extruded length again
G1 F100
M117 Printing...
G5
M141 S28
G92 E0
G92 E0
G1 F2400 E-6
;LAYER_COUNT:14
;LAYER:0
M106 S255
M204 S3000
M205 X10 Y10
;MESH:container-bottom.V2.stl
G0 F3000 X95.995 Y61.009 Z0.3
M204 S1800
M205 X8 Y8
;TYPE:WALL-INNER
G1 F2400 E0
G1 F1800 X98.223 Y58.78 E0.22013
G1 X99.353 Y57.65 E0.33174
G1 X95.995 Y54.291 E0.66349
G1 X92.637 Y57.65 E0.99523
G1 X92.835 Y57.848 E1.01479
G1 X95.995 Y61.009 E1.32698
M204 S3000
M205 X10 Y10
G0 F3000 X95.995 Y61.291
M204 S1800
M205 X8 Y8
G1 F1800 X93.767 Y63.52 E1.5471
G1 X92.637 Y64.65 E1.65872
G1 X95.995 Y68.009 E1.99047
G1 X99.353 Y64.65 E2.32221
G1 X95.995 Y61.291 E2.65396
M204 S3000
M205 X10 Y10
G0 F3000 X99.495 Y64.509
M204 S1800
M205 X8 Y8
G1 F1800 X102.853 Y61.15 E2.9857
G1 X99.495 Y57.791 E3.31744
G1 X98.365 Y58.921 E3.35735
G1 X96.136 Y61.15 E3.43581
G1 X99.495 Y64.509 E3.55404
M204 S3000
M205 X10 Y10
G0 F3000 X102.994 Y68.009
M204 S1800
M205 X8 Y8
G1 F1800 X106.353 Y64.65 E3.88583
G1 X102.994 Y61.291 E4.21762
G1 X99.636 Y64.65 E4.33547
G1 X102.994 Y68.009 E4.66721
M204 S3000
M205 X10 Y10
G0 F3000 X102.994 Y68.291
M204 S1800
M205 X8 Y8
G1 F1800 X100.766 Y70.52 E4.88734
G1 X99.636 Y71.65 E4.99896
G1 X102.994 Y75.009 E5.3307
G1 X104.124 Y73.879 E5.44232
G1 X106.353 Y71.65 E5.66249
G1 X102.994 Y68.291 E5.99429
M204 S3000
M205 X10 Y10
G0 F3000 X99.495 Y71.509
M204 S1800
M205 X8 Y8
G1 F1800 X100.624 Y70.379 E6.03401
G1 X102.853 Y68.15 E6.11247
G1 X99.495 Y64.791 E6.23032
G1 X96.136 Y68.15 E6.34854
G1 X99.495 Y71.509 E6.68033
M204 S3000
M205 X10 Y10
G0 F3000 X95.995 Y68.291
M204 S1800
M205 X8 Y8
G1 F1800 X93.767 Y70.52 E6.90046
G1 X92.637 Y71.65 E7.01208
G1 X95.995 Y75.009 E7.34382
G1 X99.353 Y71.65 E7.67557
G1 X95.995 Y68.291 E7.79373
M204 S3000
M205 X10 Y10
G0 F3000 X93.389 Y71.65
G0 X95.995 Y75.291
M204 S1800
M205 X8 Y8
G1 F1800 X93.767 Y77.52 E8.01385
G1 X92.637 Y78.65 E8.12547
G1 X94.865 Y80.879 E8.3456
G1 X95.995 Y82.009 E8.45722
G1 X99.353 Y78.65 E8.78896
G1 X95.995 Y75.291 E9.12071
M204 S3000
M205 X10 Y10
G0 F3000 X99.495 Y78.509
M204 S1800
M205 X8 Y8
G1 F1800 X100.624 Y77.379 E9.23228
G1 X102.853 Y75.15 E9.45245
G1 X99.495 Y71.791 E9.57029
G1 X96.136 Y75.15 E9.68852
G1 X99.495 Y78.509 E9.80674
M204 S3000
M205 X10 Y10
G0 F3000 X102.994 Y75.291
M204 S1800
M205 X8 Y8
G1 F1800 X100.766 Y77.52 E9.88514
G1 X99.636 Y78.65 E9.92493
G1 X102.994 Y82.009 E10.25667
G1 X104.124 Y80.879 E10.36829
G1 X106.353 Y78.65 E10.58846
G1 X102.994 Y75.291 E10.92026
M204 S3000
M205 X10 Y10
G0 F3000 X106.494 Y78.791
M204 S1800
M205 X8 Y8
G1 F1800 X104.266 Y81.02 E10.99866
G1 X103.136 Y82.15 E11.03856
G1 X106.494 Y85.509 E11.37031
G1 X109.853 Y82.15 E11.7021
G1 X106.494 Y78.791 E12.0339
M204 S3000
M205 X10 Y10
G0 F3000 X109.994 Y82.009
M204 S1800
M205 X8 Y8
G1 F1800 X113.352 Y78.65 E12.36564
G1 X109.994 Y75.291 E12.69738
G1 X106.635 Y78.65 E13.02918
G1 X109.994 Y82.009 E13.14708
M204 S3000
M205 X10 Y10
G0 F3000 X113.494 Y85.509
M204 S1800
M205 X8 Y8
G1 F1800 X114.623 Y84.379 E13.25865
G1 X116.852 Y82.15 E13.47883
G1 X113.494 Y78.791 E13.81057
G1 X110.135 Y82.15 E13.9288
G1 X113.494 Y85.509 E14.26059
M204 S3000
M205 X10 Y10
G0 F3000 X116.993 Y82.291
M204 S1800
M205 X8 Y8
G1 F1800 X114.765 Y84.52 E14.33899
G1 X113.635 Y85.65 E14.37878
G1 X116.993 Y89.009 E14.71052
G1 X118.123 Y87.879 E14.82214
G1 X120.352 Y85.65 E15.04231
G1 X116.993 Y82.291 E15.37411
M204 S3000
M205 X10 Y10
G0 F3000 X120.493 Y85.791
M204 S1800
M205 X8 Y8
G1 F1800 X118.265 Y88.02 E15.4525
G1 X117.135 Y89.15 E15.49241
G1 X120.493 Y92.509 E15.82416
G1 X123.852 Y89.15 E16.15595
G1 X120.493 Y85.791 E16.48775
M204 S3000
M205 X10 Y10
G0 F3000 X123.993 Y89.009
M204 S1800
M205 X8 Y8
G1 F1800 X126.221 Y86.78 E16.70787
G1 X127.351 Y85.65 E16.81949
G1 X123.993 Y82.291 E17.15123
G1 X120.634 Y85.65 E17.48303
G1 X123.993 Y89.009 E17.60093
M204 S3000
M205 X10 Y10
G0 F3000 X127.493 Y92.509
M204 S1800
M205 X8 Y8
G1 F1800 X130.851 Y89.15 E17.93268
G1 X129.867 Y88.165 E18.02992
G1 X127.493 Y85.791 E18.26442
G1 X126.363 Y86.921 E18.30433
G1 X124.134 Y89.15 E18.38279
G1 X127.493 Y92.509 E18.71458
M204 S3000
M205 X10 Y10
G0 F3000 X123.993 Y96.009
M204 S1800
M205 X8 Y8
G1 F1800 X127.351 Y92.65 E19.04633
G1 X123.993 Y89.291 E19.16449
G1 X120.634 Y92.65 E19.2824
G1 X123.993 Y96.009 E19.61419
M204 S3000
M205 X10 Y10
G0 F3000 X120.493 Y92.791
M204 S1800
M205 X8 Y8
G1 F1800 X118.265 Y95.02 E19.83432
G1 X117.135 Y96.15 E19.94593
G1 X120.493 Y99.509 E20.27768
G1 X123.852 Y96.15 E20.60947
G1 X120.493 Y92.791 E20.72738
M204 S3000
M205 X10 Y10
G0 F3000 X116.993 Y96.291
M204 S1800
M205 X8 Y8
G1 F1800 X114.765 Y98.52 E20.9475
G1 X113.635 Y99.65 E21.05912
G1 X116.993 Y103.009 E21.39087
G1 X120.352 Y99.65 E21.72266
G1 X116.993 Y96.291 E21.84088
M204 S3000
M205 X10 Y10
G0 F3000 X113.494 Y99.509
M204 S1800
M205 X8 Y8
G1 F1800 X114.623 Y98.379 E21.88061
G1 X116.852 Y96.15 E21.95907
G1 X113.494 Y92.791 E22.29081
G1 X110.135 Y96.15 E22.62261
G1 X113.494 Y99.509 E22.9544
M204 S3000
M205 X10 Y10
G0 F3000 X109.994 Y103.009
M204 S1800
M205 X8 Y8
G1 F1800 X113.352 Y99.65 E23.28615
G1 X109.994 Y96.291 E23.40431
G1 X106.635 Y99.65 E23.7361
G1 X109.994 Y103.009 E24.06789
M204 S3000
M205 X10 Y10
G0 F3000 X106.494 Y99.791
M204 S1800
M205 X8 Y8
G1 F1800 X104.266 Y102.02 E24.28802
G1 X103.136 Y103.15 E24.39964
G1 X106.494 Y106.509 E24.73138
G1 X109.853 Y103.15 E25.06318
G1 X106.494 Y99.791 E25.18108
M204 S3000
M205 X10 Y10
G0 F3000 X102.994 Y103.291
M204 S1800
M205 X8 Y8
G1 F1800 X100.766 Y105.52 E25.40121
G1 X99.636 Y106.65 E25.51283
G1 X102.994 Y110.009 E25.84457
G1 X104.124 Y108.879 E25.95619
G1 X106.353 Y106.65 E26.17637
G1 X102.994 Y103.291 E26.29459
M204 S3000
M205 X10 Y10
G0 F3000 X99.495 Y106.509
M204 S1800
M205 X8 Y8
G1 F1800 X100.624 Y105.379 E26.33431
G1 X102.853 Y103.15 E26.41277
G1 X99.495 Y99.791 E26.74452
G1 X96.136 Y103.15 E27.07631
G1 X99.495 Y106.509 E27.40811
M204 S3000
M205 X10 Y10
G0 F3000 X95.995 Y103.291
M204 S1800
M205 X8 Y8
G1 F1800 X93.767 Y105.52 E27.62823
G1 X92.637 Y106.65 E27.73985
G1 X95.995 Y110.009 E28.07159
G1 X99.353 Y106.65 E28.40334
G1 X95.995 Y103.291 E28.5215
M204 S3000
M205 X10 Y10
G0 F3000 X99.495 Y99.509
M204 S1800
M205 X8 Y8
G1 F1800 X100.624 Y98.379 E28.63307
G1 X102.853 Y96.15 E28.85325
G1 X99.495 Y92.791 E29.18499
G1 X96.136 Y96.15 E29.51678
G1 X99.495 Y99.509 E29.84858
M204 S3000
M205 X10 Y10
G0 F3000 X102.994 Y96.291
M204 S1800
M205 X8 Y8
G1 F1800 X100.766 Y98.52 E29.92697
G1 X99.636 Y99.65 E29.96676
G1 X102.994 Y103.009 E30.0846
G1 X104.124 Y101.879 E30.12451
G1 X106.353 Y99.65 E30.20297
G1 X102.994 Y96.291 E30.53477
M204 S3000
M205 X10 Y10
G0 F3000 X106.494 Y92.791
M204 S1800
M205 X8 Y8
G1 F1800 X104.266 Y95.02 E30.75489
G1 X103.136 Y96.15 E30.86651
G1 X106.494 Y99.509 E30.98467
G1 X109.853 Y96.15 E31.10258
G1 X106.494 Y92.791 E31.43437
M204 S3000
M205 X10 Y10
G0 F3000 X109.994 Y96.009
M204 S1800
M205 X8 Y8
G1 F1800 X113.352 Y92.65 E31.55253
G1 X109.994 Y89.291 E31.88428
G1 X106.635 Y92.65 E32.21607
G1 X109.994 Y96.009 E32.33398
M204 S3000
M205 X10 Y10
G0 F3000 X113.494 Y92.509
M204 S1800
M205 X8 Y8
G1 F1800 X114.623 Y91.379 E32.44555
G1 X116.852 Y89.15 E32.66572
G1 X113.494 Y85.791 E32.78356
G1 X110.135 Y89.15 E33.11536
G1 X113.494 Y92.509 E33.23358
M204 S3000
M205 X10 Y10
G0 F3000 X116.993 Y89.291
M204 S1800
M205 X8 Y8
G1 F1800 X114.765 Y91.52 E33.31198
G1 X113.635 Y92.65 E33.35177
G1 X116.993 Y96.009 E33.46961
G1 X118.123 Y94.879 E33.50952
G1 X120.352 Y92.65 E33.58798
G1 X116.993 Y89.291 E33.7062
M204 S3000
M205 X10 Y10
G0 F3000 X113.494 Y91.757
G0 X109.994 Y89.009
M204 S1800
M205 X8 Y8
G1 F1800 X113.352 Y85.65 E33.82436
G1 X109.994 Y82.291 E33.94253
G1 X106.635 Y85.65 E34.06043
G1 X109.994 Y89.009 E34.39222
M204 S3000
M205 X10 Y10
G0 F3000 X106.494 Y85.791
M204 S1800
M205 X8 Y8
G1 F1800 X104.266 Y88.02 E34.61235
G1 X103.136 Y89.15 E34.72397
G1 X106.494 Y92.509 E35.05571
G1 X109.853 Y89.15 E35.17362
G1 X106.494 Y85.791 E35.29152
M204 S3000
M205 X10 Y10
G0 F3000 X102.994 Y89.291
M204 S1800
M205 X8 Y8
G1 F1800 X100.766 Y91.52 E35.51165
G1 X99.636 Y92.65 E35.62327
G1 X102.994 Y96.009 E35.74111
G1 X104.124 Y94.879 E35.78102
G1 X106.353 Y92.65 E35.85948
G1 X102.994 Y89.291 E35.9777
M204 S3000
M205 X10 Y10
G0 F3000 X99.495 Y92.509
M204 S1800
M205 X8 Y8
G1 F1800 X100.624 Y91.379 E36.01743
G1 X102.853 Y89.15 E36.09589
G1 X99.495 Y85.791 E36.42763
G1 X96.136 Y89.15 E36.75943
G1 X99.495 Y92.509 E37.09122
M204 S3000
M205 X10 Y10
G0 F3000 X95.995 Y89.291
M204 S1800
M205 X8 Y8
G1 F1800 X93.767 Y91.52 E37.31135
G1 X92.637 Y92.65 E37.42296
G1 X95.995 Y96.009 E37.75471
G1 X99.353 Y92.65 E37.87287
G1 X95.995 Y89.291 E37.99103
M204 S3000
M205 X10 Y10
G0 F3000 X99.495 Y85.509
M204 S1800
M205 X8 Y8
G1 F1800 X100.624 Y84.379 E38.1026
G1 X102.853 Y82.15 E38.32278
G1 X99.495 Y78.791 E38.44062
G1 X96.136 Y82.15 E38.55884
G1 X99.495 Y85.509 E38.89064
M204 S3000
M205 X10 Y10
G0 F3000 X102.994 Y82.291
M204 S1800
M205 X8 Y8
G1 F1800 X100.766 Y84.52 E38.96903
G1 X99.636 Y85.65 E39.00882
G1 X102.994 Y89.009 E39.12666
G1 X104.124 Y87.879 E39.16657
G1 X106.353 Y85.65 E39.24503
G1 X102.994 Y82.291 E39.36326
M204 S3000
M205 X10 Y10
G0 F3000 X99.495 Y84.757
G0 X95.995 Y82.291
M204 S1800
M205 X8 Y8
G1 F1800 X93.767 Y84.52 E39.58338
G1 X92.637 Y85.65 E39.695
G1 X94.865 Y87.879 E39.91513
G1 X95.995 Y89.009 E40.02675
G1 X99.353 Y85.65 E40.14491
G1 X95.995 Y82.291 E40.26307
M204 S3000
M205 X10 Y10
G0 F3000 X93.389 Y85.65
G0 X95.995 Y90.043
G0 X93.389 Y92.65
G0 X95.995 Y96.291
M204 S1800
M205 X8 Y8
G1 F1800 X93.767 Y98.52 E40.48319
G1 X92.637 Y99.65 E40.59481
G1 X95.995 Y103.009 E40.92656
G1 X99.353 Y99.65 E41.04472
G1 X95.995 Y96.291 E41.16288
M204 S3000
M205 X10 Y10
G0 F3000 X93.389 Y99.65
G0 X95.995 Y104.043
G0 X93.389 Y106.65
G0 X95.995 Y110.291
M204 S1800
M205 X8 Y8
G1 F1800 X93.767 Y112.52 E41.38301
G1 X92.637 Y113.65 E41.49463
G1 X95.995 Y117.009 E41.82637
G1 X99.353 Y113.65 E42.15811
G1 X95.995 Y110.291 E42.48986
M204 S3000
M205 X10 Y10
G0 F3000 X99.495 Y113.509
M204 S1800
M205 X8 Y8
G1 F1800 X100.624 Y112.379 E42.60143
G1 X102.853 Y110.15 E42.8216
G1 X99.495 Y106.791 E42.93945
G1 X96.136 Y110.15 E43.05767
G1 X99.495 Y113.509 E43.17589
M204 S3000
M205 X10 Y10
G0 F3000 X102.994 Y110.291
M204 S1800
M205 X8 Y8
G1 F1800 X100.766 Y112.52 E43.25429
G1 X99.636 Y113.65 E43.29408
G1 X102.994 Y117.009 E43.62582
G1 X104.124 Y115.879 E43.73744
G1 X106.353 Y113.65 E43.95762
G1 X102.994 Y110.291 E44.28941
M204 S3000
M205 X10 Y10
G0 F3000 X106.494 Y113.791
M204 S1800
M205 X8 Y8
G1 F1800 X104.266 Y116.02 E44.36781
G1 X103.136 Y117.15 E44.40772
G1 X106.494 Y120.509 E44.73946
G1 X109.853 Y117.15 E45.07125
G1 X106.494 Y113.791 E45.40305
M204 S3000
M205 X10 Y10
G0 F3000 X109.994 Y117.009
M204 S1800
M205 X8 Y8
G1 F1800 X113.352 Y113.65 E45.73479
G1 X109.994 Y110.291 E46.06654
G1 X106.635 Y113.65 E46.39833
G1 X109.994 Y117.009 E46.51624
M204 S3000
M205 X10 Y10
G0 F3000 X113.494 Y120.509
M204 S1800
M205 X8 Y8
G1 F1800 X114.623 Y119.379 E46.62781
G1 X116.852 Y117.15 E46.84798
G1 X113.494 Y113.791 E47.17973
G1 X110.135 Y117.15 E47.29795
G1 X113.494 Y120.509 E47.62974
M204 S3000
M205 X10 Y10
G0 F3000 X116.993 Y117.291
M204 S1800
M205 X8 Y8
G1 F1800 X114.765 Y119.52 E47.70814
G1 X113.635 Y120.65 E47.74793
G1 X115.863 Y122.879 E47.96805
G1 X116.993 Y124.009 E48.07967
G1 X118.123 Y122.879 E48.19129
G1 X120.352 Y120.65 E48.41147
G1 X119.222 Y119.52 E48.52308
G1 X116.993 Y117.291 E48.74326
M204 S3000
M205 X10 Y10
G0 F3000 X120.493 Y120.791
M204 S1800
M205 X8 Y8
G1 F1800 X118.265 Y123.02 E48.82166
G1 X117.135 Y124.15 E48.86157
G1 X119.363 Y126.379 E49.08169
G1 X120.493 Y127.509 E49.19331
G1 X123.852 Y124.15 E49.5251
G1 X120.493 Y120.791 E49.8569
M204 S3000
M205 X10 Y10
G0 F3000 X123.993 Y124.009
M204 S1800
M205 X8 Y8
G1 F1800 X127.351 Y120.65 E50.18864
G1 X123.993 Y117.291 E50.52039
G1 X120.634 Y120.65 E50.85218
G1 X123.993 Y124.009 E50.97009
M204 S3000
M205 X10 Y10
G0 F3000 X127.493 Y127.509
M204 S1800
M205 X8 Y8
G1 F1800 X130.851 Y124.15 E51.30183
G1 X127.493 Y120.791 E51.63357
G1 X124.134 Y124.15 E51.7518
G1 X127.493 Y127.509 E52.08359
M204 S3000
M205 X10 Y10
G0 F3000 X123.993 Y131.009
M204 S1800
M205 X8 Y8
G1 F1800 X127.351 Y127.65 E52.41534
G1 X123.993 Y124.291 E52.5335
G1 X120.634 Y127.65 E52.6514
G1 X123.993 Y131.009 E52.9832
M204 S3000
M205 X10 Y10
G0 F3000 X120.493 Y127.791
M204 S1800
M205 X8 Y8
G1 F1800 X118.265 Y130.02 E53.20332
G1 X117.135 Y131.15 E53.31494
G1 X120.493 Y134.509 E53.64669
G1 X123.852 Y131.15 E53.97848
G1 X120.493 Y127.791 E54.09639
M204 S3000
M205 X10 Y10
G0 F3000 X116.993 Y131.291
M204 S1800
M205 X8 Y8
G1 F1800 X114.765 Y133.52 E54.31651
G1 X113.635 Y134.65 E54.42813
G1 X115.863 Y136.879 E54.64826
G1 X116.993 Y138.009 E54.75987
G1 X118.123 Y136.879 E54.87149
G1 X120.352 Y134.65 E55.09167
G1 X116.993 Y131.291 E55.20989
M204 S3000
M205 X10 Y10
G0 F3000 X113.494 Y134.509
M204 S1800
M205 X8 Y8
G1 F1800 X114.623 Y133.379 E55.24962
G1 X116.852 Y131.15 E55.32808
G1 X115.723 Y130.02 E55.43965
G1 X113.494 Y127.791 E55.65982
G1 X110.135 Y131.15 E55.99162
G1 X113.494 Y134.509 E56.32341
M204 S3000
M205 X10 Y10
G0 F3000 X109.994 Y138.009
M204 S1800
M205 X8 Y8
G1 F1800 X113.352 Y134.65 E56.65515
G1 X109.994 Y131.291 E56.77332
G1 X106.635 Y134.65 E57.10511
G1 X109.994 Y138.009 E57.4369
M204 S3000
M205 X10 Y10
G0 F3000 X106.494 Y134.791
M204 S1800
M205 X8 Y8
G1 F1800 X104.266 Y137.02 E57.65703
G1 X103.136 Y138.15 E57.76865
G1 X106.494 Y141.509 E58.10039
G1 X109.853 Y138.15 E58.43219
G1 X106.494 Y134.791 E58.55009
M204 S3000
M205 X10 Y10
G0 F3000 X102.994 Y138.291
M204 S1800
M205 X8 Y8
G1 F1800 X100.766 Y140.52 E58.77022
G1 X99.636 Y141.65 E58.88184
G1 X102.994 Y145.009 E59.21358
G1 X104.124 Y143.879 E59.3252
G1 X106.353 Y141.65 E59.54537
G1 X102.994 Y138.291 E59.6636
M204 S3000
M205 X10 Y10
G0 F3000 X99.495 Y141.509
M204 S1800
M205 X8 Y8
G1 F1800 X100.624 Y140.379 E59.70332
G1 X102.853 Y138.15 E59.78178
G1 X101.724 Y137.02 E59.89335
G1 X99.495 Y134.791 E60.11353
G1 X96.136 Y138.15 E60.44532
G1 X99.495 Y141.509 E60.77711
M204 S3000
M205 X10 Y10
G0 F3000 X95.995 Y138.291
M204 S1800
M205 X8 Y8
G1 F1800 X93.767 Y140.52 E60.99724
G1 X92.637 Y141.65 E61.10886
G1 X95.995 Y145.009 E61.4406
G1 X99.353 Y141.65 E61.77235
G1 X95.995 Y138.291 E61.89051
M204 S3000
M205 X10 Y10
G0 F3000 X99.495 Y134.509
M204 S1800
M205 X8 Y8
G1 F1800 X100.624 Y133.379 E62.00208
G1 X102.853 Y131.15 E62.22225
G1 X101.724 Y130.02 E62.33382
G1 X99.495 Y127.791 E62.554
G1 X96.136 Y131.15 E62.88579
G1 X99.495 Y134.509 E63.21759
M204 S3000
M205 X10 Y10
G0 F3000 X102.994 Y131.291
M204 S1800
M205 X8 Y8
G1 F1800 X100.766 Y133.52 E63.29598
G1 X99.636 Y134.65 E63.33577
G1 X101.864 Y136.879 E63.41377
G1 X102.994 Y138.009 E63.45336
G1 X104.124 Y136.879 E63.49327
G1 X106.353 Y134.65 E63.57173
G1 X105.223 Y133.52 E63.68335
G1 X102.994 Y131.291 E63.90352
