;FLAVOR:Marlin
;TIME:4185
;Filament used: 3.20253m
;Layer height: 0.2
;MINX:37.2
;MINY:87.2
;MINZ:0.2
;MAXX:186.8
;MAXY:136.8
;MAXZ:8.075
;Generated with Cura_SteamEngine 4.2.1
M140 S60
M105
M190 S60
M104 S200
M105
M109 S200
M82 ;absolute extrusion mode
G21 ;metric values
G90 ;absolute positioning
M82 ;set extruder to absolute mode
M107 ;start with the fan off
G28 X0 Y0 ;move X/Y to min endstops
G28 Z0 ;move Z to min endstops
G1 Z15.0 F100 ;move the platform down 15mm
G92 E0 ;zero the extruded length
G1 F200 E3 ;extrude 3mm of feed stock
G92 E0 ;zero the extruded length again
G1 F100
M117 Printing...
G5
M141 S28
G92 E0
G92 E0
G1 F2400 E-6
;LAYER_COUNT:40
;LAYER:0
M106 S255
M204 S3000
M205 X10 Y10
;MESH:controlbox-front??panel.stl
G0 F3000 X74.702 Y116.806 Z0.2
M204 S1800
M205 X8 Y8
;TYPE:WALL-INNER
G1 F2400 E0
G1 F1500 X75.097 Y117.922 E0.05512
G1 X75.744 Y118.911 E0.11016
G1 X76.609 Y119.713 E0.16508
G1 X77.641 Y120.29 E0.22014
G1 X78.78 Y120.598 E0.27508
G1 X79.962 Y120.629 E0.33014
G1 X81.116 Y120.374 E0.38517
G1 X82.175 Y119.85 E0.44019
G1 X83.079 Y119.088 E0.49524
G1 X83.773 Y118.132 E0.55025
G1 X84.217 Y117.038 E0.60522
G1 X84.389 Y115.87 E0.6602
G1 X84.276 Y114.694 E0.71521
G1 X83.885 Y113.578 E0.77027
G1 X83.236 Y112.589 E0.82535
G1 X82.371 Y111.787 E0.88028
G1 X81.339 Y111.21 E0.93534
G1 X80.2 Y110.902 E0.99028
G1 X79.018 Y110.871 E1.04534
G1 X77.864 Y111.126 E1.10037
G1 X76.805 Y111.65 E1.15538
G1 X75.901 Y112.412 E1.21044
G1 X75.208 Y113.368 E1.26542
G1 X74.762 Y114.462 E1.32043
G1 X74.591 Y115.63 E1.3754
G1 X74.702 Y116.806 E1.4304
M204 S3000
M205 X10 Y10
G0 F3000 X76.145 Y118.572
G0 X76.918 Y119.289
G0 X98.09 Y129.4
M204 S1800
M205 X8 Y8
G1 F1500 X172.39 Y129.4 E4.89012
G1 X172.39 Y102.1 E6.16132
G1 X98.09 Y102.1 E9.62104
G1 X98.09 Y129.4 E10.89224
M204 S3000
M205 X10 Y10
G0 F3000 X38.4 Y135.6
M204 S1800
M205 X8 Y8
G1 F1500 X38.4 Y88.4 E13.09007
G1 X185.6 Y88.4 E19.94432
G1 X185.6 Y135.6 E22.14215
G1 X38.4 Y135.6 E28.9964
M204 S3000
M205 X10 Y10
G0 F3000 X37.84 Y136.16
M204 S1800
M205 X8 Y8
G1 F1500 X37.84 Y87.84 E31.24638
G1 X186.16 Y87.84 E38.15278
G1 X186.16 Y136.16 E40.40276
G1 X37.84 Y136.16 E47.30916
M204 S3000
M205 X10 Y10
G0 F3000 X37.91 Y136.09
G0 X75.156 Y116.706
G0 X75.253 Y116.685
M204 S1800
M205 X8 Y8
G1 F1500 X75.602 Y117.672 E47.35791
G1 X76.175 Y118.547 E47.40661
G1 X76.941 Y119.257 E47.45525
G1 X77.854 Y119.767 E47.50394
G1 X78.862 Y120.04 E47.55257
G1 X79.908 Y120.067 E47.60129
G1 X80.929 Y119.842 E47.64998
G1 X81.866 Y119.378 E47.69866
G1 X82.666 Y118.704 E47.74737
G1 X83.28 Y117.858 E47.79605
G1 X83.673 Y116.89 E47.8447
G1 X83.825 Y115.856 E47.89336
G1 X83.725 Y114.815 E47.94206
G1 X83.379 Y113.828 E47.99076
G1 X82.805 Y112.953 E48.03949
G1 X82.039 Y112.243 E48.08812
G1 X81.126 Y111.733 E48.13682
G1 X80.118 Y111.46 E48.18544
G1 X79.072 Y111.433 E48.23417
G1 X78.051 Y111.658 E48.28285
G1 X77.114 Y112.122 E48.33154
G1 X76.314 Y112.796 E48.38025
G1 X75.701 Y113.642 E48.42889
G1 X75.306 Y114.61 E48.47758
G1 X75.155 Y115.644 E48.52623
G1 X75.253 Y116.685 E48.57492
M204 S3000
M205 X10 Y10
G0 F3000 X75.156 Y116.706
G0 X75.567 Y117.689
G0 X76.145 Y118.572
G0 X76.918 Y119.289
G0 X77.663 Y119.705
G0 X98.58 Y128.91
G0 X98.65 Y128.84
M204 S1800
M205 X8 Y8
G1 F1500 X171.83 Y128.84 E51.98249
G1 X171.83 Y102.66 E53.20154
G1 X98.65 Y102.66 E56.60911
G1 X98.65 Y128.84 E57.82816
M204 S3000
M205 X10 Y10
G0 F3000 X99.21 Y128.28
M204 S1800
M205 X8 Y8
;TYPE:WALL-OUTER
G1 F1500 X171.27 Y128.28 E61.18357
G1 X171.27 Y103.22 E62.35047
G1 X99.21 Y103.22 E65.70589
G1 X99.21 Y128.28 E66.87279
M204 S3000
M205 X10 Y10
G0 F3000 X99.41 Y128.28
G0 X99.41 Y128.94
G0 X77.839 Y119.804
G0 X76.918 Y119.289
G0 X76.145 Y118.572
G0 X75.677 Y117.858
G0 X75.182 Y116.783
G0 X75.804 Y116.564
M204 S1800
M205 X8 Y8
G1 F1500 X76.107 Y117.422 E66.91516
G1 X76.606 Y118.183 E66.95753
G1 X77.272 Y118.801 E66.99984
G1 X78.067 Y119.244 E67.04221
G1 X78.944 Y119.482 E67.08453
G1 X79.854 Y119.505 E67.12691
G1 X80.742 Y119.31 E67.16925
G1 X81.557 Y118.906 E67.21161
G1 X82.253 Y118.32 E67.25397
G1 X82.787 Y117.584 E67.29631
G1 X83.129 Y116.742 E67.33863
G1 X83.261 Y115.842 E67.38099
G1 X83.174 Y114.936 E67.42337
G1 X82.873 Y114.078 E67.46571
G1 X82.374 Y113.317 E67.50808
G1 X81.708 Y112.699 E67.55039
G1 X80.913 Y112.256 E67.59277
G1 X80.036 Y112.018 E67.63508
G1 X79.126 Y111.995 E67.67747
G1 X78.238 Y112.19 E67.7198
G1 X77.423 Y112.594 E67.76216
G1 X76.727 Y113.18 E67.80452
G1 X76.194 Y113.916 E67.84684
G1 X75.85 Y114.758 E67.88919
G1 X75.719 Y115.658 E67.93154
G1 X75.804 Y116.564 E67.97391
M204 S3000
M205 X10 Y10
G0 F3000 X75.87 Y116.752
G0 X75.248 Y116.971
G0 X37.91 Y136.09
G0 X37.28 Y136.72
M204 S1800
M205 X8 Y8
G1 F1500 X37.28 Y87.28 E70.27605
G1 X186.72 Y87.28 E77.2346
G1 X186.72 Y136.72 E79.53673
G1 X37.28 Y136.72 E86.49528
M204 S3000
M205 X10 Y10
G0 F3000 X37.28 Y136.52
G0 X37.91 Y136.09
G0 X38.95 Y135.05
M204 S1800
M205 X8 Y8
;TYPE:SKIN
G1 F1500 X38.95 Y88.95 E88.64189
G1 X185.05 Y88.95 E95.44492
G1 X185.05 Y135.05 E97.59153
G1 X38.95 Y135.05 E104.39456
M204 S3000
M205 X10 Y10
G0 F3000 X74.6 Y118.168
M204 S1800
M205 X8 Y8
G1 F1500 X75.32 Y119.269 E104.45581
G1 X76.283 Y120.161 E104.51694
G1 X77.432 Y120.803 E104.57822
G1 X78.7 Y121.146 E104.63939
G1 X80.015 Y121.181 E104.70064
G1 X81.3 Y120.897 E104.76192
G1 X82.479 Y120.314 E104.82317
G1 X83.485 Y119.465 E104.88446
G1 X84.258 Y118.401 E104.9457
G1 X84.751 Y117.183 E105.00689
G1 X84.943 Y115.884 E105.06803
G1 X84.817 Y114.575 E105.12926
G1 X84.382 Y113.333 E105.19054
G1 X83.659 Y112.231 E105.25191
G1 X82.697 Y111.339 E105.313
G1 X81.548 Y110.697 E105.37429
G1 X80.28 Y110.354 E105.43545
G1 X78.965 Y110.319 E105.49671
G1 X77.68 Y110.603 E105.55799
G1 X76.501 Y111.186 E105.61923
G1 X75.495 Y112.035 E105.68053
G1 X74.723 Y113.099 E105.74174
G1 X74.228 Y114.316 E105.80292
G1 X74.037 Y115.616 E105.8641
G1 X74.16 Y116.926 E105.92537
G1 X74.6 Y118.168 E105.98672
M204 S3000
M205 X10 Y10
G0 F3000 X97.54 Y129.95
M204 S1800
M205 X8 Y8
G1 F1500 X172.94 Y129.95 E109.49766
G1 X172.94 Y101.55 E110.82008
G1 X97.54 Y101.55 E114.33102
G1 X97.54 Y129.95 E115.65345
M204 S3000
M205 X10 Y10
G0 F3000 X39.754 Y134.789
M204 S1800
M205 X8 Y8
G1 F1500 X39.209 Y134.244 E115.68934
M204 S3000
M205 X10 Y10
G0 F3000 X39.209 Y133.452
M204 S1800
M205 X8 Y8
G1 F1500 X40.546 Y134.789 E115.77738
M204 S3000
M205 X10 Y10
G0 F3000 X41.338 Y134.789
M204 S1800
M205 X8 Y8
G1 F1500 X39.209 Y132.661 E115.91754
M204 S3000
M205 X10 Y10
G0 F3000 X39.209 Y131.869
M204 S1800
M205 X8 Y8
G1 F1500 X42.13 Y134.789 E116.10986
M204 S3000
M205 X10 Y10
G0 F3000 X42.922 Y134.789
M204 S1800
M205 X8 Y8
G1 F1500 X39.209 Y131.077 E116.35434
M204 S3000
M205 X10 Y10
G0 F3000 X39.209 Y130.285
M204 S1800
M205 X8 Y8
G1 F1500 X43.714 Y134.789 E116.65097
M204 S3000
M205 X10 Y10
G0 F3000 X44.506 Y134.789
M204 S1800
M205 X8 Y8
G1 F1500 X39.209 Y129.493 E116.99975
M204 S3000
M205 X10 Y10
G0 F3000 X39.209 Y128.701
M204 S1800
M205 X8 Y8
G1 F1500 X45.297 Y134.789 E117.40066
M204 S3000
M205 X10 Y10
G0 F3000 X46.089 Y134.789
M204 S1800
M205 X8 Y8
G1 F1500 X39.209 Y127.909 E117.85372
M204 S3000
M205 X10 Y10
G0 F3000 X39.209 Y127.117
M204 S1800
M205 X8 Y8
G1 F1500 X46.881 Y134.789 E118.35893
M204 S3000
M205 X10 Y10
G0 F3000 X47.673 Y134.789
M204 S1800
M205 X8 Y8
G1 F1500 X39.209 Y126.325 E118.9163
M204 S3000
M205 X10 Y10
G0 F3000 X39.209 Y125.533
M204 S1800
M205 X8 Y8
G1 F1500 X48.465 Y134.789 E119.52582
M204 S3000
M205 X10 Y10
G0 F3000 X49.257 Y134.789
M204 S1800
M205 X8 Y8
G1 F1500 X39.209 Y124.741 E120.1875
M204 S3000
M205 X10 Y10
G0 F3000 X39.209 Y123.949
M204 S1800
M205 X8 Y8
G1 F1500 X50.049 Y134.789 E120.90133
M204 S3000
M205 X10 Y10
G0 F3000 X50.841 Y134.789
M204 S1800
M205 X8 Y8
G1 F1500 X39.209 Y123.157 E121.66732
M204 S3000
M205 X10 Y10
G0 F3000 X39.209 Y122.365
M204 S1800
M205 X8 Y8
G1 F1500 X51.633 Y134.789 E122.48546
M204 S3000
M205 X10 Y10
G0 F3000 X52.425 Y134.789
M204 S1800
M205 X8 Y8
G1 F1500 X39.209 Y121.573 E123.35576
M204 S3000
M205 X10 Y10
G0 F3000 X39.209 Y120.781
M204 S1800
M205 X8 Y8
G1 F1500 X53.217 Y134.789 E124.27821
M204 S3000
M205 X10 Y10
G0 F3000 X54.009 Y134.789
M204 S1800
M205 X8 Y8
G1 F1500 X39.209 Y119.989 E125.25281
M204 S3000
M205 X10 Y10
G0 F3000 X39.209 Y119.197
M204 S1800
M205 X8 Y8
G1 F1500 X54.801 Y134.789 E126.27957
M204 S3000
M205 X10 Y10
G0 F3000 X55.593 Y134.789
M204 S1800
M205 X8 Y8
G1 F1500 X39.209 Y118.405 E127.35849
M204 S3000
M205 X10 Y10
G0 F3000 X39.209 Y117.613
M204 S1800
M205 X8 Y8
G1 F1500 X56.385 Y134.789 E128.48956
M204 S3000
M205 X10 Y10
G0 F3000 X57.177 Y134.789
M204 S1800
M205 X8 Y8
G1 F1500 X39.209 Y116.821 E129.67278
M204 S3000
M205 X10 Y10
G0 F3000 X39.209 Y116.029
M204 S1800
M205 X8 Y8
G1 F1500 X57.969 Y134.789 E130.90816
M204 S3000
M205 X10 Y10
G0 F3000 X58.761 Y134.789
M204 S1800
M205 X8 Y8
G1 F1500 X39.209 Y115.237 E132.19569
M204 S3000
M205 X10 Y10
G0 F3000 X39.209 Y114.445
M204 S1800
M205 X8 Y8
G1 F1500 X59.553 Y134.789 E133.53538
M204 S3000
M205 X10 Y10
G0 F3000 X60.345 Y134.789
M204 S1800
M205 X8 Y8
G1 F1500 X39.209 Y113.653 E134.92722
M204 S3000
M205 X10 Y10
G0 F3000 X39.209 Y112.862
M204 S1800
M205 X8 Y8
G1 F1500 X61.137 Y134.789 E136.37118
M204 S3000
M205 X10 Y10
G0 F3000 X61.929 Y134.789
M204 S1800
M205 X8 Y8
G1 F1500 X39.209 Y112.07 E137.8673
M204 S3000
M205 X10 Y10
G0 F3000 X39.209 Y111.278
M204 S1800
M205 X8 Y8
G1 F1500 X62.721 Y134.789 E139.41557
M204 S3000
M205 X10 Y10
G0 F3000 X63.513 Y134.789
M204 S1800
M205 X8 Y8
G1 F1500 X39.209 Y110.486 E141.016
M204 S3000
M205 X10 Y10
G0 F3000 X39.209 Y109.694
M204 S1800
M205 X8 Y8
G1 F1500 X64.304 Y134.789 E142.66855
M204 S3000
M205 X10 Y10
G0 F3000 X65.096 Y134.789
M204 S1800
M205 X8 Y8
G1 F1500 X39.209 Y108.902 E144.37325
M204 S3000
M205 X10 Y10
G0 F3000 X39.209 Y108.11
M204 S1800
M205 X8 Y8
G1 F1500 X65.888 Y134.789 E146.13011
M204 S3000
M205 X10 Y10
G0 F3000 X66.68 Y134.789
M204 S1800
M205 X8 Y8
G1 F1500 X39.209 Y107.318 E147.93912
M204 S3000
M205 X10 Y10
G0 F3000 X39.209 Y106.526
M204 S1800
M205 X8 Y8
G1 F1500 X67.472 Y134.789 E149.80029
M204 S3000
M205 X10 Y10
G0 F3000 X68.264 Y134.789
M204 S1800
M205 X8 Y8
G1 F1500 X39.209 Y105.734 E151.71361
M204 S3000
M205 X10 Y10
G0 F3000 X39.209 Y104.942
M204 S1800
M205 X8 Y8
G1 F1500 X69.056 Y134.789 E153.67909
M204 S3000
M205 X10 Y10
G0 F3000 X69.848 Y134.789
M204 S1800
M205 X8 Y8
G1 F1500 X39.209 Y104.15 E155.69672
M204 S3000
M205 X10 Y10
G0 F3000 X39.209 Y103.358
M204 S1800
M205 X8 Y8
G1 F1500 X70.64 Y134.789 E157.7665
M204 S3000
M205 X10 Y10
G0 F3000 X71.432 Y134.789
M204 S1800
M205 X8 Y8
G1 F1500 X39.209 Y102.566 E159.88844
M204 S3000
M205 X10 Y10
G0 F3000 X39.209 Y101.774
M204 S1800
M205 X8 Y8
G1 F1500 X72.224 Y134.789 E162.06254
M204 S3000
M205 X10 Y10
G0 F3000 X73.016 Y134.789
M204 S1800
M205 X8 Y8
G1 F1500 X39.209 Y100.982 E164.28878
M204 S3000
M205 X10 Y10
G0 F3000 X39.209 Y100.19
M204 S1800
M205 X8 Y8
G1 F1500 X73.808 Y134.789 E166.56719
M204 S3000
M205 X10 Y10
G0 F3000 X74.6 Y134.789
M204 S1800
M205 X8 Y8
G1 F1500 X39.209 Y99.398 E168.89775
M204 S3000
M205 X10 Y10
G0 F3000 X39.209 Y98.606
M204 S1800
M205 X8 Y8
G1 F1500 X75.392 Y134.789 E171.28046
M204 S3000
M205 X10 Y10
G0 F3000 X76.184 Y134.789
M204 S1800
M205 X8 Y8
G1 F1500 X39.209 Y97.814 E173.71533
M204 S3000
M205 X10 Y10
G0 F3000 X39.209 Y97.022
M204 S1800
M205 X8 Y8
G1 F1500 X76.976 Y134.789 E176.20235
M204 S3000
M205 X10 Y10
G0 F3000 X77.768 Y134.789
M204 S1800
M205 X8 Y8
G1 F1500 X39.209 Y96.23 E178.74152
M204 S3000
M205 X10 Y10
G0 F3000 X39.209 Y95.438
M204 S1800
M205 X8 Y8
G1 F1500 X78.56 Y134.789 E181.33285
M204 S3000
M205 X10 Y10
G0 F3000 X79.352 Y134.789
M204 S1800
M205 X8 Y8
G1 F1500 X39.209 Y94.646 E183.97634
M204 S3000
M205 X10 Y10
G0 F3000 X39.209 Y93.854
M204 S1800
M205 X8 Y8
G1 F1500 X80.144 Y134.789 E186.67198
M204 S3000
M205 X10 Y10
G0 F3000 X80.936 Y134.789
M204 S1800
M205 X8 Y8
G1 F1500 X39.209 Y93.063 E189.41974
M204 S3000
M205 X10 Y10
G0 F3000 X39.209 Y92.271
M204 S1800
M205 X8 Y8
G1 F1500 X81.728 Y134.789 E192.21965
M204 S3000
M205 X10 Y10
G0 F3000 X82.52 Y134.789
M204 S1800
M205 X8 Y8
G1 F1500 X39.209 Y91.479 E195.07173
M204 S3000
M205 X10 Y10
G0 F3000 X39.209 Y90.687
M204 S1800
M205 X8 Y8
G1 F1500 X83.312 Y134.789 E197.97595
M204 S3000
M205 X10 Y10
G0 F3000 X84.103 Y134.789
M204 S1800
M205 X8 Y8
G1 F1500 X39.209 Y89.895 E200.9323
M204 S3000
M205 X10 Y10
G0 F3000 X39.316 Y89.21
M204 S1800
M205 X8 Y8
G1 F1500 X84.895 Y134.789 E203.93375
M204 S3000
M205 X10 Y10
G0 F3000 X85.687 Y134.789
M204 S1800
M205 X8 Y8
G1 F1500 X40.108 Y89.21 E206.93521
M204 S3000
M205 X10 Y10
G0 F3000 X40.9 Y89.21
M204 S1800
M205 X8 Y8
G1 F1500 X86.479 Y134.789 E209.93666
M204 S3000
M205 X10 Y10
G0 F3000 X87.271 Y134.789
M204 S1800
M205 X8 Y8
G1 F1500 X41.692 Y89.21 E212.93812
M204 S3000
M205 X10 Y10
G0 F3000 X42.484 Y89.21
M204 S1800
M205 X8 Y8
G1 F1500 X88.063 Y134.789 E215.93957
M204 S3000
M205 X10 Y10
G0 F3000 X88.855 Y134.789
M204 S1800
M205 X8 Y8
G1 F1500 X43.276 Y89.21 E218.94103
M204 S3000
M205 X10 Y10
G0 F3000 X44.068 Y89.21
M204 S1800
M205 X8 Y8
G1 F1500 X89.647 Y134.789 E221.94248
M204 S3000
M205 X10 Y10
G0 F3000 X90.439 Y134.789
M204 S1800
M205 X8 Y8
G1 F1500 X44.86 Y89.21 E224.94394
M204 S3000
M205 X10 Y10
G0 F3000 X45.652 Y89.21
M204 S1800
M205 X8 Y8
G1 F1500 X74.167 Y117.725 E226.8217
G1 X74.237 Y117.795
M204 S3000
M205 X10 Y10
G0 F3000 X73.872 Y116.637
M204 S1800
M205 X8 Y8
G1 F1500 X46.444 Y89.21 E228.62785
M204 S3000
M205 X10 Y10
G0 F3000 X47.236 Y89.21
M204 S1800
M205 X8 Y8
G1 F1500 X73.789 Y115.763 E230.37641
M204 S3000
M205 X10 Y10
G0 F3000 X73.858 Y115.04
M204 S1800
M205 X8 Y8
G1 F1500 X48.028 Y89.21 E232.07736
M204 S3000
M205 X10 Y10
G0 F3000 X48.82 Y89.21
M204 S1800
M205 X8 Y8
G1 F1500 X73.96 Y114.35 E233.73287
M204 S3000
M205 X10 Y10
G0 F3000 X74.17 Y113.768
M204 S1800
M205 X8 Y8
G1 F1500 X49.612 Y89.21 E235.35005
M204 S3000
M205 X10 Y10
G0 F3000 X50.403 Y89.21
M204 S1800
M205 X8 Y8
G1 F1500 X74.399 Y113.205 E236.9302
M204 S3000
M205 X10 Y10
G0 F3000 X74.688 Y112.702
M204 S1800
M205 X8 Y8
G1 F1500 X51.195 Y89.21 E238.47722
M204 S3000
M205 X10 Y10
G0 F3000 X51.987 Y89.21
M204 S1800
M205 X8 Y8
G1 F1500 X75.021 Y112.244 E239.99405
M204 S3000
M205 X10 Y10
G0 F3000 X75.369 Y111.799
M204 S1800
M205 X8 Y8
G1 F1500 X52.779 Y89.21 E241.48161
M204 S3000
M205 X10 Y10
G0 F3000 X53.571 Y89.21
M204 S1800
M205 X8 Y8
G1 F1500 X75.798 Y111.436 E242.94526
M204 S3000
M205 X10 Y10
G0 F3000 X76.228 Y111.074
M204 S1800
M205 X8 Y8
G1 F1500 X54.363 Y89.21 E244.38507
M204 S3000
M205 X10 Y10
G0 F3000 X55.155 Y89.21
M204 S1800
M205 X8 Y8
G1 F1500 X76.728 Y110.782 E245.80566
M204 S3000
M205 X10 Y10
G0 F3000 X77.258 Y110.52
M204 S1800
M205 X8 Y8
G1 F1500 X55.947 Y89.21 E247.20899
M204 S3000
M205 X10 Y10
G0 F3000 X56.739 Y89.21
M204 S1800
M205 X8 Y8
G1 F1500 X77.832 Y110.303 E248.598
M204 S3000
M205 X10 Y10
G0 F3000 X78.481 Y110.159
M204 S1800
M205 X8 Y8
G1 F1500 X57.531 Y89.21 E249.97756
M204 S3000
M205 X10 Y10
G0 F3000 X58.323 Y89.21
M204 S1800
M205 X8 Y8
G1 F1500 X79.176 Y110.063 E251.35077
M204 S3000
M205 X10 Y10
G0 F3000 X79.99 Y110.085
M204 S1800
M205 X8 Y8
G1 F1500 X59.115 Y89.21 E252.72542
M204 S3000
M205 X10 Y10
G0 F3000 X59.907 Y89.21
M204 S1800
M205 X8 Y8
G1 F1500 X80.967 Y110.269 E254.11223
G1 X81.037 Y110.339
M204 S3000
M205 X10 Y10
