;FLAVOR:Marlin
;TIME:8070
;Filament used: 12.0089m
;Layer height: 0.3
;MINX:43.513
;MINY:67.487
;MINZ:0.3
;MAXX:180.489
;MAXY:156.51
;MAXZ:49.8
;Generated with Cura_SteamEngine 4.2.1
M140 S60
M105
M190 S60
M104 S200
M105
M109 S200
M82 ;absolute extrusion mode
G21 ;metric values
G90 ;absolute positioning
M82 ;set extruder to absolute mode
M107 ;start with the fan off
G28 X0 Y0 ;move X/Y to min endstops
G28 Z0 ;move Z to min endstops
G1 Z15.0 F100 ;move the platform down 15mm
G92 E0 ;zero the extruded length
G1 F200 E3 ;extrude 3mm of feed stock
G92 E0 ;zero the extruded length again
G1 F100
M117 Printing...
G5
M141 S28
G92 E0
G92 E0
G1 F2400 E-6
;LAYER_COUNT:166
;LAYER:0
M106 S255
M204 S3000
M205 X10 Y10
G0 F3000 X46.905 Y154.619 Z0.3
M204 S1800
M205 X8 Y8
;TYPE:SUPPORT
G1 F2400 E0
G1 F1800 X47.24 Y154.814 E0.02707
G1 X47.79 Y155.014 E0.06795
G1 X48.752 Y155.129 E0.13562
G1 X91.416 Y155.129 E3.11554
G1 X92.081 Y155.063 E3.16222
G1 X92.63 Y154.849 E3.20337
G1 X92.945 Y154.658 E3.2291
G1 X92.945 Y155.569 E3.29273
G1 X46.905 Y155.569 E6.50846
G1 X46.905 Y154.619 E6.57481
M204 S3000
M205 X10 Y10
G0 F3000 X92.621 Y155.088
M204 S1800
M205 X8 Y8
G1 F1800 X92.725 Y155.148 E6.5832
M204 S3000
M205 X10 Y10
G1 F2400 E0.5832
;MESH:sonic.sensor.V3.stl
G0 F3000 X91.434 Y93.514
G0 X91.522 Y91.991
G0 X61.025 Y83.716
M204 S1800
M205 X8 Y8
;TYPE:WALL-INNER
G1 F2400 E6.5832
G1 F1800 X78.825 Y83.716 E7.82646
G1 X78.825 Y74.916 E8.44111
G1 X61.025 Y74.916 E9.68437
G1 X61.025 Y83.716 E10.29902
M204 S3000
M205 X10 Y10
G0 F3000 X46.325 Y90.949
M204 S1800
M205 X8 Y8
G1 F1800 X45.575 Y90.949 E10.3514
G1 X45.575 Y79.397 E11.15827
G1 X45.651 Y78.764 E11.2028
G1 X45.813 Y78.188 E11.24459
G1 X46.361 Y77.103 E11.32949
G1 X47.287 Y75.961 E11.43218
G1 X48.697 Y74.749 E11.56205
G1 X50.659 Y73.521 E11.72372
G1 X53.197 Y72.344 E11.91912
G1 X56.262 Y71.303 E12.14521
G1 X59.834 Y70.453 E12.40167
G1 X63.788 Y69.853 E12.681
G1 X67.963 Y69.551 E12.97337
G1 X72.645 Y69.583 E13.3004
G1 X77.192 Y69.991 E13.61927
G1 X81.325 Y70.725 E13.91246
G1 X84.963 Y71.729 E14.17606
G1 X87.947 Y72.898 E14.3999
G1 X90.296 Y74.168 E14.58642
G1 X92.039 Y75.463 E14.73808
G1 X93.016 Y76.463 E14.83573
G1 X93.708 Y77.467 E14.9209
G1 X94.113 Y78.434 E14.99413
G1 X94.273 Y79.426 E15.06431
G1 X94.272 Y80.57 E15.14421
G1 X94.275 Y90.669 E15.84959
G1 X94.275 Y90.949 E15.86915
G1 X93.995 Y90.949 E15.88181
G1 X93.537 Y90.949 E15.9138
G1 X93.533 Y91.683 E15.96506
G1 X93.533 Y91.846 E15.97645
G1 X93.531 Y92.056 E15.99112
G1 X93.205 Y91.845 E16.00512
G1 X93.052 Y91.791 E16.01453
G1 X92.366 Y91.545 E16.06543
G1 X91.557 Y91.45 E16.12232
G1 X48.683 Y91.449 E19.11691
G1 X47.587 Y91.528 E19.19366
G1 X46.833 Y91.79 E19.24942
G1 X46.732 Y91.825 E19.25688
G1 X46.325 Y92.081 E19.29047
G1 X46.325 Y91.825 E19.29381
G1 X46.325 Y91.718 E19.30045
G1 X46.325 Y90.949 E19.35416
M204 S3000
M205 X10 Y10
G0 F3000 X45.765 Y91.509
M204 S1800
M205 X8 Y8
G1 F1800 X45.016 Y91.509 E19.40648
G1 X45.015 Y90.847 E19.45272
G1 X45.015 Y79.364 E20.25476
G1 X45.1 Y78.653 E20.30478
G1 X45.289 Y77.982 E20.35347
G1 X45.888 Y76.797 E20.44621
G1 X46.884 Y75.569 E20.55664
G1 X48.364 Y74.297 E20.69295
G1 X50.391 Y73.028 E20.85998
G1 X52.985 Y71.825 E21.0597
G1 X56.112 Y70.763 E21.29036
G1 X59.727 Y69.902 E21.54992
G1 X63.727 Y69.296 E21.83249
G1 X67.939 Y68.991 E22.12746
G1 X72.675 Y69.023 E22.45826
G1 X77.259 Y69.435 E22.77972
G1 X81.454 Y70.18 E23.07731
G1 X85.134 Y71.195 E23.34394
G1 X88.188 Y72.392 E23.57305
G1 X90.599 Y73.695 E23.76447
G1 X92.407 Y75.038 E23.92178
G1 X93.45 Y76.106 E24.02605
G1 X94.203 Y77.198 E24.1187
G1 X94.655 Y78.278 E24.20047
G1 X94.833 Y79.381 E24.27851
G1 X94.832 Y80.57 E24.36155
G1 X94.835 Y91.229 E25.10605
G1 X94.835 Y91.509 E25.1256
G1 X94.555 Y91.509 E25.13826
G1 X94.094 Y91.509 E25.17046
G1 X94.088 Y92.704 E25.25393
G1 X94.088 Y92.769 E25.25847
G1 X94.085 Y93.272 E25.2936
G1 X93.6 Y92.767 E25.32049
G1 X93.546 Y92.732 E25.32473
G1 X92.956 Y92.351 E25.37378
G1 X92.237 Y92.094 E25.42711
G1 X91.524 Y92.01 E25.47726
G1 X48.703 Y92.009 E28.46815
G1 X47.701 Y92.081 E28.53831
G1 X46.976 Y92.333 E28.59192
G1 X46.343 Y92.732 E28.64419
G1 X46.249 Y92.826 E28.65347
G1 X45.812 Y93.26 E28.69649
G1 X45.765 Y93.335 E28.70267
G1 X45.765 Y93.26
G1 X45.765 Y92.644 E28.72751
G1 X45.765 Y91.509 E28.80679
M204 S3000
M205 X10 Y10
G0 F3000 X45.835 Y91.439
G0 X61.515 Y83.226
G0 X61.585 Y83.156
M204 S1800
M205 X8 Y8
G1 F1800 X78.265 Y83.156 E29.97182
G1 X78.265 Y75.476 E30.50824
G1 X61.585 Y75.476 E31.67328
G1 X61.585 Y83.156 E32.2097
M204 S3000
M205 X10 Y10
G0 F3000 X62.145 Y82.596
M204 S1800
M205 X8 Y8
;TYPE:WALL-OUTER
G1 F1800 X77.705 Y82.596 E33.2965
G1 X77.705 Y76.036 E33.7547
G1 X62.145 Y76.036 E34.8415
G1 X62.145 Y82.596 E35.2997
M204 S3000
M205 X10 Y10
G0 F3000 X62.345 Y82.596
G0 X62.345 Y83.256
G0 X45.205 Y91.409
G0 X45.205 Y92.069
M204 S1800
M205 X8 Y8
G1 F1800 X44.457 Y92.069 E35.35194
G1 X44.455 Y90.848 E35.43722
G1 X44.455 Y79.332 E36.24157
G1 X44.549 Y78.543 E36.29707
G1 X44.765 Y77.776 E36.35273
G1 X45.415 Y76.491 E36.45331
G1 X46.481 Y75.177 E36.57149
G1 X48.031 Y73.845 E36.71424
G1 X50.123 Y72.535 E36.88664
G1 X52.773 Y71.306 E37.09067
G1 X55.962 Y70.223 E37.3259
G1 X59.62 Y69.351 E37.58856
G1 X63.666 Y68.739 E37.87437
G1 X67.915 Y68.431 E38.17193
G1 X72.705 Y68.463 E38.5065
G1 X77.326 Y68.879 E38.83056
G1 X81.583 Y69.635 E39.13255
G1 X85.305 Y70.661 E39.40221
G1 X88.429 Y71.886 E39.63659
G1 X90.902 Y73.222 E39.83291
G1 X92.775 Y74.613 E39.99587
G1 X93.884 Y75.749 E40.10675
G1 X94.698 Y76.929 E40.20688
G1 X95.197 Y78.122 E40.2972
G1 X95.393 Y79.336 E40.38309
G1 X95.392 Y80.57 E40.46928
G1 X95.395 Y91.789 E41.25289
G1 X95.395 Y92.069 E41.27245
G1 X95.115 Y92.069 E41.28511
G1 X94.65 Y92.069 E41.31758
G1 X94.645 Y92.848 E41.372
G1 X94.645 Y94.436 E41.48291
G1 X94.645 Y94.823 E41.50994
G1 X94.645 Y155.555 E45.75185
G1 X94.205 Y155.564 E45.78259
G1 X94.205 Y94.823 E49.11607
G1 X94.088 Y94.454 E49.14025
G1 X94.01 Y94.208 E49.15827
G1 X93.683 Y93.662 E49.20272
G1 X93.241 Y93.202 E49.24728
G1 X92.707 Y92.857 E49.29169
G1 X92.108 Y92.643 E49.33611
G1 X91.491 Y92.57 E49.37951
G1 X48.723 Y92.569 E52.3667
G1 X47.815 Y92.634 E52.43028
G1 X47.221 Y92.841 E52.47421
G1 X46.694 Y93.173 E52.51772
G1 X46.252 Y93.612 E52.56123
G1 X45.921 Y94.14 E52.60476
G1 X45.763 Y94.59 E52.63807
G1 X45.715 Y94.727 E52.64821
G1 X45.646 Y95.33 E52.6906
G1 X45.645 Y96.354 E52.76212
G1 X45.645 Y155.569 E56.89807
G1 X45.205 Y155.569 E56.9288
G1 X45.205 Y96.354 E60.17848
G1 X45.205 Y95.33 E60.23474
G1 X45.205 Y94.727 E60.27049
G1 X45.205 Y94.581 E60.28024
G1 X45.205 Y92.069 E60.4557
M204 S3000
M205 X10 Y10
G0 F3000 X45.005 Y92.069
G0 X45.086 Y91.439
G0 X46.125 Y90.399
M204 S1800
M205 X8 Y8
;TYPE:SKIN
G1 F1800 X46.125 Y79.428 E61.22198
G1 X46.191 Y78.876 E61.26081
G1 X46.329 Y78.386 E61.29637
G1 X46.827 Y77.402 E61.3734
G1 X47.681 Y76.348 E61.46815
G1 X49.026 Y75.192 E61.59202
G1 X50.919 Y74.007 E61.74801
G1 X53.402 Y72.856 E61.93916
G1 X56.416 Y71.832 E62.1615
G1 X59.938 Y70.993 E62.41438
G1 X63.859 Y70.399 E62.69137
G1 X67.973 Y70.101 E62.97947
G1 X72.616 Y70.133 E63.30378
G1 X77.117 Y70.537 E63.61942
G1 X81.211 Y71.263 E63.90983
G1 X84.79 Y72.251 E64.16916
G1 X87.72 Y73.399 E64.38896
G1 X89.992 Y74.628 E64.56938
G1 X91.677 Y75.879 E64.71596
G1 X92.59 Y76.814 E64.80724
G1 X93.224 Y77.734 E64.88528
G1 X93.58 Y78.584 E64.94964
G1 X93.723 Y79.47 E65.01233
G1 X93.722 Y80.57 E65.08916
G1 X93.725 Y90.399 E65.77568
G1 X92.991 Y90.399 E65.82694
G1 X92.986 Y91.183 E65.8817
G1 X92.492 Y91.006 E65.91836
G1 X91.589 Y90.9 E65.98186
G1 X48.663 Y90.899 E68.98008
G1 X47.475 Y90.984 E69.06327
G1 X46.875 Y91.193 E69.10765
G1 X46.875 Y90.399 E69.16311
G1 X46.125 Y90.399 E69.21549
M204 S3000
M205 X10 Y10
G0 F3000 X60.475 Y84.266
M204 S1800
M205 X8 Y8
G1 F1800 X79.375 Y84.266 E70.53559
G1 X79.375 Y74.366 E71.22707
G1 X60.475 Y74.366 E72.54716
G1 X60.475 Y84.266 E73.23864
M204 S3000
M205 X10 Y10
G0 F3000 X46.58 Y90.138
M204 S1800
M205 X8 Y8
G1 F1800 X46.384 Y89.942 E73.258
M204 S3000
M205 X10 Y10
G0 F3000 X46.384 Y89.15
M204 S1800
M205 X8 Y8
G1 F1800 X47.924 Y90.689 E73.41007
M204 S3000
M205 X10 Y10
G0 F3000 X47.233 Y90.791
M204 S1800
M205 X8 Y8
G1 F1800 X47.135 Y90.692 E73.4198
M204 S3000
M205 X10 Y10
G0 F3000 X48.664 Y90.638
M204 S1800
M205 X8 Y8
G1 F1800 X46.384 Y88.358 E73.64501
M204 S3000
M205 X10 Y10
G0 F3000 X46.384 Y87.566
M204 S1800
M205 X8 Y8
G1 F1800 X49.456 Y90.638 E73.94845
M204 S3000
M205 X10 Y10
G0 F3000 X50.248 Y90.638
M204 S1800
M205 X8 Y8
G1 F1800 X46.384 Y86.774 E74.33013
M204 S3000
M205 X10 Y10
G0 F3000 X46.384 Y85.982
M204 S1800
M205 X8 Y8
G1 F1800 X51.04 Y90.638 E74.79004
M204 S3000
M205 X10 Y10
G0 F3000 X51.832 Y90.638
M204 S1800
M205 X8 Y8
G1 F1800 X46.384 Y85.19 E75.32818
M204 S3000
M205 X10 Y10
G0 F3000 X46.384 Y84.398
M204 S1800
M205 X8 Y8
G1 F1800 X52.624 Y90.638 E75.94455
M204 S3000
M205 X10 Y10
G0 F3000 X53.416 Y90.638
M204 S1800
M205 X8 Y8
G1 F1800 X46.384 Y83.606 E76.63915
M204 S3000
M205 X10 Y10
G0 F3000 X46.384 Y82.814
M204 S1800
M205 X8 Y8
G1 F1800 X54.208 Y90.638 E77.41199
M204 S3000
M205 X10 Y10
G0 F3000 X55 Y90.638
M204 S1800
M205 X8 Y8
G1 F1800 X46.384 Y82.022 E78.26306
M204 S3000
M205 X10 Y10
G0 F3000 X46.384 Y81.231
M204 S1800
M205 X8 Y8
G1 F1800 X55.792 Y90.638 E79.19231
M204 S3000
M205 X10 Y10
G0 F3000 X56.584 Y90.638
M204 S1800
M205 X8 Y8
G1 F1800 X46.384 Y80.439 E80.19979
M204 S3000
M205 X10 Y10
G0 F3000 X46.384 Y79.647
M204 S1800
M205 X8 Y8
G1 F1800 X57.376 Y90.638 E81.2855
M204 S3000
M205 X10 Y10
G0 F3000 X58.168 Y90.638
M204 S1800
M205 X8 Y8
G1 F1800 X46.448 Y78.918 E82.44318
M204 S3000
M205 X10 Y10
G0 F3000 X46.649 Y78.327
M204 S1800
M205 X8 Y8
G1 F1800 X58.959 Y90.638 E83.65918
M204 S3000
M205 X10 Y10
G0 F3000 X59.751 Y90.638
M204 S1800
M205 X8 Y8
G1 F1800 X46.915 Y77.801 E84.92714
M204 S3000
M205 X10 Y10
G0 F3000 X47.226 Y77.32
M204 S1800
M205 X8 Y8
G1 F1800 X60.543 Y90.638 E86.24261
M204 S3000
M205 X10 Y10
G0 F3000 X61.335 Y90.638
M204 S1800
M205 X8 Y8
G1 F1800 X47.58 Y76.883 E87.60129
M204 S3000
M205 X10 Y10
G0 F3000 X47.948 Y76.459
M204 S1800
M205 X8 Y8
G1 F1800 X62.127 Y90.638 E89.00186
M204 S3000
M205 X10 Y10
G0 F3000 X62.919 Y90.638
M204 S1800
M205 X8 Y8
G1 F1800 X48.375 Y76.093 E90.43853
M204 S3000
M205 X10 Y10
G0 F3000 X48.801 Y75.728
M204 S1800
M205 X8 Y8
G1 F1800 X63.712 Y90.639 E91.9114
M204 S3000
M205 X10 Y10
G0 F3000 X64.504 Y90.639
M204 S1800
M205 X8 Y8
G1 F1800 X49.233 Y75.368 E93.41983
M204 S3000
M205 X10 Y10
G0 F3000 X49.72 Y75.063
M204 S1800
M205 X8 Y8
G1 F1800 X65.296 Y90.639 E94.95839
M204 S3000
M205 X10 Y10
G0 F3000 X66.088 Y90.639
M204 S1800
M205 X8 Y8
G1 F1800 X50.207 Y74.758 E96.52708
M204 S3000
M205 X10 Y10
G0 F3000 X50.694 Y74.453
M204 S1800
M205 X8 Y8
G1 F1800 X60.215 Y83.973 E97.46749
M204 S3000
M205 X10 Y10
G0 F3000 X60.766 Y84.525
M204 S1800
M205 X8 Y8
G1 F1800 X66.88 Y90.639 E98.07142
M204 S3000
M205 X10 Y10
G0 F3000 X67.672 Y90.639
M204 S1800
M205 X8 Y8
G1 F1800 X61.558 Y84.525 E98.67534
M204 S3000
M205 X10 Y10
G0 F3000 X62.35 Y84.525
M204 S1800
M205 X8 Y8
G1 F1800 X68.464 Y90.639 E99.27927
M204 S3000
M205 X10 Y10
G0 F3000 X69.256 Y90.639
M204 S1800
M205 X8 Y8
G1 F1800 X63.142 Y84.525 E99.88319
M204 S3000
M205 X10 Y10
G0 F3000 X63.934 Y84.525
M204 S1800
M205 X8 Y8
G1 F1800 X70.048 Y90.639 E100.48712
M204 S3000
M205 X10 Y10
G0 F3000 X70.84 Y90.639
M204 S1800
M205 X8 Y8
G1 F1800 X64.726 Y84.525 E101.09105
M204 S3000
M205 X10 Y10
G0 F3000 X65.518 Y84.525
M204 S1800
M205 X8 Y8
G1 F1800 X71.632 Y90.639 E101.69497
M204 S3000
M205 X10 Y10
G0 F3000 X72.423 Y90.639
M204 S1800
M205 X8 Y8
G1 F1800 X66.31 Y84.525 E102.29885
M204 S3000
M205 X10 Y10
G0 F3000 X67.102 Y84.525
M204 S1800
M205 X8 Y8
G1 F1800 X73.215 Y90.639 E102.90273
M204 S3000
M205 X10 Y10
G0 F3000 X74.007 Y90.639
M204 S1800
M205 X8 Y8
G1 F1800 X67.894 Y84.525 E103.5066
M204 S3000
M205 X10 Y10
G0 F3000 X68.686 Y84.525
M204 S1800
M205 X8 Y8
G1 F1800 X74.799 Y90.639 E104.11048
M204 S3000
M205 X10 Y10
G0 F3000 X75.591 Y90.639
M204 S1800
M205 X8 Y8
G1 F1800 X69.478 Y84.525 E104.71436
M204 S3000
M205 X10 Y10
G0 F3000 X70.27 Y84.525
M204 S1800
M205 X8 Y8
G1 F1800 X76.383 Y90.639 E105.31823
M204 S3000
M205 X10 Y10
G0 F3000 X77.175 Y90.639
M204 S1800
M205 X8 Y8
G1 F1800 X71.062 Y84.525 E105.92211
M204 S3000
M205 X10 Y10
G0 F3000 X71.854 Y84.525
M204 S1800
M205 X8 Y8
G1 F1800 X77.968 Y90.639 E106.52603
M204 S3000
M205 X10 Y10
G0 F3000 X78.76 Y90.639
M204 S1800
M205 X8 Y8
G1 F1800 X72.646 Y84.525 E107.12996
M204 S3000
M205 X10 Y10
G0 F3000 X73.437 Y84.525
M204 S1800
M205 X8 Y8
G1 F1800 X79.552 Y90.639 E107.73394
M204 S3000
M205 X10 Y10
G0 F3000 X80.344 Y90.639
M204 S1800
M205 X8 Y8
G1 F1800 X74.229 Y84.525 E108.33791
M204 S3000
M205 X10 Y10
G0 F3000 X75.021 Y84.525
M204 S1800
M205 X8 Y8
G1 F1800 X81.136 Y90.639 E108.94189
M204 S3000
M205 X10 Y10
G0 F3000 X81.928 Y90.639
M204 S1800
M205 X8 Y8
G1 F1800 X75.813 Y84.525 E109.54586
M204 S3000
M205 X10 Y10
G0 F3000 X76.605 Y84.525
M204 S1800
M205 X8 Y8
G1 F1800 X82.72 Y90.639 E110.14984
M204 S3000
M205 X10 Y10
G0 F3000 X83.512 Y90.639
M204 S1800
M205 X8 Y8
G1 F1800 X77.397 Y84.525 E110.75381
M204 S3000
M205 X10 Y10
G0 F3000 X78.189 Y84.525
M204 S1800
M205 X8 Y8
G1 F1800 X84.304 Y90.639 E111.35779
M204 S3000
M205 X10 Y10
G0 F3000 X85.096 Y90.639
M204 S1800
M205 X8 Y8
G1 F1800 X78.981 Y84.525 E111.96176
M204 S3000
M205 X10 Y10
G0 F3000 X79.634 Y84.386
M204 S1800
M205 X8 Y8
G1 F1800 X85.888 Y90.639 E112.57947
M204 S3000
M205 X10 Y10
G0 F3000 X86.679 Y90.639
M204 S1800
M205 X8 Y8
G1 F1800 X79.634 Y83.594 E113.27536
M204 S3000
M205 X10 Y10
G0 F3000 X79.634 Y82.802
M204 S1800
M205 X8 Y8
G1 F1800 X87.471 Y90.639 E114.04948
M204 S3000
M205 X10 Y10
G0 F3000 X88.263 Y90.639
M204 S1800
M205 X8 Y8
G1 F1800 X79.634 Y82.01 E114.90183
M204 S3000
M205 X10 Y10
G0 F3000 X79.634 Y81.218
M204 S1800
M205 X8 Y8
G1 F1800 X89.055 Y90.639 E115.83241
M204 S3000
M205 X10 Y10
G0 F3000 X89.847 Y90.639
M204 S1800
M205 X8 Y8
G1 F1800 X79.634 Y80.426 E116.84123
M204 S3000
M205 X10 Y10
G0 F3000 X79.634 Y79.634
M204 S1800
M205 X8 Y8
G1 F1800 X90.639 Y90.639 E117.92827
M204 S3000
M205 X10 Y10
G0 F3000 X91.431 Y90.639
M204 S1800
M205 X8 Y8
G1 F1800 X79.634 Y78.842 E119.09355
M204 S3000
M205 X10 Y10
G0 F3000 X79.634 Y78.05
M204 S1800
M205 X8 Y8
G1 F1800 X92.306 Y90.722 E120.34526
M204 S3000
M205 X10 Y10
G0 F3000 X92.732 Y90.356
M204 S1800
M205 X8 Y8
G1 F1800 X79.634 Y77.258 E121.63905
M204 S3000
M205 X10 Y10
G0 F3000 X79.634 Y76.466
M204 S1800
M205 X8 Y8
G1 F1800 X93.306 Y90.139 E122.98959
M204 S3000
M205 X10 Y10
G0 F3000 X93.463 Y89.504
M204 S1800
M205 X8 Y8
G1 F1800 X79.634 Y75.674 E124.35563
M204 S3000
M205 X10 Y10
G0 F3000 X79.634 Y74.882
M204 S1800
M205 X8 Y8
G1 F1800 X93.463 Y88.712 E125.72168
M204 S3000
M205 X10 Y10
G0 F3000 X93.463 Y87.92
M204 S1800
M205 X8 Y8
G1 F1800 X76.266 Y70.722 E127.4204
M204 S3000
M205 X10 Y10
G0 F3000 X75.396 Y70.644
M204 S1800
M205 X8 Y8
G1 F1800 X78.857 Y74.105 E127.76227
M204 S3000
M205 X10 Y10
G0 F3000 X78.065 Y74.105
M204 S1800
M205 X8 Y8
G1 F1800 X74.526 Y70.566 E128.11185
M204 S3000
M205 X10 Y10
G0 F3000 X73.656 Y70.488
M204 S1800
M205 X8 Y8
G1 F1800 X77.273 Y74.105 E128.46912
M204 S3000
M205 X10 Y10
G0 F3000 X76.481 Y74.105
M204 S1800
M205 X8 Y8
G1 F1800 X72.786 Y70.41 E128.83411
M204 S3000
M205 X10 Y10
G0 F3000 X71.972 Y70.388
M204 S1800
