;FLAVOR:Marlin
;TIME:18145
;Filament used: 5.5431m
;Layer height: 0.1
;MINX:86.339
;MINY:77.95
;MINZ:0.1
;MAXX:137.661
;MAXY:146.912
;MAXZ:46
;Generated with Cura_SteamEngine 4.2.1
M140 S60
M105
M190 S60
M104 S200
M105
M109 S200
M82 ;absolute extrusion mode
G21 ;metric values
G90 ;absolute positioning
M82 ;set extruder to absolute mode
M107 ;start with the fan off
G28 X0 Y0 ;move X/Y to min endstops
G28 Z0 ;move Z to min endstops
G1 Z15.0 F50 ;move the platform down 15mm
G92 E0 ;zero the extruded length
G1 F200 E3 ;extrude 3mm of feed stock
G92 E0 ;zero the extruded length again
G1 F50
M117 Printing...
G5
M141 S28
G92 E0
G92 E0
G1 F2400 E-6
;LAYER_COUNT:460
;LAYER:0
M106 S255
M204 S3000
M205 X10 Y10
G0 F1500 X88.337 Y78.03 Z0.1
M204 S1800
M205 X8 Y8
;TYPE:SUPPORT
G1 F2400 E0
G1 F1500 X98.085 Y78.03 E0.22695
G1 X98.085 Y80.27 E0.27911
G1 X88.337 Y80.27 E0.50606
G1 X88.337 Y78.03 E0.55821
M204 S3000
M205 X10 Y10
G0 X88.556 Y78.841
M204 S1800
M205 X8 Y8
G1 X90.648 Y80.048 E0.61444
M204 S3000
M205 X10 Y10
G0 X96 Y80.05
M204 S1800
M205 X8 Y8
G1 X96 Y78.25 E0.65635
M204 S3000
M205 X10 Y10
G0 X125.916 Y78.03
M204 S1800
M205 X8 Y8
G1 X135.72 Y78.033 E0.88461
G1 X135.72 Y80.27 E0.93669
G1 X125.858 Y80.27 E1.1663
G1 X125.912 Y79.515 E1.18392
G1 X125.916 Y78.03 E1.2185
M204 S3000
M205 X10 Y10
G0 X128 Y78.251
M204 S1800
M205 X8 Y8
G1 X128 Y80.05 E1.26038
M204 S3000
M205 X10 Y10
G0 X133.349 Y80.049
M204 S1800
M205 X8 Y8
G1 X135.498 Y78.808 E1.31816
M204 S3000
M205 X10 Y10
G1 F2400 E-4.68184
G0 F1500 X137.658 Y81.14
G0 X137.661 Y146.348
G0 X137.117 Y146.898
G0 X135.904 Y146.912
G0 X135.346 Y146.359
G0 X135.026 Y145.053
M204 S1800
M205 X8 Y8
G1 F2400 E1.31816
G1 F1500 X135.027 Y145.967 E1.33944
G1 X88.98 Y145.97 E2.41151
G1 X88.98 Y145.026 E2.43349
G1 X89.805 Y145.53 E2.45599
G1 X133.402 Y145.53 E3.47102
G1 X134.211 Y145.46 E3.48993
G1 X134.791 Y145.197 E3.50476
G1 X135.026 Y145.053 E3.51117
M204 S3000
M205 X10 Y10
G1 F2400 E-2.48883
;MESH:sonic.sensor.frame.stl
G0 F1500 X133.514 Y83.915
G0 X133.595 Y82.392
G0 X89.746 Y82.388
G0 X89.766 Y82.485
M204 S1800
M205 X8 Y8
;TYPE:WALL-INNER
G1 F2400 E3.51117
G1 F1500 X89.308 Y82.645 E3.52247
G1 X89.051 Y82.735 E3.52881
G1 X88.417 Y83.132 E3.54622
G1 X88.324 Y83.225 E3.54929
G1 X87.886 Y83.662 E3.56369
G1 X87.84 Y83.735 E3.5657
G1 X87.84 Y83.662
G1 X87.84 Y83.043 E3.574
G1 X87.84 Y82.09 E3.59619
G1 X89.281 Y82.09 E3.62974
G1 X89.766 Y82.09 E3.63939
G1 X90.564 Y82.09 E3.65797
G1 X133.597 Y82.09 E4.65987
G1 X134.31 Y82.09 E4.67647
G1 X134.764 Y82.09 E4.68704
G1 X136.158 Y82.09 E4.7195
G1 X136.159 Y83.098 E4.74297
G1 X136.159 Y83.167 E4.74457
G1 X136.16 Y83.249 E4.74648
G1 X136.16 Y83.671 E4.75631
G1 X135.95 Y83.453 E4.75755
G1 X135.674 Y83.168 E4.76515
G1 X135.617 Y83.131 E4.76663
G1 X135.032 Y82.751 E4.78287
G1 X134.737 Y82.645 E4.79017
G1 X134.31 Y82.492 E4.79926
G1 X133.597 Y82.411 E4.81007
G1 X90.564 Y82.41 E5.38348
G1 X89.766 Y82.485 E5.39541
M204 S3000
M205 X10 Y10
G0 X89.746 Y82.388
G0 X133.567 Y82.932
G0 X134.191 Y83.003
G0 X134.798 Y83.221
G0 X135.34 Y83.573
G0 X135.788 Y84.037
G0 X136.378 Y85.208
G0 X136.28 Y85.223
M204 S1800
M205 X8 Y8
;TYPE:WALL-OUTER
G1 X136.164 Y84.856 E5.40438
G1 X136.084 Y84.608 E5.41044
G1 X135.757 Y84.061 E5.42528
G1 X135.315 Y83.603 E5.4401
G1 X134.781 Y83.256 E5.45493
G1 X134.182 Y83.041 E5.46974
G1 X133.565 Y82.971 E5.4842
G1 X90.59 Y82.97 E6.48475
G1 X89.886 Y83.036 E6.50121
G1 X89.295 Y83.243 E6.51579
G1 X88.768 Y83.573 E6.53027
G1 X88.326 Y84.014 E6.5448
G1 X87.995 Y84.541 E6.55929
G1 X87.839 Y84.986 E6.57027
G1 X87.789 Y85.129 E6.5738
G1 X87.721 Y85.732 E6.58793
G1 X87.72 Y145.954 E7.99002
G1 X87.287 Y145.964 E8.0001
G1 X87.282 Y85.733 E9.09195
G1 X87.281 Y85.13 E9.10392
G1 X87.281 Y84.978 E9.1073
G1 X87.28 Y81.81 E9.18106
G1 X87.28 Y81.53 E9.18758
G1 X87.56 Y81.53 E9.1918
G1 X136.717 Y81.53 E10.33627
G1 X136.72 Y83.248 E10.37627
G1 X136.72 Y84.838 E10.41329
G1 X136.72 Y85.223 E10.42131
G1 X136.72 Y129.827 E11.45978
G1 X136.72 Y145.961 E11.83541
G1 X136.287 Y145.966 E11.8455
G1 X136.28 Y129.827 E12.13839
G1 X136.28 Y85.223 E12.95434
M204 S3000
M205 X10 Y10
G0 X136.22 Y85.032
G0 X136.315 Y85.004
G0 X135.838 Y82.947
G0 X135.547 Y82.656
M204 S1800
M205 X8 Y8
;TYPE:SKIN
G1 X135.03 Y82.422 E12.96005
G1 X135.711 Y82.536 E12.967
G1 X135.852 Y82.395 E12.96901
M204 S3000
M205 X10 Y10
G0 X135.822 Y82.365
G0 X90.562 Y82.371
G0 X88.974 Y82.469
G0 X88.922 Y82.417
M204 S1800
M205 X8 Y8
G1 X88.689 Y82.467 E12.97251
G1 X88.279 Y82.622 E12.97896
G1 X88.192 Y82.818 E12.98211
M204 S3000
M205 X10 Y10
G0 X88.4 Y82.694
G1 F2400 E6.98211
;MESH:NONMESH
G0 F600 X88.4 Y82.694 Z0.2
G0 F1500 X88.257 Y82.11
G0 X88.257 Y80.585
G0 X88.257 Y77.95
;TIME_ELAPSED:44.273831
;LAYER:1
M140 S60
M204 S1800
M205 X8 Y8
;TYPE:SUPPORT
G1 F2400 E12.98211
G1 F1650 X98.165 Y77.95 E13.14688
G1 X98.165 Y80.35 E13.18679
G1 X88.257 Y80.35 E13.35156
G1 X88.257 Y77.95 E13.39148
M204 S3000
M205 X10 Y10
G0 F2250 X88.397 Y78.29
M204 S1800
M205 X8 Y8
G1 F1650 X88.745 Y78.089 E13.39816
M204 S3000
M205 X10 Y10
G0 F2250 X88.396 Y78.748
M204 S1800
M205 X8 Y8
G1 F1650 X90.927 Y80.209 E13.44676
M204 S3000
M205 X10 Y10
G0 F2250 X96 Y80.21
M204 S1800
M205 X8 Y8
G1 F1650 X96 Y78.09 E13.48201
M204 S3000
M205 X10 Y10
G0 F2250 X125.836 Y77.95
M204 S1800
M205 X8 Y8
G1 F1650 X135.799 Y77.955 E13.6477
G1 X135.8 Y80.35 E13.68753
G1 X125.771 Y80.35 E13.85431
G1 X125.832 Y79.512 E13.86828
G1 X125.836 Y77.95 E13.89426
M204 S3000
M205 X10 Y10
G0 F2250 X128 Y78.092
M204 S1800
M205 X8 Y8
G1 F1650 X128 Y80.21 E13.92948
M204 S3000
M205 X10 Y10
G0 F2250 X133.073 Y80.209
M204 S1800
M205 X8 Y8
G1 F1650 X135.658 Y78.716 E13.97913
M204 S3000
M205 X10 Y10
G0 F2250 X135.659 Y78.323
M204 S1800
M205 X8 Y8
G1 F1650 X135.264 Y78.095 E13.98671
M204 S3000
M205 X10 Y10
G1 F2400 E7.98671
G0 F2250 X137.65 Y81.089
G0 X137.661 Y146.407
G0 X137.157 Y146.911
G0 X135.862 Y146.911
G0 X135.358 Y146.407
G0 X135.117 Y144.904
M204 S1800
M205 X8 Y8
G1 F2400 E13.98671
G1 F1650 X135.119 Y146.047 E14.00572
G1 X88.9 Y146.05 E14.77434
G1 X88.9 Y144.884 E14.79374
G1 X89.828 Y145.45 E14.81181
G1 X133.396 Y145.45 E15.53635
G1 X134.191 Y145.38 E15.54962
G1 X134.744 Y145.131 E15.55971
G1 X135.117 Y144.904 E15.56697
M204 S3000
M205 X10 Y10
G0 F2250 X131.831 Y145.589
M204 S1800
M205 X8 Y8
G1 F1650 X131.281 Y145.907 E15.57754
M204 S3000
M205 X10 Y10
G0 F2250 X128 Y145.908
M204 S1800
M205 X8 Y8
G1 F1650 X128 Y145.59 E15.58282
M204 S3000
M205 X10 Y10
G0 F2250 X124.717 Y145.906
M204 S1800
M205 X8 Y8
G1 F1650 X124.167 Y145.589 E15.59338
M204 S3000
M205 X10 Y10
G0 F2250 X120 Y145.59
M204 S1800
M205 X8 Y8
G1 F1650 X120 Y145.908 E15.59867
M204 S3000
M205 X10 Y10
G0 F2250 X115.831 Y145.589
M204 S1800
M205 X8 Y8
G1 F1650 X115.279 Y145.908 E15.60927
M204 S3000
M205 X10 Y10
G0 F2250 X112 Y145.909
M204 S1800
M205 X8 Y8
G1 F1650 X112 Y145.59 E15.61458
M204 S3000
M205 X10 Y10
G0 F2250 X108.718 Y145.907
M204 S1800
M205 X8 Y8
G1 F1650 X108.168 Y145.589 E15.62514
M204 S3000
M205 X10 Y10
G0 F2250 X104 Y145.59
M204 S1800
M205 X8 Y8
G1 F1650 X104 Y145.91 E15.63046
M204 S3000
M205 X10 Y10
G0 F2250 X99.831 Y145.589
M204 S1800
M205 X8 Y8
G1 F1650 X99.277 Y145.909 E15.6411
M204 S3000
M205 X10 Y10
G0 F2250 X96 Y145.91
M204 S1800
M205 X8 Y8
G1 F1650 X96 Y145.59 E15.64642
M204 S3000
M205 X10 Y10
G0 F2250 X92.72 Y145.908
M204 S1800
M205 X8 Y8
G1 F1650 X92.168 Y145.589 E15.65703
M204 S3000
M205 X10 Y10
G1 F2400 E9.65703
;MESH:sonic.sensor.frame.stl
G0 F2250 X89.708 Y84.099
G0 X89.15 Y82.934
G0 X89.742 Y82.324
M204 S1800
M205 X8 Y8
;TYPE:WALL-INNER
G1 F2400 E15.65703
G1 F2250 X88.983 Y82.589 E15.6704
G1 X88.894 Y82.645 E15.67215
G1 X88.38 Y82.967 E15.68223
G1 X88.319 Y83.005 E15.68343
G1 X88 Y83.322 E15.69091
G1 X88 Y83.005 E15.69263
G1 X88 Y82.932 E15.69374
G1 X88 Y82.25 E15.70508
G1 X88.877 Y82.25 E15.71967
G1 X88.983 Y82.25 E15.7213
G1 X89.742 Y82.25 E15.72773
G1 X90.773 Y82.25 E15.74488
G1 X133.608 Y82.25 E16.45722
G1 X134.349 Y82.25 E16.46955
G1 X135.104 Y82.25 E16.4821
G1 X135.174 Y82.25 E16.48327
G1 X135.994 Y82.25 E16.4969
G1 X135.998 Y82.877 E16.50733
G1 X135.998 Y83.042 E16.51008
G1 X136 Y83.242 E16.5134
G1 X136 Y83.275 E16.51395
G1 X135.985 Y83.259
G1 X135.777 Y83.044 E16.51623
G1 X135.639 Y82.955 E16.51842
G1 X135.162 Y82.646 E16.52788
G1 X135.104 Y82.608 E16.52897
G1 X134.349 Y82.337 E16.53665
G1 X133.608 Y82.251 E16.53806
G1 X90.773 Y82.25 E16.53895
G1 X89.742 Y82.324 E16.55614
M204 S3000
M205 X10 Y10
G0 X89.824 Y82.719
M204 S1800
M205 X8 Y8
G1 X89.157 Y82.952 E16.56789
G1 X88.569 Y83.32 E16.57942
G1 X88.075 Y83.812 E16.59102
G1 X87.977 Y83.968 E16.59408
G1 X87.706 Y84.4 E16.60256
G1 X87.6 Y84.704 E16.60792
G1 X87.6 Y84.4 E16.60852
G1 X87.6 Y83.89 E16.61401
G1 X87.6 Y81.85 E16.64793
G1 X136.392 Y81.85 E17.45935
G1 X136.4 Y83.242 E17.4825
G1 X136.4 Y83.849 E17.49259
G1 X136.4 Y83.866 E17.49287
G1 X136.4 Y84.477 E17.50304
G1 X136.4 Y84.543 E17.50413
G1 X136.379 Y84.477 E17.5042
G1 X136.014 Y83.866 E17.51083
G1 X136.003 Y83.854 E17.51109
G1 X135.521 Y83.355 E17.52263
G1 X134.925 Y82.969 E17.53444
G1 X134.257 Y82.729 E17.54624
G1 X133.585 Y82.651 E17.55749
G1 X90.787 Y82.65 E18.26923
G1 X89.824 Y82.719 E18.28528
M204 S3000
M205 X10 Y10
G0 X89.792 Y82.624
G0 X133.564 Y83.012
G0 X134.174 Y83.083
G0 X134.763 Y83.295
G0 X135.29 Y83.636
G0 X135.725 Y84.087
G0 X136.298 Y85.221
G0 X136.2 Y85.236
M204 S1800
M205 X8 Y8
;TYPE:WALL-OUTER
G1 X136.012 Y84.642 E18.29564
G1 X135.694 Y84.111 E18.30594
G1 X135.265 Y83.666 E18.31622
G1 X134.746 Y83.33 E18.3265
G1 X134.165 Y83.121 E18.33677
G1 X133.562 Y83.051 E18.34686
G1 X90.801 Y83.05 E19.05798
G1 X89.906 Y83.114 E19.0729
G1 X89.331 Y83.315 E19.08303
G1 X88.819 Y83.635 E19.09307
G1 X88.39 Y84.063 E19.10315
G1 X88.069 Y84.575 E19.1132
G1 X87.869 Y85.146 E19.12326
G1 X87.801 Y85.736 E19.13314
G1 X87.8 Y146.05 E20.13616
G1 X87.219 Y146.05 E20.14583
G1 X87.2 Y130.007 E20.41262
G1 X87.2 Y81.45 E21.22013
G1 X136.79 Y81.45 E22.04481
G1 X136.8 Y83.242 E22.07462
G1 X136.8 Y146.05 E23.11912
G1 X136.219 Y146.05 E23.12878
G1 X136.2 Y129.98 E23.39602
G1 X136.2 Y85.236 E24.14012
M204 S3000
M205 X10 Y10
G0 X136.14 Y85.046
G0 X136.381 Y84.801
M204 S1800
M205 X8 Y8
;TYPE:SKIN
G1 F1350 X136.483 Y84.982 E24.14192
G1 X136.499 Y88.926 E24.176
G1 X136.5 Y131.068 E24.54021
G1 X136.504 Y137.57 E24.59641
G1 X136.508 Y144.071 E24.65259
G1 X136.513 Y145.763 E24.66722
M204 S3000
M205 X10 Y10
G0 F2250 X136.422 Y145.854
G0 X136.595 Y85.175
G0 X136.048 Y84.626
G0 X135.725 Y84.087
G0 X135.29 Y83.636
G0 X134.763 Y83.295
G0 X134.174 Y83.083
G0 X133.564 Y83.012
G0 X90.8 Y83.011
G0 X89.898 Y83.075
G0 X89.314 Y83.279
G0 X88.795 Y83.604
G0 X88.359 Y84.039
G0 X88.033 Y84.558
G0 X87.48 Y85.057
G0 X87.605 Y145.739
G0 X87.547 Y145.796
M204 S1800
M205 X8 Y8
G1 F1350 X87.509 Y145.552 E24.66936
G1 X87.505 Y139.05 E24.72585
G1 X87.501 Y132.549 E24.78233
G1 X87.499 Y126.045 E24.83883
G1 X87.499 Y85.882 E25.18776
G1 X87.517 Y85.015 E25.19529
M204 S3000
M205 X10 Y10
G0 F2250 X87.393 Y85.14
G0 X88.389 Y82.73
G0 X88.531 Y82.587
M204 S1800
M205 X8 Y8
G1 F1350 X88.292 Y82.543 E25.20096
M204 S3000
M205 X10 Y10
G0 F2250 X88.194 Y82.642
G0 X135.29 Y82.498
G0 X135.316 Y82.471
M204 S1800
M205 X8 Y8
G1 F1350 X135.544 Y82.527 E25.20336
G1 X135.716 Y82.637 E25.20545
M204 S3000
M205 X10 Y10
G0 F2250 X135.634 Y82.72
G1 F2400 E19.20545
;MESH:NONMESH
G0 F600 X135.634 Y82.72 Z0.3
G0 F2250 X133.975 Y82.633
G0 X90.78 Y82.631
G0 X90.819 Y83.914
G0 X88.661 Y146.407
G0 X88.157 Y146.911
G0 X86.862 Y146.911
G0 X86.358 Y146.407
G0 X86.339 Y81.093
G0 X88.257 Y77.95
;TIME_ELAPSED:89.974525
;LAYER:2
M204 S1800
M205 X8 Y8
;TYPE:SUPPORT
G1 F2400 E25.20545
G1 F1800 X98.165 Y77.95 E25.37022
G1 X98.165 Y80.35 E25.41013
G1 X88.257 Y80.35 E25.5749
G1 X88.257 Y77.95 E25.61481
M204 S3000
M205 X10 Y10
G0 F3000 X88.397 Y78.29
M204 S1800
M205 X8 Y8
G1 F1800 X88.745 Y78.089 E25.6215
M204 S3000
M205 X10 Y10
G0 F3000 X88.396 Y78.748
M204 S1800
M205 X8 Y8
G1 F1800 X90.927 Y80.209 E25.6701
M204 S3000
M205 X10 Y10
G0 F3000 X96 Y80.21
M204 S1800
M205 X8 Y8
G1 F1800 X96 Y78.09 E25.70535
M204 S3000
M205 X10 Y10
G0 F3000 X125.836 Y77.95
M204 S1800
M205 X8 Y8
G1 F1800 X135.799 Y77.955 E25.87104
G1 X135.8 Y80.35 E25.91087
G1 X125.771 Y80.35 E26.07765
G1 X125.832 Y79.512 E26.09162
G1 X125.836 Y77.95 E26.1176
M204 S3000
M205 X10 Y10
G0 F3000 X128 Y78.092
M204 S1800
M205 X8 Y8
G1 F1800 X128 Y80.21 E26.15282
M204 S3000
M205 X10 Y10
G0 F3000 X133.073 Y80.209
M204 S1800
M205 X8 Y8
G1 F1800 X135.658 Y78.716 E26.20247
M204 S3000
M205 X10 Y10
G0 F3000 X135.659 Y78.323
M204 S1800
M205 X8 Y8
G1 F1800 X135.264 Y78.095 E26.21005
M204 S3000
M205 X10 Y10
G1 F2400 E20.21005
G0 F3000 X137.642 Y81.088
G0 X137.661 Y146.407
G0 X137.157 Y146.911
G0 X135.843 Y146.911
G0 X135.339 Y146.407
G0 X135.1 Y144.914
M204 S1800
M205 X8 Y8
G1 F2400 E26.21005
G1 F1800 X135.1 Y146.047 E26.22889
G1 X88.9 Y146.05 E26.9972
G1 X88.9 Y144.884 E27.01659
G1 X89.828 Y145.45 E27.03467
G1 X133.396 Y145.45 E27.75921
G1 X134.189 Y145.379 E27.77245
G1 X134.741 Y145.134 E27.78249
G1 X135.1 Y144.914 E27.78949
M204 S3000
M205 X10 Y10
G0 F3000 X131.831 Y145.589
M204 S1800
M205 X8 Y8
G1 F1800 X131.281 Y145.907 E27.80006
M204 S3000
M205 X10 Y10
G0 F3000 X128 Y145.908
M204 S1800
M205 X8 Y8
G1 F1800 X128 Y145.59 E27.80535
M204 S3000
M205 X10 Y10
G0 F3000 X124.718 Y145.907
M204 S1800
M205 X8 Y8
G1 F1800 X124.167 Y145.589 E27.81593
M204 S3000
M205 X10 Y10
G0 F3000 X120 Y145.59
M204 S1800
M205 X8 Y8
G1 F1800 X120 Y145.908 E27.82122
M204 S3000
M205 X10 Y10
G0 F3000 X115.831 Y145.589
M204 S1800
M205 X8 Y8
G1 F1800 X115.278 Y145.908 E27.83183
M204 S3000
M205 X10 Y10
G0 F3000 X112 Y145.909
M204 S1800
M205 X8 Y8
G1 F1800 X112 Y145.59 E27.83714
M204 S3000
M205 X10 Y10
G0 F3000 X108.719 Y145.907
M204 S1800
M205 X8 Y8
G1 F1800 X108.168 Y145.589 E27.84772
M204 S3000
M205 X10 Y10
G0 F3000 X104 Y145.59
M204 S1800
M205 X8 Y8
G1 F1800 X104 Y145.91 E27.85304
M204 S3000
M205 X10 Y10
G0 F3000 X99.831 Y145.589
M204 S1800
M205 X8 Y8
G1 F1800 X99.277 Y145.909 E27.86368
M204 S3000
M205 X10 Y10
G0 F3000 X96 Y145.91
M204 S1800
M205 X8 Y8
G1 F1800 X96 Y145.59 E27.869
M204 S3000
M205 X10 Y10
G0 F3000 X92.72 Y145.908
M204 S1800
M205 X8 Y8
G1 F1800 X92.168 Y145.589 E27.8796
M204 S3000
M205 X10 Y10
G1 F2400 E21.8796
;MESH:sonic.sensor.frame.stl
G0 F3000 X135.003 Y84.64
G0 X136.03 Y83.856
G0 X135.778 Y83.045
M204 S1800
M205 X8 Y8
;TYPE:WALL-INNER
G1 F2400 E27.8796
G1 F3000 X135.638 Y82.955 E27.88237
G1 X135.162 Y82.646 E27.89181
G1 X135.105 Y82.609 E27.89294
G1 X134.35 Y82.337 E27.90628
G1 X133.609 Y82.251 E27.91869
G1 X90.454 Y82.25 E27.91959
G1 X89.726 Y82.33 E27.93177
G1 X88.984 Y82.588 E27.94483
G1 X88.894 Y82.644 E27.94659
G1 X88.381 Y82.966 E27.95666
G1 X88.32 Y83.004 E27.95786
G1 X88 Y83.322 E27.96536
G1 X88 Y83.004 E27.9671
G1 X88 Y82.932 E27.9682
G1 X88 Y82.25 E27.97954
G1 X88.877 Y82.25 E27.99412
G1 X88.984 Y82.25 E27.99577
G1 X89.726 Y82.25 E28.00213
G1 X90.454 Y82.25 E28.01424
G1 X133.609 Y82.25 E28.01514
G1 X134.35 Y82.25 E28.01648
G1 X135.105 Y82.25 E28.02339
G1 X135.174 Y82.25 E28.02448
G1 X135.991 Y82.25 E28.03807
G1 X135.997 Y82.876 E28.04848
G1 X135.998 Y83.043 E28.05071
G1 X136 Y83.238 E28.05395
G1 X136 Y83.275 E28.05456
G1 X135.982 Y83.257
G1 X135.778 Y83.045 E28.05683
M204 S3000
M205 X10 Y10
G0 X136.015 Y83.867
M204 S1800
M205 X8 Y8
G1 X136.003 Y83.855 E28.05711
