;FLAVOR:Marlin
;TIME:7000
;Filament used: 6.73326m
;Layer height: 0.2
;MINX:18.584
;MINY:103.538
;MINZ:0.2
;MAXX:205.416
;MAXY:120.465
;MAXZ:48
;Generated with Cura_SteamEngine 4.2.1
M140 S60
M105
M190 S60
M104 S200
M105
M109 S200
M82 ;absolute extrusion mode
G21 ;metric values
G90 ;absolute positioning
M82 ;set extruder to absolute mode
M107 ;start with the fan off
G28 X0 Y0 ;move X/Y to min endstops
G28 Z0 ;move Z to min endstops
G1 Z15.0 F100 ;move the platform down 15mm
G92 E0 ;zero the extruded length
G1 F200 E3 ;extrude 3mm of feed stock
G92 E0 ;zero the extruded length again
G1 F100
M117 Printing...
G5
M141 S28
G92 E0
G92 E0
G1 F2400 E-6
;LAYER_COUNT:240
;LAYER:0
M106 S255
M204 S3000
M205 X10 Y10
G0 F3000 X176.155 Y107.683 Z0.2
M204 S1800
M205 X8 Y8
;TYPE:SUPPORT-INTERFACE
G1 F2400 E0
G1 F1500 X176.75 Y107.1 E0.03879
G1 X177.182 Y107.1 E0.0589
G1 X177.548 Y106.977 E0.07688
G1 X178.783 Y106.04 E0.14907
G1 X180.651 Y105.129 E0.24584
G1 X180.483 Y104.4 E0.28068
G1 X184.412 Y104.4 E0.46363
G1 X184.243 Y105.121 E0.49811
G1 X186.18 Y106.084 E0.59884
G1 X187.286 Y106.949 E0.66422
G1 X188.204 Y108.026 E0.73011
G1 X188.881 Y109.255 E0.79545
G1 X189.299 Y110.596 E0.86085
G1 X189.43 Y111.888 E0.92132
G1 X189.429 Y112.1 E0.9312
G1 X189.298 Y113.409 E0.99245
G1 X188.881 Y114.745 E1.05762
G1 X188.204 Y115.974 E1.12296
G1 X187.283 Y117.054 E1.18905
G1 X186.183 Y117.915 E1.2541
G1 X186.119 Y117.947 E1.25743
G1 X184.243 Y118.879 E1.35497
G1 X184.412 Y119.6 E1.38945
G1 X180.485 Y119.6 E1.57231
G1 X180.65 Y118.883 E1.60657
G1 X178.667 Y117.873 E1.71019
G1 X177.547 Y117.023 E1.77566
G1 X177.181 Y116.9 E1.79364
G1 X176.574 Y116.9 E1.82191
G1 X175.767 Y115.709 E1.8889
G1 X175.759 Y115.692 E1.88977
G1 X175.196 Y114.422 E1.95446
G1 X174.873 Y113.069 E2.01923
G1 X174.873 Y113.065 E2.01942
G1 X174.803 Y111.695 E2.08329
G1 X174.805 Y111.671 E2.08441
G1 X174.989 Y110.306 E2.14855
G1 X174.992 Y110.292 E2.14921
G1 X175.427 Y108.983 E2.21344
G1 X176.155 Y107.683 E2.28282
M204 S3000
M205 X10 Y10
G0 F3000 X177.307 Y109.038
M204 S1800
M205 X8 Y8
G1 F1500 X176.748 Y110.325 E2.34816
G1 X176.511 Y111.701 E2.41318
G1 X176.606 Y113.096 E2.47828
G1 X177.036 Y114.439 E2.54395
G1 X177.765 Y115.634 E2.60913
G1 X178.757 Y116.626 E2.67445
G1 X179.954 Y117.358 E2.73979
G1 X181.281 Y117.79 E2.80477
G1 X182.701 Y117.894 E2.87107
G1 X184.085 Y117.671 E2.93634
G1 X185.384 Y117.122 E3.00201
G1 X186.506 Y116.29 E3.06705
G1 X187.408 Y115.216 E3.13236
G1 X188.03 Y113.958 E3.19771
G1 X188.282 Y112.991 E3.24424
G1 X188.364 Y112.006 E3.29026
G1 X188.196 Y110.602 E3.3561
G1 X187.705 Y109.298 E3.42099
G1 X186.917 Y108.136 E3.48636
G1 X185.882 Y107.197 E3.55143
G1 X184.644 Y106.523 E3.61707
G1 X183.282 Y106.161 E3.68269
G1 X181.89 Y106.122 E3.74753
G1 X180.503 Y106.419 E3.81358
G1 X179.244 Y107.028 E3.87871
G1 X178.156 Y107.916 E3.9441
G1 X177.307 Y109.038 E4.00962
M204 S3000
M205 X10 Y10
G0 F3000 X180.346 Y105.961
M204 S1800
M205 X8 Y8
G1 F1500 X178.984 Y106.62 E4.08007
G1 X177.808 Y107.58 E4.15076
G1 X176.89 Y108.794 E4.22163
G1 X176.285 Y110.186 E4.2923
G1 X176.028 Y111.677 E4.36276
G1 X176.131 Y113.187 E4.43323
G1 X176.597 Y114.64 E4.50428
G1 X177.385 Y115.933 E4.57479
G1 X178.458 Y117.006 E4.64545
G1 X179.752 Y117.797 E4.71607
G1 X181.188 Y118.265 E4.7864
G1 X182.722 Y118.377 E4.85802
G1 X184.219 Y118.136 E4.92862
G1 X185.624 Y117.542 E4.99965
G1 X186.837 Y116.642 E5.06998
G1 X187.813 Y115.48 E5.14064
G1 X188.482 Y114.126 E5.21097
G1 X188.757 Y113.072 E5.26169
G1 X188.846 Y111.997 E5.31192
G1 X188.666 Y110.487 E5.38273
G1 X188.134 Y109.075 E5.45299
G1 X187.282 Y107.819 E5.52366
G1 X186.162 Y106.803 E5.59407
G1 X184.823 Y106.074 E5.66506
G1 X183.351 Y105.683 E5.73598
G1 X181.846 Y105.64 E5.80609
G1 X180.346 Y105.961 E5.87752
M204 S3000
M205 X10 Y10
G0 F3000 X181.205 Y105.393
M204 S1800
M205 X8 Y8
G1 F1500 X181.087 Y104.88 E5.90203
G1 X183.806 Y104.88 E6.02863
G1 X183.689 Y105.382 E6.05264
G1 X185.922 Y106.492 E6.16875
G1 X186.953 Y107.298 E6.22969
G1 X187.81 Y108.304 E6.29123
G1 X188.437 Y109.442 E6.35173
G1 X188.825 Y110.689 E6.41254
G1 X188.95 Y111.915 E6.46992
G1 X188.949 Y112.071 E6.47719
G1 X188.824 Y113.316 E6.53545
G1 X188.437 Y114.558 E6.59602
G1 X187.81 Y115.696 E6.65653
G1 X186.946 Y116.709 E6.71852
G1 X185.926 Y117.507 E6.77883
G1 X185.905 Y117.518 E6.77993
G1 X183.689 Y118.619 E6.89515
G1 X183.806 Y119.12 E6.91911
G1 X181.088 Y119.12 E7.04567
G1 X181.202 Y118.626 E7.06927
G1 X178.92 Y117.463 E7.18854
G1 X177.775 Y116.593 E7.2555
G1 X177.26 Y116.42 E7.2808
G1 X176.829 Y116.42 E7.30087
G1 X176.185 Y115.469 E7.35435
G1 X175.653 Y114.268 E7.41551
G1 X175.351 Y113.004 E7.47602
G1 X175.284 Y111.702 E7.53673
G1 X175.459 Y110.409 E7.59749
G1 X175.868 Y109.178 E7.65789
G1 X176.541 Y107.977 E7.72199
G1 X176.946 Y107.58 E7.7484
G1 X177.261 Y107.58 E7.76307
G1 X177.776 Y107.407 E7.78837
G1 X179.031 Y106.454 E7.86174
G1 X181.205 Y105.393 E7.97439
M204 S3000
M205 X10 Y10
G1 F2400 E1.97439
;MESH:pipe.clamp-frane.stl
G0 F3000 X177.716 Y106.553
G0 X176.795 Y105.342
G0 X35.389 Y105.332
G0 X34.853 Y105.882
M204 S1800
M205 X8 Y8
;TYPE:WALL-INNER
G1 F2400 E7.97439
G1 F1500 X34.84 Y107.332 E8.04191
G1 X34.84 Y118.4 E8.55728
G1 X19.819 Y118.4 E9.25672
G1 X19.818 Y105.88 E9.83971
G1 X19.818 Y105.6 E9.85274
G1 X20.098 Y105.6 E9.86118
G1 X34.573 Y105.6 E10.5352
G1 X34.574 Y105.6 E10.53525
G1 X34.855 Y105.6 E10.54833
G1 X34.854 Y105.881 E10.55678
G1 X34.853 Y105.882 E10.55685
M204 S3000
M205 X10 Y10
G0 F3000 X35.33 Y118.71
G0 X35.4 Y118.64
M204 S1800
M205 X8 Y8
G1 F1500 X176.8 Y118.64 E17.14102
G1 X177.222 Y118.96 E17.16569
G1 X176.8 Y118.96 E17.17033
G1 X35.4 Y118.96 E20.93272
G1 X19.259 Y118.96 E21.68431
G1 X19.258 Y105.32 E22.31945
G1 X19.258 Y105.04 E22.33249
G1 X19.538 Y105.04 E22.34093
G1 X35.296 Y105.04 E23.07469
G1 X35.417 Y105.04 E23.08032
G1 X176.801 Y105.04 E29.66375
G1 X177.223 Y105.04 E29.6834
G1 X176.801 Y105.36 E29.69304
G1 X35.417 Y105.36 E33.45501
G1 X35.416 Y105.481 E33.45979
G1 X35.4 Y107.334 E33.54607
G1 X35.4 Y118.64 E34.07253
M204 S3000
M205 X10 Y10
G0 F3000 X35.96 Y118.08
M204 S1800
M205 X8 Y8
;TYPE:WALL-OUTER
G1 F1500 X176.988 Y118.08 E40.63938
G1 X178.032 Y118.872 E40.7004
G1 X178.186 Y118.967 E40.70883
G1 X178.313 Y119.044 E40.71574
G1 X179.292 Y119.52 E40.76643
G1 X178.313 Y119.52 E40.78504
G1 X178.164 Y119.52 E40.79148
G1 X18.699 Y119.52 E48.21684
G1 X18.698 Y104.76 E48.90413
G1 X18.698 Y104.48 E48.91717
G1 X18.978 Y104.48 E48.9256
G1 X178.148 Y104.48 E56.33723
G1 X178.165 Y104.48 E56.33802
G1 X179.29 Y104.48 E56.3904
G1 X178.165 Y105.028 E56.42114
G1 X178.152 Y105.038 E56.42189
G1 X176.989 Y105.92 E56.48986
G1 X35.972 Y105.92 E63.0562
G1 X35.96 Y107.336 E63.12214
G1 X35.96 Y118.08 E63.62242
M204 S3000
M205 X10 Y10
G0 F3000 X36.16 Y118.08
G0 X36.16 Y118.74
G0 X34.29 Y117.85
M204 S1800
M205 X8 Y8
;TYPE:SKIN
G1 F1500 X20.369 Y117.85 E64.27064
G1 X20.368 Y106.15 E64.81545
G1 X34.301 Y106.15 E65.46422
G1 X34.29 Y107.33 E65.51917
G1 X34.29 Y117.85 E66.00903
M204 S3000
M205 X10 Y10
G0 F3000 X34.033 Y106.894
M204 S1800
M205 X8 Y8
G1 F1500 X33.549 Y106.409 E66.04093
M204 S3000
M205 X10 Y10
G0 F3000 X32.757 Y106.409
M204 S1800
M205 X8 Y8
G1 F1500 X34.03 Y107.682 E66.12476
M204 S3000
M205 X10 Y10
G0 F3000 X34.03 Y108.474
M204 S1800
M205 X8 Y8
G1 F1500 X31.965 Y106.409 E66.26075
M204 S3000
M205 X10 Y10
G0 F3000 X31.173 Y106.409
M204 S1800
M205 X8 Y8
G1 F1500 X34.03 Y109.266 E66.44888
M204 S3000
M205 X10 Y10
G0 F3000 X34.03 Y110.058
M204 S1800
M205 X8 Y8
G1 F1500 X30.381 Y106.409 E66.68918
M204 S3000
M205 X10 Y10
G0 F3000 X29.589 Y106.409
M204 S1800
M205 X8 Y8
G1 F1500 X34.03 Y110.85 E66.98162
M204 S3000
M205 X10 Y10
G0 F3000 X34.03 Y111.642
M204 S1800
M205 X8 Y8
G1 F1500 X28.797 Y106.409 E67.32623
M204 S3000
M205 X10 Y10
G0 F3000 X28.005 Y106.409
M204 S1800
M205 X8 Y8
G1 F1500 X34.03 Y112.434 E67.72298
M204 S3000
M205 X10 Y10
G0 F3000 X34.03 Y113.226
M204 S1800
M205 X8 Y8
G1 F1500 X27.213 Y106.409 E68.17189
M204 S3000
M205 X10 Y10
G0 F3000 X26.421 Y106.409
M204 S1800
M205 X8 Y8
G1 F1500 X34.03 Y114.018 E68.67296
M204 S3000
M205 X10 Y10
G0 F3000 X34.03 Y114.81
M204 S1800
M205 X8 Y8
G1 F1500 X25.629 Y106.409 E69.22618
M204 S3000
M205 X10 Y10
G0 F3000 X24.837 Y106.409
M204 S1800
M205 X8 Y8
G1 F1500 X34.03 Y115.602 E69.83156
M204 S3000
M205 X10 Y10
G0 F3000 X34.03 Y116.394
M204 S1800
M205 X8 Y8
G1 F1500 X24.045 Y106.409 E70.48908
M204 S3000
M205 X10 Y10
G0 F3000 X23.253 Y106.409
M204 S1800
M205 X8 Y8
G1 F1500 X34.03 Y117.185 E71.19874
M204 S3000
M205 X10 Y10
G0 F3000 X33.641 Y117.589
M204 S1800
M205 X8 Y8
G1 F1500 X22.461 Y106.409 E71.93496
M204 S3000
M205 X10 Y10
G0 F3000 X21.669 Y106.409
M204 S1800
M205 X8 Y8
G1 F1500 X32.849 Y117.589 E72.67118
M204 S3000
M205 X10 Y10
G0 F3000 X32.057 Y117.589
M204 S1800
M205 X8 Y8
G1 F1500 X20.878 Y106.409 E73.40737
M204 S3000
M205 X10 Y10
G0 F3000 X20.627 Y106.951
M204 S1800
M205 X8 Y8
G1 F1500 X31.265 Y117.589 E74.1079
M204 S3000
M205 X10 Y10
G0 F3000 X30.473 Y117.589
M204 S1800
M205 X8 Y8
G1 F1500 X20.627 Y107.743 E74.75627
M204 S3000
M205 X10 Y10
G0 F3000 X20.627 Y108.535
M204 S1800
M205 X8 Y8
G1 F1500 X29.681 Y117.589 E75.3525
M204 S3000
M205 X10 Y10
G0 F3000 X28.889 Y117.589
M204 S1800
M205 X8 Y8
G1 F1500 X20.627 Y109.327 E75.89656
M204 S3000
M205 X10 Y10
G0 F3000 X20.627 Y110.119
M204 S1800
M205 X8 Y8
G1 F1500 X28.097 Y117.589 E76.38848
M204 S3000
M205 X10 Y10
G0 F3000 X27.305 Y117.589
M204 S1800
M205 X8 Y8
G1 F1500 X20.627 Y110.911 E76.82823
M204 S3000
M205 X10 Y10
G0 F3000 X20.627 Y111.703
M204 S1800
M205 X8 Y8
G1 F1500 X26.513 Y117.589 E77.21584
M204 S3000
M205 X10 Y10
G0 F3000 X25.721 Y117.589
M204 S1800
M205 X8 Y8
G1 F1500 X20.628 Y112.495 E77.55125
M204 S3000
M205 X10 Y10
G0 F3000 X20.628 Y113.287
M204 S1800
M205 X8 Y8
G1 F1500 X24.929 Y117.589 E77.83451
M204 S3000
M205 X10 Y10
G0 F3000 X24.137 Y117.589
M204 S1800
M205 X8 Y8
G1 F1500 X20.628 Y114.079 E78.06562
M204 S3000
M205 X10 Y10
G0 F3000 X20.628 Y114.871
M204 S1800
M205 X8 Y8
G1 F1500 X23.345 Y117.589 E78.24457
M204 S3000
M205 X10 Y10
G0 F3000 X22.553 Y117.589
M204 S1800
M205 X8 Y8
G1 F1500 X20.628 Y115.663 E78.37137
M204 S3000
M205 X10 Y10
G0 F3000 X20.628 Y116.455
M204 S1800
M205 X8 Y8
G1 F1500 X21.761 Y117.589 E78.44601
M204 S3000
M205 X10 Y10
G0 F3000 X20.969 Y117.589
M204 S1800
M205 X8 Y8
G1 F1500 X20.628 Y117.247 E78.4685
M204 S3000
M205 X10 Y10
G1 F2400 E72.4685
G0 F3000 X35.38 Y113.864
G0 X36.905 Y113.864
G0 X189.098 Y114.84
G0 X190.507 Y115.439
G0 X191.566 Y113.864
M204 S1800
M205 X8 Y8
;TYPE:WALL-INNER
G1 F2400 E78.4685
G1 F1500 X191.729 Y112.228 E78.54506
G1 X191.73 Y111.777 E78.56606
G1 X191.564 Y110.136 E78.64286
G1 X191.007 Y108.348 E78.73006
G1 X190.102 Y106.707 E78.81732
G1 X189.552 Y106.061 E78.85683
G1 X189.159 Y105.6 E78.88504
G1 X189.764 Y105.6 E78.90042
G1 X189.765 Y105.6 E78.90046
G1 X204.181 Y105.6 E79.57173
G1 X204.182 Y118.12 E80.15471
G1 X204.182 Y118.4 E80.16775
G1 X203.902 Y118.4 E80.17619
G1 X189.765 Y118.4 E80.83447
G1 X189.764 Y118.4 E80.83452
G1 X189.159 Y118.4 E80.86269
G1 X189.552 Y117.939 E80.87809
G1 X190.102 Y117.293 E80.91759
G1 X191.007 Y115.652 E81.00485
G1 X191.566 Y113.864 E81.09208
M204 S3000
M205 X10 Y10
G0 F3000 X191.014 Y113.751
M204 S1800
M205 X8 Y8
G1 F1500 X191.169 Y112.199 E81.16471
G1 X191.17 Y111.804 E81.1831
G1 X191.013 Y110.249 E81.25588
G1 X190.489 Y108.569 E81.33782
G1 X189.639 Y107.027 E81.41981
G1 X188.498 Y105.688 E81.50173
G1 X188.308 Y105.54 E81.51294
G1 X187.669 Y105.04 E81.55072
G1 X188.48 Y105.04 E81.57064
G1 X188.481 Y105.04 E81.57069
G1 X204.741 Y105.04 E82.32782
G1 X204.742 Y118.68 E82.96296
G1 X204.742 Y118.96 E82.976
G1 X204.462 Y118.96 E82.98444
G1 X188.482 Y118.96 E83.72853
G1 X188.481 Y118.96 E83.72858
G1 X187.67 Y118.96 E83.76634
G1 X188.309 Y118.46 E83.78627
G1 X188.498 Y118.312 E83.79745
G1 X189.639 Y116.973 E83.87936
G1 X190.489 Y115.431 E83.96135
G1 X191.014 Y113.751 E84.04331
M204 S3000
M205 X10 Y10
G0 F3000 X190.462 Y113.638
M204 S1800
M205 X8 Y8
;TYPE:WALL-OUTER
G1 F1500 X190.609 Y112.17 E84.11201
G1 X190.61 Y111.831 E84.12779
G1 X190.462 Y110.362 E84.19654
G1 X189.971 Y108.79 E84.27323
G1 X189.176 Y107.347 E84.34994
G1 X188.108 Y106.094 E84.42661
G1 X186.81 Y105.079 E84.50333
G1 X186.672 Y105.01 E84.51052
G1 X185.605 Y104.48 E84.56599
G1 X186.796 Y104.48 E84.59445
G1 X186.797 Y104.48 E84.5945
G1 X205.301 Y104.48 E85.45612
G1 X205.302 Y119.24 E86.14341
G1 X205.302 Y119.52 E86.15645
G1 X205.022 Y119.52 E86.16489
G1 X186.737 Y119.52 E87.01632
G1 X186.644 Y119.52 E87.02065
G1 X185.605 Y119.52 E87.06903
G1 X186.644 Y119.004 E87.09616
G1 X186.727 Y118.963 E87.10031
G1 X186.81 Y118.921 E87.10464
G1 X188.108 Y117.906 E87.18136
G1 X189.176 Y116.653 E87.25803
G1 X189.971 Y115.21 E87.33474
G1 X190.462 Y113.638 E87.41143
M204 S3000
M205 X10 Y10
G0 F3000 X190.481 Y113.439
G0 X191.138 Y113.505
G0 X192.108 Y113.974
M204 S1800
M205 X8 Y8
;TYPE:SKIN
G1 F1500 X192.279 Y112.256 E87.49182
G1 X192.28 Y111.75 E87.51538
G1 X192.106 Y110.026 E87.59607
G1 X191.516 Y108.132 E87.68844
G1 X190.557 Y106.393 E87.78091
G1 X190.35 Y106.15 E87.79577
G1 X203.631 Y106.15 E88.41419
G1 X203.632 Y117.85 E88.95899
G1 X190.35 Y117.85 E89.57746
G1 X190.557 Y117.607 E89.59232
G1 X191.516 Y115.869 E89.68475
G1 X192.108 Y113.974 E89.7772
M204 S3000
M205 X10 Y10
G0 F3000 X190.997 Y117.345
M204 S1800
M205 X8 Y8
G1 F1500 X191.241 Y117.589 E89.79327
M204 S3000
M205 X10 Y10
G0 F3000 X191.278 Y116.834
M204 S1800
M205 X8 Y8
G1 F1500 X192.033 Y117.589 E89.84298
M204 S3000
M205 X10 Y10
G0 F3000 X192.825 Y117.589
M204 S1800
M205 X8 Y8
G1 F1500 X191.56 Y116.324 E89.92629
M204 S3000
M205 X10 Y10
G0 F3000 X191.813 Y115.785
M204 S1800
M205 X8 Y8
G1 F1500 X193.617 Y117.589 E90.04508
M204 S3000
M205 X10 Y10
G0 F3000 X194.409 Y117.589
M204 S1800
M205 X8 Y8
G1 F1500 X192.002 Y115.182 E90.20359
M204 S3000
M205 X10 Y10
G0 F3000 X192.19 Y114.578
M204 S1800
M205 X8 Y8
G1 F1500 X195.201 Y117.589 E90.40187
M204 S3000
M205 X10 Y10
G0 F3000 X195.993 Y117.589
M204 S1800
M205 X8 Y8
G1 F1500 X192.369 Y113.965 E90.64051
M204 S3000
M205 X10 Y10
G0 F3000 X192.441 Y113.245
M204 S1800
M205 X8 Y8
G1 F1500 X196.785 Y117.589 E90.92657
M204 S3000
M205 X10 Y10
G0 F3000 X197.577 Y117.589
M204 S1800
M205 X8 Y8
G1 F1500 X192.512 Y112.524 E91.26011
M204 S3000
M205 X10 Y10
G0 F3000 X192.538 Y111.758
M204 S1800
M205 X8 Y8
G1 F1500 X198.369 Y117.589 E91.64409
M204 S3000
M205 X10 Y10
G0 F3000 X199.161 Y117.589
M204 S1800
M205 X8 Y8
G1 F1500 X192.452 Y110.88 E92.08589
M204 S3000
M205 X10 Y10
G0 F3000 X192.364 Y110
M204 S1800
M205 X8 Y8
G1 F1500 X199.953 Y117.589 E92.58564
M204 S3000
M205 X10 Y10
G0 F3000 X200.745 Y117.589
M204 S1800
M205 X8 Y8
G1 F1500 X192.013 Y108.857 E93.16066
G1 X191.943 Y108.787
M204 S3000
M205 X10 Y10
G0 F3000 X191.481 Y107.533
M204 S1800
M205 X8 Y8
G1 F1500 X201.537 Y117.589 E93.82286
M204 S3000
M205 X10 Y10
G0 F3000 X202.329 Y117.589
M204 S1800
M205 X8 Y8
G1 F1500 X191.15 Y106.41 E94.55902
M204 S3000
M205 X10 Y10
G0 F3000 X191.942 Y106.41
M204 S1800
M205 X8 Y8
G1 F1500 X203.121 Y117.589 E95.29518
M204 S3000
M205 X10 Y10
G0 F3000 X203.371 Y117.048
M204 S1800
M205 X8 Y8
G1 F1500 X192.733 Y106.41 E95.99571
M204 S3000
M205 X10 Y10
G0 F3000 X193.525 Y106.41
M204 S1800
M205 X8 Y8
G1 F1500 X203.371 Y116.256 E96.64408
M204 S3000
M205 X10 Y10
G0 F3000 X203.371 Y115.464
M204 S1800
M205 X8 Y8
G1 F1500 X194.317 Y106.41 E97.2403
M204 S3000
M205 X10 Y10
