;FLAVOR:Marlin
;TIME:3399
;Filament used: 3.46796m
;Layer height: 0.2
;MINX:85.2
;MINY:103.169
;MINZ:0.2
;MAXX:138.8
;MAXY:120.831
;MAXZ:50
;Generated with Cura_SteamEngine 4.2.1
M140 S60
M105
M190 S60
M104 S200
M105
M109 S200
M82 ;absolute extrusion mode
G21 ;metric values
G90 ;absolute positioning
M82 ;set extruder to absolute mode
M107 ;start with the fan off
G28 X0 Y0 ;move X/Y to min endstops
G28 Z0 ;move Z to min endstops
G1 Z15.0 F100 ;move the platform down 15mm
G92 E0 ;zero the extruded length
G1 F200 E3 ;extrude 3mm of feed stock
G92 E0 ;zero the extruded length again
G1 F100
M117 Printing...
G5
M141 S28
G92 E0
G92 E0
G1 F2400 E-6
;LAYER_COUNT:250
;LAYER:0
M106 S255
M204 S3000
M205 X10 Y10
;MESH:sonic.sensor.cover.stl
G0 F3000 X126.255 Y116.663 Z0.2
M204 S1800
M205 X8 Y8
;TYPE:WALL-INNER
G1 F2400 E0
G1 F1500 X126.265 Y116.701 E0.00183
G1 X122.47 Y117.36 E0.18119
G1 X122.481 Y117.424 E0.18421
G1 X117.806 Y117.887 E0.40296
G1 X117.812 Y117.947 E0.40577
G1 X110.821 Y118.172 E0.73147
G1 X110.854 Y119.312 E0.78457
G1 X110.855 Y119.313 E0.78464
G1 X110.862 Y119.613 E0.79861
G1 X110.562 Y119.599 E0.80748
G1 X106.036 Y119.387 E1.01846
G1 X101.175 Y118.793 E1.24649
G1 X96.929 Y117.922 E1.44832
G1 X93.43 Y116.863 E1.61855
G1 X90.735 Y115.716 E1.75493
G1 X88.773 Y114.551 E1.86118
G1 X87.66 Y113.631 E1.92842
G1 X87.082 Y112.977 E1.96906
G1 X86.685 Y112.339 E2.00405
G1 X86.476 Y111.775 E2.03206
G1 X86.4 Y111.147 E2.06152
G1 X86.4 Y104.369 E2.37713
G1 X137.6 Y104.369 E4.76122
G1 X137.6 Y110.347 E5.03958
G1 X137.6 Y110.348 E5.03962
G1 X137.6 Y110.748 E5.05825
G1 X137.224 Y110.61 E5.06925
G1 X136.645 Y110.397 E5.09798
G1 X135.767 Y112.181 E5.19057
G1 X135.181 Y112.88 E5.23304
G1 X133.953 Y113.827 E5.30525
G1 X132.024 Y114.849 E5.4069
G1 X129.304 Y115.864 E5.54208
G1 X126.255 Y116.663 E5.68885
M204 S3000
M205 X10 Y10
G0 F3000 X135.534 Y113.223
G0 X135.633 Y113.213
M204 S1800
M205 X8 Y8
G1 F1500 X135.649 Y113.226 E5.68981
G1 X134.393 Y114.195 E5.76368
G1 X134.411 Y114.218 E5.76504
G1 X132.495 Y115.233 E5.866
G1 X132.512 Y115.265 E5.86769
G1 X129.992 Y116.205 E5.99293
G1 X130.012 Y116.258 E5.99556
G1 X126.939 Y117.063 E6.14348
G1 X126.955 Y117.125 E6.14647
G1 X127.291 Y118.402 E6.20795
G1 X126.995 Y118.475 E6.22215
G1 X126.707 Y117.192 E6.25269
G1 X123.118 Y117.816 E6.42232
G1 X123.317 Y118.954 E6.47611
G1 X123.365 Y119.232 E6.48925
G1 X123.086 Y119.277 E6.49773
G1 X122.967 Y119.297 E6.50335
G1 X122.684 Y119.343 E6.5167
G1 X122.646 Y119.059 E6.52525
G1 X122.499 Y117.985 E6.57573
G1 X118.418 Y118.389 E6.76668
G1 X118.536 Y119.576 E6.82223
G1 X118.563 Y119.856 E6.83533
G1 X118.283 Y119.88 E6.84377
G1 X118.282 Y119.881 E6.84383
G1 X118.132 Y119.895 E6.85085
G1 X118.131 Y119.896 E6.85091
G1 X117.848 Y119.92 E6.86414
G1 X117.829 Y119.636 E6.87267
G1 X117.751 Y118.509 E6.92527
G1 X111.397 Y118.714 E7.22129
G1 X111.434 Y119.984 E7.28045
G1 X111.439 Y120.186 E7.28986
G1 X111.254 Y120.191 E7.29848
G1 X111.053 Y120.182 E7.30555
G1 X105.982 Y119.945 E7.54194
G1 X101.08 Y119.346 E7.7719
G1 X96.797 Y118.467 E7.97549
G1 X93.241 Y117.391 E8.14848
G1 X90.476 Y116.214 E8.28841
G1 X88.45 Y115.011 E8.39813
G1 X87.269 Y114.035 E8.46947
G1 X86.63 Y113.312 E8.5144
G1 X86.181 Y112.59 E8.55399
G1 X85.928 Y111.906 E8.58795
G1 X85.84 Y111.182 E8.62191
G1 X85.84 Y103.812 E8.96509
G1 X85.991 Y103.809 E8.97212
G1 X138.16 Y103.809 E11.40133
G1 X138.16 Y111.026 E11.73738
G1 X138.16 Y111.17 E11.74409
G1 X138.118 Y111.536 E11.76124
G1 X138.038 Y111.507
G1 X137.903 Y111.458 E11.76694
G1 X136.925 Y111.097 E11.81548
G1 X136.241 Y112.488 E11.88766
G1 X135.633 Y113.213 E11.93172
M204 S3000
M205 X10 Y10
G0 F3000 X135.534 Y113.223
G0 X135.138 Y114.292
G0 X135.517 Y114.74
M204 S1800
M205 X8 Y8
;TYPE:WALL-OUTER
G1 F1500 X136.322 Y114.124 E11.97892
G1 X136.511 Y113.903 E11.99246
G1 X136.473 Y113.863 E11.99503
G1 X136.163 Y113.537 E12.01597
G1 X135.177 Y114.297 E12.07394
G1 X135.203 Y114.331 E12.07594
G1 X135.517 Y114.74 E12.09995
M204 S3000
M205 X10 Y10
G0 F3000 X135.675 Y114.619
G0 X135.724 Y114.686
G0 X133.49 Y116.036
G0 X133.512 Y115.961
M204 S1800
M205 X8 Y8
G1 F1500 X134.831 Y115.267 E12.16935
G1 X135.067 Y115.085 E12.18322
G1 X134.788 Y114.652 E12.20721
G1 X133.251 Y115.466 E12.2882
G1 X133.512 Y115.961 E12.31425
M204 S3000
M205 X10 Y10
G0 F3000 X133.689 Y115.868
G0 X133.727 Y115.944
G0 X130.992 Y117.029
G0 X130.907 Y117.059
M204 S1800
M205 X8 Y8
G1 F1500 X132.535 Y116.454 E12.39512
G1 X132.66 Y116.408 E12.40133
G1 X132.687 Y116.394 E12.40274
G1 X132.933 Y116.272 E12.41553
G1 X132.88 Y116.15 E12.42172
G1 X132.721 Y115.785 E12.44026
G1 X132.464 Y115.881 E12.4527
G1 X130.712 Y116.534 E12.53977
G1 X130.907 Y117.059 E12.56585
M204 S3000
M205 X10 Y10
G0 F3000 X131.094 Y116.99
G0 X131.126 Y117.084
G0 X129.972 Y117.057
G0 X126.985 Y117.629
G0 X127.623 Y117.463
M204 S1800
M205 X8 Y8
G1 F1500 X127.765 Y118.004 E12.59189
G1 X129.751 Y117.488 E12.68744
G1 X130.039 Y117.377 E12.70181
G1 X129.876 Y116.873 E12.72647
G1 X127.623 Y117.463 E12.83492
M204 S3000
M205 X10 Y10
G0 F3000 X127.673 Y117.656
G0 X127.036 Y117.823
G0 X123.652 Y117.622
G0 X123.766 Y118.272
M204 S1800
M205 X8 Y8
G1 F1500 X123.862 Y118.823 E12.86096
G1 X126.094 Y118.439 E12.96642
G1 X126.394 Y118.356 E12.98092
G1 X126.277 Y117.835 E13.00578
G1 X123.766 Y118.272 E13.12446
M204 S3000
M205 X10 Y10
G0 F3000 X123.8 Y118.469
G0 X123.15 Y118.582
G0 X122.523 Y117.954
G0 X118.965 Y118.235
G0 X119.03 Y118.891
M204 S1800
M205 X8 Y8
G1 F1500 X119.085 Y119.448 E13.15052
G1 X121.778 Y119.184 E13.27652
G1 X122.09 Y119.13 E13.29127
G1 X122.017 Y118.595 E13.31641
G1 X119.03 Y118.891 E13.45618
M204 S3000
M205 X10 Y10
G0 F3000 X119.049 Y119.09
G0 X118.393 Y119.153
G0 X117.776 Y118.48
G0 X111.952 Y118.597
G0 X111.973 Y119.256
M204 S1800
M205 X8 Y8
G1 F1500 X111.989 Y119.814 E13.48217
G1 X112.434 Y119.803 E13.5029
G1 X116.948 Y119.659 E13.7132
G1 X117.266 Y119.626 E13.72808
G1 X117.229 Y119.086 E13.75329
G1 X111.973 Y119.256 E13.99816
M204 S3000
M205 X10 Y10
G0 F3000 X111.978 Y119.456
G0 X111.318 Y119.474
G0 X136.382 Y113.147
G0 X137.304 Y112.916
G0 X137.32 Y112.831
M204 S1800
M205 X8 Y8
G1 F1500 X137.608 Y112.248 E14.02843
G1 X137.678 Y111.971 E14.04174
G1 X137.205 Y111.797 E14.06521
G1 X136.818 Y112.583 E14.106
G1 X136.87 Y112.609 E14.10871
G1 X136.862 Y112.618
G1 X136.421 Y113.145 E14.14071
G1 X136.463 Y113.18 E14.14304
G1 X136.848 Y113.505 E14.16381
G1 X137.192 Y113.1 E14.18855
G1 X137.283 Y112.826 E14.20199
G1 X137.083 Y112.714 E14.21267
G1 X137.288 Y112.815 E14.21276
G1 X137.32 Y112.831
M204 S3000
M205 X10 Y10
G0 F3000 X137.408 Y112.652
G0 X137.353 Y112.93
G0 X138.066 Y111.451
G0 X138.626 Y112.011
M204 S1800
M205 X8 Y8
G1 F1500 X138.348 Y112.789 E14.25123
G1 X137.625 Y113.896 E14.31279
G1 X136.404 Y115.072 E14.39173
G1 X134.594 Y116.278 E14.49301
G1 X132.128 Y117.464 E14.62042
G1 X128.99 Y118.559 E14.77518
G1 X125.172 Y119.504 E14.95833
G1 X120.844 Y120.212 E15.16254
G1 X116.123 Y120.639 E15.38327
G1 X111.255 Y120.751 E15.61
G1 X105.928 Y120.503 E15.85832
G1 X100.985 Y119.899 E16.0902
G1 X96.665 Y119.012 E16.29555
G1 X93.052 Y117.919 E16.47132
G1 X90.217 Y116.712 E16.61479
G1 X88.127 Y115.471 E16.72797
G1 X86.878 Y114.439 E16.80342
G1 X86.178 Y113.647 E16.85263
G1 X85.677 Y112.841 E16.89683
G1 X85.38 Y112.037 E16.93674
G1 X85.28 Y111.217 E16.9752
G1 X85.28 Y103.262 E17.34562
G1 X85.981 Y103.249 E17.37827
G1 X138.72 Y103.249 E19.83401
G1 X138.72 Y111.201 E20.20429
G1 X138.626 Y112.011 E20.24226
M204 S3000
M205 X10 Y10
G0 F3000 X138.559 Y112.199
G0 X138.066 Y111.451
G0 X137.05 Y109.96
M204 S1800
M205 X8 Y8
;TYPE:SKIN
G1 F1500 X136.37 Y109.71 E20.276
G1 X135.306 Y111.874 E20.38829
G1 X134.796 Y112.481 E20.4252
G1 X133.651 Y113.365 E20.49256
G1 X131.797 Y114.347 E20.59025
G1 X129.14 Y115.339 E20.72231
G1 X125.692 Y116.242 E20.88828
G1 X121.838 Y116.912 E21.07043
G1 X121.842 Y116.934 E21.07147
G1 X117.205 Y117.394 E21.28845
G1 X117.207 Y117.416 E21.28948
G1 X110.256 Y117.64 E21.61332
G1 X110.295 Y119.035 E21.6783
G1 X106.076 Y118.837 E21.87497
G1 X101.252 Y118.248 E22.10126
G1 X97.068 Y117.39 E22.30014
G1 X93.624 Y116.348 E22.46769
G1 X90.984 Y115.225 E22.60128
G1 X89.089 Y114.098 E22.70394
G1 X88.043 Y113.234 E22.76711
G1 X87.527 Y112.65 E22.8034
G1 X87.181 Y112.095 E22.83386
G1 X87.014 Y111.644 E22.85625
G1 X86.95 Y111.115 E22.88106
G1 X86.95 Y104.919 E23.16957
G1 X137.05 Y104.919 E25.50244
G1 X137.05 Y109.96 E25.73717
M204 S3000
M205 X10 Y10
G0 F3000 X136.789 Y105.902
M204 S1800
M205 X8 Y8
G1 F1500 X136.065 Y105.178 E25.78485
M204 S3000
M205 X10 Y10
G0 F3000 X135.273 Y105.178
M204 S1800
M205 X8 Y8
G1 F1500 X136.789 Y106.694 E25.88468
M204 S3000
M205 X10 Y10
G0 F3000 X136.789 Y107.486
M204 S1800
M205 X8 Y8
G1 F1500 X134.481 Y105.178 E26.03666
M204 S3000
M205 X10 Y10
G0 F3000 X133.689 Y105.178
M204 S1800
M205 X8 Y8
G1 F1500 X136.789 Y108.278 E26.2408
M204 S3000
M205 X10 Y10
G0 F3000 X136.789 Y109.07
M204 S1800
M205 X8 Y8
G1 F1500 X132.897 Y105.178 E26.4971
M204 S3000
M205 X10 Y10
G0 F3000 X132.105 Y105.178
M204 S1800
M205 X8 Y8
G1 F1500 X136.353 Y109.426 E26.77684
M204 S3000
M205 X10 Y10
G0 F3000 X136.002 Y109.868
M204 S1800
M205 X8 Y8
G1 F1500 X131.313 Y105.178 E27.08565
M204 S3000
M205 X10 Y10
G0 F3000 X130.521 Y105.178
M204 S1800
M205 X8 Y8
G1 F1500 X135.741 Y110.398 E27.42939
M204 S3000
M205 X10 Y10
G0 F3000 X135.48 Y110.929
M204 S1800
M205 X8 Y8
G1 F1500 X129.729 Y105.178 E27.80811
M204 S3000
M205 X10 Y10
G0 F3000 X128.937 Y105.178
M204 S1800
M205 X8 Y8
G1 F1500 X135.219 Y111.46 E28.22179
M204 S3000
M205 X10 Y10
G0 F3000 X134.909 Y111.942
M204 S1800
M205 X8 Y8
G1 F1500 X128.145 Y105.178 E28.66721
M204 S3000
M205 X10 Y10
G0 F3000 X127.353 Y105.178
M204 S1800
M205 X8 Y8
G1 F1500 X134.531 Y112.356 E29.13989
M204 S3000
M205 X10 Y10
G0 F3000 X134.084 Y112.701
M204 S1800
M205 X8 Y8
G1 F1500 X126.561 Y105.178 E29.63529
M204 S3000
M205 X10 Y10
G0 F3000 X125.769 Y105.178
M204 S1800
M205 X8 Y8
G1 F1500 X133.637 Y113.046 E30.15342
M204 S3000
M205 X10 Y10
G0 F3000 X133.14 Y113.341
M204 S1800
M205 X8 Y8
G1 F1500 X124.977 Y105.178 E30.69096
M204 S3000
M205 X10 Y10
G0 F3000 X124.185 Y105.178
M204 S1800
M205 X8 Y8
G1 F1500 X132.622 Y113.615 E31.24655
M204 S3000
M205 X10 Y10
G0 F3000 X132.104 Y113.889
M204 S1800
M205 X8 Y8
G1 F1500 X123.393 Y105.178 E31.82019
M204 S3000
M205 X10 Y10
G0 F3000 X122.601 Y105.178
M204 S1800
M205 X8 Y8
G1 F1500 X131.574 Y114.151 E32.41108
M204 S3000
M205 X10 Y10
G0 F3000 X130.997 Y114.366
M204 S1800
M205 X8 Y8
G1 F1500 X121.809 Y105.178 E33.01612
M204 S3000
M205 X10 Y10
G0 F3000 X121.017 Y105.178
M204 S1800
M205 X8 Y8
G1 F1500 X130.421 Y114.582 E33.63539
M204 S3000
M205 X10 Y10
G0 F3000 X129.845 Y114.798
M204 S1800
M205 X8 Y8
G1 F1500 X120.225 Y105.178 E34.26888
M204 S3000
M205 X10 Y10
G0 F3000 X119.433 Y105.178
M204 S1800
M205 X8 Y8
G1 F1500 X129.268 Y115.013 E34.91654
M204 S3000
M205 X10 Y10
G0 F3000 X128.658 Y115.195
M204 S1800
M205 X8 Y8
G1 F1500 X118.641 Y105.178 E35.57617
M204 S3000
M205 X10 Y10
G0 F3000 X117.849 Y105.178
M204 S1800
M205 X8 Y8
G1 F1500 X128.031 Y115.36 E36.24667
M204 S3000
M205 X10 Y10
G0 F3000 X127.403 Y115.524
M204 S1800
M205 X8 Y8
G1 F1500 X117.057 Y105.178 E36.92798
M204 S3000
M205 X10 Y10
G0 F3000 X116.266 Y105.178
M204 S1800
M205 X8 Y8
G1 F1500 X126.775 Y115.688 E37.62004
M204 S3000
M205 X10 Y10
G0 F3000 X126.148 Y115.853
M204 S1800
M205 X8 Y8
G1 F1500 X115.474 Y105.178 E38.32298
M204 S3000
M205 X10 Y10
G0 F3000 X114.682 Y105.178
M204 S1800
M205 X8 Y8
G1 F1500 X125.512 Y116.008 E39.03615
M204 S3000
M205 X10 Y10
G0 F3000 X124.837 Y116.126
M204 S1800
M205 X8 Y8
G1 F1500 X113.89 Y105.178 E39.75706
M204 S3000
M205 X10 Y10
G0 F3000 X113.098 Y105.178
M204 S1800
M205 X8 Y8
G1 F1500 X124.163 Y116.243 E40.48571
M204 S3000
M205 X10 Y10
G0 F3000 X123.487 Y116.36
M204 S1800
M205 X8 Y8
G1 F1500 X112.306 Y105.178 E41.22203
M204 S3000
M205 X10 Y10
G0 F3000 X111.514 Y105.178
M204 S1800
M205 X8 Y8
G1 F1500 X122.813 Y116.477 E41.96609
M204 S3000
M205 X10 Y10
G0 F3000 X122.138 Y116.594
M204 S1800
M205 X8 Y8
G1 F1500 X110.722 Y105.178 E42.71786
M204 S3000
M205 X10 Y10
G0 F3000 X109.93 Y105.178
M204 S1800
M205 X8 Y8
G1 F1500 X121.461 Y116.709 E43.47719
M204 S3000
M205 X10 Y10
G0 F3000 X120.74 Y116.78
M204 S1800
M205 X8 Y8
G1 F1500 X109.138 Y105.178 E44.2412
M204 S3000
M205 X10 Y10
G0 F3000 X108.346 Y105.178
M204 S1800
M205 X8 Y8
G1 F1500 X120.02 Y116.852 E45.00996
M204 S3000
M205 X10 Y10
G0 F3000 X119.299 Y116.923
M204 S1800
M205 X8 Y8
G1 F1500 X107.554 Y105.178 E45.78338
M204 S3000
M205 X10 Y10
G0 F3000 X106.762 Y105.178
M204 S1800
M205 X8 Y8
G1 F1500 X118.578 Y116.995 E46.56152
M204 S3000
M205 X10 Y10
G0 F3000 X117.858 Y117.066
M204 S1800
M205 X8 Y8
G1 F1500 X105.97 Y105.178 E47.34437
M204 S3000
M205 X10 Y10
G0 F3000 X105.178 Y105.178
M204 S1800
M205 X8 Y8
G1 F1500 X117.137 Y117.137 E48.13189
M204 S3000
M205 X10 Y10
G0 F3000 X116.389 Y117.181
M204 S1800
M205 X8 Y8
G1 F1500 X104.386 Y105.178 E48.9223
M204 S3000
M205 X10 Y10
G0 F3000 X103.594 Y105.178
M204 S1800
M205 X8 Y8
G1 F1500 X115.621 Y117.205 E49.7143
M204 S3000
M205 X10 Y10
G0 F3000 X114.853 Y117.229
M204 S1800
M205 X8 Y8
G1 F1500 X102.802 Y105.178 E50.50788
M204 S3000
M205 X10 Y10
G0 F3000 X102.01 Y105.178
M204 S1800
M205 X8 Y8
G1 F1500 X114.086 Y117.254 E51.30311
M204 S3000
M205 X10 Y10
G0 F3000 X113.319 Y117.279
M204 S1800
M205 X8 Y8
G1 F1500 X101.218 Y105.178 E52.09998
M204 S3000
M205 X10 Y10
G0 F3000 X100.426 Y105.178
M204 S1800
M205 X8 Y8
G1 F1500 X112.552 Y117.304 E52.8985
M204 S3000
M205 X10 Y10
G0 F3000 X111.785 Y117.328
M204 S1800
M205 X8 Y8
G1 F1500 X99.634 Y105.178 E53.69863
M204 S3000
M205 X10 Y10
G0 F3000 X98.842 Y105.178
M204 S1800
M205 X8 Y8
G1 F1500 X111.017 Y117.353 E54.50037
M204 S3000
M205 X10 Y10
G0 F3000 X110.25 Y117.378
M204 S1800
M205 X8 Y8
G1 F1500 X98.05 Y105.178 E55.30376
M204 S3000
M205 X10 Y10
G0 F3000 X97.259 Y105.178
M204 S1800
M205 X8 Y8
G1 F1500 X110.004 Y117.924 E56.14308
M204 S3000
M205 X10 Y10
G0 F3000 X110.027 Y118.739
M204 S1800
M205 X8 Y8
G1 F1500 X96.467 Y105.178 E57.03606
M204 S3000
M205 X10 Y10
G0 F3000 X95.675 Y105.178
M204 S1800
M205 X8 Y8
G1 F1500 X109.219 Y118.722 E57.92795
M204 S3000
M205 X10 Y10
G0 F3000 X108.388 Y118.683
M204 S1800
M205 X8 Y8
G1 F1500 X94.883 Y105.178 E58.81728
M204 S3000
M205 X10 Y10
G0 F3000 X94.091 Y105.178
M204 S1800
M205 X8 Y8
G1 F1500 X107.557 Y118.644 E59.70404
M204 S3000
M205 X10 Y10
G0 F3000 X106.726 Y118.605
M204 S1800
M205 X8 Y8
G1 F1500 X93.299 Y105.178 E60.58823
M204 S3000
M205 X10 Y10
G0 F3000 X92.507 Y105.178
M204 S1800
M205 X8 Y8
G1 F1500 X105.878 Y118.549 E61.46873
M204 S3000
M205 X10 Y10
G0 F3000 X104.977 Y118.44
M204 S1800
M205 X8 Y8
G1 F1500 X91.715 Y105.178 E62.34206
M204 S3000
M205 X10 Y10
G0 F3000 X90.923 Y105.178
M204 S1800
M205 X8 Y8
G1 F1500 X104.074 Y118.33 E63.20811
M204 S3000
M205 X10 Y10
G0 F3000 X103.173 Y118.22
M204 S1800
M205 X8 Y8
G1 F1500 X90.131 Y105.178 E64.06695
M204 S3000
M205 X10 Y10
G0 F3000 X89.339 Y105.178
M204 S1800
M205 X8 Y8
G1 F1500 X102.27 Y118.11 E64.91851
M204 S3000
M205 X10 Y10
G0 F3000 X101.368 Y117.999
M204 S1800
M205 X8 Y8
G1 F1500 X88.547 Y105.178 E65.76279
M204 S3000
M205 X10 Y10
G0 F3000 X87.755 Y105.178
M204 S1800
M205 X8 Y8
G1 F1500 X100.38 Y117.803 E66.59417
M204 S3000
M205 X10 Y10
G0 F3000 X99.383 Y117.598
M204 S1800
M205 X8 Y8
G1 F1500 X87.209 Y105.424 E67.39585
M204 S3000
M205 X10 Y10
