;FLAVOR:Marlin
;TIME:7584
;Filament used: 5.53349m
;Layer height: 0.2
;MINX:86.339
;MINY:77.95
;MINZ:0.2
;MAXX:137.662
;MAXY:146.915
;MAXZ:46
;Generated with Cura_SteamEngine 4.2.1
M140 S60
M105
M190 S60
M104 S200
M105
M109 S200
M82 ;absolute extrusion mode
G21 ;metric values
G90 ;absolute positioning
M82 ;set extruder to absolute mode
M107 ;start with the fan off
G28 X0 Y0 ;move X/Y to min endstops
G28 Z0 ;move Z to min endstops
G1 Z15.0 F100 ;move the platform down 15mm
G92 E0 ;zero the extruded length
G1 F200 E3 ;extrude 3mm of feed stock
G92 E0 ;zero the extruded length again
G1 F100
M117 Printing...
G5
M141 S28
G92 E0
G92 E0
G1 F2400 E-6
;LAYER_COUNT:230
;LAYER:0
M106 S255
M204 S3000
M205 X10 Y10
G0 F3000 X88.337 Y78.03 Z0.2
M204 S1800
M205 X8 Y8
;TYPE:SUPPORT
G1 F2400 E0
G1 F1500 X97.45 Y78.03 E0.42434
G1 X97.452 Y80.27 E0.52864
G1 X88.337 Y80.27 E0.95308
G1 X88.337 Y78.03 E1.05738
M204 S3000
M205 X10 Y10
G0 F3000 X88.556 Y78.841
M204 S1800
M205 X8 Y8
G1 F1500 X90.648 Y80.048 E1.16984
M204 S3000
M205 X10 Y10
G0 F3000 X96 Y80.05
M204 S1800
M205 X8 Y8
G1 F1500 X96 Y78.25 E1.25366
M204 S3000
M205 X10 Y10
G0 F3000 X126.365 Y80.27
M204 S1800
M205 X8 Y8
G1 F1500 X126.533 Y78.03 E1.35825
G1 X135.694 Y78.032 E1.78483
G1 X135.72 Y78.058 E1.78654
G1 X135.72 Y80.27 E1.88954
G1 X126.365 Y80.27 E2.32515
M204 S3000
M205 X10 Y10
G0 F3000 X128 Y80.05
M204 S1800
M205 X8 Y8
G1 F1500 X128 Y78.251 E2.40892
M204 S3000
M205 X10 Y10
G0 F3000 X133.349 Y80.049
M204 S1800
M205 X8 Y8
G1 F1500 X135.498 Y78.808 E2.52447
M204 S3000
M205 X10 Y10
G1 F2400 E-3.47553
G0 F3000 X137.653 Y81.137
G0 X137.662 Y146.335
G0 X135.92 Y146.915
G0 X135.032 Y145.054
M204 S1800
M205 X8 Y8
G1 F2400 E2.52447
G1 F1500 X135.033 Y145.97 E2.56712
G1 X88.98 Y145.97 E4.71155
G1 X88.98 Y145.015 E4.75601
G1 X89.784 Y145.53 E4.80047
G1 X133.216 Y145.53 E6.82285
G1 X134.122 Y145.462 E6.86516
G1 X134.661 Y145.269 E6.89181
G1 X135.032 Y145.054 E6.91178
M204 S3000
M205 X10 Y10
G1 F2400 E0.91178
;MESH:sonic.sensor.frame.stl
G0 F3000 X133.512 Y83.915
G0 X133.596 Y82.392
G0 X89.752 Y82.387
G0 X89.77 Y82.484
M204 S1800
M205 X8 Y8
;TYPE:WALL-INNER
G1 F2400 E6.91178
G1 F1500 X89.308 Y82.645 E6.93456
G1 X89.051 Y82.735 E6.94724
G1 X88.417 Y83.131 E6.98205
G1 X88.324 Y83.224 E6.98817
G1 X87.886 Y83.662 E7.01702
G1 X87.84 Y83.735 E7.02103
G1 X87.84 Y83.662
G1 X87.84 Y83.042 E7.03767
G1 X87.84 Y82.09 E7.082
G1 X89.281 Y82.09 E7.1491
G1 X89.77 Y82.09 E7.16854
G1 X90.672 Y82.09 E7.21054
G1 X133.597 Y82.09 E9.20931
G1 X134.31 Y82.09 E9.24251
G1 X134.76 Y82.09 E9.26346
G1 X136.155 Y82.09 E9.32842
G1 X136.159 Y83.096 E9.37526
G1 X136.159 Y83.165 E9.37848
G1 X136.16 Y83.245 E9.3822
G1 X136.16 Y83.671 E9.40204
G1 X135.948 Y83.451 E9.4046
G1 X135.674 Y83.168 E9.41972
G1 X135.617 Y83.131 E9.42269
G1 X135.031 Y82.752 E9.45519
G1 X134.733 Y82.645 E9.46993
G1 X134.31 Y82.493 E9.48797
G1 X133.597 Y82.411 E9.50962
G1 X90.672 Y82.41 E10.65356
G1 X89.77 Y82.484 E10.68047
M204 S3000
M205 X10 Y10
G0 F3000 X89.752 Y82.387
G0 X133.567 Y82.932
G0 X134.798 Y83.222
G0 X135.789 Y84.037
G0 X136.378 Y85.208
G0 X136.28 Y85.223
M204 S1800
M205 X8 Y8
;TYPE:WALL-OUTER
G1 F1500 X136.164 Y84.856 E10.69839
G1 X136.084 Y84.608 E10.71052
G1 X135.758 Y84.061 E10.74017
G1 X135.316 Y83.603 E10.76981
G1 X134.781 Y83.257 E10.79948
G1 X134.182 Y83.042 E10.82911
G1 X133.565 Y82.971 E10.85803
G1 X90.695 Y82.97 E12.85424
G1 X89.887 Y83.036 E12.89199
G1 X89.295 Y83.243 E12.92119
G1 X88.768 Y83.572 E12.95012
G1 X88.327 Y84.013 E12.97916
G1 X87.996 Y84.541 E13.00818
G1 X87.838 Y84.989 E13.0303
G1 X87.789 Y85.129 E13.03721
G1 X87.721 Y85.732 E13.06546
G1 X87.721 Y129.922 E15.12313
G1 X87.72 Y145.97 E15.8704
G1 X87.293 Y145.97 E15.89028
G1 X87.28 Y129.922 E16.46941
G1 X87.28 Y85.732 E18.08982
G1 X87.28 Y85.129 E18.11364
G1 X87.28 Y84.98 E18.12026
G1 X87.28 Y81.53 E18.28091
G1 X136.713 Y81.53 E20.58272
G1 X136.72 Y83.245 E20.66258
G1 X136.72 Y84.838 E20.73675
G1 X136.72 Y85.223 E20.75278
G1 X136.72 Y129.904 E22.83332
G1 X136.72 Y145.952 E23.58058
G1 X136.293 Y145.963 E23.60047
G1 X136.28 Y129.904 E24.17939
G1 X136.28 Y85.223 E25.81409
M204 S3000
M205 X10 Y10
G0 F3000 X136.22 Y85.032
G0 X136.315 Y85.005
G0 X135.838 Y82.947
G0 X135.547 Y82.656
M204 S1800
M205 X8 Y8
;TYPE:SKIN
G1 F1500 X135.031 Y82.422 E25.82551
G1 X135.71 Y82.536 E25.83939
G1 X135.851 Y82.394 E25.84342
M204 S3000
M205 X10 Y10
G0 F3000 X135.822 Y82.365
G0 X90.667 Y82.371
G0 X88.975 Y82.469
G0 X88.922 Y82.417
M204 S1800
M205 X8 Y8
G1 F1500 X88.69 Y82.467 E25.85041
G1 X88.279 Y82.622 E25.86334
G1 X88.191 Y82.817 E25.86964
M204 S3000
M205 X10 Y10
G0 F3000 X88.4 Y82.656
G1 F2400 E19.86964
;MESH:NONMESH
G0 F600 X88.4 Y82.656 Z0.4
G0 F3000 X88.257 Y80.585
G0 X88.257 Y77.95
;TIME_ELAPSED:35.743992
;LAYER:1
M140 S60
M204 S1800
M205 X8 Y8
;TYPE:SUPPORT
G1 F2400 E25.86964
G1 F1650 X97.529 Y77.95 E26.17803
G1 X97.532 Y80.35 E26.25785
G1 X88.257 Y80.35 E26.56634
G1 X88.257 Y77.95 E26.64616
M204 S3000
M205 X10 Y10
G0 F4500 X88.397 Y78.29
M204 S1800
M205 X8 Y8
G1 F1650 X88.745 Y78.089 E26.65953
M204 S3000
M205 X10 Y10
G0 F4500 X88.396 Y78.748
M204 S1800
M205 X8 Y8
G1 F1650 X90.926 Y80.209 E26.7567
M204 S3000
M205 X10 Y10
G0 F4500 X96 Y80.21
M204 S1800
M205 X8 Y8
G1 F1650 X96 Y78.09 E26.82721
M204 S3000
M205 X10 Y10
G0 F4500 X126.279 Y80.35
M204 S1800
M205 X8 Y8
G1 F1650 X126.457 Y77.95 E26.90726
G1 X135.729 Y77.952 E27.21565
G1 X135.8 Y78.023 E27.21898
G1 X135.8 Y80.35 E27.29638
G1 X126.279 Y80.35 E27.61305
M204 S3000
M205 X10 Y10
G0 F4500 X128 Y80.21
M204 S1800
M205 X8 Y8
G1 F1650 X128 Y78.091 E27.68353
M204 S3000
M205 X10 Y10
G0 F4500 X133.073 Y80.209
M204 S1800
M205 X8 Y8
G1 F1650 X135.659 Y78.716 E27.78285
M204 S3000
M205 X10 Y10
G0 F4500 X135.66 Y78.323
M204 S1800
M205 X8 Y8
G1 F1650 X135.26 Y78.092 E27.79821
M204 S3000
M205 X10 Y10
G1 F2400 E21.79821
G0 F4500 X137.638 Y81.088
G0 X137.661 Y146.407
G0 X135.843 Y146.911
G0 X135.1 Y144.924
M204 S1800
M205 X8 Y8
G1 F2400 E27.79821
G1 F1650 X135.1 Y146.05 E27.83566
G1 X88.9 Y146.05 E29.37228
G1 X88.9 Y144.869 E29.41156
G1 X89.807 Y145.45 E29.44738
G1 X133.208 Y145.45 E30.89091
G1 X134.1 Y145.383 E30.92066
G1 X134.622 Y145.199 E30.93907
G1 X135.1 Y144.924 E30.95741
M204 S3000
M205 X10 Y10
G0 F4500 X131.83 Y145.589
M204 S1800
M205 X8 Y8
G1 F1650 X131.276 Y145.909 E30.97869
M204 S3000
M205 X10 Y10
G0 F4500 X128 Y145.91
M204 S1800
M205 X8 Y8
G1 F1650 X128 Y145.59 E30.98933
M204 S3000
M205 X10 Y10
G0 F4500 X124.721 Y145.908
M204 S1800
M205 X8 Y8
G1 F1650 X124.169 Y145.59 E31.01052
M204 S3000
M205 X10 Y10
G0 F4500 X120 Y145.59
M204 S1800
M205 X8 Y8
G1 F1650 X120 Y145.91 E31.02116
M204 S3000
M205 X10 Y10
G0 F4500 X115.831 Y145.589
M204 S1800
M205 X8 Y8
G1 F1650 X115.276 Y145.91 E31.04249
M204 S3000
M205 X10 Y10
G0 F4500 X112 Y145.91
M204 S1800
M205 X8 Y8
G1 F1650 X112 Y145.59 E31.05313
M204 S3000
M205 X10 Y10
G0 F4500 X108.721 Y145.908
M204 S1800
M205 X8 Y8
G1 F1650 X108.168 Y145.589 E31.07436
M204 S3000
M205 X10 Y10
G0 F4500 X104 Y145.59
M204 S1800
M205 X8 Y8
G1 F1650 X104 Y145.91 E31.08501
M204 S3000
M205 X10 Y10
G0 F4500 X99.831 Y145.589
M204 S1800
M205 X8 Y8
G1 F1650 X99.276 Y145.909 E31.10631
M204 S3000
M205 X10 Y10
G0 F4500 X96 Y145.91
M204 S1800
M205 X8 Y8
G1 F1650 X96 Y145.59 E31.11696
M204 S3000
M205 X10 Y10
G0 F4500 X92.72 Y145.908
M204 S1800
M205 X8 Y8
G1 F1650 X92.168 Y145.589 E31.13816
M204 S3000
M205 X10 Y10
G1 F2400 E25.13816
;MESH:sonic.sensor.frame.stl
G0 F4500 X89.709 Y84.099
G0 X89.151 Y82.932
G0 X89.736 Y82.327
M204 S1800
M205 X8 Y8
;TYPE:WALL-INNER
G1 F2400 E31.13816
G1 F2250 X88.984 Y82.588 E31.16464
G1 X88.894 Y82.644 E31.16816
G1 X88.381 Y82.966 E31.18831
G1 X88.32 Y83.004 E31.1907
G1 X88 Y83.322 E31.2057
G1 X88 Y83.004 E31.20919
G1 X88 Y82.932 E31.21137
G1 X88 Y82.25 E31.23406
G1 X88.877 Y82.25 E31.26323
G1 X88.984 Y82.25 E31.26652
G1 X89.736 Y82.25 E31.27932
G1 X90.56 Y82.25 E31.30673
G1 X133.61 Y82.25 E32.73858
G1 X134.351 Y82.25 E32.76322
G1 X135.106 Y82.25 E32.78833
G1 X135.175 Y82.25 E32.79063
G1 X135.989 Y82.25 E32.8177
G1 X135.996 Y82.875 E32.83849
G1 X135.997 Y83.044 E32.84411
G1 X136 Y83.236 E32.8505
G1 X136 Y83.276 E32.85183
G1 X135.981 Y83.256
G1 X135.779 Y83.047 E32.85629
G1 X135.638 Y82.955 E32.86077
G1 X135.163 Y82.646 E32.87961
G1 X135.106 Y82.609 E32.88176
G1 X134.351 Y82.337 E32.89716
G1 X133.61 Y82.251 E32.89997
G1 X90.56 Y82.25 E32.90176
G1 X89.736 Y82.327 E32.92929
M204 S3000
M205 X10 Y10
G0 F4500 X133.587 Y82.612
G0 X134.943 Y82.935
G0 X136.094 Y83.809
G0 X136.015 Y83.868
M204 S1800
M205 X8 Y8
G1 F2250 X136.003 Y83.856 E32.92985
G1 X135.523 Y83.357 E32.95288
G1 X134.927 Y82.97 E32.97652
G1 X134.259 Y82.729 E33.00014
G1 X133.587 Y82.651 E33.02264
G1 X90.579 Y82.65 E34.45309
G1 X89.821 Y82.721 E34.47841
G1 X89.158 Y82.951 E34.50175
G1 X88.57 Y83.319 E34.52482
G1 X88.077 Y83.81 E34.54797
G1 X87.977 Y83.969 E34.55421
G1 X87.708 Y84.399 E34.57108
G1 X87.6 Y84.706 E34.58191
G1 X87.6 Y84.399 E34.58316
G1 X87.6 Y83.891 E34.59414
G1 X87.6 Y81.85 E34.66202
G1 X136.385 Y81.85 E36.28461
G1 X136.4 Y83.236 E36.33072
G1 X136.4 Y83.85 E36.35114
G1 X136.4 Y83.868 E36.35173
G1 X136.4 Y84.479 E36.37205
G1 X136.4 Y84.545 E36.37424
G1 X136.379 Y84.479 E36.37439
G1 X136.015 Y83.868 E36.38759
M204 S3000
M205 X10 Y10
G0 F4500 X136.094 Y83.809
G0 X136.298 Y85.221
G0 X136.2 Y85.236
M204 S1800
M205 X8 Y8
;TYPE:WALL-OUTER
G1 F2250 X136.012 Y84.644 E36.40825
G1 X135.695 Y84.112 E36.42885
G1 X135.267 Y83.668 E36.44936
G1 X134.748 Y83.331 E36.46994
G1 X134.167 Y83.121 E36.49049
G1 X133.564 Y83.051 E36.51068
G1 X90.598 Y83.05 E37.93974
G1 X89.906 Y83.115 E37.96286
G1 X89.332 Y83.314 E37.98306
G1 X88.82 Y83.634 E38.00314
G1 X88.392 Y84.061 E38.02325
G1 X88.07 Y84.574 E38.0434
G1 X87.869 Y85.145 E38.06353
G1 X87.801 Y85.734 E38.08325
G1 X87.8 Y146.05 E40.08937
G1 X87.2 Y146.05 E40.10932
G1 X87.2 Y81.45 E42.25793
G1 X136.781 Y81.45 E43.907
G1 X136.8 Y83.236 E43.96641
G1 X136.8 Y146.05 E46.05561
G1 X136.2 Y146.05 E46.07556
G1 X136.2 Y85.236 E48.09825
M204 S3000
M205 X10 Y10
G0 F4500 X136.14 Y85.046
G0 X136.38 Y84.802
M204 S1800
M205 X8 Y8
;TYPE:SKIN
G1 F1350 X136.482 Y84.982 E48.10186
G1 X136.498 Y88.926 E48.1708
G1 X136.499 Y115.796 E48.64047
G1 X136.499 Y145.494 E49.15958
G1 X136.513 Y145.763 E49.16429
M204 S3000
M205 X10 Y10
G0 F4500 X136.422 Y145.854
G0 X136.595 Y85.175
G0 X135.726 Y84.088
G0 X134.765 Y83.296
G0 X133.566 Y83.012
G0 X90.597 Y83.011
G0 X89.315 Y83.278
G0 X88.361 Y84.037
G0 X87.48 Y85.056
G0 X87.604 Y145.74
G0 X87.547 Y145.797
M204 S1800
M205 X8 Y8
G1 F1350 X87.499 Y145.562 E49.16848
G1 X87.499 Y90.408 E50.13321
G1 X87.514 Y85.584 E50.21759
G1 X87.516 Y85.017 E50.22751
M204 S3000
M205 X10 Y10
G0 F4500 X87.393 Y85.14
G0 X88.39 Y82.729
G0 X88.532 Y82.587
M204 S1800
M205 X8 Y8
G1 F1350 X88.292 Y82.543 E50.2388
M204 S3000
M205 X10 Y10
G0 F4500 X88.194 Y82.642
G0 X135.29 Y82.498
G0 X135.316 Y82.471
M204 S1800
M205 X8 Y8
G1 F1350 X135.544 Y82.527 E50.24358
G1 X135.714 Y82.639 E50.24773
M204 S3000
M205 X10 Y10
G0 F4500 X135.633 Y82.72
G1 F2400 E44.24773
;MESH:NONMESH
G0 F600 X135.633 Y82.72 Z0.6
G0 F4500 X133.977 Y82.633
G0 X90.578 Y82.631
G0 X90.634 Y83.914
G0 X88.661 Y146.407
G0 X86.843 Y146.911
G0 X86.339 Y81.093
G0 X88.257 Y77.95
;TIME_ELAPSED:72.982338
;LAYER:2
M204 S1800
M205 X8 Y8
;TYPE:SUPPORT
G1 F2400 E50.24773
G1 F1800 X97.529 Y77.95 E50.55612
G1 X97.532 Y80.35 E50.63594
G1 X88.257 Y80.35 E50.94443
G1 X88.257 Y77.95 E51.02425
M204 S3000
M205 X10 Y10
G0 F6000 X88.397 Y78.29
M204 S1800
M205 X8 Y8
G1 F1800 X88.745 Y78.089 E51.03762
M204 S3000
M205 X10 Y10
G0 F6000 X88.396 Y78.748
M204 S1800
M205 X8 Y8
G1 F1800 X90.926 Y80.209 E51.13479
M204 S3000
M205 X10 Y10
G0 F6000 X96 Y80.21
M204 S1800
M205 X8 Y8
G1 F1800 X96 Y78.09 E51.2053
M204 S3000
M205 X10 Y10
G0 F6000 X126.279 Y80.35
M204 S1800
M205 X8 Y8
G1 F1800 X126.458 Y77.95 E51.28535
G1 X135.73 Y77.952 E51.59374
G1 X135.8 Y78.022 E51.59703
G1 X135.8 Y80.35 E51.67446
G1 X126.279 Y80.35 E51.99113
M204 S3000
M205 X10 Y10
G0 F6000 X128 Y80.21
M204 S1800
M205 X8 Y8
G1 F1800 X128 Y78.091 E52.06161
M204 S3000
M205 X10 Y10
G0 F6000 X133.073 Y80.209
M204 S1800
M205 X8 Y8
G1 F1800 X135.659 Y78.716 E52.16092
M204 S3000
M205 X10 Y10
G0 F6000 X135.66 Y78.323
M204 S1800
M205 X8 Y8
G1 F1800 X135.26 Y78.092 E52.17628
M204 S3000
M205 X10 Y10
G1 F2400 E46.17628
G0 F6000 X137.661 Y81.093
G0 X137.661 Y146.407
G0 X135.843 Y146.911
G0 X135.1 Y144.924
M204 S1800
M205 X8 Y8
G1 F2400 E52.17628
G1 F1800 X135.1 Y146.05 E52.21374
G1 X88.9 Y146.05 E53.75035
G1 X88.9 Y144.869 E53.78963
G1 X89.806 Y145.45 E53.82543
G1 X133.206 Y145.45 E55.26892
G1 X134.098 Y145.382 E55.29868
G1 X134.613 Y145.204 E55.3168
G1 X135.1 Y144.924 E55.33548
M204 S3000
M205 X10 Y10
G0 F6000 X131.83 Y145.589
M204 S1800
M205 X8 Y8
G1 F1800 X131.276 Y145.909 E55.35676
M204 S3000
M205 X10 Y10
G0 F6000 X128 Y145.91
M204 S1800
M205 X8 Y8
G1 F1800 X128 Y145.59 E55.36741
M204 S3000
M205 X10 Y10
G0 F6000 X124.721 Y145.908
M204 S1800
M205 X8 Y8
G1 F1800 X124.169 Y145.59 E55.38859
M204 S3000
M205 X10 Y10
G0 F6000 X120 Y145.59
M204 S1800
M205 X8 Y8
G1 F1800 X120 Y145.91 E55.39924
M204 S3000
M205 X10 Y10
G0 F6000 X115.831 Y145.589
M204 S1800
M205 X8 Y8
G1 F1800 X115.276 Y145.91 E55.42056
M204 S3000
M205 X10 Y10
G0 F6000 X112 Y145.91
M204 S1800
M205 X8 Y8
G1 F1800 X112 Y145.59 E55.4312
M204 S3000
M205 X10 Y10
G0 F6000 X108.721 Y145.908
M204 S1800
M205 X8 Y8
G1 F1800 X108.168 Y145.589 E55.45244
M204 S3000
M205 X10 Y10
G0 F6000 X104 Y145.59
M204 S1800
M205 X8 Y8
G1 F1800 X104 Y145.91 E55.46308
M204 S3000
M205 X10 Y10
G0 F6000 X99.83 Y145.589
M204 S1800
M205 X8 Y8
G1 F1800 X99.276 Y145.909 E55.48436
M204 S3000
M205 X10 Y10
G0 F6000 X96 Y145.91
M204 S1800
M205 X8 Y8
G1 F1800 X96 Y145.59 E55.495
M204 S3000
M205 X10 Y10
G0 F6000 X92.72 Y145.908
M204 S1800
M205 X8 Y8
G1 F1800 X92.168 Y145.589 E55.51621
M204 S3000
M205 X10 Y10
G1 F2400 E49.51621
;MESH:sonic.sensor.frame.stl
G0 F6000 X88.157 Y146.911
G0 X86.843 Y146.911
G0 X86.339 Y81.093
G0 X92.168 Y80.585
G0 X92.168 Y81.87
G0 X134.353 Y82.338
M204 S1800
M205 X8 Y8
;TYPE:WALL-INNER
G1 F2400 E55.51621
G1 F3000 X133.612 Y82.252 E55.54102
G1 X90.445 Y82.25 E55.54461
G1 X89.729 Y82.329 E55.56857
G1 X88.988 Y82.587 E55.59466
G1 X88.895 Y82.645 E55.59831
G1 X88.381 Y82.965 E55.61845
G1 X88.322 Y83.002 E55.62076
G1 X88 Y83.322 E55.63586
G1 X88 Y83.002 E55.63939
G1 X88 Y82.932 E55.64152
G1 X88 Y82.25 E55.66421
G1 X88.878 Y82.25 E55.69341
G1 X88.988 Y82.25 E55.69679
G1 X89.729 Y82.25 E55.70943
G1 X90.445 Y82.25 E55.73325
G1 X133.612 Y82.25 E55.73683
G1 X134.353 Y82.25 E55.73958
G1 X135.108 Y82.25 E55.76469
G1 X135.172 Y82.25 E55.76682
G1 X136 Y82.25 E55.79436
G1 X136 Y82.883 E55.81541
G1 X136 Y83.049 E55.82093
G1 X136 Y83.277 E55.82852
G1 X135.781 Y83.049 E55.83293
G1 X135.642 Y82.959 E55.83734
G1 X135.161 Y82.646 E55.85642
G1 X135.108 Y82.612 E55.85842
G1 X134.353 Y82.338 E55.87397
M204 S3000
M205 X10 Y10
G0 F6000 X136.095 Y83.811
G0 X136.016 Y83.87
M204 S1800
M205 X8 Y8
G1 F3000 X136.003 Y83.857 E55.87458
G1 X135.525 Y83.359 E55.89754
G1 X134.929 Y82.972 E55.92118
G1 X134.261 Y82.73 E55.94481
G1 X133.589 Y82.652 E55.96731
G1 X90.467 Y82.65 E57.40155
G1 X89.818 Y82.722 E57.42327
G1 X89.162 Y82.95 E57.44637
G1 X88.572 Y83.318 E57.4695
G1 X88.079 Y83.808 E57.49262
G1 X87.977 Y83.969 E57.49896
G1 X87.709 Y84.396 E57.51572
G1 X87.6 Y84.706 E57.52665
