;FLAVOR:Marlin
;TIME:7759
;Filament used: 5.67214m
;Layer height: 0.2
;MINX:85.585
;MINY:77.95
;MINZ:0.2
;MAXX:138.411
;MAXY:146.912
;MAXZ:46
;Generated with Cura_SteamEngine 4.2.1
M140 S60
M105
M190 S60
M104 S200
M105
M109 S200
M82 ;absolute extrusion mode
G21 ;metric values
G90 ;absolute positioning
M82 ;set extruder to absolute mode
M107 ;start with the fan off
G28 X0 Y0 ;move X/Y to min endstops
G28 Z0 ;move Z to min endstops
G1 Z15.0 F100 ;move the platform down 15mm
G92 E0 ;zero the extruded length
G1 F200 E3 ;extrude 3mm of feed stock
G92 E0 ;zero the extruded length again
G1 F100
M117 Printing...
G5
M141 S28
G92 E0
G92 E0
G1 F2400 E-6
;LAYER_COUNT:230
;LAYER:0
M106 S255
M204 S3000
M205 X10 Y10
G0 F3000 X88.28 Y78.047 Z0.2
M204 S1800
M205 X8 Y8
;TYPE:SUPPORT
G1 F2400 E0
G1 F1500 X98.735 Y78.03 E0.48683
G1 X98.725 Y80.27 E0.59113
G1 X88.276 Y80.27 E1.07768
G1 X88.28 Y78.047 E1.1812
M204 S3000
M205 X10 Y10
G0 F3000 X88.497 Y78.807
M204 S1800
M205 X8 Y8
G1 F1500 X90.648 Y80.048 E1.29683
M204 S3000
M205 X10 Y10
G0 F3000 X96 Y80.05
M204 S1800
M205 X8 Y8
G1 F1500 X96 Y78.254 E1.38046
M204 S3000
M205 X10 Y10
G0 F3000 X125.28 Y78.03
M204 S1800
M205 X8 Y8
G1 F1500 X135.709 Y78.031 E1.86608
G1 X135.72 Y78.042 E1.8668
G1 X135.72 Y80.27 E1.97055
G1 X125.28 Y80.27 E2.45668
G1 X125.28 Y78.03 E2.56098
M204 S3000
M205 X10 Y10
G0 F3000 X128 Y78.251
M204 S1800
M205 X8 Y8
G1 F1500 X128 Y80.05 E2.64475
M204 S3000
M205 X10 Y10
G0 F3000 X133.349 Y80.049
M204 S1800
M205 X8 Y8
G1 F1500 X135.498 Y78.808 E2.7603
M204 S3000
M205 X10 Y10
G1 F2400 E-3.2397
G0 F3000 X137.86 Y80.589
G0 X137.661 Y146.35
G0 X135.897 Y146.912
G0 X135.02 Y145.06
M204 S1800
M205 X8 Y8
G1 F2400 E2.7603
G1 F1500 X135.02 Y145.97 E2.80268
G1 X88.98 Y145.97 E4.94649
G1 X88.98 Y145.019 E4.99077
G1 X89.334 Y145.228 E5.00992
G1 X89.823 Y145.402 E5.03408
G1 X90.924 Y145.53 E5.0857
G1 X133.472 Y145.53 E7.06691
G1 X134.078 Y145.46 E7.09532
G1 X134.649 Y145.288 E7.12308
G1 X135.02 Y145.06 E7.14336
M204 S3000
M205 X10 Y10
G1 F2400 E1.14336
;MESH:sonic.sensor.frame.stl
G0 F3000 X133.512 Y83.915
G0 X133.596 Y82.392
G0 X89.752 Y82.387
G0 X89.77 Y82.484
M204 S1800
M205 X8 Y8
;TYPE:WALL-INNER
G1 F2400 E7.14336
G1 F1500 X89.308 Y82.645 E7.16614
G1 X89.051 Y82.735 E7.17882
G1 X88.417 Y83.131 E7.21363
G1 X88.324 Y83.224 E7.21975
G1 X87.886 Y83.662 E7.2486
G1 X87.84 Y83.735 E7.25261
G1 X87.84 Y83.662
G1 X87.84 Y83.042 E7.26925
G1 X87.84 Y82.09 E7.31358
G1 X89.281 Y82.09 E7.38068
G1 X89.77 Y82.09 E7.40012
G1 X90.672 Y82.09 E7.44212
G1 X133.597 Y82.09 E9.44089
G1 X134.31 Y82.09 E9.47409
G1 X134.76 Y82.09 E9.49504
G1 X135.885 Y82.09 E9.54743
G1 X136.165 Y82.09 E9.56047
G1 X136.165 Y82.37 E9.56891
G1 X136.163 Y83.104 E9.60308
G1 X136.163 Y83.169 E9.60611
G1 X136.161 Y83.672 E9.62953
G1 X135.674 Y83.168 E9.6475
G1 X135.62 Y83.133 E9.65033
G1 X135.031 Y82.752 E9.68299
G1 X134.733 Y82.645 E9.69773
G1 X134.31 Y82.493 E9.71577
G1 X133.597 Y82.411 E9.73742
G1 X90.672 Y82.41 E10.88136
G1 X89.77 Y82.484 E10.90827
M204 S3000
M205 X10 Y10
G0 F3000 X89.752 Y82.387
G0 X87.94 Y82.47
G0 X87.28 Y82.47
M204 S1800
M205 X8 Y8
;TYPE:WALL-OUTER
G1 F1500 X86.532 Y82.47 E10.9431
G1 X86.531 Y81.81 E10.97383
G1 X86.531 Y81.53 E10.98687
G1 X86.811 Y81.53 E10.99531
G1 X137.47 Y81.53 E13.3542
G1 X137.47 Y82.47 E13.39797
G1 X136.724 Y82.47 E13.43271
G1 X136.72 Y83.978 E13.50293
G1 X136.72 Y84.838 E13.54297
G1 X136.72 Y85.223 E13.5609
G1 X136.72 Y145.961 E16.38912
G1 X136.28 Y145.966 E16.40961
G1 X136.28 Y85.223 E18.63198
G1 X136.164 Y84.856 E18.64801
G1 X136.084 Y84.608 E18.66014
G1 X135.758 Y84.061 E18.68979
G1 X135.316 Y83.603 E18.71943
G1 X134.781 Y83.257 E18.7491
G1 X134.182 Y83.042 E18.77873
G1 X133.565 Y82.971 E18.80765
G1 X90.695 Y82.97 E20.80386
G1 X89.887 Y83.036 E20.84161
G1 X89.295 Y83.243 E20.87081
G1 X88.768 Y83.572 E20.89974
G1 X88.327 Y84.013 E20.92878
G1 X87.996 Y84.541 E20.9578
G1 X87.838 Y84.989 E20.97992
G1 X87.789 Y85.129 E20.98682
G1 X87.721 Y85.732 E21.01508
G1 X87.72 Y86.42 E21.04712
G1 X87.72 Y145.97 E23.82001
G1 X87.28 Y145.97 E23.8405
G1 X87.28 Y86.42 E26.01921
G1 X87.28 Y85.732 E26.04441
G1 X87.28 Y85.129 E26.06822
G1 X87.28 Y84.98 E26.07485
G1 X87.28 Y82.47 E26.19172
M204 S3000
M205 X10 Y10
G0 F3000 X87.08 Y82.47
G0 X87.94 Y82.47
G0 X88.279 Y82.622
M204 S1800
M205 X8 Y8
;TYPE:SKIN
G1 F1500 X88.461 Y82.522 E26.19634
G1 X88.922 Y82.417 E26.20685
G1 X88.191 Y82.817 E26.22538
M204 S3000
M205 X10 Y10
G0 F3000 X88.113 Y82.739
G0 X89.764 Y82.445
G0 X134.973 Y82.364
G0 X135.031 Y82.422
M204 S1800
M205 X8 Y8
G1 F1500 X135.547 Y82.655 E26.24078
G1 X135.854 Y82.397 E26.25169
M204 S3000
M205 X10 Y10
G0 F3000 X135.605 Y82.65
G1 F2400 E20.25169
;MESH:NONMESH
G0 F600 X135.605 Y82.65 Z0.4
G0 F3000 X133.798 Y82.4
G0 X90.668 Y82.391
G0 X90.668 Y80.585
G0 X88.2 Y77.967
;TIME_ELAPSED:36.070686
;LAYER:1
M140 S60
M204 S1800
M205 X8 Y8
;TYPE:SUPPORT
G1 F2400 E26.25169
G1 F1650 X98.798 Y77.95 E26.60418
G1 X98.816 Y77.97 E26.60508
G1 X98.805 Y80.35 E26.68424
G1 X88.196 Y80.35 E27.0371
G1 X88.2 Y77.967 E27.11635
M204 S3000
M205 X10 Y10
G0 F4500 X88.339 Y78.323
M204 S1800
M205 X8 Y8
G1 F1650 X88.716 Y78.105 E27.13084
M204 S3000
M205 X10 Y10
G0 F4500 X88.338 Y78.715
M204 S1800
M205 X8 Y8
G1 F1650 X90.925 Y80.208 E27.23018
M204 S3000
M205 X10 Y10
G0 F4500 X96 Y80.21
M204 S1800
M205 X8 Y8
G1 F1650 X96 Y78.094 E27.30056
M204 S3000
M205 X10 Y10
G0 F4500 X125.2 Y77.95
M204 S1800
M205 X8 Y8
G1 F1650 X135.744 Y77.951 E27.65126
G1 X135.8 Y78.007 E27.65389
G1 X135.8 Y80.35 E27.73182
G1 X125.2 Y80.35 E28.08438
G1 X125.2 Y77.95 E28.1642
M204 S3000
M205 X10 Y10
G0 F4500 X128 Y78.091
M204 S1800
M205 X8 Y8
G1 F1650 X128 Y80.21 E28.23468
M204 S3000
M205 X10 Y10
G0 F4500 X133.073 Y80.209
M204 S1800
M205 X8 Y8
G1 F1650 X135.659 Y78.716 E28.334
M204 S3000
M205 X10 Y10
G0 F4500 X135.66 Y78.323
M204 S1800
M205 X8 Y8
G1 F1650 X135.257 Y78.091 E28.34946
M204 S3000
M205 X10 Y10
G1 F2400 E22.34946
G0 F4500 X138.411 Y81.093
G0 X137.661 Y146.407
G0 X135.843 Y146.911
G0 X135.1 Y144.917
M204 S1800
M205 X8 Y8
G1 F2400 E28.34946
G1 F1650 X135.1 Y146.05 E28.38715
G1 X88.9 Y146.05 E29.92376
G1 X88.9 Y144.879 E29.96271
G1 X89.385 Y145.164 E29.98142
G1 X89.86 Y145.326 E29.99811
G1 X90.924 Y145.45 E30.03374
G1 X133.466 Y145.45 E31.4487
G1 X134.065 Y145.382 E31.46875
G1 X134.615 Y145.213 E31.48788
G1 X135.1 Y144.917 E31.50678
M204 S3000
M205 X10 Y10
G0 F4500 X131.831 Y145.589
M204 S1800
M205 X8 Y8
G1 F1650 X131.276 Y145.909 E31.52809
M204 S3000
M205 X10 Y10
G0 F4500 X128 Y145.91
M204 S1800
M205 X8 Y8
G1 F1650 X128 Y145.59 E31.53873
M204 S3000
M205 X10 Y10
G0 F4500 X124.721 Y145.908
M204 S1800
M205 X8 Y8
G1 F1650 X124.168 Y145.589 E31.55997
M204 S3000
M205 X10 Y10
G0 F4500 X120 Y145.59
M204 S1800
M205 X8 Y8
G1 F1650 X120 Y145.91 E31.57061
M204 S3000
M205 X10 Y10
G0 F4500 X115.831 Y145.589
M204 S1800
M205 X8 Y8
G1 F1650 X115.276 Y145.91 E31.59193
M204 S3000
M205 X10 Y10
G0 F4500 X112 Y145.91
M204 S1800
M205 X8 Y8
G1 F1650 X112 Y145.59 E31.60258
M204 S3000
M205 X10 Y10
G0 F4500 X108.721 Y145.908
M204 S1800
M205 X8 Y8
G1 F1650 X108.168 Y145.589 E31.62381
M204 S3000
M205 X10 Y10
G0 F4500 X104 Y145.59
M204 S1800
M205 X8 Y8
G1 F1650 X104 Y145.91 E31.63445
M204 S3000
M205 X10 Y10
G0 F4500 X99.831 Y145.589
M204 S1800
M205 X8 Y8
G1 F1650 X99.276 Y145.909 E31.65576
M204 S3000
M205 X10 Y10
G0 F4500 X96 Y145.91
M204 S1800
M205 X8 Y8
G1 F1650 X96 Y145.59 E31.66641
M204 S3000
M205 X10 Y10
G0 F4500 X92.72 Y145.908
M204 S1800
M205 X8 Y8
G1 F1650 X92.169 Y145.59 E31.68756
M204 S3000
M205 X10 Y10
G1 F2400 E25.68756
;MESH:sonic.sensor.frame.stl
G0 F4500 X89.709 Y84.099
G0 X89.151 Y82.932
G0 X89.736 Y82.327
M204 S1800
M205 X8 Y8
;TYPE:WALL-INNER
G1 F2400 E31.68756
G1 F2250 X88.984 Y82.588 E31.71404
G1 X88.894 Y82.644 E31.71757
G1 X88.381 Y82.966 E31.73771
G1 X88.32 Y83.004 E31.7401
G1 X88 Y83.322 E31.75511
G1 X88 Y83.004 E31.75859
G1 X88 Y82.932 E31.76077
G1 X88 Y82.25 E31.78346
G1 X88.877 Y82.25 E31.81263
G1 X88.984 Y82.25 E31.81592
G1 X89.736 Y82.25 E31.82872
G1 X90.56 Y82.25 E31.85613
G1 X133.61 Y82.25 E33.28798
G1 X134.351 Y82.25 E33.31262
G1 X135.106 Y82.25 E33.33773
G1 X136.012 Y82.25 E33.36787
G1 X136.003 Y83.049 E33.39444
G1 X136 Y83.245 E33.40096
G1 X136 Y83.276 E33.402
G1 X135.985 Y83.261
G1 X135.779 Y83.047 E33.4066
G1 X135.106 Y82.609 E33.43331
G1 X134.351 Y82.337 E33.4487
G1 X133.61 Y82.251 E33.45152
G1 X90.56 Y82.25 E33.45331
G1 X89.736 Y82.327 E33.48084
M204 S3000
M205 X10 Y10
G0 F4500 X136.343 Y82.079
G0 X136.413 Y82.15
M204 S1800
M205 X8 Y8
G1 F2250 X136.413 Y82.2 E33.4825
G1 X136.4 Y83.247 E33.51733
G1 X136.4 Y83.85 E33.53738
G1 X136.4 Y83.868 E33.53798
G1 X136.4 Y84.479 E33.5583
G1 X136.4 Y84.545 E33.5605
G1 X136.379 Y84.479 E33.56064
G1 X136.015 Y83.868 E33.57385
G1 X136.003 Y83.856 E33.5744
G1 X135.523 Y83.357 E33.59743
G1 X134.927 Y82.97 E33.62107
G1 X134.259 Y82.729 E33.64469
G1 X133.587 Y82.651 E33.66719
G1 X90.579 Y82.65 E35.09764
G1 X89.821 Y82.721 E35.12296
G1 X89.158 Y82.951 E35.1463
G1 X88.57 Y83.319 E35.16937
G1 X88.077 Y83.81 E35.19252
G1 X87.977 Y83.969 E35.19876
G1 X87.708 Y84.399 E35.21563
G1 X87.6 Y84.705 E35.22643
G1 X87.6 Y84.399 E35.22767
G1 X87.6 Y83.891 E35.23865
G1 X87.6 Y82.15 E35.29656
G1 X86.854 Y82.15 E35.32137
G1 X86.852 Y81.85 E35.33135
G1 X87.6 Y81.85 E35.35001
G1 X136.363 Y81.85 E36.97188
G1 X136.413 Y81.85 E36.97339
G1 X137.15 Y81.85 E36.99791
G1 X137.15 Y82.15 E37.00788
G1 X136.413 Y82.15 E37.02627
M204 S3000
M205 X10 Y10
G0 F4500 X136.343 Y82.079
G0 X87.2 Y82.05
G0 X87.2 Y82.55
M204 S1800
M205 X8 Y8
;TYPE:WALL-OUTER
G1 F2250 X86.455 Y82.55 E37.05105
G1 X86.451 Y81.65 E37.08098
G1 X86.451 Y81.45 E37.08763
G1 X86.651 Y81.45 E37.09194
G1 X137.55 Y81.45 E38.78485
G1 X137.55 Y82.55 E38.82144
G1 X136.808 Y82.55 E38.84611
G1 X136.8 Y83.249 E38.86936
G1 X136.8 Y146.05 E40.95813
G1 X136.2 Y146.05 E40.97809
G1 X136.2 Y85.236 E43.00077
G1 X136.012 Y84.644 E43.02143
G1 X135.695 Y84.112 E43.04203
G1 X135.267 Y83.668 E43.06254
G1 X134.748 Y83.331 E43.08312
G1 X134.167 Y83.121 E43.10367
G1 X133.564 Y83.051 E43.12386
G1 X90.598 Y83.05 E44.55292
G1 X89.906 Y83.115 E44.57603
G1 X89.332 Y83.314 E44.59624
G1 X88.82 Y83.634 E44.61632
G1 X88.392 Y84.061 E44.63643
G1 X88.07 Y84.574 E44.65657
G1 X87.869 Y85.145 E44.67671
G1 X87.801 Y85.733 E44.6964
G1 X87.8 Y87.76 E44.76381
G1 X87.8 Y146.05 E46.70255
G1 X87.2 Y146.05 E46.7225
G1 X87.2 Y82.55 E48.83452
M204 S3000
M205 X10 Y10
G0 F4500 X87 Y82.55
G0 X87 Y82.05
G0 X88.194 Y82.642
G0 X88.292 Y82.543
M204 S1800
M205 X8 Y8
;TYPE:SKIN
G1 F1350 X88.532 Y82.587 E48.84581
M204 S3000
M205 X10 Y10
G0 F4500 X88.39 Y82.729
G0 X87.591 Y85.173
G0 X87.516 Y85.016
M204 S1800
M205 X8 Y8
G1 F1350 X87.532 Y85.283 E48.85051
G1 X87.499 Y87.579 E48.89085
G1 X87.499 Y142.734 E49.85968
G1 X87.499 Y145.562 E49.90935
G1 X87.547 Y145.797 E49.91357
M204 S3000
M205 X10 Y10
G0 F4500 X87.604 Y145.74
G0 X87.402 Y85.71
G0 X88.034 Y84.557
G0 X88.796 Y83.603
G0 X89.898 Y83.076
G0 X133.566 Y83.012
G0 X134.765 Y83.296
G0 X135.726 Y84.088
G0 X136.546 Y85.005
G0 X136.394 Y145.599
G0 X136.499 Y145.494
M204 S1800
M205 X8 Y8
G1 F1350 X136.499 Y145.211 E49.91852
G1 X136.498 Y114.947 E50.44869
G1 X136.498 Y85.249 E50.96895
G1 X136.38 Y84.802 E50.97704
M204 S3000
M205 X10 Y10
G0 F4500 X136.315 Y85.026
G0 X135.633 Y82.72
G0 X135.722 Y82.631
M204 S1800
M205 X8 Y8
G1 F1350 X135.544 Y82.527 E50.98143
G1 X135.316 Y82.471 E50.98642
M204 S3000
M205 X10 Y10
G0 F4500 X135.29 Y82.498
G0 X136.595 Y85.175
G0 X136.604 Y145.672
M204 S1800
M205 X8 Y8
G1 F1350 X136.422 Y145.854 E50.9907
M204 S3000
M205 X10 Y10
G0 F4500 X136.585 Y145.665
G1 F2400 E44.9907
;MESH:NONMESH
G0 F600 X136.585 Y145.665 Z0.6
G0 F4500 X136.204 Y85.235
G0 X135.336 Y85.373
G0 X135.339 Y146.407
G0 X137.157 Y146.911
G0 X138.411 Y81.093
G0 X88.2 Y77.967
;TIME_ELAPSED:75.549598
;LAYER:2
M204 S1800
M205 X8 Y8
;TYPE:SUPPORT
G1 F2400 E50.9907
G1 F1800 X98.798 Y77.95 E51.34319
G1 X98.816 Y77.97 E51.34408
G1 X98.805 Y80.35 E51.42324
G1 X88.196 Y80.35 E51.7761
G1 X88.2 Y77.967 E51.85536
M204 S3000
M205 X10 Y10
G0 F6000 X88.339 Y78.323
M204 S1800
M205 X8 Y8
G1 F1800 X88.716 Y78.105 E51.86984
M204 S3000
M205 X10 Y10
G0 F6000 X88.338 Y78.715
M204 S1800
M205 X8 Y8
G1 F1800 X90.925 Y80.208 E51.96919
M204 S3000
M205 X10 Y10
G0 F6000 X96 Y80.21
M204 S1800
M205 X8 Y8
G1 F1800 X96 Y78.094 E52.03957
M204 S3000
M205 X10 Y10
G0 F6000 X125.2 Y77.95
M204 S1800
M205 X8 Y8
G1 F1800 X135.745 Y77.951 E52.39029
G1 X135.8 Y78.006 E52.39288
G1 X135.8 Y80.35 E52.47084
G1 X125.2 Y80.35 E52.8234
G1 X125.2 Y77.95 E52.90322
M204 S3000
M205 X10 Y10
G0 F6000 X128 Y78.091
M204 S1800
M205 X8 Y8
G1 F1800 X128 Y80.21 E52.9737
M204 S3000
M205 X10 Y10
G0 F6000 X133.073 Y80.209
M204 S1800
M205 X8 Y8
G1 F1800 X135.659 Y78.716 E53.07302
M204 S3000
M205 X10 Y10
G0 F6000 X135.66 Y78.323
M204 S1800
M205 X8 Y8
G1 F1800 X135.257 Y78.091 E53.08849
M204 S3000
M205 X10 Y10
G1 F2400 E47.08849
G0 F6000 X138.411 Y81.093
G0 X137.661 Y146.407
G0 X135.843 Y146.911
G0 X135.1 Y144.917
M204 S1800
M205 X8 Y8
G1 F2400 E53.08849
G1 F1800 X135.1 Y146.05 E53.12617
G1 X88.9 Y146.05 E54.66279
G1 X88.9 Y144.878 E54.70177
G1 X89.381 Y145.163 E54.72036
G1 X89.865 Y145.327 E54.73736
G1 X90.921 Y145.45 E54.77272
G1 X133.465 Y145.45 E56.18774
G1 X134.065 Y145.382 E56.20782
G1 X134.617 Y145.211 E56.22704
G1 X135.1 Y144.917 E56.24585
M204 S3000
M205 X10 Y10
G0 F6000 X131.83 Y145.589
M204 S1800
M205 X8 Y8
G1 F1800 X131.276 Y145.909 E56.26713
M204 S3000
M205 X10 Y10
G0 F6000 X128 Y145.91
M204 S1800
M205 X8 Y8
G1 F1800 X128 Y145.59 E56.27777
M204 S3000
M205 X10 Y10
G0 F6000 X124.721 Y145.908
M204 S1800
M205 X8 Y8
G1 F1800 X124.168 Y145.589 E56.29901
M204 S3000
M205 X10 Y10
G0 F6000 X120 Y145.59
M204 S1800
M205 X8 Y8
G1 F1800 X120 Y145.91 E56.30965
M204 S3000
M205 X10 Y10
G0 F6000 X115.831 Y145.589
M204 S1800
M205 X8 Y8
G1 F1800 X115.276 Y145.91 E56.33097
M204 S3000
M205 X10 Y10
G0 F6000 X112 Y145.91
M204 S1800
M205 X8 Y8
G1 F1800 X112 Y145.59 E56.34162
M204 S3000
M205 X10 Y10
G0 F6000 X108.721 Y145.908
M204 S1800
M205 X8 Y8
G1 F1800 X108.168 Y145.589 E56.36285
M204 S3000
M205 X10 Y10
G0 F6000 X104 Y145.59
M204 S1800
M205 X8 Y8
G1 F1800 X104 Y145.91 E56.37349
M204 S3000
M205 X10 Y10
G0 F6000 X99.831 Y145.589
M204 S1800
M205 X8 Y8
G1 F1800 X99.276 Y145.909 E56.3948
M204 S3000
M205 X10 Y10
G0 F6000 X96 Y145.91
M204 S1800
M205 X8 Y8
G1 F1800 X96 Y145.59 E56.40545
M204 S3000
M205 X10 Y10
G0 F6000 X92.72 Y145.908
M204 S1800
M205 X8 Y8
G1 F1800 X92.168 Y145.589 E56.42665
M204 S3000
M205 X10 Y10
G1 F2400 E50.42665
;MESH:sonic.sensor.frame.stl
G0 F6000 X88.157 Y146.911
G0 X86.843 Y146.911
G0 X85.589 Y81.093
G0 X92.168 Y80.585
G0 X92.168 Y81.87
G0 X134.353 Y82.338
M204 S1800
M205 X8 Y8
;TYPE:WALL-INNER
G1 F2400 E56.42665
G1 F3000 X133.612 Y82.252 E56.45146
G1 X90.445 Y82.25 E56.45505
G1 X89.729 Y82.329 E56.47901
G1 X88.988 Y82.587 E56.50511
G1 X88.895 Y82.645 E56.50875
G1 X88.381 Y82.965 E56.52889
G1 X88.322 Y83.002 E56.53121
G1 X88 Y83.322 E56.54631
G1 X88 Y83.002 E56.54983
G1 X88 Y82.932 E56.55196
G1 X88 Y82.25 E56.57465
G1 X88.878 Y82.25 E56.60385
G1 X88.988 Y82.25 E56.60723
G1 X89.729 Y82.25 E56.61987
G1 X90.445 Y82.25 E56.64369
G1 X133.612 Y82.25 E56.64728
G1 X134.353 Y82.25 E56.65002
G1 X135.108 Y82.25 E56.67513
G1 X136.018 Y82.25 E56.7054
G1 X136.004 Y83.053 E56.73211
G1 X136 Y83.24 E56.73833
G1 X136 Y83.277 E56.73956
