;FLAVOR:Marlin
;TIME:6761
;Filament used: 6.3983m
;Layer height: 0.2
;MINX:84.741
;MINY:95.326
;MINZ:0.2
;MAXX:139.259
;MAXY:129.496
;MAXZ:50
;Generated with Cura_SteamEngine 4.2.1
M140 S60
M105
M190 S60
M104 S200
M105
M109 S200
M82 ;absolute extrusion mode
G21 ;metric values
G90 ;absolute positioning
M82 ;set extruder to absolute mode
M107 ;start with the fan off
G28 X0 Y0 ;move X/Y to min endstops
G28 Z0 ;move Z to min endstops
G1 Z15.0 F100 ;move the platform down 15mm
G92 E0 ;zero the extruded length
G1 F200 E3 ;extrude 3mm of feed stock
G92 E0 ;zero the extruded length again
G1 F100
M117 Printing...
G5
M141 S28
G92 E0
G92 E0
G1 F2400 E-6
;LAYER_COUNT:250
;LAYER:0
M106 S255
M204 S3000
M205 X10 Y10
;MESH:sonic.sensor.cap.stl
G0 F3000 X106.6 Y124.043 Z0.2
M204 S1800
M205 X8 Y8
;TYPE:WALL-INNER
G1 F2400 E0
G1 F1500 X118.3 Y124.043 E0.5448
G1 X118.3 Y117.243 E0.86144
G1 X106.6 Y117.243 E1.40624
G1 X106.6 Y124.043 E1.72287
M204 S3000
M205 X10 Y10
G0 F3000 X117.768 Y123.511
G0 X137.845 Y116.769
M204 S1800
M205 X8 Y8
G1 F1500 X137.494 Y117.684 E1.76851
G1 X136.722 Y118.97 E1.83835
G1 X135.495 Y120.388 E1.92567
G1 X133.782 Y121.818 E2.02957
G1 X131.747 Y123.1 E2.14157
G1 X129.142 Y124.357 E2.27625
G1 X125.872 Y125.536 E2.43811
G1 X122.512 Y126.394 E2.59958
G1 X118.699 Y127.043 E2.77969
G1 X114.546 Y127.412 E2.97383
G1 X109.944 Y127.437 E3.18812
G1 X105.605 Y127.084 E3.39083
G1 X101.362 Y126.373 E3.59116
G1 X97.554 Y125.355 E3.7747
G1 X94.368 Y124.152 E3.93328
G1 X91.789 Y122.827 E4.06829
G1 X91.554 Y122.69 E4.08095
G1 X89.538 Y121.301 E4.19495
G1 X88.01 Y119.876 E4.29224
G1 X86.953 Y118.471 E4.37411
G1 X86.868 Y118.342 E4.3813
G1 X86.25 Y117.061 E4.44753
G1 X85.965 Y115.814 E4.50709
G1 X85.941 Y110.887 E4.73652
G1 X85.944 Y96.526 E5.40523
G1 X138.059 Y96.526 E7.83192
G1 X138.059 Y115.722 E8.72577
G1 X137.845 Y116.769 E8.77553
M204 S3000
M205 X10 Y10
G0 F3000 X138.385 Y116.924
M204 S1800
M205 X8 Y8
G1 F1500 X138 Y117.929 E8.82564
G1 X137.178 Y119.298 E8.89999
G1 X135.885 Y120.792 E8.992
G1 X134.111 Y122.273 E9.0996
G1 X132.026 Y123.587 E9.21436
G1 X129.353 Y124.876 E9.35254
G1 X126.034 Y126.073 E9.51684
G1 X122.635 Y126.941 E9.68019
G1 X118.767 Y127.599 E9.86288
G1 X114.575 Y127.972 E10.05885
G1 X109.925 Y127.997 E10.27538
G1 X105.536 Y127.64 E10.48042
G1 X101.24 Y126.92 E10.68325
G1 X97.382 Y125.889 E10.8692
G1 X94.142 Y124.665 E11.03048
G1 X91.526 Y123.321 E11.16742
G1 X91.25 Y123.161 E11.18228
G1 X89.188 Y121.74 E11.29889
G1 X87.592 Y120.251 E11.40052
G1 X86.488 Y118.784 E11.48602
G1 X86.382 Y118.622 E11.49503
G1 X85.718 Y117.247 E11.56613
G1 X85.405 Y115.879 E11.63148
G1 X85.381 Y110.887 E11.86393
G1 X85.384 Y95.966 E12.55871
G1 X138.619 Y95.966 E15.03756
G1 X138.619 Y115.78 E15.96018
G1 X138.385 Y116.924 E16.01455
M204 S3000
M205 X10 Y10
G0 F3000 X138.289 Y116.896
G0 X117.768 Y123.511
G0 X107.09 Y123.553
G0 X107.16 Y123.483
M204 S1800
M205 X8 Y8
G1 F1500 X117.74 Y123.483 E16.5072
G1 X117.74 Y117.803 E16.77169
G1 X107.16 Y117.803 E17.26433
G1 X107.16 Y123.483 E17.52882
M204 S3000
M205 X10 Y10
G0 F3000 X107.72 Y122.923
M204 S1800
M205 X8 Y8
;TYPE:WALL-OUTER
G1 F1500 X117.18 Y122.923 E17.96932
G1 X117.18 Y118.363 E18.18165
G1 X107.72 Y118.363 E18.62215
G1 X107.72 Y122.923 E18.83448
M204 S3000
M205 X10 Y10
G0 F3000 X107.92 Y122.923
G0 X107.92 Y123.583
G0 X117.768 Y123.511
G0 X138.289 Y116.896
G0 X138.925 Y117.079
M204 S1800
M205 X8 Y8
G1 F1500 X138.506 Y118.174 E18.88907
G1 X137.632 Y119.629 E18.96811
G1 X136.279 Y121.193 E19.0644
G1 X134.44 Y122.728 E19.17594
G1 X132.305 Y124.074 E19.29347
G1 X129.564 Y125.395 E19.43515
G1 X126.196 Y126.61 E19.60187
G1 X122.758 Y127.488 E19.76709
G1 X118.835 Y128.155 E19.95239
G1 X114.604 Y128.532 E20.15018
G1 X109.906 Y128.557 E20.36894
G1 X105.467 Y128.196 E20.57632
G1 X101.118 Y127.467 E20.78166
G1 X97.21 Y126.423 E20.97001
G1 X93.916 Y125.178 E21.13398
G1 X91.247 Y123.807 E21.2737
G1 X90.955 Y123.638 E21.28941
G1 X88.838 Y122.179 E21.40913
G1 X87.174 Y120.626 E21.51512
G1 X86.031 Y119.107 E21.60363
G1 X85.895 Y118.9 E21.61517
G1 X85.186 Y117.431 E21.69112
G1 X84.845 Y115.944 E21.76216
G1 X84.821 Y110.887 E21.99764
G1 X84.824 Y95.406 E22.7185
G1 X139.179 Y95.406 E25.24949
G1 X139.179 Y115.838 E26.20089
G1 X138.925 Y117.079 E26.25988
M204 S3000
M205 X10 Y10
G0 F3000 X138.854 Y117.265
G0 X138.239 Y117.029
G0 X137.314 Y116.62
M204 S1800
M205 X8 Y8
;TYPE:SKIN
G1 F1500 X136.999 Y117.441 E26.30082
G1 X136.277 Y118.643 E26.36611
G1 X135.106 Y119.997 E26.44947
G1 X133.458 Y121.372 E26.54941
G1 X131.48 Y122.619 E26.65829
G1 X128.929 Y123.849 E26.79016
G1 X125.713 Y125.008 E26.94934
G1 X122.394 Y125.856 E27.10885
G1 X118.634 Y126.497 E27.28646
G1 X114.517 Y126.862 E27.47892
G1 X109.963 Y126.887 E27.69097
G1 X105.67 Y126.538 E27.89153
G1 X101.49 Y125.837 E28.08889
G1 X97.72 Y124.83 E28.27059
G1 X94.586 Y123.646 E28.42659
G1 X92.056 Y122.346 E28.55904
G1 X91.851 Y122.227 E28.57007
G1 X89.882 Y120.87 E28.68142
G1 X88.421 Y119.508 E28.77443
G1 X87.405 Y118.157 E28.85314
G1 X87.346 Y118.067 E28.85815
G1 X86.772 Y116.878 E28.91963
G1 X86.515 Y115.752 E28.97341
G1 X86.491 Y110.887 E29.19995
G1 X86.494 Y97.076 E29.84305
G1 X137.509 Y97.076 E32.21852
G1 X137.509 Y115.665 E33.0841
G1 X137.314 Y116.62 E33.12949
M204 S3000
M205 X10 Y10
G0 F3000 X118.85 Y116.693
M204 S1800
M205 X8 Y8
G1 F1500 X106.05 Y116.693 E33.72551
G1 X106.05 Y124.593 E34.09337
G1 X118.85 Y124.593 E34.68939
G1 X118.85 Y116.693 E35.05725
M204 S3000
M205 X10 Y10
G0 F3000 X137.248 Y97.65
M204 S1800
M205 X8 Y8
G1 F1500 X136.934 Y97.336 E35.07792
M204 S3000
M205 X10 Y10
G0 F3000 X136.142 Y97.336
M204 S1800
M205 X8 Y8
G1 F1500 X137.248 Y98.441 E35.15072
M204 S3000
M205 X10 Y10
G0 F3000 X137.248 Y99.233
M204 S1800
M205 X8 Y8
G1 F1500 X135.35 Y97.336 E35.27568
M204 S3000
M205 X10 Y10
G0 F3000 X134.558 Y97.336
M204 S1800
M205 X8 Y8
G1 F1500 X137.248 Y100.025 E35.45278
M204 S3000
M205 X10 Y10
G0 F3000 X137.248 Y100.817
M204 S1800
M205 X8 Y8
G1 F1500 X133.766 Y97.336 E35.68205
M204 S3000
M205 X10 Y10
G0 F3000 X132.974 Y97.336
M204 S1800
M205 X8 Y8
G1 F1500 X137.248 Y101.609 E35.96346
M204 S3000
M205 X10 Y10
G0 F3000 X137.248 Y102.401
M204 S1800
M205 X8 Y8
G1 F1500 X132.182 Y97.336 E36.29704
M204 S3000
M205 X10 Y10
G0 F3000 X131.39 Y97.336
M204 S1800
M205 X8 Y8
G1 F1500 X137.248 Y103.193 E36.68276
M204 S3000
M205 X10 Y10
G0 F3000 X137.248 Y103.985
M204 S1800
M205 X8 Y8
G1 F1500 X130.598 Y97.336 E37.12064
M204 S3000
M205 X10 Y10
G0 F3000 X129.806 Y97.336
M204 S1800
M205 X8 Y8
G1 F1500 X137.248 Y104.777 E37.61068
M204 S3000
M205 X10 Y10
G0 F3000 X137.248 Y105.569
M204 S1800
M205 X8 Y8
G1 F1500 X129.014 Y97.336 E38.15287
M204 S3000
M205 X10 Y10
G0 F3000 X128.222 Y97.336
M204 S1800
M205 X8 Y8
G1 F1500 X137.248 Y106.361 E38.74721
M204 S3000
M205 X10 Y10
G0 F3000 X137.248 Y107.153
M204 S1800
M205 X8 Y8
G1 F1500 X127.43 Y97.336 E39.39371
M204 S3000
M205 X10 Y10
G0 F3000 X126.638 Y97.336
M204 S1800
M205 X8 Y8
G1 F1500 X137.248 Y107.945 E40.09237
M204 S3000
M205 X10 Y10
G0 F3000 X137.248 Y108.737
M204 S1800
M205 X8 Y8
G1 F1500 X125.846 Y97.336 E40.84318
M204 S3000
M205 X10 Y10
G0 F3000 X125.054 Y97.336
M204 S1800
M205 X8 Y8
G1 F1500 X137.248 Y109.529 E41.64614
M204 S3000
M205 X10 Y10
G0 F3000 X137.248 Y110.321
M204 S1800
M205 X8 Y8
G1 F1500 X124.262 Y97.336 E42.50126
M204 S3000
M205 X10 Y10
G0 F3000 X123.47 Y97.336
M204 S1800
M205 X8 Y8
G1 F1500 X137.248 Y111.113 E43.40853
M204 S3000
M205 X10 Y10
G0 F3000 X137.248 Y111.905
M204 S1800
M205 X8 Y8
G1 F1500 X122.678 Y97.336 E44.36795
M204 S3000
M205 X10 Y10
G0 F3000 X121.886 Y97.336
M204 S1800
M205 X8 Y8
G1 F1500 X137.248 Y112.697 E45.37953
M204 S3000
M205 X10 Y10
G0 F3000 X137.248 Y113.489
M204 S1800
M205 X8 Y8
G1 F1500 X121.094 Y97.336 E46.44327
M204 S3000
M205 X10 Y10
G0 F3000 X120.302 Y97.336
M204 S1800
M205 X8 Y8
G1 F1500 X137.248 Y114.281 E47.55916
M204 S3000
M205 X10 Y10
G0 F3000 X137.248 Y115.073
M204 S1800
M205 X8 Y8
G1 F1500 X119.51 Y97.336 E48.7272
M204 S3000
M205 X10 Y10
G0 F3000 X118.718 Y97.336
M204 S1800
M205 X8 Y8
G1 F1500 X137.21 Y115.827 E49.9449
M204 S3000
M205 X10 Y10
G0 F3000 X137.076 Y116.485
M204 S1800
M205 X8 Y8
G1 F1500 X117.927 Y97.336 E51.2059
M204 S3000
M205 X10 Y10
G0 F3000 X117.135 Y97.336
M204 S1800
M205 X8 Y8
G1 F1500 X136.864 Y117.065 E52.50508
M204 S3000
M205 X10 Y10
G0 F3000 X136.603 Y117.596
M204 S1800
M205 X8 Y8
G1 F1500 X116.343 Y97.336 E53.83924
M204 S3000
M205 X10 Y10
G0 F3000 X115.551 Y97.336
M204 S1800
M205 X8 Y8
G1 F1500 X136.305 Y118.09 E55.20593
M204 S3000
M205 X10 Y10
G0 F3000 X135.994 Y118.571
M204 S1800
M205 X8 Y8
G1 F1500 X114.759 Y97.336 E56.60429
M204 S3000
M205 X10 Y10
G0 F3000 X113.967 Y97.336
M204 S1800
M205 X8 Y8
G1 F1500 X135.627 Y118.996 E58.03064
M204 S3000
M205 X10 Y10
G0 F3000 X135.26 Y119.421
M204 S1800
M205 X8 Y8
G1 F1500 X113.175 Y97.336 E59.48497
M204 S3000
M205 X10 Y10
G0 F3000 X112.383 Y97.336
M204 S1800
M205 X8 Y8
G1 F1500 X134.887 Y119.84 E60.9669
M204 S3000
M205 X10 Y10
G0 F3000 X134.455 Y120.2
M204 S1800
M205 X8 Y8
G1 F1500 X111.591 Y97.336 E62.47253
M204 S3000
M205 X10 Y10
G0 F3000 X110.799 Y97.336
M204 S1800
M205 X8 Y8
G1 F1500 X134.023 Y120.56 E64.00187
M204 S3000
M205 X10 Y10
G0 F3000 X133.591 Y120.92
M204 S1800
M205 X8 Y8
G1 F1500 X110.007 Y97.336 E65.55492
M204 S3000
M205 X10 Y10
G0 F3000 X109.215 Y97.336
M204 S1800
M205 X8 Y8
G1 F1500 X133.141 Y121.262 E67.13049
M204 S3000
M205 X10 Y10
G0 F3000 X132.656 Y121.568
M204 S1800
M205 X8 Y8
G1 F1500 X108.423 Y97.336 E68.72624
M204 S3000
M205 X10 Y10
G0 F3000 X107.631 Y97.336
M204 S1800
M205 X8 Y8
G1 F1500 X132.17 Y121.875 E70.34217
M204 S3000
M205 X10 Y10
G0 F3000 X131.685 Y122.181
M204 S1800
M205 X8 Y8
G1 F1500 X106.839 Y97.336 E71.97829
M204 S3000
M205 X10 Y10
G0 F3000 X106.047 Y97.336
M204 S1800
M205 X8 Y8
G1 F1500 X131.184 Y122.473 E73.6336
M204 S3000
M205 X10 Y10
G0 F3000 X130.649 Y122.73
M204 S1800
M205 X8 Y8
G1 F1500 X105.255 Y97.336 E75.30584
M204 S3000
M205 X10 Y10
G0 F3000 X104.463 Y97.336
M204 S1800
M205 X8 Y8
G1 F1500 X130.115 Y122.987 E76.99504
M204 S3000
M205 X10 Y10
G0 F3000 X129.58 Y123.245
M204 S1800
M205 X8 Y8
G1 F1500 X103.671 Y97.336 E78.70119
M204 S3000
M205 X10 Y10
G0 F3000 X102.879 Y97.336
M204 S1800
M205 X8 Y8
G1 F1500 X129.046 Y123.502 E80.4243
M204 S3000
M205 X10 Y10
G0 F3000 X128.484 Y123.732
M204 S1800
M205 X8 Y8
G1 F1500 X102.087 Y97.336 E82.16255
M204 S3000
M205 X10 Y10
G0 F3000 X101.295 Y97.336
M204 S1800
M205 X8 Y8
G1 F1500 X127.901 Y123.941 E83.91457
M204 S3000
M205 X10 Y10
G0 F3000 X127.319 Y124.151
M204 S1800
M205 X8 Y8
G1 F1500 X100.503 Y97.336 E85.68042
M204 S3000
M205 X10 Y10
G0 F3000 X99.711 Y97.336
M204 S1800
M205 X8 Y8
G1 F1500 X118.808 Y116.432 E86.93795
M204 S3000
M205 X10 Y10
G0 F3000 X119.109 Y116.733
M204 S1800
M205 X8 Y8
G1 F1500 X126.737 Y124.361 E87.44027
M204 S3000
M205 X10 Y10
G0 F3000 X126.155 Y124.571
M204 S1800
M205 X8 Y8
G1 F1500 X119.109 Y117.525 E87.90426
M204 S3000
M205 X10 Y10
G0 F3000 X119.109 Y118.317
M204 S1800
M205 X8 Y8
G1 F1500 X125.568 Y124.776 E88.3296
M204 S3000
M205 X10 Y10
G0 F3000 X124.937 Y124.937
M204 S1800
M205 X8 Y8
G1 F1500 X119.109 Y119.109 E88.71338
M204 S3000
M205 X10 Y10
G0 F3000 X119.109 Y119.901
M204 S1800
M205 X8 Y8
G1 F1500 X124.306 Y125.098 E89.05561
M204 S3000
M205 X10 Y10
G0 F3000 X123.675 Y125.259
M204 S1800
M205 X8 Y8
G1 F1500 X119.109 Y120.693 E89.35629
M204 S3000
M205 X10 Y10
G0 F3000 X119.109 Y121.485
M204 S1800
M205 X8 Y8
G1 F1500 X123.045 Y125.42 E89.61545
M204 S3000
M205 X10 Y10
G0 F3000 X122.414 Y125.582
M204 S1800
M205 X8 Y8
G1 F1500 X119.109 Y122.277 E89.83309
M204 S3000
M205 X10 Y10
G0 F3000 X119.109 Y123.069
M204 S1800
M205 X8 Y8
G1 F1500 X121.742 Y125.702 E90.00648
M204 S3000
M205 X10 Y10
G0 F3000 X121.065 Y125.817
M204 S1800
M205 X8 Y8
G1 F1500 X119.109 Y123.861 E90.13529
M204 S3000
M205 X10 Y10
G0 F3000 X119.109 Y124.653
M204 S1800
M205 X8 Y8
G1 F1500 X120.389 Y125.933 E90.21958
M204 S3000
M205 X10 Y10
G0 F3000 X119.713 Y126.048
M204 S1800
M205 X8 Y8
G1 F1500 X118.516 Y124.852 E90.29837
M204 S3000
M205 X10 Y10
G0 F3000 X117.724 Y124.852
M204 S1800
M205 X8 Y8
G1 F1500 X119.036 Y126.164 E90.38476
M204 S3000
M205 X10 Y10
G0 F3000 X118.341 Y126.26
M204 S1800
M205 X8 Y8
G1 F1500 X116.932 Y124.852 E90.47752
M204 S3000
M205 X10 Y10
G0 F3000 X116.14 Y124.852
M204 S1800
M205 X8 Y8
G1 F1500 X117.613 Y126.325 E90.57452
M204 S3000
M205 X10 Y10
G0 F3000 X116.886 Y126.389
M204 S1800
M205 X8 Y8
G1 F1500 X115.348 Y124.852 E90.67576
M204 S3000
M205 X10 Y10
G0 F3000 X114.556 Y124.852
M204 S1800
M205 X8 Y8
G1 F1500 X116.158 Y126.454 E90.78126
M204 S3000
M205 X10 Y10
G0 F3000 X115.43 Y126.518
M204 S1800
M205 X8 Y8
G1 F1500 X113.764 Y124.852 E90.89097
M204 S3000
M205 X10 Y10
G0 F3000 X112.973 Y124.852
M204 S1800
M205 X8 Y8
G1 F1500 X114.703 Y126.582 E91.00489
M204 S3000
M205 X10 Y10
G0 F3000 X113.932 Y126.603
M204 S1800
M205 X8 Y8
G1 F1500 X112.181 Y124.852 E91.1202
M204 S3000
M205 X10 Y10
G0 F3000 X111.389 Y124.852
M204 S1800
M205 X8 Y8
G1 F1500 X113.144 Y126.608 E91.2358
M204 S3000
M205 X10 Y10
G0 F3000 X112.357 Y126.612
M204 S1800
M205 X8 Y8
G1 F1500 X110.597 Y124.852 E91.3517
M204 S3000
M205 X10 Y10
G0 F3000 X109.805 Y124.852
M204 S1800
M205 X8 Y8
G1 F1500 X111.569 Y126.616 E91.46786
M204 S3000
M205 X10 Y10
G0 F3000 X110.781 Y126.62
M204 S1800
M205 X8 Y8
G1 F1500 X109.013 Y124.852 E91.58429
M204 S3000
M205 X10 Y10
G0 F3000 X108.221 Y124.852
M204 S1800
M205 X8 Y8
G1 F1500 X109.993 Y126.625 E91.70101
M204 S3000
M205 X10 Y10
G0 F3000 X109.134 Y126.557
M204 S1800
M205 X8 Y8
G1 F1500 X107.429 Y124.852 E91.81329
M204 S3000
M205 X10 Y10
G0 F3000 X106.637 Y124.852
M204 S1800
M205 X8 Y8
G1 F1500 X108.272 Y126.487 E91.92095
M204 S3000
M205 X10 Y10
G0 F3000 X107.41 Y126.417
M204 S1800
M205 X8 Y8
G1 F1500 X105.845 Y124.852 E92.02401
M204 S3000
M205 X10 Y10
G0 F3000 X105.79 Y124.797
M204 S1800
M205 X8 Y8
G1 F1500 X86.752 Y105.759 E93.2777
M204 S3000
M205 X10 Y10
G0 F3000 X86.752 Y104.967
M204 S1800
M205 X8 Y8
G1 F1500 X105.79 Y124.005 E94.53138
M204 S3000
M205 X10 Y10
G0 F3000 X105.79 Y123.213
M204 S1800
M205 X8 Y8
G1 F1500 X86.752 Y104.175 E95.78507
M204 S3000
M205 X10 Y10
G0 F3000 X86.752 Y103.383
M204 S1800
M205 X8 Y8
G1 F1500 X105.79 Y122.421 E97.03875
M204 S3000
M205 X10 Y10
G0 F3000 X105.79 Y121.629
M204 S1800
M205 X8 Y8
G1 F1500 X86.752 Y102.592 E98.2924
M204 S3000
M205 X10 Y10
G0 F3000 X86.752 Y101.8
M204 S1800
M205 X8 Y8
G1 F1500 X105.79 Y120.837 E99.54605
M204 S3000
M205 X10 Y10
G0 F3000 X105.79 Y120.045
M204 S1800
M205 X8 Y8
G1 F1500 X86.752 Y101.008 E100.79971
M204 S3000
M205 X10 Y10
G0 F3000 X86.753 Y100.216
M204 S1800
M205 X8 Y8
G1 F1500 X105.79 Y119.253 E102.05333
M204 S3000
M205 X10 Y10
G0 F3000 X105.79 Y118.461
M204 S1800
M205 X8 Y8
G1 F1500 X86.753 Y99.424 E103.30694
M204 S3000
M205 X10 Y10
G0 F3000 X86.753 Y98.632
M204 S1800
M205 X8 Y8
G1 F1500 X105.79 Y117.669 E104.56056
M204 S3000
M205 X10 Y10
G0 F3000 X105.79 Y116.877
M204 S1800
M205 X8 Y8
G1 F1500 X86.753 Y97.84 E105.81418
M204 S3000
M205 X10 Y10
G0 F3000 X87.04 Y97.336
M204 S1800
M205 X8 Y8
G1 F1500 X106.136 Y116.432 E107.07169
M204 S3000
M205 X10 Y10
G0 F3000 X106.928 Y116.432
M204 S1800
M205 X8 Y8
G1 F1500 X87.832 Y97.336 E108.32919
M204 S3000
M205 X10 Y10
G0 F3000 X88.624 Y97.336
M204 S1800
M205 X8 Y8
G1 F1500 X107.72 Y116.432 E109.58669
M204 S3000
M205 X10 Y10
