;FLAVOR:Marlin
;TIME:7982
;Filament used: 5.37811m
;Layer height: 0.2
;MINX:85.586
;MINY:66.7
;MINZ:0.2
;MAXX:138.411
;MAXY:158.161
;MAXZ:41
;Generated with Cura_SteamEngine 4.2.1
M140 S60
M105
M190 S60
M104 S200
M105
M109 S200
M82 ;absolute extrusion mode
G21 ;metric values
G90 ;absolute positioning
M82 ;set extruder to absolute mode
M107 ;start with the fan off
G28 X0 Y0 ;move X/Y to min endstops
G28 Z0 ;move Z to min endstops
G1 Z15.0 F100 ;move the platform down 15mm
G92 E0 ;zero the extruded length
G1 F200 E3 ;extrude 3mm of feed stock
G92 E0 ;zero the extruded length again
G1 F100
M117 Printing...
G5
M141 S28
G92 E0
G92 E0
G1 F2400 E-6
;LAYER_COUNT:205
;LAYER:0
M106 S255
M204 S3000
M205 X10 Y10
G0 F3000 X88.28 Y66.78 Z0.2
M204 S1800
M205 X8 Y8
;TYPE:SUPPORT
G1 F2400 E0
G1 F1500 X98.72 Y66.78 E0.48613
G1 X98.72 Y71.524 E0.70703
G1 X88.28 Y71.525 E1.19316
G1 X88.28 Y66.78 E1.41411
M204 S3000
M205 X10 Y10
G0 F3000 X88.499 Y68.993
M204 S1800
M205 X8 Y8
G1 F1500 X91.954 Y66.999 E1.59986
M204 S3000
M205 X10 Y10
G0 F3000 X96 Y67
M204 S1800
M205 X8 Y8
G1 F1500 X96 Y71.305 E1.80032
M204 S3000
M205 X10 Y10
G0 F3000 X91.501 Y71.303
M204 S1800
M205 X8 Y8
G1 F1500 X88.499 Y69.57 E1.96172
M204 S3000
M205 X10 Y10
G0 F3000 X125.28 Y71.521
M204 S1800
M205 X8 Y8
G1 F1500 X125.28 Y66.78 E2.18248
G1 X135.72 Y66.78 E2.66861
G1 X135.72 Y71.52 E2.88933
G1 X125.28 Y71.521 E3.37546
M204 S3000
M205 X10 Y10
G0 F3000 X128 Y71.301
M204 S1800
M205 X8 Y8
G1 F1500 X128 Y67 E3.57573
M204 S3000
M205 X10 Y10
G0 F3000 X132.047 Y67
M204 S1800
M205 X8 Y8
G1 F1500 X135.499 Y68.993 E3.76134
M204 S3000
M205 X10 Y10
G0 F3000 X135.499 Y69.571
M204 S1800
M205 X8 Y8
G1 F1500 X132.504 Y71.3 E3.92237
M204 S3000
M205 X10 Y10
G1 F2400 E-2.07763
G0 F3000 X137.86 Y71.839
G0 X137.661 Y157.61
G0 X135.89 Y158.161
G0 X135.02 Y156.309
M204 S1800
M205 X8 Y8
G1 F2400 E3.92237
G1 F1500 X135.02 Y157.22 E3.96479
G1 X88.98 Y157.22 E6.1086
G1 X88.98 Y156.267 E6.15298
G1 X89.289 Y156.454 E6.1698
G1 X89.833 Y156.66 E6.19688
G1 X90.917 Y156.78 E6.24767
G1 X133.514 Y156.78 E8.23116
G1 X134.127 Y156.706 E8.25991
G1 X134.692 Y156.511 E8.28774
G1 X135.02 Y156.309 E8.30568
M204 S3000
M205 X10 Y10
G1 F2400 E2.30568
;MESH:sonic.sensor.frame.stl
G0 F3000 X134.72 Y148.003
G0 X134.365 Y75.36
G0 X135.011 Y73.341
G0 X89.74 Y73.638
G0 X89.772 Y73.733
M204 S1800
M205 X8 Y8
;TYPE:WALL-INNER
G1 F2400 E8.30568
G1 F1500 X89.294 Y73.9 E8.32926
G1 X89.049 Y73.986 E8.34135
G1 X88.414 Y74.384 E8.37624
G1 X88.324 Y74.474 E8.38217
G1 X87.886 Y74.912 E8.41101
G1 X87.84 Y74.985 E8.41503
G1 X87.84 Y74.912
G1 X87.84 Y74.292 E8.43167
G1 X87.84 Y73.345 E8.47576
G1 X89.266 Y73.345 E8.54216
G1 X89.772 Y73.345 E8.56216
G1 X90.773 Y73.345 E8.60877
G1 X133.598 Y73.342 E10.60288
G1 X134.31 Y73.341 E10.63603
G1 X134.761 Y73.341 E10.65703
G1 X135.883 Y73.34 E10.70928
G1 X136.163 Y73.34 E10.72232
G1 X136.163 Y73.62 E10.73076
G1 X136.163 Y74.353 E10.76489
G1 X136.163 Y74.418 E10.76791
G1 X136.163 Y74.925 E10.79152
G1 X135.674 Y74.418 E10.80956
G1 X135.62 Y74.383 E10.81239
G1 X135.031 Y74.002 E10.84505
G1 X134.736 Y73.896 E10.85965
G1 X134.311 Y73.744 E10.87776
G1 X133.599 Y73.661 E10.89971
G1 X90.774 Y73.66 E12.02855
G1 X89.772 Y73.733 E12.05795
M204 S3000
M205 X10 Y10
G0 F3000 X89.74 Y73.638
G0 X87.94 Y73.724
G0 X87.28 Y73.724
M204 S1800
M205 X8 Y8
;TYPE:WALL-OUTER
G1 F1500 X86.532 Y73.721 E12.09278
G1 X86.531 Y73.065 E12.12332
G1 X86.531 Y72.785 E12.13636
G1 X86.811 Y72.785 E12.1448
G1 X137.19 Y72.78 E14.49066
G1 X137.47 Y72.78 E14.5037
G1 X137.47 Y73.06 E14.51214
G1 X137.47 Y73.717 E14.54273
G1 X136.723 Y73.722 E14.57751
G1 X136.723 Y76.096 E14.68806
G1 X136.723 Y76.474 E14.70566
G1 X136.723 Y105.151 E16.04098
G1 X136.723 Y105.805 E16.07143
G1 X136.722 Y116.173 E16.55421
G1 X136.721 Y116.827 E16.58466
G1 X136.72 Y125.415 E16.98455
G1 X136.72 Y126.173 E17.01985
G1 X136.72 Y126.817 E17.04984
G1 X136.72 Y127.015 E17.05906
G1 X136.72 Y136.173 E17.48549
G1 X136.72 Y136.817 E17.51548
G1 X136.72 Y137.015 E17.5247
G1 X136.72 Y146.173 E17.95113
G1 X136.72 Y146.824 E17.98145
G1 X136.72 Y147.199 E17.99891
G1 X136.72 Y157.22 E18.46553
G1 X136.28 Y157.22 E18.48602
G1 X136.28 Y147.199 E18.85265
G1 X136.274 Y146.824 E18.86646
G1 X135.625 Y146.5 E18.90024
G1 X136.28 Y146.173 E18.93433
G1 X136.28 Y137.015 E19.26938
G1 X136.261 Y136.817 E19.27682
G1 X135.626 Y136.5 E19.30987
G1 X136.28 Y136.173 E19.34391
G1 X136.28 Y127.015 E19.67897
G1 X136.261 Y126.817 E19.6864
G1 X135.626 Y126.5 E19.71945
G1 X136.28 Y126.173 E19.7535
G1 X136.28 Y125.415 E19.78123
G1 X136.28 Y116.827 E20.09579
G1 X135.625 Y116.5 E20.12988
G1 X136.28 Y116.173 E20.16397
G1 X136.28 Y105.805 E20.54545
G1 X135.625 Y105.478 E20.57954
G1 X136.28 Y105.151 E20.61363
G1 X136.28 Y76.474 E21.66996
G1 X136.166 Y76.114 E21.68573
G1 X136.085 Y75.859 E21.69819
G1 X135.758 Y75.312 E21.72786
G1 X135.316 Y74.853 E21.75753
G1 X134.781 Y74.507 E21.7872
G1 X134.183 Y74.293 E21.81678
G1 X133.566 Y74.221 E21.8457
G1 X90.794 Y74.22 E23.83734
G1 X89.887 Y74.286 E23.87969
G1 X89.293 Y74.494 E23.909
G1 X88.765 Y74.825 E23.93801
G1 X88.327 Y75.263 E23.96686
G1 X87.996 Y75.791 E23.99587
G1 X87.838 Y76.239 E24.01799
G1 X87.788 Y76.381 E24.025
G1 X87.721 Y76.981 E24.05312
G1 X87.72 Y126.292 E26.34924
G1 X87.72 Y157.22 E27.78938
G1 X87.28 Y157.22 E27.80987
G1 X87.28 Y126.292 E28.9414
G1 X87.28 Y76.981 E30.74755
G1 X87.28 Y76.381 E30.77122
G1 X87.28 Y76.23 E30.77793
G1 X87.28 Y73.724 E30.89462
M204 S3000
M205 X10 Y10
G0 F3000 X87.08 Y73.724
G0 X87.94 Y73.724
G0 X88.284 Y73.86
M204 S1800
M205 X8 Y8
;TYPE:SKIN
G1 F1500 X88.478 Y73.77 E30.89936
G1 X88.94 Y73.666 E30.90985
G1 X88.197 Y74.055 E30.92843
M204 S3000
M205 X10 Y10
G0 F3000 X88.113 Y73.971
G0 X89.766 Y73.693
G0 X134.991 Y73.614
G0 X135.054 Y73.677
M204 S1800
M205 X8 Y8
G1 F1500 X135.573 Y73.913 E30.9438
G1 X135.863 Y73.638 E30.95457
M204 S3000
M205 X10 Y10
G0 F3000 X135.602 Y73.901
G1 F2400 E24.95457
;MESH:NONMESH
G0 F600 X135.602 Y73.901 Z0.4
G0 F3000 X133.8 Y73.65
G0 X90.768 Y73.641
G0 X90.767 Y71.84
G0 X88.2 Y66.7
;TIME_ELAPSED:41.607501
;LAYER:1
M140 S60
M204 S1800
M205 X8 Y8
;TYPE:SUPPORT
G1 F2400 E30.95457
G1 F1650 X98.8 Y66.7 E31.30713
G1 X98.8 Y71.6 E31.4701
G1 X88.2 Y71.6 E31.82266
G1 X88.2 Y66.7 E31.98564
M204 S3000
M205 X10 Y10
G0 F4500 X88.34 Y69.085
M204 S1800
M205 X8 Y8
G1 F1650 X92.23 Y66.839 E32.13503
M204 S3000
M205 X10 Y10
G0 F4500 X96 Y66.84
M204 S1800
M205 X8 Y8
G1 F1650 X96 Y71.46 E32.2887
M204 S3000
M205 X10 Y10
G0 F4500 X91.771 Y71.459
M204 S1800
M205 X8 Y8
G1 F1650 X88.339 Y69.477 E32.42051
M204 S3000
M205 X10 Y10
G0 F4500 X125.2 Y71.6
M204 S1800
M205 X8 Y8
G1 F1650 X125.2 Y66.7 E32.58349
G1 X135.8 Y66.7 E32.93604
G1 X135.8 Y71.6 E33.09902
G1 X125.2 Y71.6 E33.45158
M204 S3000
M205 X10 Y10
G0 F4500 X128 Y71.46
M204 S1800
M205 X8 Y8
G1 F1650 X128 Y66.84 E33.60524
M204 S3000
M205 X10 Y10
G0 F4500 X131.771 Y66.84
M204 S1800
M205 X8 Y8
G1 F1650 X135.66 Y69.085 E33.75459
M204 S3000
M205 X10 Y10
G0 F4500 X135.659 Y69.478
M204 S1800
M205 X8 Y8
G1 F1650 X132.227 Y71.46 E33.88641
M204 S3000
M205 X10 Y10
G1 F2400 E27.88641
G0 F4500 X137.907 Y71.839
G0 X137.661 Y157.657
G0 X135.843 Y158.161
G0 X135.1 Y156.168
M204 S1800
M205 X8 Y8
G1 F2400 E33.88641
G1 F1650 X135.1 Y157.3 E33.92406
G1 X88.9 Y157.3 E35.46068
G1 X88.9 Y156.124 E35.49979
G1 X89.322 Y156.38 E35.51621
G1 X89.849 Y156.582 E35.53498
G1 X90.921 Y156.7 E35.57085
G1 X133.511 Y156.7 E36.9874
G1 X134.113 Y156.628 E37.00756
G1 X134.654 Y156.438 E37.02664
G1 X135.1 Y156.168 E37.04398
M204 S3000
M205 X10 Y10
G0 F4500 X128.345 Y156.839
M204 S1800
M205 X8 Y8
G1 F1650 X127.79 Y157.16 E37.0653
M204 S3000
M205 X10 Y10
G0 F4500 X128 Y157.16
M204 S1800
M205 X8 Y8
G1 F1650 X128 Y156.84 E37.07594
M204 S3000
M205 X10 Y10
G0 F4500 X127.654 Y156.839
M204 S1800
M205 X8 Y8
G1 F1650 X128.207 Y157.158 E37.09718
M204 S3000
M205 X10 Y10
G0 F4500 X120 Y157.16
M204 S1800
M205 X8 Y8
G1 F1650 X120 Y156.84 E37.10782
M204 S3000
M205 X10 Y10
G0 F4500 X112.346 Y156.839
M204 S1800
M205 X8 Y8
G1 F1650 X111.791 Y157.159 E37.12913
M204 S3000
M205 X10 Y10
G0 F4500 X112 Y157.16
M204 S1800
M205 X8 Y8
G1 F1650 X112 Y156.84 E37.13977
M204 S3000
M205 X10 Y10
G0 F4500 X111.654 Y156.839
M204 S1800
M205 X8 Y8
G1 F1650 X112.207 Y157.159 E37.16102
M204 S3000
M205 X10 Y10
G0 F4500 X104 Y157.16
M204 S1800
M205 X8 Y8
G1 F1650 X104 Y156.84 E37.17167
M204 S3000
M205 X10 Y10
G0 F4500 X96.346 Y156.839
M204 S1800
M205 X8 Y8
G1 F1650 X95.791 Y157.159 E37.19297
M204 S3000
M205 X10 Y10
G0 F4500 X96 Y157.16
M204 S1800
M205 X8 Y8
G1 F1650 X96 Y156.84 E37.20362
M204 S3000
M205 X10 Y10
G0 F4500 X95.653 Y156.839
M204 S1800
M205 X8 Y8
G1 F1650 X96.206 Y157.158 E37.22485
M204 S3000
M205 X10 Y10
G1 F2400 E31.22485
;MESH:sonic.sensor.frame.stl
G0 F4500 X89.702 Y75.353
G0 X89.142 Y74.188
G0 X89.739 Y73.575
M204 S1800
M205 X8 Y8
;TYPE:WALL-INNER
G1 F2400 E37.22485
G1 F2250 X88.978 Y73.841 E37.25166
G1 X88.892 Y73.895 E37.25504
G1 X88.379 Y74.218 E37.2752
G1 X88.314 Y74.258 E37.27774
G1 X88 Y74.571 E37.29249
G1 X88 Y74.258 E37.29583
G1 X88 Y74.181 E37.29815
G1 X88 Y73.5 E37.3208
G1 X88.876 Y73.5 E37.34994
G1 X88.978 Y73.5 E37.35309
G1 X89.739 Y73.5 E37.36607
G1 X90.809 Y73.5 E37.40166
G1 X133.611 Y73.5 E38.82526
G1 X134.352 Y73.5 E38.8499
G1 X135.107 Y73.5 E38.87501
G1 X135.174 Y73.5 E38.87724
G1 X136.007 Y73.5 E38.90495
G1 X136.007 Y74.14 E38.92623
G1 X136.007 Y74.299 E38.93152
G1 X136.007 Y74.535 E38.93937
G1 X135.78 Y74.299 E38.94402
G1 X135.647 Y74.213 E38.94829
G1 X135.163 Y73.896 E38.96753
G1 X135.107 Y73.86 E38.96964
G1 X134.352 Y73.588 E38.9851
G1 X133.611 Y73.502 E38.98798
G1 X90.809 Y73.5 E38.99154
G1 X89.739 Y73.575 E39.02721
M204 S3000
M205 X10 Y10
G0 F4500 X87.67 Y73.341
G0 X87.6 Y73.411
M204 S1800
M205 X8 Y8
G1 F2250 X86.886 Y73.406 E39.05096
G1 X86.854 Y73.405 E39.05203
G1 X86.853 Y73.101 E39.06214
G1 X86.888 Y73.1 E39.06304
G1 X87.6 Y73.1 E39.0813
G1 X136.407 Y73.1 E40.70462
G1 X137.15 Y73.1 E40.72934
G1 X137.15 Y73.397 E40.73921
G1 X136.407 Y73.409 E40.75794
G1 X136.407 Y75.109 E40.81448
G1 X136.407 Y75.12 E40.81484
G1 X136.407 Y75.731 E40.83517
G1 X136.407 Y75.815 E40.83796
G1 X136.38 Y75.731 E40.83815
G1 X136.016 Y75.12 E40.85168
G1 X136.009 Y75.113 E40.85201
G1 X135.524 Y74.609 E40.87527
G1 X134.928 Y74.221 E40.89893
G1 X134.26 Y73.98 E40.92254
G1 X133.588 Y73.902 E40.94505
G1 X90.823 Y73.9 E42.36742
G1 X89.821 Y73.97 E42.40082
G1 X89.153 Y74.204 E42.42436
G1 X88.565 Y74.573 E42.44745
G1 X88.078 Y75.059 E42.47034
G1 X87.977 Y75.22 E42.47666
G1 X87.709 Y75.647 E42.49343
G1 X87.6 Y75.955 E42.50429
G1 X87.6 Y75.647 E42.50556
G1 X87.6 Y75.142 E42.51649
G1 X87.6 Y73.411 E42.57407
M204 S3000
M205 X10 Y10
G0 F4500 X87.67 Y73.341
G0 X133.567 Y74.263
G0 X134.766 Y74.547
G0 X135.727 Y75.34
G0 X136.547 Y76.258
G0 X136.303 Y105.46
G0 X136.38 Y105.46
M204 S1800
M205 X8 Y8
G1 F2250 X136.403 Y105.448 E42.57493
G1 X136.403 Y105.478 E42.57517
G1 X136.403 Y105.508 E42.57547
G1 X136.38 Y105.497 E42.57555
G1 X136.342 Y105.478 E42.57603
G1 X136.38 Y105.46 E42.57623
M204 S3000
M205 X10 Y10
G0 F4500 X136.303 Y105.46
G0 X136.301 Y116.483
G0 X136.376 Y116.483
M204 S1800
M205 X8 Y8
G1 F2250 X136.401 Y116.47 E42.57716
G1 X136.401 Y116.5 E42.57738
G1 X136.401 Y116.53 E42.57764
G1 X136.377 Y116.518 E42.57774
G1 X136.342 Y116.5 E42.57816
G1 X136.376 Y116.483 E42.57833
M204 S3000
M205 X10 Y10
G0 F4500 X136.301 Y116.483
G0 X136.3 Y126.483
G0 X136.377 Y126.483
M204 S1800
M205 X8 Y8
G1 F2250 X136.4 Y126.471 E42.57919
G1 X136.4 Y126.499 E42.57938
G1 X136.4 Y126.528 E42.57964
G1 X136.377 Y126.517 E42.57974
G1 X136.343 Y126.499 E42.58014
G1 X136.377 Y126.483 E42.58029
M204 S3000
M205 X10 Y10
G0 F4500 X136.3 Y126.483
G0 X136.3 Y136.483
G0 X136.377 Y136.483
M204 S1800
M205 X8 Y8
G1 F2250 X136.4 Y136.471 E42.58115
G1 X136.4 Y136.499 E42.58135
G1 X136.4 Y136.528 E42.58161
G1 X136.377 Y136.517 E42.5817
G1 X136.343 Y136.499 E42.58211
G1 X136.377 Y136.483 E42.58226
M204 S3000
M205 X10 Y10
G0 F4500 X136.3 Y136.483
G0 X136.3 Y146.483
G0 X136.377 Y146.483
M204 S1800
M205 X8 Y8
G1 F2250 X136.4 Y146.471 E42.58312
G1 X136.4 Y146.5 E42.58333
G1 X136.4 Y146.529 E42.58359
G1 X136.377 Y146.518 E42.58369
G1 X136.342 Y146.5 E42.58412
G1 X136.377 Y146.483 E42.58428
M204 S3000
M205 X10 Y10
G0 F4500 X136.3 Y146.483
G0 X136.595 Y76.425
G0 X135.727 Y75.34
G0 X134.766 Y74.547
G0 X133.832 Y74.295
G0 X87.7 Y73.808
G0 X87.2 Y73.808
M204 S1800
M205 X8 Y8
;TYPE:WALL-OUTER
G1 F2250 X86.456 Y73.802 E42.60902
G1 X86.451 Y72.708 E42.64541
G1 X86.881 Y72.7 E42.65972
G1 X137.55 Y72.7 E44.34497
G1 X137.55 Y73.791 E44.38126
G1 X136.807 Y73.803 E44.40598
G1 X136.8 Y125.292 E46.11851
G1 X136.8 Y157.3 E47.1831
G1 X136.2 Y157.3 E47.20305
G1 X136.2 Y146.876 E47.54976
G1 X135.805 Y146.678 E47.56445
G1 X135.447 Y146.5 E47.57775
G1 X135.805 Y146.322 E47.58508
G1 X136.2 Y146.124 E47.59978
G1 X136.2 Y137.074 E47.90078
G1 X136.179 Y136.865 E47.90777
G1 X135.805 Y136.678 E47.92168
G1 X135.447 Y136.5 E47.93497
G1 X135.805 Y136.322 E47.94231
G1 X136.2 Y136.124 E47.957
G1 X136.2 Y127.074 E48.25801
G1 X136.179 Y126.865 E48.26499
G1 X135.805 Y126.678 E48.2789
G1 X135.447 Y126.5 E48.2922
G1 X135.805 Y126.322 E48.29953
G1 X136.2 Y126.124 E48.31423
G1 X136.2 Y116.876 E48.62182
G1 X135.805 Y116.678 E48.63651
G1 X135.447 Y116.5 E48.64981
G1 X135.805 Y116.322 E48.65714
G1 X136.2 Y116.124 E48.67184
G1 X136.2 Y105.854 E49.01342
G1 X135.805 Y105.656 E49.02811
G1 X135.447 Y105.478 E49.04141
G1 X135.805 Y105.3 E49.04874
G1 X136.2 Y105.102 E49.06344
G1 X136.2 Y76.486 E50.01521
G1 X136.013 Y75.896 E50.0358
G1 X135.696 Y75.364 E50.0564
G1 X135.268 Y74.919 E50.07693
G1 X134.749 Y74.582 E50.09751
G1 X134.168 Y74.372 E50.11806
G1 X133.565 Y74.302 E50.13825
G1 X90.837 Y74.3 E51.55939
G1 X89.903 Y74.365 E51.59053
G1 X89.328 Y74.567 E51.6108
G1 X88.816 Y74.888 E51.6309
G1 X88.393 Y75.31 E51.65077
G1 X88.071 Y75.822 E51.67089
G1 X87.867 Y76.399 E51.69125
G1 X87.802 Y76.983 E51.71079
G1 X87.8 Y127.919 E53.40493
G1 X87.8 Y157.3 E54.38214
G1 X87.2 Y157.3 E54.4021
G1 X87.2 Y73.808 E57.17905
M204 S3000
M205 X10 Y10
G0 F4500 X87 Y73.807
G0 X87.004 Y73.307
G0 X88.194 Y73.874
G0 X88.284 Y73.784
M204 S1800
M205 X8 Y8
;TYPE:SKIN
G1 F1350 X88.5 Y73.85 E57.19069
M204 S3000
M205 X10 Y10
G0 F4500 X88.343 Y74.007
G0 X87.664 Y76.401
G0 X87.508 Y76.256
M204 S1800
M205 X8 Y8
G1 F1350 X87.533 Y76.514 E57.19524
G1 X87.499 Y78.81 E57.23551
G1 X87.499 Y133.965 E58.20276
G1 X87.499 Y156.876 E58.60456
G1 X87.579 Y157.079 E58.60838
M204 S3000
M205 X10 Y10
G0 F4500 X87.604 Y157.054
G0 X87.403 Y76.961
G0 X88.035 Y75.805
G0 X88.792 Y74.857
G0 X89.895 Y74.326
G0 X90.836 Y74.261
G0 X133.567 Y74.263
G0 X134.766 Y74.547
G0 X135.727 Y75.34
G0 X136.547 Y76.258
G0 X136.394 Y156.913
G0 X136.499 Y156.807
M204 S1800
M205 X8 Y8
G1 F1350 X136.499 Y156.524 E58.6132
G1 X136.499 Y147.19 E58.77219
G1 X136.499 Y137.008 E58.94562
G1 X136.419 Y136.806 E58.94932
G1 X136.499 Y135.595 E58.96999
G1 X136.499 Y127.109 E59.11453
G1 X136.456 Y126.869 E59.11869
G1 X136.499 Y124.564 E59.15795
G1 X136.499 Y106.178 E59.47112
G1 X136.5 Y100.804 E59.56266
G1 X136.501 Y92.601 E59.70238
G1 X136.502 Y79.306 E59.92883
G1 X136.483 Y76.213 E59.98152
G1 X136.354 Y76.059 E59.98494
M204 S3000
M205 X10 Y10
G0 F4500 X136.316 Y76.297
G0 X135.622 Y73.964
G0 X135.716 Y73.869
M204 S1800
M205 X8 Y8
G1 F1350 X135.529 Y73.773 E59.98935
G1 X135.302 Y73.717 E59.99425
M204 S3000
M205 X10 Y10
