;FLAVOR:Marlin
;TIME:6211
;Filament used: 5.84414m
;Layer height: 0.2
;MINX:84.741
;MINY:97.826
;MINZ:0.2
;MAXX:139.259
;MAXY:127.032
;MAXZ:50
;Generated with Cura_SteamEngine 4.2.1
M140 S60
M105
M190 S60
M104 S200
M105
M109 S200
M82 ;absolute extrusion mode
G21 ;metric values
G90 ;absolute positioning
M82 ;set extruder to absolute mode
M107 ;start with the fan off
G28 X0 Y0 ;move X/Y to min endstops
G28 Z0 ;move Z to min endstops
G1 Z15.0 F100 ;move the platform down 15mm
G92 E0 ;zero the extruded length
G1 F200 E3 ;extrude 3mm of feed stock
G92 E0 ;zero the extruded length again
G1 F100
M117 Printing...
G5
M141 S28
G92 E0
G92 E0
G1 F2400 E-6
;LAYER_COUNT:250
;LAYER:0
M106 S255
M204 S3000
M205 X10 Y10
;MESH:sonic.sensor.cap.stl
G0 F3000 X106.6 Y121.543 Z0.2
M204 S1800
M205 X8 Y8
;TYPE:WALL-INNER
G1 F2400 E0
G1 F1500 X117.4 Y121.543 E0.50289
G1 X117.4 Y114.743 E0.81953
G1 X106.6 Y114.743 E1.32242
G1 X106.6 Y121.543 E1.63906
M204 S3000
M205 X10 Y10
G0 F3000 X116.868 Y121.011
G0 X137.846 Y114.266
M204 S1800
M205 X8 Y8
G1 F1500 X137.492 Y115.186 E1.68496
G1 X136.722 Y116.47 E1.75468
G1 X135.495 Y117.888 E1.84199
G1 X133.782 Y119.318 E1.9459
G1 X131.747 Y120.6 E2.05789
G1 X129.142 Y121.857 E2.19257
G1 X125.872 Y123.036 E2.35443
G1 X122.512 Y123.894 E2.51591
G1 X118.699 Y124.543 E2.69601
G1 X114.546 Y124.912 E2.89015
G1 X109.944 Y124.937 E3.10445
G1 X105.605 Y124.584 E3.30716
G1 X101.362 Y123.873 E3.50748
G1 X97.554 Y122.855 E3.69102
G1 X94.368 Y121.652 E3.8496
G1 X91.789 Y120.327 E3.98461
G1 X91.554 Y120.19 E3.99728
G1 X89.538 Y118.801 E4.11128
G1 X88.01 Y117.376 E4.20857
G1 X86.953 Y115.971 E4.29043
G1 X86.868 Y115.842 E4.29763
G1 X86.25 Y114.561 E4.36386
G1 X85.965 Y113.316 E4.42333
G1 X85.943 Y99.306 E5.07569
G1 X85.943 Y99.026 E5.08873
G1 X86.223 Y99.026 E5.09717
G1 X138.059 Y99.026 E7.51087
G1 X138.059 Y113.204 E8.17106
G1 X137.846 Y114.266 E8.22149
M204 S3000
M205 X10 Y10
G0 F3000 X138.385 Y114.425
M204 S1800
M205 X8 Y8
G1 F1500 X137.999 Y115.43 E8.27162
G1 X137.178 Y116.798 E8.34592
G1 X135.885 Y118.292 E8.43792
G1 X134.111 Y119.773 E8.54553
G1 X132.026 Y121.087 E8.66028
G1 X129.353 Y122.376 E8.79847
G1 X126.034 Y123.573 E8.96276
G1 X122.635 Y124.441 E9.12611
G1 X118.767 Y125.099 E9.3088
G1 X114.575 Y125.472 E9.50477
G1 X109.925 Y125.497 E9.7213
G1 X105.536 Y125.14 E9.92634
G1 X101.24 Y124.42 E10.12917
G1 X97.382 Y123.389 E10.31512
G1 X94.142 Y122.165 E10.4764
G1 X91.526 Y120.821 E10.61335
G1 X91.25 Y120.661 E10.6282
G1 X89.188 Y119.24 E10.74481
G1 X87.592 Y117.751 E10.84644
G1 X86.488 Y116.284 E10.93194
G1 X86.382 Y116.122 E10.94095
G1 X85.718 Y114.747 E11.01205
G1 X85.405 Y113.38 E11.07735
G1 X85.382 Y98.746 E11.75877
G1 X85.382 Y98.466 E11.77181
G1 X85.662 Y98.466 E11.78025
G1 X138.619 Y98.466 E14.24615
G1 X138.619 Y113.259 E14.93498
G1 X138.385 Y114.425 E14.99035
M204 S3000
M205 X10 Y10
G0 F3000 X138.289 Y114.398
G0 X116.868 Y121.011
G0 X107.09 Y121.053
G0 X107.16 Y120.983
M204 S1800
M205 X8 Y8
G1 F1500 X116.84 Y120.983 E15.44109
G1 X116.84 Y115.303 E15.70558
G1 X107.16 Y115.303 E16.15632
G1 X107.16 Y120.983 E16.4208
M204 S3000
M205 X10 Y10
G0 F3000 X107.72 Y120.423
M204 S1800
M205 X8 Y8
;TYPE:WALL-OUTER
G1 F1500 X116.28 Y120.423 E16.81939
G1 X116.28 Y115.863 E17.03173
G1 X107.72 Y115.863 E17.43032
G1 X107.72 Y120.423 E17.64265
M204 S3000
M205 X10 Y10
G0 F3000 X107.92 Y120.423
G0 X107.92 Y121.083
G0 X116.868 Y121.011
G0 X138.289 Y114.398
G0 X138.924 Y114.584
M204 S1800
M205 X8 Y8
G1 F1500 X138.506 Y115.674 E17.69701
G1 X137.632 Y117.129 E17.77604
G1 X136.279 Y118.693 E17.87234
G1 X134.44 Y120.228 E17.98388
G1 X132.305 Y121.574 E18.1014
G1 X129.564 Y122.895 E18.24308
G1 X126.196 Y124.11 E18.4098
G1 X122.758 Y124.988 E18.57503
G1 X118.835 Y125.655 E18.76032
G1 X114.604 Y126.032 E18.95812
G1 X109.906 Y126.057 E19.17688
G1 X105.467 Y125.696 E19.38426
G1 X101.118 Y124.967 E19.58959
G1 X97.21 Y123.923 E19.77795
G1 X93.916 Y122.678 E19.94192
G1 X91.247 Y121.307 E20.08164
G1 X90.955 Y121.138 E20.09734
G1 X88.838 Y119.679 E20.21706
G1 X87.174 Y118.126 E20.32305
G1 X86.031 Y116.607 E20.41157
G1 X85.895 Y116.4 E20.4231
G1 X85.186 Y114.931 E20.49905
G1 X84.845 Y113.444 E20.57009
G1 X84.821 Y98.186 E21.28057
G1 X84.821 Y97.906 E21.29361
G1 X85.101 Y97.906 E21.30205
G1 X139.179 Y97.906 E23.82015
G1 X139.179 Y113.314 E24.53761
G1 X138.924 Y114.584 E24.59792
M204 S3000
M205 X10 Y10
G0 F3000 X138.853 Y114.77
G0 X138.237 Y114.533
G0 X137.314 Y114.117
M204 S1800
M205 X8 Y8
;TYPE:SKIN
G1 F1500 X136.995 Y114.947 E24.63933
G1 X136.277 Y116.143 E24.70428
G1 X135.106 Y117.497 E24.78764
G1 X133.458 Y118.872 E24.88758
G1 X131.48 Y120.119 E24.99646
G1 X128.929 Y121.349 E25.12833
G1 X125.713 Y122.508 E25.28751
G1 X122.394 Y123.356 E25.44702
G1 X118.634 Y123.997 E25.62463
G1 X114.517 Y124.362 E25.81708
G1 X109.963 Y124.387 E26.02914
G1 X105.67 Y124.038 E26.2297
G1 X101.49 Y123.337 E26.42706
G1 X97.72 Y122.329 E26.60877
G1 X94.586 Y121.146 E26.76475
G1 X92.056 Y119.846 E26.8972
G1 X91.851 Y119.727 E26.90824
G1 X89.882 Y118.37 E27.01959
G1 X88.421 Y117.008 E27.1126
G1 X87.405 Y115.657 E27.19131
G1 X87.346 Y115.567 E27.19632
G1 X86.772 Y114.378 E27.2578
G1 X86.515 Y113.254 E27.31149
G1 X86.493 Y99.576 E27.94839
G1 X137.509 Y99.576 E30.32391
G1 X137.509 Y113.146 E30.95579
G1 X137.314 Y114.117 E31.0019
M204 S3000
M205 X10 Y10
G0 F3000 X117.95 Y114.193
M204 S1800
M205 X8 Y8
G1 F1500 X106.05 Y114.193 E31.55602
G1 X106.05 Y122.093 E31.92388
G1 X117.95 Y122.093 E32.47799
G1 X117.95 Y114.193 E32.84585
M204 S3000
M205 X10 Y10
G0 F3000 X137.248 Y100.026
M204 S1800
M205 X8 Y8
G1 F1500 X137.058 Y99.836 E32.85836
M204 S3000
M205 X10 Y10
G0 F3000 X136.266 Y99.836
M204 S1800
M205 X8 Y8
G1 F1500 X137.248 Y100.818 E32.92303
M204 S3000
M205 X10 Y10
G0 F3000 X137.248 Y101.61
M204 S1800
M205 X8 Y8
G1 F1500 X135.474 Y99.836 E33.03985
M204 S3000
M205 X10 Y10
G0 F3000 X134.682 Y99.836
M204 S1800
M205 X8 Y8
G1 F1500 X137.248 Y102.402 E33.20882
M204 S3000
M205 X10 Y10
G0 F3000 X137.248 Y103.194
M204 S1800
M205 X8 Y8
G1 F1500 X133.89 Y99.836 E33.42995
M204 S3000
M205 X10 Y10
G0 F3000 X133.098 Y99.836
M204 S1800
M205 X8 Y8
G1 F1500 X137.248 Y103.986 E33.70324
M204 S3000
M205 X10 Y10
G0 F3000 X137.248 Y104.778
M204 S1800
M205 X8 Y8
G1 F1500 X132.306 Y99.836 E34.02868
M204 S3000
M205 X10 Y10
G0 F3000 X131.514 Y99.836
M204 S1800
M205 X8 Y8
G1 F1500 X137.248 Y105.57 E34.40627
M204 S3000
M205 X10 Y10
G0 F3000 X137.248 Y106.362
M204 S1800
M205 X8 Y8
G1 F1500 X130.722 Y99.836 E34.83602
M204 S3000
M205 X10 Y10
G0 F3000 X129.93 Y99.836
M204 S1800
M205 X8 Y8
G1 F1500 X137.248 Y107.154 E35.31792
M204 S3000
M205 X10 Y10
G0 F3000 X137.248 Y107.946
M204 S1800
M205 X8 Y8
G1 F1500 X129.138 Y99.836 E35.85198
M204 S3000
M205 X10 Y10
G0 F3000 X128.346 Y99.836
M204 S1800
M205 X8 Y8
G1 F1500 X137.248 Y108.738 E36.43819
M204 S3000
M205 X10 Y10
G0 F3000 X137.248 Y109.53
M204 S1800
M205 X8 Y8
G1 F1500 X127.554 Y99.836 E37.07656
M204 S3000
M205 X10 Y10
G0 F3000 X126.763 Y99.836
M204 S1800
M205 X8 Y8
G1 F1500 X137.248 Y110.322 E37.76704
M204 S3000
M205 X10 Y10
G0 F3000 X137.248 Y111.114
M204 S1800
M205 X8 Y8
G1 F1500 X125.971 Y99.836 E38.50969
M204 S3000
M205 X10 Y10
G0 F3000 X125.179 Y99.836
M204 S1800
M205 X8 Y8
G1 F1500 X137.248 Y111.906 E39.30448
M204 S3000
M205 X10 Y10
G0 F3000 X137.248 Y112.697
M204 S1800
M205 X8 Y8
G1 F1500 X124.387 Y99.836 E40.1514
M204 S3000
M205 X10 Y10
G0 F3000 X123.595 Y99.836
M204 S1800
M205 X8 Y8
G1 F1500 X137.186 Y113.427 E41.04639
M204 S3000
M205 X10 Y10
G0 F3000 X137.048 Y114.081
M204 S1800
M205 X8 Y8
G1 F1500 X122.803 Y99.836 E41.98445
M204 S3000
M205 X10 Y10
G0 F3000 X122.011 Y99.836
M204 S1800
M205 X8 Y8
G1 F1500 X136.829 Y114.654 E42.96024
M204 S3000
M205 X10 Y10
G0 F3000 X136.556 Y115.173
M204 S1800
M205 X8 Y8
G1 F1500 X121.219 Y99.836 E43.97021
M204 S3000
M205 X10 Y10
G0 F3000 X120.427 Y99.836
M204 S1800
M205 X8 Y8
G1 F1500 X136.258 Y115.667 E45.01271
M204 S3000
M205 X10 Y10
G0 F3000 X135.937 Y116.138
M204 S1800
M205 X8 Y8
G1 F1500 X119.635 Y99.836 E46.08622
M204 S3000
M205 X10 Y10
G0 F3000 X118.843 Y99.836
M204 S1800
M205 X8 Y8
G1 F1500 X135.57 Y116.563 E47.18772
M204 S3000
M205 X10 Y10
G0 F3000 X135.202 Y116.987
M204 S1800
M205 X8 Y8
G1 F1500 X118.051 Y99.836 E48.31715
M204 S3000
M205 X10 Y10
G0 F3000 X117.259 Y99.836
M204 S1800
M205 X8 Y8
G1 F1500 X134.819 Y117.396 E49.4735
M204 S3000
M205 X10 Y10
G0 F3000 X134.387 Y117.756
M204 S1800
M205 X8 Y8
G1 F1500 X116.467 Y99.836 E50.65356
M204 S3000
M205 X10 Y10
G0 F3000 X115.675 Y99.836
M204 S1800
M205 X8 Y8
G1 F1500 X133.955 Y118.116 E51.85733
M204 S3000
M205 X10 Y10
G0 F3000 X133.523 Y118.476
M204 S1800
M205 X8 Y8
G1 F1500 X114.883 Y99.836 E53.08481
M204 S3000
M205 X10 Y10
G0 F3000 X114.091 Y99.836
M204 S1800
M205 X8 Y8
G1 F1500 X133.065 Y118.81 E54.33428
M204 S3000
M205 X10 Y10
G0 F3000 X132.58 Y119.117
M204 S1800
M205 X8 Y8
G1 F1500 X113.299 Y99.836 E55.60397
M204 S3000
M205 X10 Y10
G0 F3000 X112.507 Y99.836
M204 S1800
M205 X8 Y8
G1 F1500 X132.094 Y119.423 E56.8938
M204 S3000
M205 X10 Y10
G0 F3000 X131.608 Y119.729
M204 S1800
M205 X8 Y8
G1 F1500 X111.715 Y99.836 E58.20379
M204 S3000
M205 X10 Y10
G0 F3000 X110.923 Y99.836
M204 S1800
M205 X8 Y8
G1 F1500 X131.1 Y120.012 E59.53245
M204 S3000
M205 X10 Y10
G0 F3000 X130.565 Y120.27
M204 S1800
M205 X8 Y8
G1 F1500 X110.131 Y99.836 E60.87806
M204 S3000
M205 X10 Y10
G0 F3000 X109.339 Y99.836
M204 S1800
M205 X8 Y8
G1 F1500 X130.031 Y120.527 E62.24063
M204 S3000
M205 X10 Y10
G0 F3000 X129.496 Y120.785
M204 S1800
M205 X8 Y8
G1 F1500 X108.547 Y99.836 E63.62016
M204 S3000
M205 X10 Y10
G0 F3000 X107.756 Y99.836
M204 S1800
M205 X8 Y8
G1 F1500 X128.962 Y121.042 E65.01661
M204 S3000
M205 X10 Y10
G0 F3000 X128.392 Y121.264
M204 S1800
M205 X8 Y8
G1 F1500 X106.964 Y99.836 E66.42768
M204 S3000
M205 X10 Y10
G0 F3000 X106.172 Y99.836
M204 S1800
M205 X8 Y8
G1 F1500 X127.81 Y121.474 E67.85258
M204 S3000
M205 X10 Y10
G0 F3000 X127.228 Y121.684
M204 S1800
M205 X8 Y8
G1 F1500 X105.38 Y99.836 E69.29131
M204 S3000
M205 X10 Y10
G0 F3000 X104.588 Y99.836
M204 S1800
M205 X8 Y8
G1 F1500 X126.646 Y121.894 E70.74387
M204 S3000
M205 X10 Y10
G0 F3000 X126.063 Y122.103
M204 S1800
M205 X8 Y8
G1 F1500 X118.209 Y114.249 E71.26107
M204 S3000
M205 X10 Y10
G0 F3000 X117.891 Y113.931
M204 S1800
M205 X8 Y8
G1 F1500 X103.796 Y99.836 E72.18925
M204 S3000
M205 X10 Y10
G0 F3000 X103.004 Y99.836
M204 S1800
M205 X8 Y8
G1 F1500 X117.099 Y113.931 E73.11743
M204 S3000
M205 X10 Y10
G0 F3000 X116.307 Y113.931
M204 S1800
M205 X8 Y8
G1 F1500 X102.212 Y99.836 E74.04561
M204 S3000
M205 X10 Y10
G0 F3000 X101.42 Y99.836
M204 S1800
M205 X8 Y8
G1 F1500 X115.515 Y113.931 E74.97379
M204 S3000
M205 X10 Y10
G0 F3000 X114.723 Y113.931
M204 S1800
M205 X8 Y8
G1 F1500 X100.628 Y99.836 E75.90197
M204 S3000
M205 X10 Y10
G0 F3000 X99.836 Y99.836
M204 S1800
M205 X8 Y8
G1 F1500 X113.931 Y113.931 E76.83015
M204 S3000
M205 X10 Y10
G0 F3000 X113.139 Y113.931
M204 S1800
M205 X8 Y8
G1 F1500 X99.044 Y99.836 E77.75832
M204 S3000
M205 X10 Y10
G0 F3000 X98.252 Y99.836
M204 S1800
M205 X8 Y8
G1 F1500 X112.347 Y113.931 E78.6865
M204 S3000
M205 X10 Y10
G0 F3000 X111.555 Y113.931
M204 S1800
M205 X8 Y8
G1 F1500 X97.46 Y99.836 E79.61468
M204 S3000
M205 X10 Y10
G0 F3000 X96.668 Y99.836
M204 S1800
M205 X8 Y8
G1 F1500 X110.764 Y113.931 E80.5429
M204 S3000
M205 X10 Y10
G0 F3000 X109.972 Y113.931
M204 S1800
M205 X8 Y8
G1 F1500 X95.876 Y99.836 E81.47111
M204 S3000
M205 X10 Y10
G0 F3000 X95.084 Y99.836
M204 S1800
M205 X8 Y8
G1 F1500 X109.18 Y113.931 E82.39932
M204 S3000
M205 X10 Y10
G0 F3000 X108.388 Y113.931
M204 S1800
M205 X8 Y8
G1 F1500 X94.292 Y99.836 E83.32754
M204 S3000
M205 X10 Y10
G0 F3000 X93.5 Y99.836
M204 S1800
M205 X8 Y8
G1 F1500 X107.596 Y113.931 E84.25575
M204 S3000
M205 X10 Y10
G0 F3000 X106.804 Y113.931
M204 S1800
M205 X8 Y8
G1 F1500 X92.708 Y99.836 E85.18396
M204 S3000
M205 X10 Y10
G0 F3000 X91.916 Y99.836
M204 S1800
M205 X8 Y8
G1 F1500 X106.012 Y113.931 E86.11217
M204 S3000
M205 X10 Y10
G0 F3000 X105.79 Y114.501
M204 S1800
M205 X8 Y8
G1 F1500 X91.124 Y99.836 E87.07792
M204 S3000
M205 X10 Y10
G0 F3000 X90.332 Y99.836
M204 S1800
M205 X8 Y8
G1 F1500 X105.79 Y115.293 E88.09582
M204 S3000
M205 X10 Y10
G0 F3000 X105.79 Y116.085
M204 S1800
M205 X8 Y8
G1 F1500 X89.54 Y99.836 E89.16588
M204 S3000
M205 X10 Y10
G0 F3000 X88.748 Y99.836
M204 S1800
M205 X8 Y8
G1 F1500 X105.79 Y116.877 E90.28809
M204 S3000
M205 X10 Y10
G0 F3000 X105.79 Y117.669
M204 S1800
M205 X8 Y8
G1 F1500 X87.957 Y99.836 E91.46243
M204 S3000
M205 X10 Y10
G0 F3000 X87.165 Y99.836
M204 S1800
M205 X8 Y8
G1 F1500 X105.79 Y118.461 E92.68892
M204 S3000
M205 X10 Y10
G0 F3000 X105.79 Y119.253
M204 S1800
M205 X8 Y8
G1 F1500 X86.752 Y100.216 E93.94257
M204 S3000
M205 X10 Y10
G0 F3000 X86.754 Y101.009
M204 S1800
M205 X8 Y8
G1 F1500 X105.79 Y120.045 E95.19612
M204 S3000
M205 X10 Y10
G0 F3000 X105.79 Y120.837
M204 S1800
M205 X8 Y8
G1 F1500 X86.755 Y101.802 E96.44961
M204 S3000
M205 X10 Y10
G0 F3000 X86.757 Y102.596
M204 S1800
M205 X8 Y8
G1 F1500 X105.79 Y121.629 E97.70296
M204 S3000
M205 X10 Y10
G0 F3000 X106.512 Y122.352
M204 S1800
M205 X8 Y8
G1 F1500 X108.137 Y123.977 E97.80997
M204 S3000
M205 X10 Y10
G0 F3000 X108.999 Y124.047
M204 S1800
M205 X8 Y8
G1 F1500 X107.304 Y122.352 E97.92159
M204 S3000
M205 X10 Y10
G0 F3000 X108.096 Y122.352
M204 S1800
M205 X8 Y8
G1 F1500 X109.861 Y124.117 E98.03782
M204 S3000
M205 X10 Y10
G0 F3000 X110.658 Y124.121
M204 S1800
M205 X8 Y8
G1 F1500 X108.888 Y122.352 E98.15434
M204 S3000
M205 X10 Y10
G0 F3000 X109.68 Y122.352
M204 S1800
M205 X8 Y8
G1 F1500 X111.446 Y124.117 E98.27061
M204 S3000
M205 X10 Y10
G0 F3000 X112.234 Y124.113
M204 S1800
M205 X8 Y8
G1 F1500 X110.472 Y122.352 E98.3866
M204 S3000
M205 X10 Y10
G0 F3000 X111.264 Y122.352
M204 S1800
M205 X8 Y8
G1 F1500 X113.021 Y124.108 E98.50227
M204 S3000
M205 X10 Y10
G0 F3000 X113.808 Y124.104
M204 S1800
M205 X8 Y8
G1 F1500 X112.056 Y122.352 E98.61764
M204 S3000
M205 X10 Y10
G0 F3000 X112.848 Y122.352
M204 S1800
M205 X8 Y8
G1 F1500 X114.589 Y124.092 E98.73226
M204 S3000
M205 X10 Y10
G0 F3000 X115.317 Y124.028
M204 S1800
M205 X8 Y8
G1 F1500 X113.64 Y122.352 E98.84266
M204 S3000
M205 X10 Y10
G0 F3000 X114.432 Y122.352
M204 S1800
M205 X8 Y8
G1 F1500 X116.044 Y123.964 E98.94881
M204 S3000
M205 X10 Y10
G0 F3000 X116.772 Y123.899
M204 S1800
M205 X8 Y8
G1 F1500 X115.224 Y122.352 E99.05072
M204 S3000
M205 X10 Y10
G0 F3000 X116.016 Y122.352
M204 S1800
M205 X8 Y8
G1 F1500 X117.499 Y123.835 E99.14838
M204 S3000
M205 X10 Y10
G0 F3000 X118.226 Y123.77
M204 S1800
M205 X8 Y8
G1 F1500 X116.808 Y122.352 E99.24175
M204 S3000
M205 X10 Y10
G0 F3000 X117.6 Y122.352
M204 S1800
M205 X8 Y8
G1 F1500 X118.93 Y123.682 E99.32934
M204 S3000
M205 X10 Y10
G0 F3000 X119.606 Y123.566
M204 S1800
M205 X8 Y8
G1 F1500 X118.209 Y122.168 E99.42136
M204 S3000
M205 X10 Y10
G0 F3000 X118.209 Y121.377
M204 S1800
M205 X8 Y8
G1 F1500 X120.283 Y123.45 E99.55791
M204 S3000
M205 X10 Y10
G0 F3000 X120.959 Y123.335
M204 S1800
M205 X8 Y8
G1 F1500 X118.209 Y120.585 E99.739
M204 S3000
M205 X10 Y10
G0 F3000 X118.209 Y119.793
M204 S1800
M205 X8 Y8
G1 F1500 X121.636 Y123.22 E99.96467
M204 S3000
M205 X10 Y10
G0 F3000 X122.313 Y123.105
M204 S1800
M205 X8 Y8
G1 F1500 X118.209 Y119.001 E100.23493
M204 S3000
M205 X10 Y10
G0 F3000 X118.209 Y118.209
M204 S1800
M205 X8 Y8
