;FLAVOR:Marlin
;TIME:7378
;Filament used: 5.3056m
;Layer height: 0.2
;MINX:85.586
;MINY:76.7
;MINZ:0.2
;MAXX:138.414
;MAXY:148.161
;MAXZ:41
;Generated with Cura_SteamEngine 4.2.1
M140 S60
M105
M190 S60
M104 S200
M105
M109 S200
M82 ;absolute extrusion mode
G21 ;metric values
G90 ;absolute positioning
M82 ;set extruder to absolute mode
M107 ;start with the fan off
G28 X0 Y0 ;move X/Y to min endstops
G28 Z0 ;move Z to min endstops
G1 Z15.0 F100 ;move the platform down 15mm
G92 E0 ;zero the extruded length
G1 F200 E3 ;extrude 3mm of feed stock
G92 E0 ;zero the extruded length again
G1 F100
M117 Printing...
G5
M141 S28
G92 E0
G92 E0
G1 F2400 E-6
;LAYER_COUNT:205
;LAYER:0
M106 S255
M204 S3000
M205 X10 Y10
G0 F3000 X88.28 Y76.78 Z0.2
M204 S1800
M205 X8 Y8
;TYPE:SUPPORT
G1 F2400 E0
G1 F1500 X98.72 Y76.78 E0.48613
G1 X98.72 Y81.524 E0.70703
G1 X88.28 Y81.525 E1.19316
G1 X88.28 Y76.78 E1.41411
M204 S3000
M205 X10 Y10
G0 F3000 X88.499 Y78.231
M204 S1800
M205 X8 Y8
G1 F1500 X90.634 Y76.998 E1.52891
M204 S3000
M205 X10 Y10
G0 F3000 X88.499 Y78.808
M204 S1800
M205 X8 Y8
G1 F1500 X92.821 Y81.303 E1.76129
M204 S3000
M205 X10 Y10
G0 F3000 X96 Y81.305
M204 S1800
M205 X8 Y8
G1 F1500 X96 Y77 E1.96175
M204 S3000
M205 X10 Y10
G0 F3000 X125.28 Y76.78
M204 S1800
M205 X8 Y8
G1 F1500 X135.72 Y76.78 E2.44788
G1 X135.72 Y81.52 E2.66859
G1 X125.28 Y81.521 E3.15472
G1 X125.28 Y76.78 E3.37548
M204 S3000
M205 X10 Y10
G0 F3000 X128 Y77
M204 S1800
M205 X8 Y8
G1 F1500 X128 Y81.301 E3.57575
M204 S3000
M205 X10 Y10
G0 F3000 X131.183 Y81.3
M204 S1800
M205 X8 Y8
G1 F1500 X135.498 Y78.808 E3.80778
M204 S3000
M205 X10 Y10
G0 F3000 X135.5 Y78.231
M204 S1800
M205 X8 Y8
G1 F1500 X133.367 Y77 E3.92245
M204 S3000
M205 X10 Y10
G1 F2400 E-2.07755
G0 F3000 X138.411 Y82.39
G0 X137.661 Y147.61
G0 X135.89 Y148.161
G0 X135.02 Y146.311
M204 S1800
M205 X8 Y8
G1 F2400 E3.92245
G1 F1500 X135.02 Y147.22 E3.96478
G1 X88.98 Y147.22 E6.1086
G1 X88.98 Y146.264 E6.15311
G1 X89.28 Y146.456 E6.1697
G1 X89.855 Y146.666 E6.1982
G1 X90.89 Y146.78 E6.24669
G1 X133.518 Y146.78 E8.23162
G1 X134.141 Y146.702 E8.26086
G1 X134.658 Y146.526 E8.28629
G1 X135.02 Y146.311 E8.3059
M204 S3000
M205 X10 Y10
G1 F2400 E2.3059
;MESH:sonic.sensor.frame.stl
G0 F3000 X134.36 Y85.359
G0 X135.013 Y83.341
G0 X89.742 Y83.637
G0 X89.774 Y83.732
M204 S1800
M205 X8 Y8
;TYPE:WALL-INNER
G1 F2400 E8.3059
G1 F1500 X89.293 Y83.9 E8.32962
G1 X89.051 Y83.985 E8.34156
G1 X88.417 Y84.381 E8.37637
G1 X88.324 Y84.474 E8.38249
G1 X87.886 Y84.912 E8.41134
G1 X87.84 Y84.985 E8.41536
G1 X87.84 Y84.912
G1 X87.84 Y84.292 E8.43199
G1 X87.84 Y83.345 E8.47609
G1 X89.265 Y83.345 E8.54244
G1 X89.774 Y83.345 E8.56253
G1 X90.773 Y83.345 E8.60905
G1 X133.596 Y83.342 E10.60307
G1 X134.309 Y83.341 E10.63627
G1 X134.761 Y83.341 E10.65732
G1 X135.883 Y83.34 E10.70956
G1 X136.163 Y83.34 E10.7226
G1 X136.163 Y83.62 E10.73104
G1 X136.163 Y84.353 E10.76517
G1 X136.163 Y84.418 E10.7682
G1 X136.163 Y84.924 E10.79176
G1 X135.674 Y84.418 E10.80978
G1 X135.62 Y84.383 E10.81261
G1 X135.031 Y84.002 E10.84527
G1 X134.735 Y83.895 E10.85993
G1 X134.31 Y83.743 E10.87802
G1 X133.597 Y83.661 E10.89996
G1 X90.774 Y83.66 E12.02874
G1 X89.774 Y83.732 E12.05804
M204 S3000
M205 X10 Y10
G0 F3000 X89.742 Y83.637
G0 X87.94 Y83.72
G0 X87.28 Y83.72
M204 S1800
M205 X8 Y8
;TYPE:WALL-OUTER
G1 F1500 X86.532 Y83.72 E12.09287
G1 X86.531 Y83.065 E12.12337
G1 X86.531 Y82.785 E12.13641
G1 X86.811 Y82.785 E12.14485
G1 X137.19 Y82.78 E14.4907
G1 X137.47 Y82.78 E14.50374
G1 X137.47 Y83.06 E14.51218
G1 X137.47 Y83.717 E14.54278
G1 X136.723 Y83.722 E14.57756
G1 X136.723 Y86.098 E14.6882
G1 X136.723 Y86.472 E14.70561
G1 X136.72 Y147.22 E17.53429
G1 X136.28 Y147.22 E17.55478
G1 X136.28 Y86.472 E19.78489
G1 X136.166 Y86.116 E19.8005
G1 X136.083 Y85.856 E19.81321
G1 X135.758 Y85.311 E19.84276
G1 X135.316 Y84.853 E19.87239
G1 X134.781 Y84.507 E19.90206
G1 X134.182 Y84.292 E19.9317
G1 X133.565 Y84.221 E19.96062
G1 X90.794 Y84.22 E21.95221
G1 X89.889 Y84.285 E21.99446
G1 X89.295 Y84.493 E22.02377
G1 X88.768 Y84.822 E22.0527
G1 X88.327 Y85.263 E22.08174
G1 X87.996 Y85.791 E22.11075
G1 X87.838 Y86.239 E22.13287
G1 X87.789 Y86.379 E22.13978
G1 X87.721 Y86.982 E22.16804
G1 X87.72 Y88.627 E22.24464
G1 X87.72 Y147.22 E24.97297
G1 X87.28 Y147.22 E24.99346
G1 X87.28 Y88.627 E27.13715
G1 X87.28 Y86.982 E27.1974
G1 X87.28 Y86.379 E27.22122
G1 X87.28 Y86.23 E27.22784
G1 X87.28 Y83.72 E27.34472
M204 S3000
M205 X10 Y10
G0 F3000 X87.08 Y83.72
G0 X87.94 Y83.72
G0 X88.228 Y83.986
M204 S1800
M205 X8 Y8
;TYPE:SKIN
G1 F1500 X88.148 Y84.189 E27.3493
G1 X88.331 Y83.805 E27.35823
G1 X89.027 Y83.653 E27.37319
M204 S3000
M205 X10 Y10
G0 F3000 X89.062 Y83.688
G0 X90.027 Y83.651
G0 X135.092 Y83.615
G0 X135.232 Y83.755
M204 S1800
M205 X8 Y8
G1 F1500 X135.631 Y83.871 E27.38996
G1 X135.772 Y83.729 E27.39804
M204 S3000
M205 X10 Y10
G0 F3000 X135.73 Y83.789
G1 F2400 E21.39804
;MESH:NONMESH
G0 F600 X135.73 Y83.789 Z0.4
G0 F3000 X134.003 Y83.654
G0 X90.767 Y83.641
G0 X90.766 Y81.84
G0 X88.2 Y76.7
;TIME_ELAPSED:37.206086
;LAYER:1
M140 S60
M204 S1800
M205 X8 Y8
;TYPE:SUPPORT
G1 F2400 E27.39804
G1 F1650 X98.8 Y76.7 E27.75059
G1 X98.8 Y81.608 E27.91383
G1 X88.2 Y81.61 E28.26639
G1 X88.2 Y76.7 E28.4297
M204 S3000
M205 X10 Y10
G0 F4500 X88.339 Y78.323
M204 S1800
M205 X8 Y8
G1 F1650 X90.909 Y76.839 E28.5284
M204 S3000
M205 X10 Y10
G0 F4500 X88.339 Y78.715
M204 S1800
M205 X8 Y8
G1 F1650 X93.107 Y81.468 E28.71152
M204 S3000
M205 X10 Y10
G0 F4500 X96 Y81.469
M204 S1800
M205 X8 Y8
G1 F1650 X96 Y76.84 E28.86549
M204 S3000
M205 X10 Y10
G0 F4500 X125.2 Y76.7
M204 S1800
M205 X8 Y8
G1 F1650 X135.8 Y76.7 E29.21804
G1 X135.8 Y81.6 E29.38102
G1 X125.2 Y81.602 E29.73358
G1 X125.2 Y76.7 E29.89662
M204 S3000
M205 X10 Y10
G0 F4500 X128 Y76.84
M204 S1800
M205 X8 Y8
G1 F1650 X128 Y81.462 E30.05034
M204 S3000
M205 X10 Y10
G0 F4500 X130.905 Y81.46
M204 S1800
M205 X8 Y8
G1 F1650 X135.659 Y78.716 E30.23291
M204 S3000
M205 X10 Y10
G0 F4500 X135.66 Y78.323
M204 S1800
M205 X8 Y8
G1 F1650 X133.091 Y76.84 E30.33157
M204 S3000
M205 X10 Y10
G1 F2400 E24.33157
G0 F4500 X138.391 Y82.335
G0 X138.414 Y84.134
G0 X137.649 Y147.666
G0 X135.843 Y148.161
G0 X135.1 Y146.17
M204 S1800
M205 X8 Y8
G1 F2400 E30.33157
G1 F1650 X135.1 Y147.3 E30.36916
G1 X88.9 Y147.3 E31.90577
G1 X88.9 Y146.119 E31.94506
G1 X89.318 Y146.386 E31.96155
G1 X89.879 Y146.588 E31.98138
G1 X90.894 Y146.7 E32.01535
G1 X133.509 Y146.7 E33.43273
G1 X134.122 Y146.625 E33.45327
G1 X134.633 Y146.449 E33.47124
G1 X135.1 Y146.17 E33.48934
M204 S3000
M205 X10 Y10
G0 F4500 X129.665 Y146.839
M204 S1800
M205 X8 Y8
G1 F1650 X129.11 Y147.16 E33.51066
M204 S3000
M205 X10 Y10
G0 F4500 X128 Y147.16
M204 S1800
M205 X8 Y8
G1 F1650 X128 Y146.84 E33.52131
M204 S3000
M205 X10 Y10
G0 F4500 X126.887 Y147.159
M204 S1800
M205 X8 Y8
G1 F1650 X126.334 Y146.84 E33.54254
M204 S3000
M205 X10 Y10
G0 F4500 X120 Y146.84
M204 S1800
M205 X8 Y8
G1 F1650 X120 Y147.16 E33.55318
M204 S3000
M205 X10 Y10
G0 F4500 X113.666 Y146.839
M204 S1800
M205 X8 Y8
G1 F1650 X113.111 Y147.16 E33.57451
M204 S3000
M205 X10 Y10
G0 F4500 X112 Y147.16
M204 S1800
M205 X8 Y8
G1 F1650 X112 Y146.84 E33.58515
M204 S3000
M205 X10 Y10
G0 F4500 X110.886 Y147.158
M204 S1800
M205 X8 Y8
G1 F1650 X110.334 Y146.839 E33.60636
M204 S3000
M205 X10 Y10
G0 F4500 X104 Y146.84
M204 S1800
M205 X8 Y8
G1 F1650 X104 Y147.16 E33.617
M204 S3000
M205 X10 Y10
G0 F4500 X97.666 Y146.839
M204 S1800
M205 X8 Y8
G1 F1650 X97.11 Y147.16 E33.63835
M204 S3000
M205 X10 Y10
G0 F4500 X96 Y147.16
M204 S1800
M205 X8 Y8
G1 F1650 X96 Y146.84 E33.64899
M204 S3000
M205 X10 Y10
G0 F4500 X94.886 Y147.159
M204 S1800
M205 X8 Y8
G1 F1650 X94.334 Y146.84 E33.6702
M204 S3000
M205 X10 Y10
G1 F2400 E27.6702
;MESH:sonic.sensor.frame.stl
G0 F4500 X89.71 Y85.349
G0 X89.152 Y84.183
G0 X89.747 Y83.574
M204 S1800
M205 X8 Y8
;TYPE:WALL-INNER
G1 F2400 E33.6702
G1 F2250 X88.985 Y83.838 E33.69702
G1 X88.894 Y83.895 E33.70059
G1 X88.381 Y84.216 E33.72072
G1 X88.32 Y84.254 E33.72311
G1 X88 Y84.572 E33.73812
G1 X88 Y84.254 E33.7416
G1 X88 Y84.182 E33.74379
G1 X88 Y83.5 E33.76647
G1 X88.877 Y83.5 E33.79564
G1 X88.985 Y83.5 E33.79896
G1 X89.747 Y83.5 E33.81184
G1 X90.809 Y83.5 E33.84716
G1 X133.61 Y83.5 E35.27073
G1 X134.351 Y83.5 E35.29537
G1 X135.107 Y83.5 E35.32052
G1 X135.175 Y83.5 E35.32278
G1 X136.006 Y83.5 E35.35042
G1 X136.006 Y84.138 E35.37164
G1 X136.006 Y84.298 E35.37696
G1 X136.006 Y84.532 E35.38474
G1 X135.78 Y84.298 E35.38936
G1 X135.646 Y84.211 E35.39366
G1 X135.164 Y83.896 E35.41281
G1 X135.107 Y83.859 E35.41496
G1 X134.351 Y83.587 E35.43037
G1 X133.61 Y83.501 E35.43319
G1 X90.809 Y83.5 E35.43497
G1 X89.747 Y83.574 E35.47037
M204 S3000
M205 X10 Y10
G0 F4500 X87.67 Y83.33
G0 X87.6 Y83.4
M204 S1800
M205 X8 Y8
G1 F2250 X86.854 Y83.4 E35.49519
G1 X86.852 Y83.1 E35.50517
G1 X87.6 Y83.1 E35.52383
G1 X136.406 Y83.1 E37.14713
G1 X137.139 Y83.1 E37.17151
G1 X137.143 Y83.397 E37.18139
G1 X136.406 Y83.409 E37.19997
G1 X136.406 Y85.107 E37.25645
G1 X136.406 Y85.118 E37.25681
G1 X136.406 Y85.723 E37.27694
G1 X136.406 Y85.813 E37.27993
G1 X136.377 Y85.723 E37.28014
G1 X136.015 Y85.118 E37.29362
G1 X136.008 Y85.111 E37.29395
G1 X135.524 Y84.608 E37.31716
G1 X134.928 Y84.22 E37.34082
G1 X134.259 Y83.979 E37.36447
G1 X133.587 Y83.901 E37.38697
G1 X90.823 Y83.9 E38.8093
G1 X89.828 Y83.969 E38.84248
G1 X89.159 Y84.201 E38.86603
G1 X88.57 Y84.569 E38.88913
G1 X88.077 Y85.06 E38.91227
G1 X87.977 Y85.219 E38.91852
G1 X87.708 Y85.648 E38.93536
G1 X87.6 Y85.955 E38.94618
G1 X87.6 Y85.648 E38.94743
G1 X87.6 Y85.141 E38.95839
G1 X87.6 Y83.4 E39.0163
M204 S3000
M205 X10 Y10
G0 F4500 X87.2 Y83.8
M204 S1800
M205 X8 Y8
;TYPE:WALL-OUTER
G1 F2250 X86.455 Y83.8 E39.04107
G1 X86.451 Y82.725 E39.07683
G1 X86.451 Y82.708 E39.07739
G1 X86.817 Y82.7 E39.08957
G1 X86.834 Y82.7 E39.09014
G1 X137.534 Y82.7 E40.77643
G1 X137.548 Y83.791 E40.81272
G1 X136.806 Y83.803 E40.8374
G1 X136.8 Y147.03 E42.94034
G1 X136.795 Y147.3 E42.94932
G1 X136.2 Y147.3 E42.96911
G1 X136.2 Y86.486 E44.99179
G1 X136.01 Y85.889 E45.01263
G1 X135.695 Y85.363 E45.03302
G1 X135.267 Y84.918 E45.05355
G1 X134.749 Y84.581 E45.07411
G1 X134.167 Y84.371 E45.09469
G1 X133.564 Y84.301 E45.11488
G1 X90.837 Y84.3 E46.53598
G1 X89.909 Y84.364 E46.56692
G1 X89.333 Y84.564 E46.5872
G1 X88.82 Y84.884 E46.60731
G1 X88.392 Y85.311 E46.62742
G1 X88.07 Y85.823 E46.64754
G1 X87.869 Y86.394 E46.66767
G1 X87.801 Y86.983 E46.68739
G1 X87.8 Y87.526 E46.70545
G1 X87.8 Y147.3 E48.69354
G1 X87.2 Y147.3 E48.7135
G1 X87.2 Y83.8 E50.82552
M204 S3000
M205 X10 Y10
G0 F4500 X87 Y83.8
G0 X87 Y83.3
G0 X88.194 Y83.773
G0 X88.233 Y83.733
M204 S1800
M205 X8 Y8
;TYPE:SKIN
G1 F1350 X88.375 Y83.875 E50.8359
M204 S3000
M205 X10 Y10
G0 F4500 X88.194 Y84.056
G0 X87.616 Y85.86
G0 X87.466 Y86.198
M204 S1800
M205 X8 Y8
G1 F1350 X87.557 Y86.39 E50.83963
G1 X87.499 Y87.862 E50.86549
G1 X87.499 Y143.016 E51.83355
G1 X87.499 Y146.976 E51.90305
M204 S3000
M205 X10 Y10
G0 F4500 X87.394 Y147.081
G0 X87.402 Y86.96
G0 X88.034 Y85.806
G0 X88.796 Y84.853
G0 X89.901 Y84.325
G0 X90.836 Y84.261
G0 X133.566 Y84.262
G0 X134.766 Y84.546
G0 X135.726 Y85.339
G0 X136.546 Y86.255
G0 X136.394 Y147.013
G0 X136.499 Y146.908
M204 S1800
M205 X8 Y8
G1 F1350 X136.499 Y146.625 E51.90808
G1 X136.5 Y128.805 E52.22464
G1 X136.501 Y111.268 E52.53617
G1 X136.501 Y86.377 E52.97834
G1 X136.283 Y86.03 E52.98562
M204 S3000
M205 X10 Y10
G0 F4500 X136.303 Y86.297
G0 X135.733 Y84.035
G0 X135.771 Y83.996
M204 S1800
M205 X8 Y8
G1 F1350 X135.676 Y83.809 E52.99044
G1 X135.449 Y83.753 E52.9958
M204 S3000
M205 X10 Y10
G0 F4500 X135.391 Y83.811
G1 F2400 E46.9958
;MESH:NONMESH
G0 F600 X135.391 Y83.811 Z0.6
G0 F4500 X90.83 Y83.881
G0 X90.88 Y85.164
G0 X88.661 Y147.657
G0 X86.843 Y148.161
G0 X85.588 Y82.359
G0 X88.2 Y76.7
;TIME_ELAPSED:74.624517
;LAYER:2
M204 S1800
M205 X8 Y8
;TYPE:SUPPORT
G1 F2400 E52.9958
G1 F1800 X98.8 Y76.7 E53.34836
G1 X98.8 Y81.6 E53.51133
G1 X88.2 Y81.6 E53.86389
G1 X88.2 Y76.7 E54.02686
M204 S3000
M205 X10 Y10
G0 F6000 X88.339 Y78.323
M204 S1800
M205 X8 Y8
G1 F1800 X90.909 Y76.839 E54.12557
M204 S3000
M205 X10 Y10
G0 F6000 X88.339 Y78.715
M204 S1800
M205 X8 Y8
G1 F1800 X93.091 Y81.459 E54.30808
M204 S3000
M205 X10 Y10
G0 F6000 X96 Y81.46
M204 S1800
M205 X8 Y8
G1 F1800 X96 Y76.84 E54.46174
M204 S3000
M205 X10 Y10
G0 F6000 X125.2 Y76.7
M204 S1800
M205 X8 Y8
G1 F1800 X135.8 Y76.7 E54.8143
G1 X135.8 Y81.6 E54.97727
G1 X125.2 Y81.6 E55.32983
G1 X125.2 Y76.7 E55.49281
M204 S3000
M205 X10 Y10
G0 F6000 X128 Y76.84
M204 S1800
M205 X8 Y8
G1 F1800 X128 Y81.46 E55.64647
M204 S3000
M205 X10 Y10
G0 F6000 X130.907 Y81.459
M204 S1800
M205 X8 Y8
G1 F1800 X135.659 Y78.716 E55.82896
M204 S3000
M205 X10 Y10
G0 F6000 X135.66 Y78.323
M204 S1800
M205 X8 Y8
G1 F1800 X133.091 Y76.84 E55.92762
M204 S3000
M205 X10 Y10
G1 F2400 E49.92762
G0 F6000 X138.411 Y82.343
G0 X137.661 Y147.657
G0 X135.843 Y148.161
G0 X135.1 Y146.172
M204 S1800
M205 X8 Y8
G1 F2400 E55.92762
G1 F1800 X135.1 Y147.3 E55.96514
G1 X88.9 Y147.3 E57.50176
G1 X88.9 Y146.118 E57.54107
G1 X89.317 Y146.385 E57.55754
G1 X89.877 Y146.588 E57.57735
G1 X90.895 Y146.7 E57.61141
G1 X133.506 Y146.7 E59.02866
G1 X134.129 Y146.624 E59.04954
G1 X134.633 Y146.447 E59.0673
G1 X135.1 Y146.172 E59.08533
M204 S3000
M205 X10 Y10
G0 F6000 X129.665 Y146.839
M204 S1800
M205 X8 Y8
G1 F1800 X129.11 Y147.16 E59.10665
M204 S3000
M205 X10 Y10
G0 F6000 X128 Y147.16
M204 S1800
M205 X8 Y8
G1 F1800 X128 Y146.84 E59.1173
M204 S3000
M205 X10 Y10
G0 F6000 X126.887 Y147.159
M204 S1800
M205 X8 Y8
G1 F1800 X126.332 Y146.839 E59.1386
M204 S3000
M205 X10 Y10
G0 F6000 X120 Y146.84
M204 S1800
M205 X8 Y8
G1 F1800 X120 Y147.16 E59.14925
M204 S3000
M205 X10 Y10
G0 F6000 X113.666 Y146.839
M204 S1800
M205 X8 Y8
G1 F1800 X113.111 Y147.16 E59.17057
M204 S3000
M205 X10 Y10
G0 F6000 X112 Y147.16
M204 S1800
M205 X8 Y8
G1 F1800 X112 Y146.84 E59.18122
M204 S3000
M205 X10 Y10
G0 F6000 X110.886 Y147.158
M204 S1800
M205 X8 Y8
G1 F1800 X110.333 Y146.839 E59.20245
M204 S3000
M205 X10 Y10
G0 F6000 X104 Y146.84
M204 S1800
M205 X8 Y8
G1 F1800 X104 Y147.16 E59.21309
M204 S3000
M205 X10 Y10
G0 F6000 X97.666 Y146.839
M204 S1800
M205 X8 Y8
G1 F1800 X97.11 Y147.16 E59.23445
M204 S3000
M205 X10 Y10
G0 F6000 X96 Y147.16
M204 S1800
M205 X8 Y8
G1 F1800 X96 Y146.84 E59.24509
M204 S3000
M205 X10 Y10
G0 F6000 X94.886 Y147.159
M204 S1800
M205 X8 Y8
G1 F1800 X94.332 Y146.839 E59.26637
M204 S3000
M205 X10 Y10
G1 F2400 E53.26637
;MESH:sonic.sensor.frame.stl
G0 F6000 X133.511 Y85.166
G0 X133.589 Y83.883
G0 X134.356 Y83.588
M204 S1800
M205 X8 Y8
;TYPE:WALL-INNER
G1 F2400 E59.26637
G1 F3000 X133.615 Y83.502 E59.29118
G1 X133.052 Y83.5 E59.29123
G1 X90.504 Y83.5
G1 X89.735 Y83.578 E59.31693
G1 X88.989 Y83.837 E59.3432
G1 X88.896 Y83.895 E59.34684
G1 X88.381 Y84.214 E59.36699
G1 X88.323 Y84.25 E59.36926
G1 X88 Y84.572 E59.38443
G1 X88 Y84.25 E59.388
G1 X88 Y84.181 E59.39011
G1 X88 Y83.5 E59.41276
G1 X88.879 Y83.5 E59.44199
G1 X88.989 Y83.5 E59.44538
G1 X89.735 Y83.5 E59.45807
G1 X90.504 Y83.5 E59.48365
G1 X133.052 Y83.5 E60.8988
G1 X133.615 Y83.5 E60.89885
G1 X134.356 Y83.5 E60.90159
G1 X135.111 Y83.5 E60.9267
G1 X135.173 Y83.5 E60.92876
G1 X136.01 Y83.5 E60.9566
G1 X136.01 Y84.141 E60.97792
G1 X136.01 Y84.3 E60.98321
G1 X136.01 Y84.536 E60.99106
G1 X135.783 Y84.3 E60.99571
G1 X135.65 Y84.214 E60.99998
G1 X135.163 Y83.896 E61.01932
