;FLAVOR:Marlin
;TIME:3640
;Filament used: 1.52132m
;Layer height: 0.1
;MINX:97.447
;MINY:97.438
;MINZ:0.1
;MAXX:126.435
;MAXY:125.682
;MAXZ:15.6
;Generated with Cura_SteamEngine 4.2.1
M140 S60
M105
M190 S60
M104 S200
M105
M109 S200
M82 ;absolute extrusion mode
G21 ;metric values
G90 ;absolute positioning
M82 ;set extruder to absolute mode
M107 ;start with the fan off
G28 X0 Y0 ;move X/Y to min endstops
G28 Z0 ;move Z to min endstops
G1 Z15.0 F50 ;move the platform down 15mm
G92 E0 ;zero the extruded length
G1 F200 E3 ;extrude 3mm of feed stock
G92 E0 ;zero the extruded length again
G1 F50
M117 Printing...
G5
M141 S28
G92 E0
G92 E0
G1 F2400 E-6
;LAYER_COUNT:156
;LAYER:0
M106 S255
M204 S3000
M205 X10 Y10
G0 F1500 X114.093 Y98.303 Z0.1
M204 S1800
M205 X8 Y8
;TYPE:SUPPORT-INTERFACE
G1 F2400 E0
G1 F1500 X114.096 Y98.3 E0.0001
G1 X117.129 Y98.3 E0.07071
G1 X117.129 Y98.436 E0.07388
G1 X116.641 Y98.971 E0.09074
G1 X116.647 Y99.029 E0.0921
G1 X116.601 Y99.064 E0.09344
G1 X116.514 Y99.381 E0.1011
G1 X116.523 Y99.539 E0.10478
G1 X116.359 Y100.95 E0.13785
G1 X115.902 Y103.058 E0.18807
G1 X115.193 Y105.124 E0.23893
G1 X114.246 Y107.088 E0.28969
G1 X113.077 Y108.922 E0.34033
G1 X111.691 Y110.618 E0.39132
G1 X110.123 Y112.131 E0.44205
G1 X108.386 Y113.447 E0.49279
G1 X106.515 Y114.548 E0.54333
G1 X104.515 Y115.427 E0.59419
G1 X102.438 Y116.057 E0.64473
G1 X100.289 Y116.442 E0.69556
G1 X98.309 Y116.559 E0.74174
G1 X98.309 Y114.781 E0.78313
G1 X98.311 Y114.779 E0.7832
G1 X99.472 Y114.704 E0.81028
G1 X99.841 Y114.274 E0.82348
G1 X99.799 Y113.814 E0.83423
G1 X99.97 Y113.804 E0.83822
G1 X100.154 Y113.771 E0.84257
G1 X100.242 Y114.376 E0.8568
G1 X100.732 Y114.69 E0.87035
G1 X103.735 Y113.805 E0.94324
G1 X105.563 Y113.023 E0.98953
G1 X107.277 Y112.036 E1.03558
G1 X108.844 Y110.867 E1.0811
G1 X110.281 Y109.512 E1.12708
G1 X111.542 Y107.994 E1.17303
G1 X112.606 Y106.356 E1.2185
G1 X113.468 Y104.614 E1.26376
G1 X114.139 Y102.713 E1.31069
G1 X114.766 Y99.947 E1.37672
G1 X114.551 Y99.462 E1.38907
G1 X113.993 Y99.144 E1.40403
G1 X114.092 Y98.833 E1.41163
G1 X114.093 Y98.303 E1.42397
M204 S3000
M205 X10 Y10
G0 X119.088 Y98.3
M204 S1800
M205 X8 Y8
G1 X122.113 Y98.3 E1.49439
G1 X122.113 Y99.22 E1.51581
G1 X122.138 Y99.246 E1.51665
G1 X121.864 Y99.61 E1.52726
G1 X121.678 Y101.176 E1.56398
G1 X121.366 Y101.402 E1.57295
G1 X120.713 Y104.41 E1.64461
G1 X120.197 Y105.915 E1.68165
G1 X120.009 Y106.25 E1.6906
G1 X118.466 Y109.449 E1.77329
G1 X117 Y111.749 E1.83679
G1 X115.239 Y113.905 E1.9016
G1 X113.271 Y115.803 E1.96526
G1 X111.084 Y117.466 E2.02922
G1 X108.717 Y118.853 E2.0931
G1 X106.841 Y119.677 E2.1408
G1 X106.57 Y119.968 E2.15006
G1 X106.226 Y120.119 E2.15881
G1 X103.578 Y120.92 E2.22322
G1 X100.893 Y121.402 E2.28673
G1 X100.608 Y121.418 E2.29337
G1 X100.231 Y121.28 E2.30272
G1 X98.311 Y121.396 E2.3475
G1 X98.309 Y121.394 E2.34757
G1 X98.309 Y119.618 E2.38892
G1 X100.653 Y119.478 E2.44359
G1 X103.156 Y119.029 E2.50279
G1 X105.578 Y118.291 E2.56174
G1 X107.386 Y117.501 E2.60768
G1 X107.909 Y117.268 E2.62101
G1 X110.099 Y115.981 E2.68015
G1 X112.117 Y114.447 E2.73917
G1 X113.945 Y112.683 E2.79831
G1 X115.556 Y110.71 E2.85761
G1 X116.919 Y108.57 E2.91669
G1 X118.021 Y106.282 E2.97581
G1 X118.848 Y103.877 E3.03502
G1 X119.382 Y101.41 E3.09379
G1 X119.573 Y99.774 E3.13214
G1 X119.653 Y99.174 E3.14623
G1 X119.415 Y98.9 E3.15468
G1 X119.373 Y98.9 E3.15566
G1 X119.366 Y98.816 E3.15762
G1 X119.088 Y98.565 E3.16634
G1 X119.088 Y98.3 E3.17251
M204 S3000
M205 X10 Y10
G0 X120.699 Y100.601
M204 S1800
M205 X8 Y8
G1 X120.508 Y100.739 E3.178
G1 X120.612 Y99.846 E3.19893
G1 X120.679 Y99.34 E3.21081
G1 X120.849 Y99.34 E3.21477
G1 X120.699 Y100.601 E3.24434
M204 S3000
M205 X10 Y10
G0 X120.936 Y101.121
M204 S1800
M205 X8 Y8
G1 X120.25 Y104.278 E3.31955
G1 X119.756 Y105.721 E3.35506
G1 X119.583 Y106.029 E3.36329
G1 X118.045 Y109.217 E3.4457
G1 X116.614 Y111.462 E3.50768
G1 X114.884 Y113.581 E3.57137
G1 X112.954 Y115.442 E3.63379
G1 X110.825 Y117.06 E3.69605
G1 X108.488 Y118.43 E3.75912
G1 X106.557 Y119.277 E3.80821
G1 X106.287 Y119.569 E3.81747
G1 X106.06 Y119.669 E3.82325
G1 X103.474 Y120.45 E3.88614
G1 X100.838 Y120.924 E3.94849
G1 X100.679 Y120.933 E3.9522
G1 X100.302 Y120.795 E3.96155
G1 X98.789 Y120.886 E3.99684
G1 X98.789 Y120.07 E4.01584
G1 X100.71 Y119.956 E4.06064
G1 X103.269 Y119.497 E4.12117
G1 X105.744 Y118.742 E4.18142
G1 X107.58 Y117.94 E4.22806
G1 X108.129 Y117.695 E4.24206
G1 X110.367 Y116.38 E4.30249
G1 X112.43 Y114.812 E4.36282
G1 X114.298 Y113.009 E4.42327
G1 X115.945 Y110.991 E4.48391
G1 X117.339 Y108.803 E4.54431
G1 X118.465 Y106.465 E4.60473
G1 X119.311 Y104.006 E4.66528
G1 X119.857 Y101.489 E4.72524
G1 X120.057 Y99.772 E4.76548
G1 X120.157 Y99.023 E4.78308
G1 X119.947 Y98.78 E4.79056
G1 X121.633 Y98.78 E4.82981
G1 X121.633 Y99.119 E4.8377
G1 X121.403 Y99.425 E4.84661
G1 X121.226 Y100.911 E4.88146
G1 X120.936 Y101.121 E4.88979
M204 S3000
M205 X10 Y10
G1 F2400 E-1.11021
G0 F1500 X119.136 Y98.93
G0 X118.594 Y98.438
G0 X117.45 Y98.439
G0 X116.041 Y99.528
M204 S1800
M205 X8 Y8
G1 F2400 E4.88979
G1 F1500 X115.884 Y100.876 E4.92139
G1 X115.439 Y102.926 E4.97023
G1 X114.748 Y104.942 E5.01985
G1 X113.827 Y106.852 E5.06921
G1 X112.688 Y108.639 E5.11855
G1 X111.332 Y110.298 E5.16844
G1 X109.812 Y111.766 E5.21764
G1 X108.116 Y113.05 E5.26716
G1 X106.299 Y114.119 E5.31624
G1 X104.349 Y114.977 E5.36584
G1 X102.332 Y115.587 E5.41491
G1 X100.236 Y115.964 E5.46449
G1 X98.789 Y116.049 E5.49823
G1 X98.789 Y115.229 E5.51733
G1 X99.705 Y115.17 E5.5387
G1 X100.019 Y114.803 E5.54994
G1 X100.657 Y115.213 E5.5676
G1 X103.898 Y114.258 E5.64626
G1 X105.778 Y113.453 E5.69388
G1 X107.541 Y112.437 E5.74125
G1 X109.153 Y111.235 E5.78807
G1 X110.631 Y109.841 E5.83537
G1 X111.929 Y108.279 E5.88265
G1 X113.024 Y106.594 E5.92944
G1 X113.911 Y104.801 E5.97601
G1 X114.6 Y102.847 E6.02425
G1 X115.27 Y99.898 E6.09466
G1 X114.926 Y99.123 E6.1144
G1 X114.568 Y98.919 E6.124
G1 X114.572 Y98.908 E6.12427
G1 X114.572 Y98.78 E6.12725
G1 X116.166 Y98.78 E6.16436
G1 X116.141 Y98.807 E6.16522
G1 X116.15 Y98.892 E6.16721
G1 X116.03 Y99.33 E6.17778
G1 X116.041 Y99.528 E6.1824
M204 S3000
M205 X10 Y10
G1 F2400 E0.1824
;MESH:pipe.clamp-curve.1.part.stl
G0 F1500 X117.88 Y99.393
G0 X117.889 Y99.619
M204 S1800
M205 X8 Y8
;TYPE:WALL-OUTER
G1 F2400 E6.1824
G1 F1500 X117.881 Y99.525 E6.18459
G1 X117.87 Y99.415 E6.18717
G1 X117.866 Y99.38 E6.18799
G1 X117.889 Y99.38
G1 X118.231 Y99.38 E6.19325
G1 X118.242 Y99.492 E6.19496
G1 X118.222 Y99.659 E6.1965
G1 X118.034 Y101.187 E6.23235
G1 X118.028 Y101.215 E6.23301
G1 X117.534 Y103.499 E6.28742
G1 X117.529 Y103.519 E6.2879
G1 X117.524 Y103.536 E6.28831
G1 X116.762 Y105.751 E6.34285
G1 X116.755 Y105.77 E6.34332
G1 X116.748 Y105.786 E6.34373
G1 X115.731 Y107.895 E6.39824
G1 X115.722 Y107.914 E6.39873
G1 X115.713 Y107.928 E6.39911
G1 X114.455 Y109.903 E6.45363
G1 X114.447 Y109.915 E6.45397
G1 X114.433 Y109.932 E6.45448
G1 X112.95 Y111.746 E6.50903
G1 X112.939 Y111.76 E6.50945
G1 X112.926 Y111.773 E6.50987
G1 X111.241 Y113.398 E6.56438
G1 X111.225 Y113.413 E6.56489
G1 X111.212 Y113.423 E6.56527
G1 X109.348 Y114.838 E6.61975
G1 X109.331 Y114.851 E6.62025
G1 X109.316 Y114.86 E6.62066
G1 X107.297 Y116.045 E6.67516
G1 X107.281 Y116.055 E6.6756
G1 X107.264 Y116.062 E6.67603
G1 X105.119 Y117.004 E6.73058
G1 X105.104 Y117.011 E6.73096
G1 X105.084 Y117.017 E6.73145
G1 X102.844 Y117.697 E6.78595
G1 X102.829 Y117.702 E6.78632
G1 X102.808 Y117.705 E6.78681
G1 X100.502 Y118.119 E6.84136
G1 X100.486 Y118.122 E6.84174
G1 X100.465 Y118.123 E6.84223
G1 X98.407 Y118.244 E6.89022
G1 X98.389 Y118.246 E6.89065
G1 X98.389 Y117.922 E6.89549
G1 X100.445 Y117.799 E6.92313
G1 X102.75 Y117.388 E6.95461
G1 X104.989 Y116.707 E6.98603
G1 X107.133 Y115.767 E7.01746
G1 X109.151 Y114.58 E7.04896
G1 X111.015 Y113.165 E7.08049
G1 X112.699 Y111.54 E7.11207
G1 X114.181 Y109.728 E7.14359
G1 X115.439 Y107.754 E7.17516
G1 X116.456 Y105.646 E7.20663
G1 X117.216 Y103.431 E7.23816
G1 X117.711 Y101.147 E7.2697
G1 X117.889 Y99.619 E7.2908
M204 S3000
M205 X10 Y10
G0 X117.881 Y99.525
G0 X117.871 Y99.419
G1 F2400 E1.2908
;MESH:NONMESH
G0 F600 X117.871 Y99.419 Z0.2
G0 F1500 X117.969 Y99.48
G0 X121.095 Y99.302
;TIME_ELAPSED:22.256459
;LAYER:1
M140 S60
M204 S1800
M205 X8 Y8
;TYPE:SUPPORT-INTERFACE
G1 F2400 E7.2908
G1 F1350 X120.926 Y100.734 E7.31478
G1 X120.821 Y100.81 E7.31693
G1 X120.938 Y99.791 E7.33399
G1 X120.959 Y99.1 E7.34549
G1 X121.247 Y99.1 E7.35028
G1 X121.095 Y99.302 E7.35448
M204 S3000
M205 X10 Y10
G0 F2250 X121.48 Y99.456
M204 S1800
M205 X8 Y8
G1 F1350 X121.302 Y100.955 E7.37958
G1 X121.008 Y101.168 E7.38562
G1 X120.325 Y104.307 E7.43905
G1 X119.83 Y105.75 E7.46442
G1 X119.648 Y106.076 E7.47062
G1 X118.113 Y109.26 E7.52941
G1 X116.678 Y111.512 E7.57381
G1 X114.948 Y113.629 E7.61928
G1 X113.005 Y115.504 E7.66418
G1 X110.867 Y117.128 E7.70883
G1 X108.529 Y118.499 E7.75391
G1 X106.602 Y119.344 E7.7889
G1 X106.333 Y119.635 E7.79549
G1 X106.085 Y119.744 E7.79999
G1 X103.482 Y120.531 E7.84522
G1 X100.835 Y121.005 E7.88994
G1 X100.669 Y121.015 E7.8927
G1 X100.293 Y120.876 E7.89937
G1 X98.709 Y120.971 E7.92576
G1 X98.709 Y120.556 E7.93266
G1 X100.485 Y120.45 E7.96225
G1 X101.038 Y120.385 E7.97151
G1 X103.36 Y119.969 E8.01074
G1 X103.651 Y119.884 E8.01578
G1 X105.904 Y119.198 E8.05494
G1 X106.179 Y119.078 E8.05993
G1 X108.344 Y118.128 E8.09925
G1 X110.631 Y116.783 E8.14337
G1 X112.745 Y115.177 E8.18752
G1 X114.654 Y113.335 E8.23164
G1 X116.336 Y111.275 E8.27587
G1 X117.76 Y109.038 E8.31997
G1 X118.912 Y106.648 E8.36409
G1 X119.775 Y104.135 E8.40828
G1 X120.353 Y101.383 E8.45504
G1 X120.539 Y99.762 E8.48217
G1 X120.562 Y98.987 E8.49507
G1 X120.286 Y98.7 E8.50169
G1 X121.713 Y98.7 E8.52542
G1 X121.713 Y99.145 E8.53282
G1 X121.48 Y99.456 E8.53928
M204 S3000
M205 X10 Y10
G0 F2250 X121.864 Y99.61
M204 S1800
M205 X8 Y8
G1 F1350 X121.678 Y101.176 E8.56551
G1 X121.366 Y101.402 E8.57192
G1 X120.712 Y104.411 E8.62313
G1 X120.196 Y105.914 E8.64955
G1 X120.003 Y106.26 E8.65614
G1 X118.463 Y109.454 E8.71511
G1 X116.999 Y111.752 E8.76042
G1 X115.242 Y113.902 E8.8066
G1 X113.27 Y115.804 E8.85216
G1 X111.089 Y117.462 E8.89772
G1 X108.711 Y118.856 E8.94356
G1 X106.839 Y119.677 E8.97755
G1 X106.569 Y119.968 E8.98416
G1 X106.225 Y120.12 E8.99041
G1 X103.576 Y120.921 E9.03643
G1 X100.882 Y121.403 E9.08195
G1 X100.878 Y121.403 E9.08201
G1 X100.61 Y121.419 E9.08648
G1 X100.233 Y121.28 E9.09316
G1 X98.31 Y121.396 E9.1252
G1 X98.309 Y121.395 E9.12522
G1 X98.309 Y120.179 E9.14544
G1 X100.45 Y120.051 E9.18111
G1 X100.979 Y119.989 E9.18997
G1 X103.269 Y119.579 E9.22866
G1 X103.537 Y119.501 E9.2333
G1 X105.765 Y118.822 E9.27203
G1 X106.019 Y118.711 E9.27664
G1 X108.162 Y117.771 E9.31556
G1 X110.408 Y116.45 E9.35889
G1 X112.484 Y114.873 E9.40225
G1 X114.359 Y113.064 E9.44557
G1 X116.011 Y111.04 E9.48902
G1 X117.41 Y108.843 E9.53234
G1 X118.541 Y106.496 E9.57566
G1 X119.389 Y104.028 E9.61906
G1 X119.958 Y101.319 E9.6651
G1 X120.14 Y99.733 E9.69164
G1 X120.157 Y99.143 E9.70146
G1 X119.923 Y98.9 E9.70707
G1 X119.685 Y98.9 E9.71103
G1 X119.685 Y98.3 E9.72101
G1 X122.113 Y98.3 E9.76138
G1 X122.113 Y99.22 E9.77668
G1 X122.138 Y99.246 E9.77728
G1 X121.864 Y99.61 E9.78486
M204 S3000
M205 X10 Y10
G1 F2400 E3.78486
G0 F2250 X119.045 Y97.439
G0 X117.172 Y97.439
G0 X116.668 Y97.943
G0 X116.676 Y98.447
G0 X116.532 Y98.865
M204 S1800
M205 X8 Y8
G1 F2400 E9.78486
G1 F1350 X116.477 Y98.907 E9.78601
G1 X116.183 Y98.915 E9.7909
G1 X115.959 Y99.144 E9.79623
G1 X115.949 Y99.614 E9.80405
G1 X115.767 Y101.02 E9.82762
G1 X115.301 Y103.076 E9.86268
G1 X114.588 Y105.087 E9.89817
G1 X113.658 Y106.964 E9.933
G1 X112.503 Y108.74 E9.96823
G1 X111.142 Y110.371 E10.00356
G1 X109.625 Y111.803 E10.03825
G1 X107.92 Y113.069 E10.07357
G1 X106.088 Y114.119 E10.10868
G1 X104.142 Y114.952 E10.14389
G1 X102.12 Y115.544 E10.17892
G1 X100.223 Y115.884 E10.21097
G1 X98.309 Y115.997 E10.24286
G1 X98.309 Y114.78 E10.2631
G1 X98.31 Y114.779 E10.26312
G1 X99.472 Y114.704 E10.28249
G1 X99.841 Y114.274 E10.29191
G1 X99.784 Y113.656 E10.30223
G1 X99.952 Y113.646 E10.30503
G1 X100.131 Y113.614 E10.30805
G1 X100.242 Y114.376 E10.32086
G1 X100.732 Y114.69 E10.33054
G1 X103.739 Y113.804 E10.38267
G1 X105.567 Y113.022 E10.41573
G1 X107.275 Y112.037 E10.44852
G1 X108.843 Y110.868 E10.48105
G1 X110.284 Y109.509 E10.51399
G1 X111.537 Y108 E10.54661
G1 X112.609 Y106.349 E10.57934
G1 X113.467 Y104.616 E10.6115
G1 X114.137 Y102.717 E10.64499
G1 X114.766 Y99.948 E10.69221
G1 X114.551 Y99.463 E10.70103
G1 X113.993 Y99.145 E10.71171
G1 X114.093 Y98.834 E10.71715
G1 X114.094 Y98.303 E10.72598
G1 X114.097 Y98.3 E10.72605
G1 X116.533 Y98.3 E10.76656
G1 X116.532 Y98.865 E10.77595
M204 S3000
M205 X10 Y10
G0 F2250 X115.834 Y98.7
M204 S1800
M205 X8 Y8
G1 F1350 X115.562 Y98.977 E10.78241
G1 X115.549 Y99.583 E10.79249
G1 X115.372 Y100.955 E10.8155
G1 X114.917 Y102.962 E10.84972
G1 X114.218 Y104.933 E10.8845
G1 X113.31 Y106.767 E10.91853
G1 X112.181 Y108.502 E10.95295
G1 X110.854 Y110.092 E10.9874
G1 X109.364 Y111.499 E11.02148
G1 X107.704 Y112.732 E11.05586
G1 X105.91 Y113.76 E11.09025
G1 X104.006 Y114.575 E11.12469
G1 X102.031 Y115.153 E11.15891
G1 X100.171 Y115.487 E11.19034
G1 X98.709 Y115.573 E11.2147
G1 X98.709 Y115.154 E11.22166
G1 X99.666 Y115.092 E11.23761
G1 X100.004 Y114.698 E11.24625
G1 X100.67 Y115.125 E11.2594
G1 X103.875 Y114.181 E11.31496
G1 X105.746 Y113.38 E11.34881
G1 X107.495 Y112.372 E11.38238
G1 X109.101 Y111.175 E11.41569
G1 X110.576 Y109.783 E11.44942
G1 X111.86 Y108.237 E11.48284
G1 X112.957 Y106.547 E11.51635
G1 X113.836 Y104.772 E11.54929
G1 X114.522 Y102.828 E11.58357
G1 X115.185 Y99.907 E11.63338
G1 X114.863 Y99.181 E11.64659
G1 X114.473 Y98.958 E11.65406
G1 X114.493 Y98.897 E11.65513
G1 X114.493 Y98.7 E11.6584
G1 X115.834 Y98.7 E11.68071
M204 S3000
M205 X10 Y10
G1 F2400 E5.68071
;MESH:pipe.clamp-curve.1.part.stl
G0 F2250 X104.358 Y114.989
G0 X104.8 Y116.196
G0 X102.712 Y117.229
M204 S1800
M205 X8 Y8
;TYPE:WALL-INNER
G1 F2400 E11.68071
G1 F2250 X104.933 Y116.553 E11.71931
G1 X107.057 Y115.62 E11.75789
G1 X109.06 Y114.443 E11.79653
G1 X110.909 Y113.039 E11.83514
G1 X112.579 Y111.43 E11.8737
G1 X114.049 Y109.632 E11.91233
G1 X115.296 Y107.674 E11.95093
G1 X116.305 Y105.582 E11.98956
G1 X117.058 Y103.388 E12.02813
G1 X117.547 Y101.13 E12.06655
G1 X117.666 Y100.1 E12.08379
G1 X118.102 Y100.1 E12.09105
G1 X118.103 Y100.1 E12.09106
G1 X118.326 Y100.1 E12.09477
G1 X118.301 Y100.322 E12.0971
G1 X118.198 Y101.209 E12.11195
G1 X117.687 Y103.567 E12.15208
G1 X116.909 Y105.829 E12.19186
G1 X115.866 Y107.993 E12.23181
G1 X114.582 Y110.005 E12.2715
G1 X113.059 Y111.871 E12.31155
G1 X111.332 Y113.537 E12.35146
G1 X109.423 Y114.986 E12.39132
G1 X107.355 Y116.201 E12.4312
G1 X106.9 Y116.403 E12.43948
G1 X105.168 Y117.162 E12.47093
G1 X102.871 Y117.861 E12.51086
G1 X100.494 Y118.287 E12.55102
G1 X99.32 Y118.357 E12.57058
G1 X99.109 Y118.369 E12.57409
G1 X99.109 Y118.158 E12.57632
G1 X99.109 Y118.157 E12.57634
G1 X99.109 Y117.714 E12.58371
G1 X100.425 Y117.636 E12.60563
G1 X102.712 Y117.229 E12.64426
M204 S3000
M205 X10 Y10
G0 X106.895 Y115.297
G0 X108.857 Y114.144
G0 X110.672 Y112.767
G0 X112.311 Y111.187
G0 X113.757 Y109.417
G0 X114.98 Y107.498
G0 X115.781 Y105.835
G0 X118.211 Y99.77
G0 X118.282 Y99.7
M204 S1800
M205 X8 Y8
G1 X118.482 Y99.7 E12.64759
G1 X118.483 Y99.7 E12.6476
G1 X118.551 Y99.7 E12.64874
G1 X118.552 Y99.7 E12.64875
G1 X118.775 Y99.7 E12.65246
G1 X118.75 Y99.922 E12.65479
