;FLAVOR:Marlin
;TIME:2733
;Filament used: 1.15226m
;Layer height: 0.1
;MINX:81.559
;MINY:97.438
;MINZ:0.1
;MAXX:141.795
;MAXY:125.682
;MAXZ:7.8
;Generated with Cura_SteamEngine 4.2.1
M140 S60
M105
M190 S60
M104 S200
M105
M109 S200
M82 ;absolute extrusion mode
G21 ;metric values
G90 ;absolute positioning
M82 ;set extruder to absolute mode
M107 ;start with the fan off
G28 X0 Y0 ;move X/Y to min endstops
G28 Z0 ;move Z to min endstops
G1 Z15.0 F50 ;move the platform down 15mm
G92 E0 ;zero the extruded length
G1 F200 E3 ;extrude 3mm of feed stock
G92 E0 ;zero the extruded length again
G1 F50
M117 Printing...
G5
M141 S28
G92 E0
G92 E0
G1 F2400 E-6
;LAYER_COUNT:78
;LAYER:0
M106 S255
M204 S3000
M205 X10 Y10
G0 F1500 X110.68 Y115.842 Z0.1
M204 S1800
M205 X8 Y8
;TYPE:SUPPORT
G1 F2400 E0
G1 F1500 X111.153 Y116.351 E0.01618
G1 X111.71 Y116.478 E0.02948
G1 X113.32 Y115.845 E0.06976
G1 X113.32 Y117.104 E0.09907
G1 X113.02 Y117.423 E0.10926
G1 X113.02 Y118.79 E0.14109
G1 X113.32 Y119.073 E0.15069
G1 X113.32 Y120.436 E0.18243
G1 X111.844 Y119.796 E0.21988
G1 X111.286 Y119.892 E0.23306
G1 X110.68 Y120.46 E0.2524
G1 X110.68 Y119.11 E0.28383
G1 X110.98 Y118.772 E0.29435
G1 X110.98 Y117.437 E0.32544
G1 X110.68 Y117.065 E0.33656
G1 X110.68 Y115.842 E0.36504
M204 S3000
M205 X10 Y10
G0 X112 Y116.6
M204 S1800
M205 X8 Y8
G1 X112 Y119.623 E0.43542
M204 S3000
M205 X10 Y10
G0 X112.46 Y119.823
M204 S1800
M205 X8 Y8
G1 X113.098 Y119.454 E0.45258
M204 S3000
M205 X10 Y10
G0 X111.274 Y119.669
M204 S1800
M205 X8 Y8
G1 X110.899 Y119.453 E0.46265
M204 S3000
M205 X10 Y10
G0 X110.2 Y119.424
M204 S1800
M205 X8 Y8
;TYPE:SUPPORT-INTERFACE
G1 X110.2 Y121.02 E0.49981
G1 X109.797 Y121.398 E0.51267
G1 X106.195 Y121.182 E0.59669
G1 X105.84 Y121.35 E0.60583
G1 X105.613 Y121.316 E0.61118
G1 X104.488 Y121.07 E0.63799
G1 X103.68 Y120.817 E0.6577
G1 X103.476 Y120.416 E0.66817
G1 X101.509 Y119.806 E0.71612
G1 X99.973 Y119.117 E0.75532
G1 X99.574 Y119.111 E0.76461
G1 X97.742 Y118.283 E0.81141
G1 X97.378 Y118.075 E0.82117
G1 X96.984 Y118.006 E0.83049
G1 X96.76 Y117.861 E0.8367
G1 X96.344 Y117.545 E0.84886
G1 X96.285 Y117.02 E0.86116
G1 X93.277 Y114.454 E0.95321
G1 X92.941 Y114.199 E0.96304
G1 X92.751 Y114.008 E0.96931
G1 X92.121 Y113.243 E0.99238
G1 X91.1 Y111.74 E1.03468
G1 X91.101 Y111.739 E1.03472
G1 X89.981 Y109.983 E1.08321
G1 X89.648 Y109.758 E1.09257
G1 X89.158 Y108.993 E1.11372
G1 X88.735 Y108.744 E1.12514
G1 X88.619 Y108.524 E1.13093
G1 X88.467 Y108.18 E1.13969
G1 X88.356 Y107.695 E1.15127
G1 X87.737 Y105.882 E1.19588
G1 X87.785 Y105.495 E1.20496
G1 X87.093 Y102.25 E1.28221
G1 X86.857 Y101.919 E1.29167
G1 X86.812 Y101.718 E1.29647
G1 X86.811 Y101.705 E1.29677
G1 X86.763 Y101.3 E1.30626
G1 X86.621 Y100.128 E1.33375
G1 X86.578 Y99.778 E1.34196
G1 X86.522 Y99.302 E1.35312
G1 X86.719 Y99.078 E1.36006
G1 X86.719 Y98.3 E1.37818
G1 X88.998 Y98.3 E1.43124
G1 X88.393 Y98.945 E1.45183
G1 X88.453 Y99.876 E1.47355
G1 X88.637 Y101.43 E1.50998
G1 X89.154 Y103.839 E1.56734
G1 X90.003 Y106.323 E1.62846
G1 X90.569 Y107.581 E1.66058
G1 X91.126 Y108.643 E1.6885
G1 X92.486 Y110.777 E1.74741
G1 X94.097 Y112.747 E1.80666
G1 X95.351 Y114.002 E1.84797
G1 X95.952 Y114.535 E1.86667
G1 X97.953 Y116.053 E1.92515
G1 X98.553 Y116.442 E1.9418
G1 X100.179 Y117.362 E1.98529
G1 X102.151 Y118.246 E2.03561
G1 X104.927 Y119.117 E2.10334
G1 X106.006 Y119.348 E2.12904
G1 X107.309 Y119.55 E2.15973
G1 X107.708 Y119.722 E2.16985
G1 X108.437 Y119.636 E2.18694
G1 X109.203 Y119.725 E2.20489
G1 X109.998 Y119.631 E2.22353
G1 X110.179 Y119.427 E2.22988
G1 X110.2 Y119.424 E2.23038
M204 S3000
M205 X10 Y10
G1 F2400 E-3.76962
G0 F1500 X110.2 Y116.777
M204 S1800
M205 X8 Y8
G1 F2400 E2.23038
G1 F1500 X110.187 Y116.774 E2.23069
G1 X110.022 Y116.57 E2.2368
G1 X109.423 Y116.445 E2.25104
G1 X108.593 Y116.433 E2.27037
G1 X108.249 Y116.36 E2.27856
G1 X107.62 Y116.322 E2.29323
G1 X106.491 Y116.141 E2.31985
G1 X105.374 Y115.867 E2.34662
G1 X103.316 Y115.222 E2.39684
G1 X101.43 Y114.351 E2.4452
G1 X100.192 Y113.643 E2.47841
G1 X99.541 Y113.198 E2.49677
G1 X97.963 Y111.989 E2.54305
G1 X97.39 Y111.465 E2.56113
G1 X97.39 Y111.466 E2.56115
G1 X96.492 Y110.567 E2.59073
G1 X95.106 Y108.873 E2.64169
G1 X93.871 Y106.909 E2.69571
G1 X93.417 Y106.017 E2.71901
G1 X92.899 Y104.791 E2.75
G1 X92.276 Y102.973 E2.79474
G1 X92.223 Y102.718 E2.80081
G1 X91.813 Y100.721 E2.84827
G1 X91.614 Y98.824 E2.89268
G1 X91.056 Y98.3 E2.9105
G1 X93.277 Y98.3 E2.96221
G1 X93.28 Y98.303 E2.96231
G1 X93.281 Y98.828 E2.97453
G1 X93.468 Y99.247 E2.98521
G1 X93.369 Y99.509 E2.99173
G1 X93.493 Y100.538 E3.01587
G1 X93.88 Y102.383 E3.05976
G1 X94.517 Y104.304 E3.10688
G1 X94.96 Y105.329 E3.13287
G1 X95.393 Y106.174 E3.15498
G1 X96.4 Y107.76 E3.19872
G1 X97.61 Y109.274 E3.24384
G1 X98.621 Y110.304 E3.27744
G1 X100.612 Y112.096 E3.33981
G1 X101.191 Y112.015 E3.35342
G1 X101.542 Y111.461 E3.36869
G1 X101.612 Y111.506 E3.37063
G1 X101.714 Y111.564 E3.37336
G1 X101.437 Y112.039 E3.38616
G1 X101.614 Y112.588 E3.39959
G1 X103.804 Y113.592 E3.45568
G1 X105.941 Y114.28 E3.50795
G1 X106.829 Y114.486 E3.52917
G1 X107.953 Y114.662 E3.55566
G1 X109.801 Y114.779 E3.59877
G1 X110.2 Y115.208 E3.61241
G1 X110.2 Y116.777 E3.64894
M204 S3000
M205 X10 Y10
G0 X113.8 Y116.768
M204 S1800
M205 X8 Y8
G1 X113.8 Y115.57 E3.67684
G1 X113.906 Y115.528 E3.67949
G1 X114.2 Y115.097 E3.69164
G1 X114.2 Y114.782 E3.69897
G1 X115.941 Y114.679 E3.73958
G1 X117.03 Y114.512 E3.76523
G1 X117.816 Y114.35 E3.78391
G1 X119.933 Y113.691 E3.83553
G1 X122.797 Y112.439 E3.9083
G1 X122.96 Y111.875 E3.92197
G1 X122.611 Y111.362 E3.93642
G1 X122.801 Y111.239 E3.94169
G1 X123.025 Y111.069 E3.94824
G1 X123.432 Y111.618 E3.96415
G1 X124.012 Y111.66 E3.97769
G1 X126.208 Y109.475 E4.04981
G1 X127.435 Y107.992 E4.09462
G1 X128.491 Y106.366 E4.13976
G1 X128.975 Y105.463 E4.16362
G1 X129.404 Y104.521 E4.18771
G1 X130.038 Y102.688 E4.23287
G1 X130.278 Y101.612 E4.25854
G1 X130.375 Y99.957 E4.29714
G1 X130.236 Y99.585 E4.30638
G1 X130.254 Y99.298 E4.31308
G1 X130.531 Y99.037 E4.32194
G1 X130.721 Y98.596 E4.33312
G1 X130.72 Y98.3 E4.34001
G1 X133.031 Y98.3 E4.39381
G1 X132.509 Y98.716 E4.40936
G1 X132.352 Y99.436 E4.42651
G1 X132.369 Y99.837 E4.43586
G1 X132.23 Y100.427 E4.44997
G1 X132.249 Y100.945 E4.46204
G1 X131.808 Y103.002 E4.51102
G1 X131.081 Y105.134 E4.56346
G1 X130.604 Y106.194 E4.59052
G1 X130.139 Y107.084 E4.6139
G1 X128.968 Y108.922 E4.66464
G1 X127.571 Y110.63 E4.71601
G1 X126.521 Y111.681 E4.7506
G1 X126.023 Y112.124 E4.76612
G1 X124.29 Y113.439 E4.81677
G1 X123.785 Y113.765 E4.83076
G1 X122.391 Y114.555 E4.86807
G1 X120.727 Y115.302 E4.91054
G1 X118.321 Y116.058 E4.96925
G1 X117.412 Y116.252 E4.99089
G1 X116.179 Y116.44 E5.01993
G1 X114.018 Y116.57 E5.07033
G1 X113.834 Y116.766 E5.07659
G1 X113.8 Y116.768 E5.07739
M204 S3000
M205 X10 Y10
G1 F2400 E-0.92261
G0 F1500 X113.8 Y119.415
M204 S1800
M205 X8 Y8
G1 F2400 E5.07739
G1 F1500 X113.842 Y119.455 E5.07874
G1 X113.868 Y119.453 E5.07934
G1 X114.052 Y119.627 E5.08524
G1 X116.539 Y119.477 E5.14325
G1 X117.982 Y119.256 E5.17724
G1 X118.998 Y119.041 E5.20141
G1 X119.455 Y119.108 E5.21217
G1 X119.87 Y118.952 E5.22249
G1 X121.533 Y118.456 E5.26289
G1 X121.871 Y118.136 E5.27373
G1 X123.791 Y117.273 E5.32274
G1 X125.403 Y116.36 E5.36587
G1 X125.996 Y115.977 E5.38231
G1 X128 Y114.454 E5.44091
G1 X128.589 Y113.932 E5.45923
G1 X129.833 Y112.687 E5.50021
G1 X131.447 Y110.71 E5.55963
G1 X132.807 Y108.574 E5.61858
G1 X133.35 Y107.537 E5.64584
G1 X133.912 Y106.283 E5.67783
G1 X134.758 Y103.803 E5.73884
G1 X135.625 Y99.768 E5.83493
G1 X135.639 Y99.14 E5.84955
G1 X135.403 Y98.9 E5.85739
G1 X135.079 Y98.9 E5.86493
G1 X135.06 Y98.773 E5.86792
G1 X134.644 Y98.414 E5.88071
G1 X134.644 Y98.3 E5.88337
G1 X137.28 Y98.3 E5.94474
G1 X137.281 Y99.163 E5.96483
G1 X137.399 Y99.291 E5.96888
G1 X137.244 Y101.213 E6.01378
G1 X137.243 Y101.213 E6.0138
G1 X137.192 Y101.662 E6.02432
G1 X137.19 Y101.68 E6.02474
G1 X136.887 Y103.104 E6.05864
G1 X136.741 Y103.462 E6.06764
G1 X135.785 Y106.325 E6.13792
G1 X135.807 Y106.726 E6.14727
G1 X135.418 Y107.861 E6.1752
G1 X135.506 Y108.243 E6.18433
G1 X135.385 Y108.515 E6.19126
G1 X135.169 Y108.93 E6.20215
G1 X134.89 Y109.203 E6.21124
G1 X134.084 Y110.47 E6.2462
G1 X133.763 Y110.689 E6.25525
G1 X131.494 Y113.465 E6.33872
G1 X131.386 Y113.848 E6.34799
G1 X130.26 Y115.224 E6.38938
G1 X129.865 Y115.615 E6.40232
G1 X129.688 Y115.975 E6.41166
G1 X129.52 Y116.124 E6.41689
G1 X129.418 Y116.21 E6.42
G1 X129.032 Y116.505 E6.43131
G1 X128.491 Y116.417 E6.44407
G1 X125.219 Y118.638 E6.53614
G1 X124.897 Y118.871 E6.54539
G1 X124.671 Y119 E6.55145
G1 X122.831 Y119.832 E6.59847
G1 X122.506 Y120.182 E6.60959
G1 X122.366 Y120.561 E6.61899
G1 X121.468 Y120.982 E6.64208
G1 X120.987 Y121.251 E6.65491
G1 X120.907 Y121.316 E6.65731
G1 X120.457 Y121.413 E6.66803
G1 X120.152 Y121.526 E6.6756
G1 X120.061 Y121.412 E6.679
G1 X119.58 Y121.238 E6.69091
G1 X118.445 Y121.467 E6.71787
G1 X118.445 Y121.466 E6.71789
G1 X118.411 Y121.472 E6.71869
G1 X117.985 Y121.538 E6.72873
G1 X117.591 Y121.511 E6.73793
G1 X116.529 Y121.576 E6.7627
G1 X116.155 Y121.272 E6.77392
G1 X114.2 Y121.397 E6.81953
G1 X114.2 Y121.214 E6.82379
G1 X113.915 Y120.78 E6.83588
G1 X113.8 Y120.73 E6.8388
G1 X113.8 Y119.415 E6.86941
M204 S3000
M205 X10 Y10
G1 F2400 E0.86941
G0 F1500 X107.744 Y119.48
G0 X104.987 Y118.888
G0 X102.235 Y118.025
G0 X100.285 Y117.151
G0 X98.09 Y115.86
G0 X96.101 Y114.351
G0 X89.633 Y108.037
M204 S1800
M205 X8 Y8
G1 F2400 E6.86941
G1 F1500 X89.655 Y108.079 E6.87052
G1 X89.525 Y108.002 E6.87403
G1 X89.459 Y107.853 E6.87783
G1 X89.365 Y107.44 E6.88769
G1 X89.633 Y108.037 E6.90293
M204 S3000
M205 X10 Y10
G0 X90.137 Y107.792
M204 S1800
M205 X8 Y8
G1 X90.711 Y108.884 E6.93165
G1 X92.097 Y111.058 E6.99167
G1 X93.74 Y113.069 E7.05213
G1 X95.022 Y114.352 E7.09436
G1 X95.647 Y114.907 E7.11382
G1 X97.677 Y116.446 E7.17313
G1 X98.304 Y116.853 E7.19054
G1 X99.963 Y117.791 E7.23491
G1 X101.98 Y118.695 E7.28637
G1 X104.805 Y119.582 E7.35531
G1 X105.919 Y119.82 E7.38183
G1 X107.177 Y120.016 E7.41147
G1 X107.636 Y120.214 E7.42311
G1 X108.438 Y120.12 E7.44191
G1 X109.203 Y120.208 E7.45984
G1 X109.72 Y120.147 E7.47196
G1 X109.72 Y120.812 E7.48744
G1 X109.619 Y120.907 E7.49067
G1 X106.101 Y120.695 E7.57272
G1 X105.767 Y120.853 E7.58132
G1 X105.699 Y120.843 E7.58292
G1 X104.61 Y120.605 E7.60888
G1 X104.017 Y120.419 E7.62335
G1 X103.812 Y120.018 E7.63383
G1 X101.678 Y119.356 E7.68585
G1 X100.079 Y118.639 E7.72665
G1 X99.68 Y118.633 E7.73594
G1 X97.967 Y117.858 E7.77972
G1 X97.543 Y117.617 E7.79107
G1 X97.163 Y117.55 E7.80005
G1 X97.029 Y117.463 E7.80377
G1 X96.798 Y117.288 E7.81052
G1 X96.741 Y116.778 E7.82247
G1 X93.578 Y114.08 E7.91926
G1 X93.261 Y113.84 E7.92852
G1 X93.098 Y113.676 E7.9339
G1 X92.506 Y112.956 E7.9556
G1 X91.533 Y111.524 E7.99591
G1 X90.332 Y109.641 E8.04791
G1 X89.998 Y109.415 E8.0573
G1 X89.501 Y108.638 E8.07877
G1 X89.098 Y108.401 E8.08966
G1 X89.046 Y108.303 E8.09224
G1 X88.925 Y108.029 E8.09922
G1 X88.819 Y107.563 E8.11034
G1 X88.227 Y105.831 E8.15296
G1 X88.272 Y105.474 E8.16133
G1 X87.542 Y102.053 E8.24278
G1 X87.303 Y101.718 E8.25236
G1 X87.286 Y101.639 E8.25424
G1 X87.24 Y101.243 E8.26352
G1 X87.098 Y100.07 E8.29103
G1 X87.055 Y99.72 E8.29924
G1 X87.024 Y99.457 E8.3054
G1 X87.199 Y99.259 E8.31156
G1 X87.199 Y98.78 E8.32271
G1 X87.902 Y98.78 E8.33908
G1 X87.975 Y99.919 E8.36565
G1 X88.162 Y101.509 E8.40292
G1 X88.691 Y103.968 E8.46148
G1 X89.556 Y106.5 E8.52378
G1 X90.137 Y107.792 E8.55676
M204 S3000
M205 X10 Y10
G1 F2400 E2.55676
G0 F1500 X88.87 Y101.391
G0 X88.638 Y99.034
G0 X89.196 Y98.439
G0 X90.854 Y98.438
G0 X91.332 Y98.887
G0 X93.848 Y105.805
M204 S1800
M205 X8 Y8
G1 F2400 E8.55676
G1 F1500 X93.348 Y104.621 E8.58668
G1 X92.74 Y102.846 E8.63037
G1 X92.693 Y102.62 E8.63574
G1 X92.287 Y100.643 E8.68273
G1 X92.092 Y98.78 E8.72634
G1 X92.801 Y98.78 E8.74285
G1 X92.801 Y98.931 E8.74636
G1 X92.949 Y99.263 E8.75483
G1 X92.879 Y99.449 E8.75945
G1 X93.018 Y100.617 E8.78684
G1 X93.416 Y102.508 E8.83183
G1 X94.068 Y104.475 E8.88008
G1 X94.526 Y105.533 E8.90692
G1 X94.976 Y106.412 E8.92991
G1 X96.009 Y108.039 E8.97478
G1 X97.25 Y109.593 E9.02108
G1 X98.289 Y110.651 E9.0556
G1 X100.457 Y112.602 E9.12351
G1 X101.086 Y112.514 E9.1383
G1 X101.222 Y112.936 E9.14862
G1 X103.629 Y114.04 E9.21027
G1 X105.813 Y114.743 E9.26369
G1 X106.738 Y114.957 E9.28579
G1 X107.9 Y115.14 E9.31318
G1 X109.58 Y115.246 E9.35237
G1 X109.72 Y115.396 E9.35715
G1 X109.72 Y116.016 E9.37159
G1 X109.476 Y115.965 E9.37739
G1 X108.649 Y115.953 E9.39665
G1 X108.314 Y115.883 E9.40461
G1 X107.664 Y115.844 E9.41977
G1 X106.597 Y115.673 E9.44493
G1 X105.505 Y115.405 E9.47111
G1 X103.489 Y114.773 E9.5203
G1 X101.65 Y113.924 E9.56746
G1 X100.444 Y113.234 E9.59981
G1 X99.821 Y112.808 E9.61738
G1 X98.277 Y111.625 E9.66267
G1 X97.7 Y111.097 E9.68087
G1 X96.851 Y110.247 E9.70885
G1 X95.491 Y108.586 E9.75883
G1 X94.293 Y106.68 E9.81124
G1 X93.848 Y105.805 E9.83409
M204 S3000
M205 X10 Y10
G1 F2400 E3.83409
G0 F1500 X91.386 Y98.937
G0 X90.854 Y98.438
G0 X89.196 Y98.439
G0 X88.638 Y99.034
G0 X88.87 Y101.391
G0 X89.382 Y103.776
G0 X90.222 Y106.236
G0 X91.33 Y108.525
G0 X92.42 Y110.236
G0 X97.316 Y116.875
M204 S1800
M205 X8 Y8
G1 F2400 E9.83409
G1 F1500 X97.355 Y116.905 E9.83524
G1 X97.588 Y117.056 E9.8417
G1 X97.374 Y117.019 E9.84676
G1 X97.343 Y116.999 E9.84762
G1 X97.328 Y116.988 E9.84805
G1 X97.316 Y116.875 E9.8507
M204 S3000
M205 X10 Y10
G1 F2400 E3.8507
G0 F1500 X104.987 Y118.888
G0 X107.744 Y119.48
G0 X110.187 Y119.186
G0 X114.28 Y115.832
M204 S1800
M205 X8 Y8
G1 F2400 E9.8507
G1 F1500 X114.68 Y115.245 E9.86724
G1 X114.68 Y115.235 E9.86747
G1 X115.992 Y115.157 E9.89807
G1 X117.114 Y114.985 E9.9245
G1 X117.936 Y114.815 E9.94404
G1 X120.101 Y114.142 E9.99682
G1 X123.196 Y112.789 E10.07547
G1 X123.396 Y112.097 E10.09224
G1 X124.195 Y112.154 E10.11089
G1 X126.563 Y109.799 E10.18864
G1 X127.822 Y108.277 E10.23463
G1 X128.904 Y106.611 E10.28088
G1 X129.405 Y105.676 E10.30558
G1 X129.85 Y104.699 E10.33057
G1 X130.501 Y102.82 E10.37687
G1 X130.755 Y101.679 E10.40409
G1 X130.86 Y99.884 E10.44595
G1 X130.722 Y99.516 E10.4551
G1 X130.932 Y99.318 E10.46182
G1 X131.164 Y98.78 E10.47546
G1 X132.004 Y98.78 E10.49502
G1 X131.87 Y99.395 E10.50967
G1 X131.886 Y99.79 E10.51887
G1 X131.748 Y100.38 E10.53298
G1 X131.767 Y100.901 E10.54512
G1 X131.342 Y102.882 E10.59229
G1 X130.633 Y104.962 E10.64345
G1 X130.179 Y105.971 E10.66921
G1 X129.721 Y106.847 E10.69223
G1 X128.582 Y108.635 E10.74159
G1 X127.208 Y110.315 E10.79212
G1 X126.193 Y111.331 E10.82555
G1 X125.719 Y111.753 E10.84033
G1 X124.014 Y113.046 E10.89015
G1 X123.548 Y113.347 E10.90306
G1 X122.163 Y114.132 E10.94013
G1 X120.562 Y114.85 E10.98098
G1 X118.202 Y115.591 E11.03857
G1 X117.324 Y115.779 E11.05947
G1 X116.122 Y115.962 E11.08778
G1 X114.28 Y116.074 E11.13075
G1 X114.28 Y115.832 E11.13638
M204 S3000
M205 X10 Y10
G1 F2400 E5.13638
G0 F1500 X113.338 Y117.55
G0 X113.339 Y118.652
G0 X114.28 Y120.094
M204 S1800
M205 X8 Y8
G1 F2400 E11.13638
G1 F1500 X116.59 Y119.955 E11.19026
G1 X118.068 Y119.729 E11.22507
G1 X119.014 Y119.528 E11.24759
G1 X119.508 Y119.6 E11.25921
G1 X120.017 Y119.409 E11.27187
G1 X121.78 Y118.883 E11.3147
G1 X122.142 Y118.54 E11.32631
G1 X124.008 Y117.702 E11.37394
G1 X125.652 Y116.771 E11.41792
G1 X126.272 Y116.37 E11.43512
G1 X128.305 Y114.826 E11.49455
G1 X128.918 Y114.282 E11.51363
G1 X130.19 Y113.009 E11.55553
G1 X131.836 Y110.991 E11.61616
