;FLAVOR:Marlin
;TIME:1692
;Filament used: 0.413862m
;Layer height: 0.1
;MINX:97.82
;MINY:97.833
;MINZ:0.1
;MAXX:122.18
;MAXY:122.167
;MAXZ:14.4
;Generated with Cura_SteamEngine master
M82 ;absolute extrusion mode
;Sliced at: Sun 06-03-2022 15:44:03
;Basic settings: Layer height: 0.1 Walls: 0.8 Fill: 20
G21 ;metric values
G90 ;absolute positioning
M82 ;set extruder to absolute mode
M107 ;start with the fan off
M117 Start heating ...
M104 S200
M117 Homing X/Y ...
G28 X0 Y0 ;move X/Y to min endstops
M117 Homing Z ...
G28 Z0 ;move Z to min endstops
G1 Z15.0 F50 ;move the platform down 15mm
M117 Heating ...
M109 S200
M117 Start cleaning ...
G92 E0 ;zero the extruded length
G1 F200 E10 ;extrude 10mm of feed stock
G92 E0 ;zero the extruded length again
M117 Intro line ...
G1 Z2.0 F3000 ; Move Z Axis up little to prevent scratching of Heat Bed
G1 X0.1 Y20 Z0.1 F5000.0 ; Move to start position
G1 X0.1 Y200.0 Z0.1 F1500.0 E15 ; Draw the first line
G1 X0.4 Y200.0 Z0.1 F5000.0 ; Move to side a little
G1 X0.4 Y20 Z0.3 F1500.0 E30 ; Draw the second line
G92 E0 ; Reset Extruder
G1 E-1 F500 ; Retract filiment by 1 mm
G1 Z2.0 F3000 ; Move Z Axis up little to prevent scratching of Heat Bed
G1 X5 Y20 Z0.3 F50 ; Move over to prevent blob squish
G1 F50
G92 E0 ; Reset Extruder
M117 Printing...

G92 E0
G92 E0
G1 F1800 E-7
;LAYER_COUNT:150
;LAYER:0
M107
G1 F300 Z0.3
G0 F1500 X101.186 Y101.587 Z0.3
;TYPE:SKIRT
G1 F300 Z0.1
G1 F1800 E0
G1 F900 X101.83 Y100.984 E0.01467
G1 X102.392 Y100.486 E0.02716
G1 X102.887 Y100.106 E0.03754
G1 X103.658 Y99.617 E0.05272
G1 X104.279 Y99.245 E0.06476
G1 X104.837 Y98.963 E0.07516
G1 X105.585 Y98.663 E0.08856
G1 X106.274 Y98.408 E0.10078
G1 X106.888 Y98.231 E0.1114
G1 X107.871 Y98.024 E0.12811
G1 X108.037 Y97.993 E0.13092
G1 X108.546 Y97.906 E0.1395
G1 X109.154 Y97.845 E0.14967
G1 X110.017 Y97.833 E0.16402
G1 X110.795 Y97.845 E0.17696
G1 X111.403 Y97.896 E0.18711
G1 X112.29 Y98.051 E0.20208
G1 X113.01 Y98.197 E0.2143
G1 X113.593 Y98.359 E0.22436
G1 X114.076 Y98.531 E0.23289
G1 X114.507 Y98.698 E0.24057
G1 X115.13 Y98.951 E0.25176
G1 X115.682 Y99.222 E0.26198
G1 X116.452 Y99.684 E0.27692
G1 X117.077 Y100.085 E0.28926
G1 X117.564 Y100.447 E0.29936
G1 X118.183 Y100.996 E0.31312
G1 X118.714 Y101.494 E0.32522
G1 X119.154 Y101.974 E0.33605
G1 X119.77 Y102.755 E0.35259
G1 X119.863 Y102.878 E0.35516
G1 X120.174 Y103.302 E0.3639
G1 X120.496 Y103.81 E0.3739
G1 X120.898 Y104.592 E0.38853
G1 X121.231 Y105.285 E0.40131
G1 X121.481 Y105.929 E0.4128
G1 X121.7 Y106.668 E0.42562
G1 X121.887 Y107.36 E0.43754
G1 X122.009 Y108.002 E0.44841
G1 X122.12 Y108.974 E0.46468
G1 X122.134 Y109.122 E0.46715
G1 X122.176 Y109.647 E0.47591
G1 X122.18 Y110.293 E0.48665
G1 X122.143 Y110.825 E0.49552
G1 X122.109 Y111.184 E0.50152
G1 X122.031 Y111.91 E0.51366
G1 X121.917 Y112.536 E0.52424
G1 X121.691 Y113.371 E0.53863
G1 X121.481 Y114.074 E0.55083
G1 X121.258 Y114.661 E0.56127
G1 X120.912 Y115.383 E0.57458
G1 X120.54 Y116.11 E0.58817
G1 X120.234 Y116.618 E0.59803
G1 X119.694 Y117.353 E0.61319
G1 X119.229 Y117.951 E0.62579
G1 X118.814 Y118.413 E0.63612
G1 X118.192 Y118.996 E0.6503
G1 X117.611 Y119.511 E0.66321
G1 X117.125 Y119.884 E0.6734
G1 X116.359 Y120.373 E0.68851
G1 X115.721 Y120.755 E0.70088
G1 X115.165 Y121.036 E0.71124
G1 X114.425 Y121.333 E0.7245
G1 X113.728 Y121.591 E0.73686
G1 X113.112 Y121.769 E0.74752
G1 X112.129 Y121.976 E0.76423
G1 X111.963 Y122.007 E0.76703
G1 X111.454 Y122.094 E0.77562
G1 X110.846 Y122.155 E0.78578
G1 X109.983 Y122.167 E0.80014
G1 X109.205 Y122.155 E0.81308
G1 X108.597 Y122.104 E0.82322
G1 X107.71 Y121.949 E0.8382
G1 X106.99 Y121.803 E0.85041
G1 X106.407 Y121.641 E0.86048
G1 X105.924 Y121.469 E0.869
G1 X105.493 Y121.302 E0.87669
G1 X104.87 Y121.049 E0.88787
G1 X104.318 Y120.778 E0.8981
G1 X103.548 Y120.316 E0.91303
G1 X102.925 Y119.917 E0.92534
G1 X102.435 Y119.553 E0.93549
G1 X101.814 Y119.001 E0.9493
G1 X101.283 Y118.502 E0.96142
G1 X100.848 Y118.027 E0.97213
G1 X100.232 Y117.247 E0.98866
G1 X100.135 Y117.12 E0.99132
G1 X99.823 Y116.694 E1.0001
G1 X99.504 Y116.189 E1.01003
G1 X99.091 Y115.386 E1.02505
G1 X98.766 Y114.707 E1.03757
G1 X98.512 Y114.053 E1.04924
G1 X98.294 Y113.313 E1.06207
G1 X98.113 Y112.639 E1.07367
G1 X97.991 Y111.998 E1.08452
G1 X97.88 Y111.026 E1.10079
G1 X97.866 Y110.877 E1.10328
G1 X97.824 Y110.35 E1.11207
G1 X97.82 Y109.704 E1.12282
G1 X97.857 Y109.172 E1.13169
G1 X97.893 Y108.795 E1.13798
G1 X97.969 Y108.09 E1.14978
G1 X98.081 Y107.472 E1.16022
G1 X98.309 Y106.629 E1.17474
G1 X98.518 Y105.928 E1.18691
G1 X98.746 Y105.328 E1.19758
G1 X99.112 Y104.569 E1.2116
G1 X99.469 Y103.877 E1.22454
G1 X99.788 Y103.352 E1.23476
G1 X100.306 Y102.647 E1.24931
G1 X100.771 Y102.049 E1.26191
G1 X101.186 Y101.587 E1.27223
G0 F1500 X101.464 Y101.875
G1 F900 X102.099 Y101.28 E1.28671
G1 X102.657 Y100.786 E1.2991
G1 X103.107 Y100.44 E1.30854
G1 X103.868 Y99.957 E1.32353
G1 X104.484 Y99.588 E1.33547
G1 X104.992 Y99.332 E1.34493
G1 X105.73 Y99.036 E1.35815
G1 X106.412 Y98.784 E1.37024
G1 X106.971 Y98.623 E1.37992
G1 X107.954 Y98.416 E1.39662
G1 X108.104 Y98.387 E1.39917
G1 X108.613 Y98.3 E1.40775
G1 X109.166 Y98.245 E1.41699
G1 X110.079 Y98.233 E1.43218
G1 X110.789 Y98.244 E1.44399
G1 X111.342 Y98.291 E1.45322
G1 X112.216 Y98.444 E1.46797
G1 X112.93 Y98.589 E1.48009
G1 X113.46 Y98.736 E1.48924
G1 X113.932 Y98.904 E1.49757
G1 X114.356 Y99.069 E1.50513
G1 X114.979 Y99.322 E1.51632
G1 X115.481 Y99.568 E1.52561
G1 X116.242 Y100.025 E1.54038
G1 X116.861 Y100.422 E1.5526
G1 X117.304 Y100.751 E1.56178
G1 X117.914 Y101.292 E1.57534
G1 X118.44 Y101.785 E1.58733
G1 X118.84 Y102.222 E1.59718
G1 X119.456 Y103.003 E1.61372
G1 X119.54 Y103.114 E1.61604
G1 X119.851 Y103.538 E1.62478
G1 X120.144 Y104.001 E1.63389
G1 X120.54 Y104.77 E1.64828
G1 X120.87 Y105.458 E1.66097
G1 X121.099 Y106.047 E1.67148
G1 X121.315 Y106.776 E1.68412
G1 X121.5 Y107.464 E1.69597
G1 X121.611 Y108.047 E1.70584
G1 X121.722 Y109.019 E1.72211
G1 X121.735 Y109.154 E1.72436
G1 X121.777 Y109.679 E1.73312
G1 X121.781 Y110.266 E1.74289
G1 X121.745 Y110.788 E1.75159
G1 X121.711 Y111.141 E1.75748
G1 X121.633 Y111.867 E1.76963
G1 X121.53 Y112.436 E1.77924
G1 X121.306 Y113.262 E1.79348
G1 X121.098 Y113.959 E1.80557
G1 X120.895 Y114.492 E1.81506
G1 X120.553 Y115.205 E1.82821
G1 X120.184 Y115.928 E1.84171
G1 X119.891 Y116.411 E1.8511
G1 X119.375 Y117.112 E1.86558
G1 X118.914 Y117.705 E1.87807
G1 X118.536 Y118.125 E1.88747
G1 X117.922 Y118.701 E1.90147
G1 X117.346 Y119.212 E1.91427
G1 X116.904 Y119.551 E1.92353
G1 X116.148 Y120.033 E1.93844
G1 X115.516 Y120.412 E1.9507
G1 X115.011 Y120.667 E1.96011
G1 X114.28 Y120.96 E1.97321
G1 X113.59 Y121.216 E1.98544
G1 X113.029 Y121.377 E1.99515
G1 X112.046 Y121.584 E2.01186
G1 X111.896 Y121.613 E2.0144
G1 X111.387 Y121.7 E2.02298
G1 X110.834 Y121.755 E2.03223
G1 X109.921 Y121.767 E2.04741
G1 X109.211 Y121.756 E2.05922
G1 X108.658 Y121.709 E2.06845
G1 X107.784 Y121.556 E2.0832
G1 X107.07 Y121.411 E2.09532
G1 X106.54 Y121.264 E2.10447
G1 X106.068 Y121.096 E2.1128
G1 X105.644 Y120.931 E2.12037
G1 X105.021 Y120.678 E2.13155
G1 X104.519 Y120.432 E2.14084
G1 X103.758 Y119.975 E2.15561
G1 X103.141 Y119.58 E2.16779
G1 X102.696 Y119.249 E2.17701
G1 X102.083 Y118.705 E2.19064
G1 X101.557 Y118.211 E2.20264
G1 X101.162 Y117.779 E2.21238
G1 X100.546 Y116.999 E2.22891
G1 X100.458 Y116.883 E2.23133
G1 X100.146 Y116.457 E2.24011
G1 X99.855 Y115.998 E2.24915
G1 X99.449 Y115.208 E2.26392
G1 X99.127 Y114.535 E2.27633
G1 X98.895 Y113.935 E2.28702
G1 X98.679 Y113.205 E2.29968
G1 X98.5 Y112.535 E2.31122
G1 X98.389 Y111.953 E2.32107
G1 X98.278 Y110.981 E2.33734
G1 X98.265 Y110.845 E2.33961
G1 X98.223 Y110.318 E2.3484
G1 X98.219 Y109.731 E2.35817
G1 X98.256 Y109.209 E2.36687
G1 X98.291 Y108.838 E2.37306
G1 X98.367 Y108.133 E2.38486
G1 X98.469 Y107.571 E2.39436
G1 X98.694 Y106.738 E2.40871
G1 X98.901 Y106.043 E2.42076
G1 X99.109 Y105.497 E2.43048
G1 X99.47 Y104.747 E2.44432
G1 X99.824 Y104.06 E2.45718
G1 X100.114 Y103.583 E2.46646
G1 X100.625 Y102.888 E2.48081
G1 X101.086 Y102.295 E2.4933
G1 X101.464 Y101.875 E2.50269
G0 F1500 X101.742 Y102.163
G1 F900 X102.369 Y101.576 E2.51698
G1 X102.922 Y101.085 E2.52927
G1 X103.328 Y100.774 E2.53778
G1 X104.079 Y100.297 E2.55258
G1 X104.689 Y99.932 E2.5644
G1 X105.146 Y99.701 E2.57291
G1 X105.875 Y99.409 E2.58597
G1 X106.55 Y99.159 E2.59794
G1 X107.053 Y99.014 E2.60665
G1 X108.036 Y98.807 E2.62335
G1 X108.171 Y98.781 E2.62564
G1 X108.68 Y98.694 E2.63423
G1 X109.178 Y98.645 E2.64255
G1 X110.073 Y98.633 E2.65744
G1 X110.783 Y98.644 E2.66924
G1 X111.608 Y98.738 E2.68305
G1 X112.142 Y98.837 E2.69208
G1 X112.849 Y98.981 E2.70408
G1 X113.687 Y99.24 E2.71867
G1 X114.206 Y99.44 E2.72792
G1 X114.829 Y99.693 E2.7391
G1 X115.28 Y99.914 E2.74745
G1 X116.031 Y100.365 E2.76202
G1 X116.645 Y100.758 E2.77415
G1 X117.247 Y101.229 E2.78686
G1 X117.646 Y101.589 E2.79579
G1 X118.166 Y102.077 E2.80765
G1 X118.526 Y102.47 E2.81652
G1 X119.142 Y103.251 E2.83306
G1 X119.218 Y103.351 E2.83515
G1 X119.529 Y103.775 E2.84389
G1 X119.924 Y104.435 E2.85668
G1 X120.182 Y104.948 E2.86623
G1 X120.509 Y105.631 E2.87882
G1 X120.717 Y106.165 E2.88836
G1 X120.93 Y106.885 E2.90084
G1 X121.114 Y107.568 E2.91261
G1 X121.214 Y108.093 E2.92149
G1 X121.325 Y109.065 E2.93776
G1 X121.337 Y109.186 E2.93978
G1 X121.379 Y109.711 E2.94854
G1 X121.382 Y110.239 E2.95732
G1 X121.346 Y110.751 E2.96586
G1 X121.313 Y111.099 E2.97167
G1 X121.235 Y111.825 E2.98382
G1 X121.143 Y112.337 E2.99247
G1 X120.921 Y113.153 E3.00653
G1 X120.715 Y113.844 E3.01852
G1 X120.533 Y114.324 E3.02706
G1 X120.195 Y115.027 E3.04003
G1 X119.828 Y115.745 E3.05344
G1 X119.548 Y116.203 E3.06237
G1 X119.056 Y116.871 E3.07616
G1 X118.598 Y117.459 E3.08856
G1 X118.258 Y117.837 E3.09701
G1 X117.653 Y118.405 E3.11081
G1 X117.081 Y118.912 E3.12353
G1 X116.683 Y119.217 E3.13186
G1 X115.938 Y119.693 E3.14657
G1 X115.311 Y120.068 E3.15872
G1 X114.856 Y120.298 E3.16719
G1 X114.135 Y120.587 E3.18011
G1 X113.451 Y120.84 E3.19224
G1 X112.947 Y120.986 E3.20097
G1 X111.964 Y121.193 E3.21767
G1 X111.829 Y121.219 E3.21996
G1 X111.32 Y121.306 E3.22855
G1 X110.822 Y121.355 E3.23687
G1 X109.927 Y121.367 E3.25175
G1 X109.217 Y121.356 E3.26356
G1 X108.392 Y121.262 E3.27737
G1 X107.858 Y121.163 E3.2864
G1 X107.151 Y121.019 E3.2984
G1 X106.313 Y120.76 E3.31299
G1 X105.794 Y120.56 E3.32224
G1 X105.171 Y120.307 E3.33342
G1 X104.72 Y120.086 E3.34177
G1 X103.969 Y119.635 E3.35634
G1 X103.357 Y119.244 E3.36842
G1 X102.956 Y118.945 E3.37674
G1 X102.351 Y118.409 E3.39018
G1 X101.832 Y117.92 E3.40204
G1 X101.476 Y117.531 E3.41081
G1 X100.86 Y116.751 E3.42733
G1 X100.781 Y116.647 E3.42951
G1 X100.469 Y116.221 E3.43829
G1 X100.076 Y115.566 E3.45099
G1 X99.807 Y115.03 E3.46096
G1 X99.488 Y114.362 E3.47327
G1 X99.277 Y113.818 E3.48298
G1 X99.064 Y113.096 E3.4955
G1 X98.886 Y112.431 E3.50694
G1 X98.786 Y111.907 E3.51582
G1 X98.675 Y110.935 E3.53209
G1 X98.663 Y110.813 E3.53412
G1 X98.621 Y110.286 E3.54292
G1 X98.618 Y109.758 E3.5517
G1 X98.654 Y109.247 E3.56022
G1 X98.689 Y108.881 E3.56633
G1 X98.765 Y108.176 E3.57812
G1 X98.856 Y107.67 E3.58667
G1 X99.079 Y106.847 E3.60085
G1 X99.284 Y106.157 E3.61282
G1 X99.471 Y105.666 E3.62156
G1 X99.828 Y104.925 E3.63524
G1 X100.18 Y104.244 E3.64799
G1 X100.441 Y103.814 E3.65635
G1 X100.944 Y103.129 E3.67049
G1 X101.402 Y102.541 E3.68288
G1 X101.742 Y102.163 E3.69133
G0 F1500 X102.279 Y102.201
G1 F900 X102.671 Y101.841 E3.70019
G1 X103.187 Y101.384 E3.71165
G1 X103.818 Y100.93 E3.72458
G1 X104.289 Y100.637 E3.7338
G1 X104.895 Y100.275 E3.74554
G1 X105.571 Y99.957 E3.75796
G1 X106.073 Y99.761 E3.76693
G1 X106.689 Y99.534 E3.77784
G1 X107.136 Y99.406 E3.78558
G1 X108.119 Y99.199 E3.80228
G1 X108.239 Y99.176 E3.80431
G1 X108.748 Y99.089 E3.8129
G1 X109.521 Y99.034 E3.82579
G1 X110.067 Y99.033 E3.83487
G1 X110.777 Y99.044 E3.84668
G1 X111.547 Y99.133 E3.85957
G1 X112.113 Y99.239 E3.86914
G1 X112.769 Y99.373 E3.88028
G1 X113.554 Y99.617 E3.89395
G1 X114.055 Y99.81 E3.90288
G1 X114.678 Y100.063 E3.91406
G1 X115.379 Y100.434 E3.92725
G1 X115.821 Y100.705 E3.93587
G1 X116.429 Y101.095 E3.94788
G1 X116.987 Y101.532 E3.95967
G1 X117.42 Y101.924 E3.96938
G1 X117.892 Y102.368 E3.98016
G1 X118.212 Y102.717 E3.98803
G1 X118.828 Y103.498 E4.00458
G1 X119.206 Y104.011 E4.01517
G1 X119.573 Y104.625 E4.02707
G1 X119.845 Y105.17 E4.0372
G1 X120.148 Y105.803 E4.04887
G1 X120.335 Y106.283 E4.05744
G1 X120.545 Y106.994 E4.06977
G1 X120.728 Y107.671 E4.08143
G1 X120.816 Y108.138 E4.08933
G1 X120.938 Y109.218 E4.10741
G1 X120.98 Y109.743 E4.11616
G1 X120.955 Y110.629 E4.1309
G1 X120.916 Y111.056 E4.13803
G1 X120.838 Y111.782 E4.15018
G1 X120.666 Y112.583 E4.1638
G1 X120.523 Y113.088 E4.17253
G1 X120.331 Y113.729 E4.18366
G1 X120.025 Y114.469 E4.19698
G1 X119.819 Y114.886 E4.20471
G1 X119.472 Y115.563 E4.21736
G1 X119.206 Y115.993 E4.22577
G1 X118.737 Y116.629 E4.23891
G1 X118.283 Y117.213 E4.25121
G1 X117.721 Y117.799 E4.26472
G1 X117.348 Y118.141 E4.27313
G1 X116.815 Y118.613 E4.28497
G1 X116.189 Y119.065 E4.29781
G1 X115.685 Y119.379 E4.30769
G1 X115.106 Y119.725 E4.3189
G1 X114.441 Y120.038 E4.33113
G1 X113.939 Y120.234 E4.34009
G1 X113.313 Y120.465 E4.35119
G1 X112.864 Y120.594 E4.35895
G1 X111.881 Y120.801 E4.37566
G1 X111.761 Y120.824 E4.37769
G1 X111.252 Y120.911 E4.38628
G1 X110.479 Y120.966 E4.39917
G1 X109.933 Y120.967 E4.40825
G1 X109.223 Y120.956 E4.42006
G1 X108.453 Y120.867 E4.43295
G1 X107.887 Y120.761 E4.44252
G1 X107.231 Y120.627 E4.45366
G1 X106.446 Y120.383 E4.46733
G1 X105.945 Y120.19 E4.47626
G1 X105.322 Y119.937 E4.48744
G1 X104.621 Y119.566 E4.50063
G1 X104.179 Y119.295 E4.50925
G1 X103.573 Y118.907 E4.52122
G1 X103.012 Y118.467 E4.53307
G1 X102.576 Y118.072 E4.54286
G1 X102.106 Y117.629 E4.5536
G1 X101.79 Y117.283 E4.56139
G1 X101.103 Y116.411 E4.57985
G1 X100.791 Y115.985 E4.58863
G1 X100.428 Y115.375 E4.60044
G1 X100.165 Y114.852 E4.61017
G1 X99.849 Y114.19 E4.62237
G1 X99.659 Y113.7 E4.63111
G1 X99.449 Y112.987 E4.64347
G1 X99.272 Y112.328 E4.65482
G1 X99.184 Y111.862 E4.66271
G1 X99.062 Y110.781 E4.6808
G1 X99.02 Y110.254 E4.68959
G1 X99.045 Y109.37 E4.7043
G1 X99.086 Y108.924 E4.71175
G1 X99.162 Y108.219 E4.72354
G1 X99.333 Y107.421 E4.73711
G1 X99.476 Y106.914 E4.74587
G1 X99.668 Y106.271 E4.75703
G1 X99.979 Y105.524 E4.77049
G1 X100.208 Y105.061 E4.77908
G1 X100.535 Y104.427 E4.79094
G1 X100.944 Y103.795 E4.80346
G1 X101.291 Y103.334 E4.81305
G1 X101.717 Y102.787 E4.82458
G1 X102.279 Y102.201 E4.83809
G1 F1800 E-2.16191
G1 F300 Z0.3
;MESH:spillway.reducer.stl
G0 F1500 X108.277 Y115.752 Z0.3
;TYPE:WALL-INNER
G1 F300 Z0.1
G1 F1800 E4.83809
G1 F900 X109.651 Y115.994 E4.86129
G1 X111.043 Y115.913 E4.88448
G1 X112.378 Y115.513 E4.90765
G1 X113.586 Y114.816 E4.93085
G1 X114.599 Y113.859 E4.95402
G1 X115.366 Y112.695 E4.9772
G1 X115.842 Y111.384 E5.0004
G1 X116.004 Y110 E5.02357
G1 X115.842 Y108.616 E5.04674
G1 X115.366 Y107.305 E5.06994
G1 X114.599 Y106.141 E5.09312
G1 X113.586 Y105.184 E5.11629
G1 X112.378 Y104.487 E5.13949
G1 X111.043 Y104.087 E5.16266
G1 X109.651 Y104.006 E5.18585
G1 X108.277 Y104.248 E5.20905
G1 X106.998 Y104.8 E5.23222
G1 X105.88 Y105.633 E5.25541
G1 X104.983 Y106.701 E5.2786
G1 X104.359 Y107.946 E5.30176
G1 X104.037 Y109.303 E5.32495
G1 X104.037 Y110.697 E5.34814
G1 X104.359 Y112.054 E5.37133
G1 X104.983 Y113.299 E5.39449
G1 X105.88 Y114.367 E5.41768
G1 X106.998 Y115.2 E5.44087
G1 X108.277 Y115.752 E5.46403
G0 F1500 X108.393 Y115.366
;TYPE:WALL-OUTER
G1 F900 X109.674 Y115.592 E5.48567
G1 X110.973 Y115.516 E5.50731
G1 X112.219 Y115.143 E5.52894
G1 X113.345 Y114.493 E5.55056
G1 X114.291 Y113.6 E5.57219
G1 X115.006 Y112.514 E5.59381
G1 X115.45 Y111.291 E5.61545
G1 X115.601 Y110 E5.63707
G1 X115.45 Y108.709 E5.65868
G1 X115.006 Y107.486 E5.68032
G1 X114.291 Y106.4 E5.70194
G1 X113.345 Y105.507 E5.72358
G1 X112.219 Y104.857 E5.7452
G1 X110.973 Y104.484 E5.76683
G1 X109.674 Y104.408 E5.78847
G1 X108.393 Y104.634 E5.8101
G1 X107.199 Y105.149 E5.83173
G1 X106.156 Y105.926 E5.85335
G1 X105.32 Y106.922 E5.87498
G1 X104.737 Y108.084 E5.8966
