;FLAVOR:Marlin
;TIME:4561
;Filament used: 2.2381m
;Layer height: 0.2
;MINX:93.838
;MINY:61.989
;MINZ:0.2
;MAXX:127.777
;MAXY:156.541
;MAXZ:22
;Generated with Cura_SteamEngine master
M82 ;absolute extrusion mode
;Sliced at: Thu 14-04-2022 23:25:50
;Basic settings: Layer height: 0.2 Walls: 0.8 Fill: 100
G21 ;metric values
G90 ;absolute positioning
M82 ;set extruder to absolute mode
M107 ;start with the fan off
M117 Start heating ...
M104 S200
M117 Homing X/Y ...
G28 X0 Y0 ;move X/Y to min endstops
M117 Homing Z ...
G28 Z0 ;move Z to min endstops
G1 Z15.0 F100 ;move the platform down 15mm
M117 Heating ...
M109 S200
M117 Start cleaning ...
G92 E0 ;zero the extruded length
G1 F200 E10 ;extrude 10mm of feed stock
G92 E0 ;zero the extruded length again
M117 Intro line ...
G1 Z2.0 F3000 ; Move Z Axis up little to prevent scratching of Heat Bed
G1 X0.1 Y20 Z0.2 F5000.0 ; Move to start position
G1 X0.1 Y200.0 Z0.2 F1500.0 E15 ; Draw the first line
G1 X0.4 Y200.0 Z0.2 F5000.0 ; Move to side a little
G1 X0.4 Y20 Z0.3 F1500.0 E30 ; Draw the second line
G92 E0 ; Reset Extruder
G1 E-1 F500 ; Retract filiment by 1 mm
G1 Z2.0 F3000 ; Move Z Axis up little to prevent scratching of Heat Bed
G1 X5 Y20 Z0.3 F100 ; Move over to prevent blob squish
G1 F100
G92 E0 ; Reset Extruder
M117 Printing...

G92 E0
G92 E0
G1 F1800 E-7
;LAYER_COUNT:109
;LAYER:0
M107
G1 F300 Z0.4
G0 F3000 X96.67 Y69.545 Z0.4
;TYPE:SKIRT
G1 F300 Z0.2
G1 F1800 E0
G1 F1200 X96.895 Y69.24 E0.01261
G1 X97.483 Y68.457 E0.04517
G1 X97.904 Y67.912 E0.06808
G1 X98.368 Y67.398 E0.09111
G1 X98.631 Y67.139 E0.10339
G1 X99.348 Y66.452 E0.13642
G1 X99.866 Y65.97 E0.15995
G1 X100.371 Y65.565 E0.18148
G1 X100.468 Y65.495 E0.18546
G1 X101.515 Y64.769 E0.22783
G1 X102.049 Y64.41 E0.24924
G1 X102.656 Y64.067 E0.27242
G1 X103.009 Y63.893 E0.28551
G1 X103.906 Y63.468 E0.31853
G1 X104.537 Y63.18 E0.3416
G1 X105.159 Y62.951 E0.36364
G1 X105.559 Y62.831 E0.37753
G1 X106.482 Y62.563 E0.4095
G1 X107.145 Y62.382 E0.43236
G1 X107.796 Y62.255 E0.45442
G1 X108.186 Y62.203 E0.46751
G1 X109.126 Y62.089 E0.499
G1 X109.861 Y62.011 E0.52358
G1 X110.304 Y61.989 E0.53833
G1 X110.926 Y62.002 E0.55903
G1 X111.769 Y62.036 E0.58709
G1 X112.579 Y62.08 E0.61407
G1 X113.222 Y62.162 E0.63563
G1 X113.688 Y62.251 E0.65141
G1 X114.528 Y62.423 E0.67993
G1 X115.276 Y62.588 E0.7054
G1 X115.91 Y62.778 E0.72742
G1 X116.298 Y62.918 E0.74114
G1 X117.188 Y63.257 E0.77281
G1 X117.836 Y63.514 E0.796
G1 X118.387 Y63.778 E0.81632
G1 X118.799 Y64.008 E0.83201
G1 X119.636 Y64.492 E0.86417
G1 X120.208 Y64.832 E0.8863
G1 X120.748 Y65.21 E0.90823
G1 X121.152 Y65.531 E0.92539
G1 X121.795 Y66.057 E0.95302
G1 X122.377 Y66.548 E0.97834
G1 X122.847 Y67.005 E1.00015
G1 X122.951 Y67.118 E1.00526
G1 X123.775 Y68.047 E1.04656
G1 X124.221 Y68.566 E1.06932
G1 X124.589 Y69.063 E1.08989
G1 X124.846 Y69.459 E1.10559
G1 X125.334 Y70.229 E1.13591
G1 X125.709 Y70.841 E1.15978
G1 X126.019 Y71.446 E1.18239
G1 X126.167 Y71.783 E1.19463
G1 X126.539 Y72.654 E1.22613
G1 X126.826 Y73.356 E1.25136
G1 X127.076 Y74.165 E1.27952
G1 X127.339 Y75.225 E1.31585
G1 X127.516 Y75.989 E1.34193
G1 X127.616 Y76.636 E1.36371
G1 X127.655 Y77.06 E1.37787
G1 X127.73 Y77.993 E1.409
G1 X127.777 Y78.703 E1.43267
G1 X127.772 Y79.37 E1.45485
G1 X127.747 Y79.738 E1.46712
G1 X127.666 Y80.742 E1.50062
G1 X127.606 Y81.374 E1.52173
G1 X127.509 Y81.986 E1.54234
G1 X127.398 Y82.474 E1.55899
G1 X127.157 Y83.45 E1.59243
G1 X126.965 Y84.176 E1.6174
G1 X126.886 Y84.446 E1.62676
G1 X126.176 Y86.753 E1.70704
G1 X125.456 Y89.356 E1.79687
G1 X124.81 Y91.97 E1.88643
G1 X124.219 Y94.689 E1.97897
G1 X123.733 Y97.298 E2.06724
G1 X123.306 Y99.996 E2.15809
G1 X122.957 Y102.693 E2.24855
G1 X122.687 Y105.377 E2.33827
G1 X122.489 Y108.121 E2.42977
G1 X122.371 Y110.788 E2.51856
G1 X122.329 Y113.52 E2.60944
G1 X122.363 Y116.24 E2.69991
G1 X122.476 Y118.981 E2.79116
G1 X122.661 Y121.645 E2.87997
G1 X122.929 Y124.38 E2.97138
G1 X123.264 Y127.032 E3.06028
G1 X123.685 Y129.741 E3.15147
G1 X124.183 Y132.441 E3.24278
G1 X124.74 Y135.044 E3.33132
G1 X125.102 Y136.539 E3.38248
G1 X125.231 Y137.119 E3.40224
G1 X125.271 Y137.331 E3.40942
G1 X125.339 Y137.996 E3.43165
G1 X125.36 Y139.11 E3.46871
G1 X125.36 Y142.698 E3.58805
G1 X125.351 Y143.353 E3.60984
G1 X125.3 Y143.933 E3.6292
G1 X125.17 Y144.637 E3.65301
G1 X125.023 Y145.17 E3.6714
G1 X124.753 Y146.01 E3.70075
G1 X124.561 Y146.534 E3.71931
G1 X124.472 Y146.741 E3.7268
G1 X124.209 Y147.315 E3.7478
G1 X123.76 Y148.243 E3.78209
G1 X123.507 Y148.701 E3.79949
G1 X123.16 Y149.247 E3.82101
G1 X122.759 Y149.838 E3.84477
G1 X122.285 Y150.5 E3.87185
G1 X121.775 Y151.119 E3.89852
G1 X121.426 Y151.502 E3.91576
G1 X121.059 Y151.882 E3.93333
G1 X120.568 Y152.342 E3.9557
G1 X120.501 Y152.398 E3.95861
G1 X120.009 Y152.75 E3.97873
G1 X118.931 Y153.402 E4.02063
G1 X115.893 Y155.155 E4.13729
G1 X115.353 Y155.457 E4.15787
G1 X114.824 Y155.704 E4.17729
G1 X114.099 Y155.96 E4.20286
G1 X113.659 Y156.075 E4.21799
G1 X112.841 Y156.255 E4.24584
G1 X112.227 Y156.364 E4.26659
G1 X111.972 Y156.396 E4.27513
G1 X111.447 Y156.448 E4.29268
G1 X110.397 Y156.526 E4.3277
G1 X109.752 Y156.541 E4.34916
G1 X109.098 Y156.511 E4.37093
G1 X108.39 Y156.458 E4.39455
G1 X107.599 Y156.378 E4.42099
G1 X106.844 Y156.251 E4.44645
G1 X106.308 Y156.135 E4.46469
G1 X105.811 Y156.01 E4.48174
G1 X105.129 Y155.802 E4.50545
G1 X105.024 Y155.762 E4.50919
G1 X104.523 Y155.53 E4.52756
G1 X103.49 Y154.962 E4.56676
G1 X100.377 Y153.164 E4.68633
G1 X99.794 Y152.814 E4.70895
G1 X99.267 Y152.437 E4.7305
G1 X98.81 Y152.033 E4.75079
G1 X98.432 Y151.648 E4.76873
G1 X97.948 Y151.117 E4.79263
G1 X97.442 Y150.508 E4.81897
G1 X96.978 Y149.863 E4.84539
G1 X96.461 Y149.102 E4.87599
G1 X96.128 Y148.554 E4.89732
G1 X95.815 Y147.95 E4.91995
G1 X95.511 Y147.32 E4.94321
G1 X95.194 Y146.619 E4.9688
G1 X94.923 Y145.893 E4.99457
G1 X94.742 Y145.326 E5.01437
G1 X94.588 Y144.781 E5.03321
G1 X94.444 Y144.12 E5.05571
G1 X94.381 Y143.483 E5.077
G1 X94.36 Y142.373 E5.11392
G1 X94.36 Y138.785 E5.23326
G1 X94.369 Y138.13 E5.25505
G1 X94.421 Y137.544 E5.27461
G1 X94.549 Y136.851 E5.29805
G1 X94.651 Y136.455 E5.31165
G1 X95.305 Y134.028 E5.39526
G1 X95.941 Y131.368 E5.48622
G1 X96.502 Y128.698 E5.57697
G1 X96.974 Y126.062 E5.66603
G1 X97.385 Y123.347 E5.75736
G1 X97.709 Y120.698 E5.84613
G1 X97.963 Y117.97 E5.93725
G1 X98.142 Y115.229 E6.02861
G1 X98.24 Y112.558 E6.11751
G1 X98.264 Y109.814 E6.20878
G1 X98.21 Y107.104 E6.29893
G1 X98.081 Y104.403 E6.38887
G1 X97.874 Y101.705 E6.47887
G1 X97.589 Y98.997 E6.56944
G1 X97.228 Y96.29 E6.66027
G1 X96.792 Y93.61 E6.75058
G1 X96.289 Y90.985 E6.83947
G1 X95.693 Y88.293 E6.93118
G1 X95.037 Y85.677 E7.02088
G1 X94.523 Y83.82 E7.08497
G1 X94.334 Y83.156 E7.10793
G1 X94.217 Y82.635 E7.12569
G1 X94.154 Y82.279 E7.13771
G1 X93.993 Y81.285 E7.17121
G1 X93.89 Y80.585 E7.19474
G1 X93.843 Y79.953 E7.21582
G1 X93.838 Y79.545 E7.22939
G1 X93.839 Y78.539 E7.26285
G1 X93.85 Y77.847 E7.28587
G1 X93.906 Y77.217 E7.3069
G1 X93.974 Y76.758 E7.32234
G1 X94.127 Y75.823 E7.35385
G1 X94.243 Y75.169 E7.37594
G1 X94.407 Y74.523 E7.39811
G1 X94.53 Y74.138 E7.41155
G1 X94.842 Y73.206 E7.44424
G1 X95.054 Y72.597 E7.46569
G1 X95.339 Y71.94 E7.48951
G1 X95.522 Y71.58 E7.50294
G1 X95.984 Y70.7 E7.536
G1 X96.306 Y70.108 E7.55841
G1 X96.67 Y69.545 E7.58071
G0 F3000 X96.997 Y69.776
G1 F1200 X97.214 Y69.48 E7.59291
G1 X97.8 Y68.701 E7.62534
G1 X98.221 Y68.156 E7.64824
G1 X98.654 Y67.678 E7.66969
G1 X98.908 Y67.428 E7.68155
G1 X99.621 Y66.744 E7.71441
G1 X100.139 Y66.262 E7.73794
G1 X100.609 Y65.887 E7.75794
G1 X100.696 Y65.824 E7.76151
G1 X101.738 Y65.101 E7.8037
G1 X102.272 Y64.742 E7.8251
G1 X102.84 Y64.421 E7.8468
G1 X103.181 Y64.255 E7.85941
G1 X104.072 Y63.832 E7.89222
G1 X104.703 Y63.544 E7.91529
G1 X105.283 Y63.331 E7.93584
G1 X105.67 Y63.215 E7.94928
G1 X106.587 Y62.949 E7.98103
G1 X107.25 Y62.768 E8.00389
G1 X107.858 Y62.65 E8.02449
G1 X108.234 Y62.6 E8.03711
G1 X109.168 Y62.487 E8.0684
G1 X109.903 Y62.409 E8.09298
G1 X110.302 Y62.389 E8.10627
G1 X110.914 Y62.402 E8.12663
G1 X111.798 Y62.438 E8.15605
G1 X112.557 Y62.479 E8.18134
G1 X113.157 Y62.557 E8.20146
G1 X113.608 Y62.643 E8.21673
G1 X114.441 Y62.814 E8.24501
G1 X115.189 Y62.979 E8.27049
G1 X115.781 Y63.156 E8.29104
G1 X116.156 Y63.292 E8.30431
G1 X117.04 Y63.629 E8.33578
G1 X117.688 Y63.886 E8.35896
G1 X118.202 Y64.132 E8.37791
G1 X118.599 Y64.355 E8.39306
G1 X119.431 Y64.835 E8.42501
G1 X120.003 Y65.175 E8.44714
G1 X120.507 Y65.528 E8.4676
G1 X120.899 Y65.841 E8.48429
G1 X121.537 Y66.362 E8.51168
G1 X122.119 Y66.853 E8.53701
G1 X122.558 Y67.282 E8.55743
G1 X122.651 Y67.383 E8.56199
G1 X123.471 Y68.308 E8.60311
G1 X123.917 Y68.827 E8.62587
G1 X124.259 Y69.288 E8.64496
G1 X124.508 Y69.673 E8.66021
G1 X124.993 Y70.438 E8.69033
G1 X125.368 Y71.05 E8.71421
G1 X125.656 Y71.615 E8.7353
G1 X125.799 Y71.94 E8.74711
G1 X126.168 Y72.806 E8.77842
G1 X126.455 Y73.508 E8.80364
G1 X126.69 Y74.27 E8.83016
G1 X126.951 Y75.321 E8.86618
G1 X127.126 Y76.079 E8.89206
G1 X127.219 Y76.682 E8.91235
G1 X127.256 Y77.093 E8.92608
G1 X127.331 Y78.019 E8.95698
G1 X127.378 Y78.729 E8.98064
G1 X127.373 Y79.352 E9.00136
G1 X127.348 Y79.706 E9.01317
G1 X127.268 Y80.704 E9.04647
G1 X127.208 Y81.336 E9.06758
G1 X127.115 Y81.912 E9.08699
G1 X127.009 Y82.378 E9.10288
G1 X126.77 Y83.349 E9.13614
G1 X126.581 Y84.064 E9.16074
G1 X126.504 Y84.328 E9.16989
G1 X125.797 Y86.624 E9.24979
G1 X125.066 Y89.268 E9.34103
G1 X124.417 Y91.895 E9.43103
G1 X123.83 Y94.596 E9.52296
G1 X123.337 Y97.24 E9.61242
G1 X122.908 Y99.953 E9.70377
G1 X122.561 Y102.634 E9.79369
G1 X122.288 Y105.344 E9.88428
G1 X122.091 Y108.073 E9.97528
G1 X121.971 Y110.8 E10.06607
G1 X121.929 Y113.52 E10.15655
G1 X121.963 Y116.261 E10.24772
G1 X122.075 Y118.989 E10.33853
G1 X122.262 Y121.678 E10.42819
G1 X122.529 Y124.398 E10.51909
G1 X122.877 Y127.147 E10.61125
G1 X123.289 Y129.804 E10.70068
G1 X123.785 Y132.493 E10.79162
G1 X124.353 Y135.143 E10.88176
G1 X124.712 Y136.628 E10.93258
G1 X124.838 Y137.194 E10.95186
G1 X124.878 Y137.406 E10.95904
G1 X124.939 Y138.004 E10.97903
G1 X124.96 Y139.11 E11.01583
G1 X124.96 Y142.692 E11.13496
G1 X124.951 Y143.347 E11.15675
G1 X124.905 Y143.87 E11.17421
G1 X124.782 Y144.537 E11.19677
G1 X124.642 Y145.048 E11.21439
G1 X124.408 Y145.78 E11.23995
G1 X124.192 Y146.378 E11.2611
G1 X124.108 Y146.575 E11.26822
G1 X123.849 Y147.142 E11.28896
G1 X123.442 Y147.986 E11.32012
G1 X123.169 Y148.486 E11.33907
G1 X122.822 Y149.032 E11.36059
G1 X122.758 Y149.129 E11.36445
G1 X122.378 Y149.685 E11.38685
G1 X121.96 Y150.267 E11.41068
G1 X121.471 Y150.859 E11.43622
G1 X121.138 Y151.224 E11.45265
G1 X120.771 Y151.604 E11.47023
G1 X120.312 Y152.035 E11.49117
G1 X120.245 Y152.091 E11.49407
G1 X119.802 Y152.408 E11.51219
G1 X118.731 Y153.056 E11.55382
G1 X115.698 Y154.806 E11.67029
G1 X115.158 Y155.108 E11.69087
G1 X114.682 Y155.33 E11.70834
G1 X113.994 Y155.574 E11.73262
G1 X113.573 Y155.684 E11.74709
G1 X112.755 Y155.864 E11.77495
G1 X112.175 Y155.968 E11.79455
G1 X111.933 Y155.997 E11.80265
G1 X111.318 Y156.057 E11.8232
G1 X110.266 Y156.133 E11.85828
G1 X109.77 Y156.142 E11.87478
G1 X109.241 Y156.119 E11.8924
G1 X108.42 Y156.059 E11.91978
G1 X107.64 Y155.98 E11.94585
G1 X106.918 Y155.857 E11.97021
G1 X106.406 Y155.747 E11.98763
G1 X105.796 Y155.592 E12.00856
G1 X105.271 Y155.428 E12.02686
G1 X104.715 Y155.18 E12.0471
G1 X103.69 Y154.616 E12.08602
G1 X100.583 Y152.822 E12.20535
G1 X100 Y152.472 E12.22796
G1 X99.526 Y152.132 E12.24736
G1 X99.082 Y151.74 E12.26706
G1 X98.727 Y151.378 E12.28393
G1 X98.172 Y150.767 E12.31138
G1 X97.767 Y150.274 E12.3326
G1 X97.309 Y149.638 E12.35867
G1 X96.74 Y148.799 E12.39239
G1 X96.482 Y148.369 E12.40906
G1 X96.222 Y147.87 E12.42778
G1 X95.916 Y147.241 E12.45104
G1 X95.559 Y146.454 E12.47979
G1 X95.301 Y145.761 E12.50438
G1 X95.127 Y145.216 E12.52341
G1 X94.975 Y144.683 E12.54184
G1 X94.838 Y144.048 E12.56345
G1 X94.781 Y143.476 E12.58257
G1 X94.76 Y142.373 E12.61926
G1 X94.76 Y138.791 E12.7384
G1 X94.769 Y138.136 E12.76019
G1 X94.816 Y137.608 E12.77782
G1 X94.937 Y136.95 E12.80007
G1 X95.037 Y136.559 E12.81349
G1 X95.694 Y134.12 E12.89751
G1 X96.329 Y131.464 E12.98834
G1 X96.892 Y128.786 E13.07935
G1 X97.369 Y126.121 E13.1694
G1 X97.783 Y123.389 E13.2613
G1 X98.11 Y120.712 E13.351
G1 X98.363 Y117.997 E13.4417
G1 X98.539 Y115.304 E13.53146
G1 X98.641 Y112.541 E13.62342
G1 X98.664 Y109.804 E13.71445
G1 X98.61 Y107.113 E13.80397
G1 X98.48 Y104.39 E13.89464
G1 X98.269 Y101.631 E13.98668
G1 X97.986 Y98.939 E14.07671
G1 X97.626 Y96.244 E14.16714
G1 X97.192 Y93.577 E14.25701
G1 X96.671 Y90.861 E14.34899
G1 X96.086 Y88.216 E14.43909
G1 X95.427 Y85.589 E14.52917
G1 X94.909 Y83.713 E14.5939
G1 X94.719 Y83.047 E14.61694
G1 X94.609 Y82.557 E14.63364
G1 X94.549 Y82.214 E14.64522
G1 X94.388 Y81.227 E14.67849
G1 X94.285 Y80.527 E14.70202
G1 X94.243 Y79.94 E14.72159
G1 X94.238 Y79.541 E14.73486
G1 X94.238 Y78.546 E14.76796
G1 X94.249 Y77.854 E14.79098
G1 X94.302 Y77.269 E14.81051
G1 X94.369 Y76.822 E14.82555
G1 X94.521 Y75.893 E14.85686
G1 X94.637 Y75.239 E14.87895
G1 X94.791 Y74.634 E14.89971
G1 X94.909 Y74.265 E14.9126
G1 X95.22 Y73.337 E14.94515
G1 X95.432 Y72.728 E14.9666
G1 X95.699 Y72.114 E14.98887
G1 X95.877 Y71.766 E15.00187
G1 X96.336 Y70.891 E15.03473
G1 X96.658 Y70.299 E15.05714
G1 X96.997 Y69.776 E15.07787
G0 F3000 X97.323 Y70.007
G1 F1200 X97.534 Y69.72 E15.08972
G1 X98.117 Y68.946 E15.12195
G1 X98.538 Y68.401 E15.14486
G1 X98.941 Y67.957 E15.1648
G1 X99.185 Y67.716 E15.17621
G1 X99.893 Y67.037 E15.20883
G1 X100.411 Y66.555 E15.23237
G1 X100.846 Y66.208 E15.25088
G1 X101.962 Y65.433 E15.29607
G1 X102.496 Y65.074 E15.31747
G1 X103.025 Y64.776 E15.33766
G1 X103.352 Y64.616 E15.34977
G1 X104.238 Y64.196 E15.38238
G1 X104.869 Y63.908 E15.40545
G1 X105.406 Y63.712 E15.42446
G1 X105.782 Y63.599 E15.43752
G1 X106.692 Y63.335 E15.46904
G1 X107.355 Y63.154 E15.4919
G1 X107.92 Y63.046 E15.51103
G1 X108.282 Y62.997 E15.52318
G1 X109.21 Y62.885 E15.55427
G1 X109.945 Y62.807 E15.57885
G1 X110.3 Y62.789 E15.59067
G1 X110.902 Y62.801 E15.6107
G1 X111.777 Y62.838 E15.63983
G1 X112.536 Y62.879 E15.66511
G1 X113.092 Y62.951 E15.68376
G1 X113.528 Y63.035 E15.69853
G1 X114.355 Y63.204 E15.7266
G1 X115.103 Y63.369 E15.75208
G1 X115.652 Y63.535 E15.77115
G1 X116.014 Y63.666 E15.78396
G1 X116.893 Y64 E15.81523
G1 X117.541 Y64.257 E15.83842
G1 X118.017 Y64.487 E15.856
G1 X118.399 Y64.701 E15.87056
G1 X119.227 Y65.179 E15.90236
G1 X119.799 Y65.519 E15.9245
G1 X120.265 Y65.847 E15.94345
G1 X120.646 Y66.151 E15.95966
G1 X121.279 Y66.668 E15.98684
G1 X121.861 Y67.159 E16.01217
G1 X122.269 Y67.559 E16.03117
G1 X122.352 Y67.649 E16.03525
G1 X123.168 Y68.568 E16.07612
G1 X123.614 Y69.087 E16.09888
G1 X123.929 Y69.514 E16.11653
G1 X124.17 Y69.887 E16.1313
G1 X124.652 Y70.647 E16.16123
G1 X125.027 Y71.259 E16.18511
G1 X125.294 Y71.784 E16.2047
G1 X125.431 Y72.097 E16.21606
G1 X125.798 Y72.957 E16.24716
G1 X126.085 Y73.659 E16.27238
G1 X126.304 Y74.374 E16.29726
G1 X126.563 Y75.417 E16.333
G1 X126.737 Y76.169 E16.35867
G1 X126.821 Y76.727 E16.37744
G1 X126.857 Y77.125 E16.39073
G1 X126.932 Y78.046 E16.42147
G1 X126.979 Y78.756 E16.44513
G1 X126.973 Y79.335 E16.46439
G1 X126.95 Y79.674 E16.47569
G1 X126.87 Y80.666 E16.50879
G1 X126.81 Y81.298 E16.52991
G1 X126.722 Y81.839 E16.54814
G1 X126.621 Y82.283 E16.56328
G1 X126.383 Y83.247 E16.59631
G1 X126.196 Y83.953 E16.6206
G1 X126.121 Y84.211 E16.62954
G1 X125.412 Y86.515 E16.70971
G1 X124.686 Y89.137 E16.8002
G1 X124.024 Y91.819 E16.89208
G1 X123.441 Y94.503 E16.98344
G1 X122.942 Y97.176 E17.07388
G1 X122.515 Y99.876 E17.16479
G1 X122.161 Y102.614 E17.25662
G1 X121.89 Y105.312 E17.34681
G1 X121.691 Y108.063 E17.43854
G1 X121.571 Y110.776 E17.52887
G1 X121.529 Y113.52 E17.62014
G1 X121.564 Y116.283 E17.71205
G1 X121.675 Y118.997 E17.80239
G1 X121.864 Y121.709 E17.89281
G1 X122.132 Y124.45 E17.98441
G1 X122.478 Y127.187 E18.07617
G1 X122.895 Y129.872 E18.16654
G1 X123.393 Y132.57 E18.2578
G1 X123.967 Y135.25 E18.34896
G1 X124.322 Y136.716 E18.39912
