;FLAVOR:Marlin
;TIME:4530
;Filament used: 2.30481m
;Layer height: 0.2
;MINX:93.042
;MINY:61.989
;MINZ:0.2
;MAXX:126.981
;MAXY:156.541
;MAXZ:22
;Generated with Cura_SteamEngine master
M82 ;absolute extrusion mode
;Sliced at: Fri 15-04-2022 20:48:32
;Basic settings: Layer height: 0.2 Walls: 0.8 Fill: 100
G21 ;metric values
G90 ;absolute positioning
M82 ;set extruder to absolute mode
M107 ;start with the fan off
M117 Start heating ...
M104 S200
M117 Homing X/Y ...
G28 X0 Y0 ;move X/Y to min endstops
M117 Homing Z ...
G28 Z0 ;move Z to min endstops
G1 Z15.0 F100 ;move the platform down 15mm
M117 Heating ...
M109 S200
M117 Start cleaning ...
G92 E0 ;zero the extruded length
G1 F200 E10 ;extrude 10mm of feed stock
G92 E0 ;zero the extruded length again
M117 Intro line ...
G1 Z2.0 F3000 ; Move Z Axis up little to prevent scratching of Heat Bed
G1 X0.1 Y20 Z0.2 F5000.0 ; Move to start position
G1 X0.1 Y200.0 Z0.2 F1500.0 E15 ; Draw the first line
G1 X0.4 Y200.0 Z0.2 F5000.0 ; Move to side a little
G1 X0.4 Y20 Z0.3 F1500.0 E30 ; Draw the second line
G92 E0 ; Reset Extruder
G1 E-1 F500 ; Retract filiment by 1 mm
G1 Z2.0 F3000 ; Move Z Axis up little to prevent scratching of Heat Bed
G1 X5 Y20 Z0.3 F100 ; Move over to prevent blob squish
G1 F100
G92 E0 ; Reset Extruder
M117 Printing...

G92 E0
G92 E0
G1 F1800 E-7
;LAYER_COUNT:109
;LAYER:0
M107
G1 F300 Z0.4
G0 F3000 X95.876 Y69.545 Z0.4
;TYPE:SKIRT
G1 F300 Z0.2
G1 F1800 E0
G1 F1200 X96.122 Y69.208 E0.01388
G1 X96.692 Y68.45 E0.04542
G1 X97.122 Y67.896 E0.06875
G1 X97.558 Y67.414 E0.09036
G1 X97.877 Y67.099 E0.10527
G1 X98.552 Y66.452 E0.13637
G1 X99.07 Y65.97 E0.15991
G1 X99.575 Y65.565 E0.18144
G1 X99.672 Y65.495 E0.18542
G1 X100.719 Y64.769 E0.22779
G1 X101.253 Y64.41 E0.24919
G1 X101.86 Y64.067 E0.27238
G1 X102.213 Y63.893 E0.28547
G1 X103.11 Y63.468 E0.31849
G1 X103.741 Y63.18 E0.34156
G1 X104.363 Y62.951 E0.3636
G1 X104.763 Y62.831 E0.37749
G1 X105.686 Y62.563 E0.40946
G1 X106.349 Y62.382 E0.43232
G1 X107 Y62.255 E0.45438
G1 X107.388 Y62.203 E0.4674
G1 X108.383 Y62.083 E0.50073
G1 X109.065 Y62.011 E0.52354
G1 X109.507 Y61.989 E0.53826
G1 X110.149 Y62.003 E0.55962
G1 X111.035 Y62.039 E0.58911
G1 X111.798 Y62.081 E0.61453
G1 X112.44 Y62.164 E0.63606
G1 X112.855 Y62.244 E0.65011
G1 X113.732 Y62.423 E0.67988
G1 X114.48 Y62.588 E0.70536
G1 X115.114 Y62.778 E0.72737
G1 X115.502 Y62.918 E0.74109
G1 X116.392 Y63.257 E0.77277
G1 X117.04 Y63.514 E0.79596
G1 X117.591 Y63.778 E0.81628
G1 X118.003 Y64.008 E0.83197
G1 X118.84 Y64.492 E0.86413
G1 X119.412 Y64.832 E0.88626
G1 X119.952 Y65.21 E0.90818
G1 X120.356 Y65.531 E0.92535
G1 X120.999 Y66.057 E0.95298
G1 X121.581 Y66.548 E0.9783
G1 X122.051 Y67.005 E1.00011
G1 X122.155 Y67.118 E1.00521
G1 X122.979 Y68.047 E1.04652
G1 X123.425 Y68.566 E1.06928
G1 X123.793 Y69.063 E1.08985
G1 X124.05 Y69.459 E1.10555
G1 X124.538 Y70.229 E1.13587
G1 X124.913 Y70.841 E1.15974
G1 X125.223 Y71.446 E1.18235
G1 X125.371 Y71.783 E1.19459
G1 X125.743 Y72.654 E1.22609
G1 X126.03 Y73.356 E1.25132
G1 X126.28 Y74.165 E1.27948
G1 X126.543 Y75.225 E1.31581
G1 X126.72 Y75.989 E1.34189
G1 X126.82 Y76.636 E1.36366
G1 X126.859 Y77.06 E1.37783
G1 X126.934 Y77.993 E1.40896
G1 X126.981 Y78.703 E1.43262
G1 X126.976 Y79.37 E1.45481
G1 X126.951 Y79.738 E1.46708
G1 X126.87 Y80.742 E1.50058
G1 X126.81 Y81.374 E1.52169
G1 X126.713 Y81.986 E1.5423
G1 X126.602 Y82.474 E1.55895
G1 X126.361 Y83.45 E1.59239
G1 X126.169 Y84.176 E1.61736
G1 X126.09 Y84.446 E1.62672
G1 X125.38 Y86.753 E1.707
G1 X124.66 Y89.356 E1.79683
G1 X124.014 Y91.97 E1.88639
G1 X123.423 Y94.689 E1.97893
G1 X122.937 Y97.298 E2.0672
G1 X122.51 Y99.996 E2.15805
G1 X122.161 Y102.693 E2.2485
G1 X121.891 Y105.377 E2.33822
G1 X121.693 Y108.121 E2.42973
G1 X121.575 Y110.788 E2.51852
G1 X121.533 Y113.52 E2.6094
G1 X121.567 Y116.24 E2.69987
G1 X121.68 Y118.981 E2.79112
G1 X121.865 Y121.645 E2.87993
G1 X122.133 Y124.38 E2.97134
G1 X122.468 Y127.032 E3.06024
G1 X122.889 Y129.741 E3.15143
G1 X123.387 Y132.441 E3.24274
G1 X123.944 Y135.044 E3.33128
G1 X124.306 Y136.539 E3.38244
G1 X124.435 Y137.119 E3.4022
G1 X124.475 Y137.331 E3.40938
G1 X124.543 Y137.996 E3.43161
G1 X124.564 Y139.11 E3.46867
G1 X124.564 Y142.698 E3.58801
G1 X124.555 Y143.353 E3.60979
G1 X124.504 Y143.933 E3.62916
G1 X124.374 Y144.637 E3.65297
G1 X124.227 Y145.17 E3.67136
G1 X123.957 Y146.01 E3.70071
G1 X123.765 Y146.534 E3.71927
G1 X123.676 Y146.741 E3.72676
G1 X123.413 Y147.315 E3.74776
G1 X122.964 Y148.243 E3.78205
G1 X122.711 Y148.701 E3.79945
G1 X122.364 Y149.247 E3.82097
G1 X121.963 Y149.838 E3.84472
G1 X121.489 Y150.5 E3.8718
G1 X120.979 Y151.119 E3.89848
G1 X120.63 Y151.502 E3.91571
G1 X120.263 Y151.882 E3.93329
G1 X119.772 Y152.342 E3.95566
G1 X119.705 Y152.398 E3.95857
G1 X119.213 Y152.75 E3.97869
G1 X118.135 Y153.402 E4.02059
G1 X115.097 Y155.155 E4.13725
G1 X114.557 Y155.457 E4.15783
G1 X114.028 Y155.704 E4.17725
G1 X113.303 Y155.96 E4.20282
G1 X112.863 Y156.075 E4.21795
G1 X112.045 Y156.255 E4.2458
G1 X111.431 Y156.364 E4.26654
G1 X111.176 Y156.396 E4.27509
G1 X110.651 Y156.448 E4.29264
G1 X109.601 Y156.526 E4.32766
G1 X108.956 Y156.541 E4.34912
G1 X108.302 Y156.511 E4.37089
G1 X107.594 Y156.458 E4.39451
G1 X106.803 Y156.378 E4.42095
G1 X106.048 Y156.251 E4.44641
G1 X105.512 Y156.135 E4.46465
G1 X105.015 Y156.01 E4.4817
G1 X104.333 Y155.802 E4.50541
G1 X104.228 Y155.762 E4.50915
G1 X103.727 Y155.53 E4.52751
G1 X102.694 Y154.962 E4.56672
G1 X99.581 Y153.164 E4.68629
G1 X98.998 Y152.814 E4.70891
G1 X98.471 Y152.437 E4.73046
G1 X98.014 Y152.033 E4.75075
G1 X97.636 Y151.648 E4.76869
G1 X97.152 Y151.117 E4.79259
G1 X96.646 Y150.508 E4.81892
G1 X96.182 Y149.863 E4.84535
G1 X95.665 Y149.102 E4.87595
G1 X95.333 Y148.557 E4.89718
G1 X95.073 Y148.059 E4.91586
G1 X95.016 Y147.945 E4.9201
G1 X94.722 Y147.333 E4.94268
G1 X94.415 Y146.655 E4.96744
G1 X94.14 Y145.929 E4.99326
G1 X93.961 Y145.371 E5.01275
G1 X93.82 Y144.885 E5.02958
G1 X93.654 Y144.16 E5.05432
G1 X93.638 Y144.064 E5.05755
G1 X93.585 Y143.483 E5.07696
G1 X93.564 Y142.373 E5.11388
G1 X93.564 Y138.785 E5.23322
G1 X93.573 Y138.13 E5.25501
G1 X93.625 Y137.544 E5.27458
G1 X93.753 Y136.851 E5.29801
G1 X93.855 Y136.455 E5.31162
G1 X94.509 Y134.028 E5.39522
G1 X95.145 Y131.368 E5.48618
G1 X95.706 Y128.698 E5.57693
G1 X96.178 Y126.062 E5.66599
G1 X96.589 Y123.347 E5.75732
G1 X96.913 Y120.698 E5.84609
G1 X97.167 Y117.97 E5.93721
G1 X97.346 Y115.229 E6.02857
G1 X97.444 Y112.558 E6.11747
G1 X97.468 Y109.814 E6.20874
G1 X97.414 Y107.104 E6.29889
G1 X97.285 Y104.403 E6.38883
G1 X97.078 Y101.705 E6.47883
G1 X96.793 Y98.997 E6.5694
G1 X96.432 Y96.29 E6.66023
G1 X95.996 Y93.61 E6.75054
G1 X95.493 Y90.985 E6.83943
G1 X94.897 Y88.293 E6.93114
G1 X94.241 Y85.677 E7.02084
G1 X93.727 Y83.82 E7.08493
G1 X93.538 Y83.156 E7.10789
G1 X93.421 Y82.635 E7.12565
G1 X93.358 Y82.279 E7.13767
G1 X93.197 Y81.285 E7.17117
G1 X93.094 Y80.585 E7.1947
G1 X93.047 Y79.953 E7.21578
G1 X93.042 Y79.545 E7.22935
G1 X93.043 Y78.539 E7.26281
G1 X93.054 Y77.847 E7.28583
G1 X93.11 Y77.217 E7.30686
G1 X93.178 Y76.758 E7.3223
G1 X93.331 Y75.823 E7.35381
G1 X93.447 Y75.169 E7.3759
G1 X93.611 Y74.523 E7.39807
G1 X93.734 Y74.138 E7.41151
G1 X94.046 Y73.206 E7.4442
G1 X94.258 Y72.597 E7.46565
G1 X94.452 Y72.128 E7.48253
G1 X94.703 Y71.624 E7.50126
G1 X95.155 Y70.764 E7.53357
G1 X95.509 Y70.113 E7.55822
G1 X95.876 Y69.545 E7.58071
G0 F3000 X96.204 Y69.774
G1 F1200 X96.441 Y69.449 E7.59409
G1 X97.008 Y68.696 E7.62544
G1 X97.438 Y68.142 E7.64876
G1 X97.844 Y67.694 E7.66887
G1 X98.155 Y67.387 E7.68341
G1 X98.825 Y66.744 E7.71429
G1 X99.343 Y66.262 E7.73783
G1 X99.813 Y65.887 E7.75782
G1 X99.9 Y65.824 E7.7614
G1 X100.942 Y65.101 E7.80358
G1 X101.476 Y64.742 E7.82498
G1 X102.044 Y64.421 E7.84668
G1 X102.385 Y64.255 E7.8593
G1 X103.276 Y63.832 E7.8921
G1 X103.907 Y63.544 E7.91517
G1 X104.487 Y63.331 E7.93572
G1 X104.874 Y63.215 E7.94916
G1 X105.791 Y62.949 E7.98091
G1 X106.454 Y62.768 E8.00377
G1 X107.062 Y62.65 E8.02437
G1 X107.436 Y62.6 E8.03692
G1 X108.425 Y62.481 E8.07005
G1 X109.107 Y62.409 E8.09286
G1 X109.504 Y62.389 E8.10608
G1 X110.136 Y62.403 E8.12711
G1 X111.013 Y62.438 E8.1563
G1 X111.776 Y62.48 E8.18172
G1 X112.374 Y62.558 E8.20178
G1 X112.775 Y62.636 E8.21536
G1 X113.645 Y62.814 E8.2449
G1 X114.393 Y62.979 E8.27038
G1 X114.985 Y63.156 E8.29093
G1 X115.36 Y63.292 E8.30419
G1 X116.244 Y63.629 E8.33566
G1 X116.892 Y63.886 E8.35885
G1 X117.406 Y64.132 E8.3778
G1 X117.803 Y64.355 E8.39294
G1 X118.635 Y64.835 E8.42489
G1 X119.207 Y65.175 E8.44702
G1 X119.711 Y65.528 E8.46749
G1 X120.103 Y65.841 E8.48417
G1 X120.741 Y66.362 E8.51157
G1 X121.323 Y66.853 E8.5369
G1 X121.762 Y67.282 E8.55731
G1 X121.855 Y67.383 E8.56188
G1 X122.675 Y68.308 E8.60299
G1 X123.121 Y68.827 E8.62575
G1 X123.463 Y69.288 E8.64484
G1 X123.712 Y69.673 E8.66009
G1 X124.197 Y70.438 E8.69022
G1 X124.572 Y71.05 E8.71409
G1 X124.86 Y71.615 E8.73519
G1 X125.003 Y71.94 E8.74699
G1 X125.372 Y72.806 E8.7783
G1 X125.659 Y73.508 E8.80353
G1 X125.894 Y74.27 E8.83005
G1 X126.155 Y75.321 E8.86607
G1 X126.33 Y76.079 E8.89194
G1 X126.423 Y76.682 E8.91224
G1 X126.46 Y77.093 E8.92596
G1 X126.535 Y78.019 E8.95686
G1 X126.582 Y78.729 E8.98053
G1 X126.577 Y79.352 E9.00125
G1 X126.552 Y79.706 E9.01305
G1 X126.472 Y80.704 E9.04635
G1 X126.412 Y81.336 E9.06747
G1 X126.319 Y81.912 E9.08687
G1 X126.213 Y82.378 E9.10277
G1 X125.974 Y83.349 E9.13603
G1 X125.785 Y84.064 E9.16063
G1 X125.708 Y84.328 E9.16977
G1 X125.001 Y86.624 E9.24968
G1 X124.27 Y89.268 E9.34092
G1 X123.621 Y91.895 E9.43092
G1 X123.034 Y94.596 E9.52285
G1 X122.541 Y97.24 E9.6123
G1 X122.112 Y99.953 E9.70366
G1 X121.765 Y102.634 E9.79357
G1 X121.492 Y105.344 E9.88417
G1 X121.295 Y108.073 E9.97517
G1 X121.175 Y110.8 E10.06596
G1 X121.133 Y113.52 E10.15644
G1 X121.167 Y116.261 E10.24761
G1 X121.279 Y118.989 E10.33842
G1 X121.466 Y121.678 E10.42807
G1 X121.733 Y124.398 E10.51897
G1 X122.081 Y127.147 E10.61114
G1 X122.493 Y129.804 E10.70056
G1 X122.989 Y132.493 E10.79151
G1 X123.557 Y135.143 E10.88165
G1 X123.916 Y136.628 E10.93246
G1 X124.042 Y137.194 E10.95175
G1 X124.082 Y137.406 E10.95893
G1 X124.143 Y138.004 E10.97892
G1 X124.164 Y139.11 E11.01571
G1 X124.164 Y142.692 E11.13485
G1 X124.155 Y143.347 E11.15664
G1 X124.109 Y143.87 E11.1741
G1 X123.986 Y144.537 E11.19666
G1 X123.846 Y145.048 E11.21428
G1 X123.612 Y145.78 E11.23984
G1 X123.396 Y146.378 E11.26099
G1 X123.312 Y146.575 E11.26811
G1 X123.053 Y147.142 E11.28884
G1 X122.646 Y147.986 E11.32001
G1 X122.373 Y148.486 E11.33895
G1 X122.026 Y149.032 E11.36047
G1 X121.962 Y149.129 E11.36434
G1 X121.582 Y149.685 E11.38674
G1 X121.164 Y150.267 E11.41057
G1 X120.675 Y150.859 E11.43611
G1 X120.342 Y151.224 E11.45254
G1 X119.975 Y151.604 E11.47011
G1 X119.516 Y152.035 E11.49105
G1 X119.449 Y152.091 E11.49396
G1 X119.006 Y152.408 E11.51208
G1 X117.935 Y153.056 E11.55371
G1 X114.902 Y154.806 E11.67018
G1 X114.362 Y155.108 E11.69075
G1 X113.886 Y155.33 E11.70822
G1 X113.198 Y155.574 E11.7325
G1 X112.777 Y155.684 E11.74698
G1 X111.959 Y155.864 E11.77483
G1 X111.379 Y155.968 E11.79443
G1 X111.137 Y155.997 E11.80254
G1 X110.522 Y156.057 E11.82309
G1 X109.47 Y156.133 E11.85817
G1 X108.974 Y156.142 E11.87467
G1 X108.445 Y156.119 E11.89228
G1 X107.624 Y156.059 E11.91966
G1 X106.844 Y155.98 E11.94574
G1 X106.122 Y155.857 E11.9701
G1 X105.61 Y155.747 E11.98751
G1 X105 Y155.592 E12.00845
G1 X104.475 Y155.428 E12.02674
G1 X103.919 Y155.18 E12.04699
G1 X102.894 Y154.616 E12.0859
G1 X99.787 Y152.822 E12.20523
G1 X99.204 Y152.472 E12.22785
G1 X98.73 Y152.132 E12.24725
G1 X98.286 Y151.74 E12.26695
G1 X97.931 Y151.378 E12.28381
G1 X97.376 Y150.767 E12.31127
G1 X96.971 Y150.274 E12.33249
G1 X96.513 Y149.638 E12.35855
G1 X95.944 Y148.799 E12.39227
G1 X95.688 Y148.372 E12.40883
G1 X95.376 Y147.771 E12.43135
G1 X95.087 Y147.168 E12.45359
G1 X94.78 Y146.49 E12.47835
G1 X94.518 Y145.797 E12.50299
G1 X94.346 Y145.259 E12.52178
G1 X94.205 Y144.773 E12.53861
G1 X94.049 Y144.094 E12.56178
G1 X94.033 Y143.998 E12.56502
G1 X93.985 Y143.476 E12.58245
G1 X93.964 Y142.373 E12.61914
G1 X93.964 Y138.791 E12.73828
G1 X93.973 Y138.136 E12.76007
G1 X94.02 Y137.608 E12.7777
G1 X94.141 Y136.95 E12.79995
G1 X94.241 Y136.559 E12.81337
G1 X94.898 Y134.12 E12.89739
G1 X95.533 Y131.464 E12.98822
G1 X96.096 Y128.786 E13.07923
G1 X96.573 Y126.121 E13.16928
G1 X96.987 Y123.389 E13.26119
G1 X97.314 Y120.712 E13.35088
G1 X97.567 Y117.997 E13.44158
G1 X97.743 Y115.304 E13.53134
G1 X97.845 Y112.541 E13.6233
G1 X97.868 Y109.804 E13.71433
G1 X97.814 Y107.113 E13.80386
G1 X97.684 Y104.39 E13.89453
G1 X97.473 Y101.631 E13.98656
G1 X97.19 Y98.939 E14.07659
G1 X96.83 Y96.244 E14.16702
G1 X96.396 Y93.577 E14.25689
G1 X95.875 Y90.861 E14.34887
G1 X95.29 Y88.216 E14.43897
G1 X94.631 Y85.589 E14.52905
G1 X94.113 Y83.713 E14.59378
G1 X93.923 Y83.047 E14.61682
G1 X93.813 Y82.557 E14.63352
G1 X93.753 Y82.214 E14.6451
G1 X93.592 Y81.227 E14.67837
G1 X93.489 Y80.527 E14.7019
G1 X93.447 Y79.94 E14.72147
G1 X93.442 Y79.541 E14.73474
G1 X93.442 Y78.546 E14.76784
G1 X93.453 Y77.854 E14.79086
G1 X93.506 Y77.269 E14.81039
G1 X93.573 Y76.822 E14.82543
G1 X93.725 Y75.893 E14.85674
G1 X93.841 Y75.239 E14.87883
G1 X93.995 Y74.634 E14.89959
G1 X94.113 Y74.265 E14.91248
G1 X94.424 Y73.337 E14.94503
G1 X94.636 Y72.728 E14.96648
G1 X94.905 Y72.111 E14.98887
G1 X95.078 Y71.77 E15.00158
G1 X95.506 Y70.955 E15.0322
G1 X95.86 Y70.304 E15.05685
G1 X96.204 Y69.774 E15.07786
G0 F3000 X96.532 Y70.003
G1 F1200 X96.761 Y69.689 E15.09079
G1 X97.324 Y68.941 E15.12193
G1 X97.754 Y68.387 E15.14525
G1 X98.13 Y67.973 E15.16385
G1 X98.432 Y67.676 E15.17794
G1 X99.097 Y67.037 E15.20862
G1 X99.615 Y66.555 E15.23215
G1 X100.05 Y66.208 E15.25066
G1 X101.166 Y65.433 E15.29585
G1 X101.7 Y65.074 E15.31725
G1 X102.229 Y64.776 E15.33744
G1 X102.556 Y64.616 E15.34955
G1 X103.442 Y64.196 E15.38216
G1 X104.073 Y63.908 E15.40523
G1 X104.61 Y63.712 E15.42425
G1 X104.986 Y63.599 E15.4373
G1 X105.896 Y63.335 E15.46882
G1 X106.559 Y63.154 E15.49168
G1 X107.124 Y63.046 E15.51081
G1 X107.484 Y62.997 E15.52289
G1 X108.467 Y62.879 E15.55582
G1 X109.149 Y62.807 E15.57863
G1 X109.502 Y62.789 E15.59039
G1 X110.124 Y62.803 E15.61108
G1 X110.991 Y62.838 E15.63994
G1 X111.754 Y62.88 E15.66536
G1 X112.307 Y62.953 E15.68391
G1 X112.695 Y63.028 E15.69705
G1 X113.559 Y63.204 E15.72638
G1 X114.307 Y63.369 E15.75186
G1 X114.856 Y63.535 E15.77093
G1 X115.218 Y63.666 E15.78374
G1 X116.097 Y64 E15.81501
G1 X116.745 Y64.257 E15.8382
G1 X117.221 Y64.487 E15.85578
G1 X117.603 Y64.701 E15.87035
G1 X118.431 Y65.179 E15.90214
G1 X119.003 Y65.519 E15.92428
G1 X119.469 Y65.847 E15.94323
G1 X119.85 Y66.151 E15.95944
G1 X120.483 Y66.668 E15.98662
G1 X121.065 Y67.159 E16.01195
G1 X121.473 Y67.559 E16.03095
G1 X121.556 Y67.649 E16.03503
G1 X122.372 Y68.568 E16.0759
G1 X122.818 Y69.087 E16.09866
G1 X123.133 Y69.514 E16.11631
G1 X123.374 Y69.887 E16.13108
G1 X123.856 Y70.647 E16.16101
G1 X124.231 Y71.259 E16.18489
G1 X124.498 Y71.784 E16.20448
G1 X124.635 Y72.097 E16.21584
G1 X125.002 Y72.957 E16.24694
G1 X125.289 Y73.659 E16.27216
G1 X125.508 Y74.374 E16.29704
G1 X125.767 Y75.417 E16.33278
G1 X125.941 Y76.169 E16.35845
G1 X126.025 Y76.727 E16.37722
G1 X126.061 Y77.125 E16.39051
G1 X126.136 Y78.046 E16.42125
G1 X126.183 Y78.756 E16.44491
G1 X126.177 Y79.335 E16.46417
G1 X126.154 Y79.674 E16.47547
G1 X126.074 Y80.666 E16.50857
G1 X126.014 Y81.298 E16.52969
G1 X125.926 Y81.839 E16.54792
G1 X125.825 Y82.283 E16.56306
G1 X125.587 Y83.247 E16.59609
G1 X125.4 Y83.953 E16.62038
G1 X125.325 Y84.211 E16.62932
G1 X124.616 Y86.515 E16.70949
G1 X123.89 Y89.137 E16.79998
G1 X123.228 Y91.819 E16.89186
G1 X122.645 Y94.503 E16.98322
G1 X122.146 Y97.176 E17.07366
G1 X121.719 Y99.876 E17.16458
G1 X121.365 Y102.614 E17.2564
G1 X121.094 Y105.312 E17.34659
G1 X120.895 Y108.063 E17.43832
G1 X120.775 Y110.776 E17.52865
G1 X120.733 Y113.52 E17.61992
G1 X120.768 Y116.283 E17.71183
G1 X120.879 Y118.997 E17.80217
G1 X121.068 Y121.709 E17.89259
G1 X121.336 Y124.45 E17.98419
G1 X121.682 Y127.187 E18.07595
G1 X122.099 Y129.872 E18.16633
