;FLAVOR:Marlin
;TIME:3351
;Filament used: 1.65601m
;Layer height: 0.2
;MINX:70.848
;MINY:89.671
;MINZ:0.2
;MAXX:154.24
;MAXY:129.554
;MAXZ:22
;Generated with Cura_SteamEngine master
M82 ;absolute extrusion mode
;Sliced at: Thu 14-04-2022 22:17:55
;Basic settings: Layer height: 0.2 Walls: 0.8 Fill: 100
G21 ;metric values
G90 ;absolute positioning
M82 ;set extruder to absolute mode
M107 ;start with the fan off
M117 Start heating ...
M104 S200
M117 Homing X/Y ...
G28 X0 Y0 ;move X/Y to min endstops
M117 Homing Z ...
G28 Z0 ;move Z to min endstops
G1 Z15.0 F100 ;move the platform down 15mm
M117 Heating ...
M109 S200
M117 Start cleaning ...
G92 E0 ;zero the extruded length
G1 F200 E10 ;extrude 10mm of feed stock
G92 E0 ;zero the extruded length again
M117 Intro line ...
G1 Z2.0 F3000 ; Move Z Axis up little to prevent scratching of Heat Bed
G1 X0.1 Y20 Z0.2 F5000.0 ; Move to start position
G1 X0.1 Y200.0 Z0.2 F1500.0 E15 ; Draw the first line
G1 X0.4 Y200.0 Z0.2 F5000.0 ; Move to side a little
G1 X0.4 Y20 Z0.3 F1500.0 E30 ; Draw the second line
G92 E0 ; Reset Extruder
G1 E-1 F500 ; Retract filiment by 1 mm
G1 Z2.0 F3000 ; Move Z Axis up little to prevent scratching of Heat Bed
G1 X5 Y20 Z0.3 F100 ; Move over to prevent blob squish
G1 F100
G92 E0 ; Reset Extruder
M117 Printing...

G92 E0
G92 E0
G1 F1800 E-7
;LAYER_COUNT:109
;LAYER:0
M107
G1 F300 Z0.4
G0 F3000 X76.833 Y94.628 Z0.4
;TYPE:SKIRT
G1 F300 Z0.2
G1 F1800 E0
G1 F1200 X77.159 Y94.369 E0.01385
G1 X77.811 Y93.907 E0.04043
G1 X78.353 Y93.543 E0.06214
G1 X78.946 Y93.208 E0.08479
G1 X79.291 Y93.051 E0.0974
G1 X79.903 Y92.807 E0.11931
G1 X80.675 Y92.526 E0.14664
G1 X81.316 Y92.348 E0.16877
G1 X81.666 Y92.284 E0.1806
G1 X82.346 Y92.19 E0.20343
G1 X82.467 Y92.175 E0.20749
G1 X82.989 Y92.119 E0.22495
G1 X83.733 Y92.09 E0.24971
G1 X84.212 Y92.112 E0.26566
G1 X84.976 Y92.193 E0.29121
G1 X86.596 Y92.414 E0.34559
G1 X87.537 Y92.555 E0.37724
G1 X90.235 Y92.881 E0.46763
G1 X92.931 Y93.13 E0.55768
G1 X95.665 Y93.305 E0.6488
G1 X98.34 Y93.4 E0.73783
G1 X101.081 Y93.421 E0.829
G1 X103.79 Y93.363 E0.91912
G1 X106.503 Y93.23 E1.00946
G1 X107.974 Y93.125 E1.05851
G1 X109.157 Y93.033 E1.09798
G1 X109.676 Y93.022 E1.11524
G1 X110.155 Y93.035 E1.13118
G1 X111.003 Y93.071 E1.15941
G1 X111.762 Y93.112 E1.18469
G1 X112.436 Y93.199 E1.2073
G1 X112.804 Y93.269 E1.21975
G1 X116.412 Y94.002 E1.34221
G1 X119.093 Y94.468 E1.43272
G1 X121.809 Y94.863 E1.524
G1 X124.458 Y95.17 E1.6127
G1 X127.195 Y95.41 E1.70408
G1 X129.898 Y95.57 E1.79414
G1 X132.603 Y95.653 E1.88415
G1 X135.534 Y95.658 E1.98164
G1 X136.91 Y95.64 E2.02741
G1 X137.677 Y95.639 E2.05292
G1 X138.353 Y95.649 E2.0754
G1 X138.913 Y95.693 E2.09409
G1 X139.572 Y95.791 E2.11624
G1 X140.447 Y95.937 E2.14575
G1 X141.156 Y96.067 E2.16972
G1 X141.67 Y96.196 E2.18735
G1 X142.537 Y96.478 E2.21767
G1 X143.136 Y96.685 E2.23875
G1 X143.771 Y96.912 E2.26118
G1 X144.302 Y97.143 E2.28044
G1 X145.135 Y97.577 E2.31168
G1 X145.659 Y97.861 E2.33151
G1 X146.29 Y98.213 E2.35554
G1 X146.749 Y98.512 E2.37376
G1 X147.499 Y99.078 E2.40501
G1 X147.975 Y99.45 E2.4251
G1 X148.507 Y99.876 E2.44777
G1 X148.925 Y100.252 E2.46647
G1 X149.419 Y100.765 E2.49016
G1 X149.927 Y101.317 E2.51511
G1 X150.452 Y101.905 E2.54133
G1 X150.887 Y102.462 E2.56483
G1 X151.27 Y103.034 E2.58773
G1 X151.602 Y103.54 E2.60786
G1 X152.043 Y104.238 E2.63532
G1 X152.295 Y104.703 E2.65291
G1 X152.733 Y105.657 E2.68782
G1 X152.937 Y106.122 E2.70471
G1 X153.197 Y106.741 E2.72704
G1 X153.419 Y107.372 E2.74929
G1 X153.592 Y108.012 E2.77134
G1 X153.794 Y108.813 E2.79882
G1 X153.92 Y109.335 E2.81668
G1 X154.048 Y110.045 E2.84067
G1 X154.141 Y110.989 E2.87222
G1 X154.188 Y111.566 E2.89148
G1 X154.24 Y112.322 E2.91668
G1 X154.238 Y112.931 E2.93694
G1 X154.205 Y113.422 E2.9533
G1 X154.127 Y114.375 E2.98511
G1 X154.06 Y115.072 E3.0084
G1 X153.902 Y115.933 E3.03751
G1 X153.798 Y116.367 E3.05235
G1 X153.607 Y117.121 E3.07822
G1 X153.418 Y117.824 E3.10244
G1 X153.204 Y118.442 E3.12419
G1 X152.902 Y119.153 E3.14988
G1 X152.641 Y119.748 E3.17149
G1 X152.389 Y120.304 E3.1918
G1 X152.024 Y120.981 E3.21738
G1 X151.745 Y121.433 E3.23504
G1 X151.249 Y122.189 E3.26512
G1 X150.867 Y122.756 E3.28786
G1 X150.421 Y123.323 E3.31185
G1 X150.342 Y123.415 E3.31588
G1 X149.942 Y123.86 E3.33578
G1 X149.523 Y124.315 E3.35636
G1 X149.003 Y124.865 E3.38153
G1 X148.519 Y125.307 E3.40333
G1 X147.941 Y125.77 E3.42796
G1 X147.412 Y126.182 E3.45026
G1 X146.83 Y126.621 E3.47451
G1 X146.338 Y126.949 E3.49418
G1 X145.793 Y127.258 E3.51502
G1 X145.021 Y127.677 E3.54423
G1 X144.411 Y127.996 E3.56713
G1 X143.848 Y128.25 E3.58767
G1 X143.366 Y128.428 E3.60476
G1 X142.404 Y128.757 E3.63857
G1 X141.78 Y128.961 E3.66041
G1 X141.083 Y129.139 E3.68434
G1 X140.672 Y129.218 E3.69826
G1 X139.639 Y129.389 E3.73308
G1 X138.957 Y129.493 E3.75603
G1 X138.322 Y129.545 E3.77722
G1 X137.651 Y129.553 E3.79954
G1 X136.842 Y129.554 E3.82645
G1 X136.166 Y129.544 E3.84893
G1 X135.611 Y129.5 E3.86745
G1 X135.449 Y129.479 E3.87288
G1 X134.899 Y129.394 E3.89139
G1 X134.066 Y129.254 E3.91949
G1 X133.285 Y129.111 E3.94589
G1 X132.735 Y128.995 E3.96459
G1 X130.045 Y128.467 E4.05577
G1 X127.38 Y128.022 E4.14563
G1 X124.687 Y127.649 E4.23606
G1 X122.008 Y127.357 E4.32569
G1 X119.294 Y127.137 E4.41625
G1 X116.56 Y126.993 E4.50731
G1 X113.865 Y126.929 E4.59697
G1 X110.369 Y126.957 E4.71325
G1 X109.562 Y126.978 E4.7401
G1 X108.904 Y126.946 E4.76202
G1 X108.499 Y126.902 E4.77557
G1 X107.589 Y126.791 E4.80606
G1 X106.833 Y126.688 E4.83143
G1 X106.203 Y126.555 E4.85285
G1 X105.772 Y126.436 E4.86772
G1 X104.879 Y126.177 E4.89865
G1 X104.205 Y125.971 E4.92209
G1 X103.57 Y125.723 E4.94476
G1 X103.201 Y125.554 E4.95826
G1 X102.364 Y125.156 E4.98909
G1 X101.72 Y124.839 E5.01296
G1 X101.136 Y124.495 E5.0355
G1 X101.013 Y124.414 E5.0404
G1 X100.003 Y123.719 E5.08118
G1 X98.606 Y122.725 E5.1382
G1 X98.038 Y122.308 E5.16164
G1 X95.814 Y120.771 E5.25156
G1 X93.516 Y119.278 E5.3427
G1 X91.214 Y117.873 E5.4324
G1 X88.864 Y116.528 E5.52246
G1 X86.454 Y115.237 E5.61339
G1 X84.028 Y114.025 E5.70359
G1 X81.56 Y112.878 E5.79411
G1 X80.124 Y112.25 E5.84624
G1 X79.301 Y111.898 E5.87601
G1 X78.793 Y111.651 E5.8948
G1 X78.375 Y111.408 E5.91088
G1 X77.67 Y110.938 E5.93906
G1 X77.163 Y110.578 E5.95974
G1 X76.635 Y110.137 E5.98262
G1 X76.383 Y109.886 E5.99445
G1 X75.94 Y109.403 E6.01625
G1 X75.417 Y108.796 E6.0429
G1 X75.008 Y108.239 E6.06588
G1 X74.815 Y107.923 E6.0782
G1 X74.513 Y107.372 E6.0991
G1 X74.45 Y107.252 E6.10361
G1 X74.138 Y106.634 E6.12663
G1 X73.886 Y106.024 E6.14858
G1 X73.757 Y105.611 E6.16297
G1 X73.575 Y104.907 E6.18716
G1 X73.449 Y104.364 E6.2057
G1 X73.334 Y103.66 E6.22943
G1 X73.297 Y103.172 E6.2457
G1 X73.285 Y102.371 E6.27235
G1 X73.293 Y101.752 E6.29294
G1 X73.351 Y101.094 E6.31491
G1 X73.421 Y100.701 E6.32818
G1 X73.57 Y100.055 E6.35023
G1 X73.745 Y99.38 E6.37343
G1 X73.945 Y98.774 E6.39465
G1 X74.135 Y98.33 E6.41071
G1 X74.48 Y97.642 E6.43631
G1 X74.544 Y97.52 E6.4409
G1 X74.79 Y97.069 E6.45798
G1 X75.103 Y96.569 E6.4776
G1 X75.396 Y96.181 E6.49377
G1 X75.908 Y95.581 E6.52001
G1 X75.989 Y95.489 E6.52408
G1 X76.372 Y95.067 E6.54304
G1 X76.833 Y94.628 E6.56421
G0 F3000 X77.097 Y94.928
G1 F1200 X77.391 Y94.695 E6.57669
G1 X78.034 Y94.239 E6.60291
G1 X78.576 Y93.875 E6.62462
G1 X79.128 Y93.564 E6.6457
G1 X79.439 Y93.423 E6.65705
G1 X80.051 Y93.179 E6.67897
G1 X80.159 Y93.138 E6.68281
G1 X80.811 Y92.902 E6.70587
G1 X81.406 Y92.738 E6.7264
G1 X81.721 Y92.68 E6.73705
G1 X82.401 Y92.586 E6.75988
G1 X83.032 Y92.517 E6.781
G1 X83.739 Y92.49 E6.80453
G1 X84.17 Y92.51 E6.81888
G1 X84.922 Y92.59 E6.84403
G1 X86.537 Y92.81 E6.89824
G1 X87.467 Y92.949 E6.92952
G1 X90.186 Y93.278 E7.02061
G1 X92.903 Y93.529 E7.11136
G1 X95.626 Y93.703 E7.20212
G1 X98.358 Y93.8 E7.29304
G1 X101.087 Y93.821 E7.38381
G1 X103.783 Y93.763 E7.4735
G1 X106.552 Y93.627 E7.56571
G1 X108.003 Y93.524 E7.61409
G1 X109.188 Y93.432 E7.65362
G1 X109.762 Y93.424 E7.67272
G1 X110.139 Y93.435 E7.68526
G1 X110.981 Y93.47 E7.71329
G1 X111.74 Y93.511 E7.73857
G1 X112.37 Y93.594 E7.75971
G1 X112.725 Y93.661 E7.77172
G1 X116.342 Y94.396 E7.89448
G1 X119.032 Y94.864 E7.9853
G1 X121.742 Y95.257 E8.07637
G1 X124.449 Y95.571 E8.16701
G1 X127.135 Y95.807 E8.25669
G1 X129.899 Y95.97 E8.34878
G1 X132.59 Y96.053 E8.43833
G1 X135.538 Y96.058 E8.53638
G1 X136.911 Y96.04 E8.58205
G1 X137.671 Y96.039 E8.60733
G1 X138.347 Y96.049 E8.62981
G1 X138.869 Y96.091 E8.64723
G1 X139.511 Y96.186 E8.66882
G1 X140.375 Y96.33 E8.69795
G1 X141.084 Y96.46 E8.72193
G1 X141.546 Y96.577 E8.73778
G1 X142.406 Y96.857 E8.76786
G1 X143.002 Y97.062 E8.78882
G1 X143.637 Y97.289 E8.81125
G1 X144.117 Y97.498 E8.82866
G1 X144.945 Y97.929 E8.85971
G1 X145.464 Y98.21 E8.87934
G1 X146.095 Y98.562 E8.90337
G1 X146.508 Y98.831 E8.91976
G1 X147.253 Y99.393 E8.9508
G1 X147.725 Y99.762 E8.97073
G1 X148.257 Y100.188 E8.9934
G1 X148.65 Y100.542 E9.01099
G1 X149.129 Y101.041 E9.034
G1 X149.628 Y101.583 E9.0585
G1 X150.153 Y102.171 E9.08472
G1 X150.555 Y102.685 E9.10642
G1 X150.936 Y103.253 E9.12917
G1 X151.263 Y103.754 E9.14907
G1 X151.704 Y104.452 E9.17653
G1 X151.931 Y104.87 E9.19235
G1 X152.367 Y105.818 E9.22706
G1 X152.569 Y106.278 E9.24376
G1 X152.825 Y106.888 E9.26577
G1 X153.033 Y107.476 E9.28651
G1 X153.204 Y108.11 E9.30835
G1 X153.406 Y108.907 E9.3357
G1 X153.529 Y109.421 E9.35328
G1 X153.649 Y110.084 E9.37569
G1 X153.742 Y111.022 E9.40704
G1 X153.789 Y111.593 E9.42609
G1 X153.841 Y112.349 E9.4513
G1 X153.839 Y112.913 E9.47006
G1 X153.806 Y113.39 E9.48596
G1 X153.728 Y114.336 E9.51753
G1 X153.661 Y115.033 E9.54082
G1 X153.511 Y115.849 E9.56842
G1 X153.411 Y116.269 E9.58277
G1 X153.221 Y117.017 E9.60844
G1 X153.032 Y117.72 E9.63266
G1 X152.835 Y118.286 E9.65259
G1 X152.535 Y118.993 E9.67813
G1 X152.277 Y119.583 E9.69955
G1 X152.025 Y120.139 E9.71985
G1 X151.676 Y120.783 E9.74422
G1 X151.411 Y121.213 E9.76102
G1 X150.918 Y121.965 E9.79092
G1 X150.536 Y122.532 E9.81366
G1 X150.115 Y123.066 E9.83628
G1 X150.044 Y123.148 E9.83989
G1 X149.647 Y123.589 E9.85962
G1 X149.232 Y124.04 E9.88001
G1 X148.712 Y124.59 E9.90518
G1 X148.268 Y124.996 E9.92519
G1 X147.696 Y125.455 E9.94959
G1 X147.171 Y125.863 E9.9717
G1 X146.589 Y126.302 E9.99595
G1 X146.136 Y126.604 E10.01405
G1 X145.599 Y126.909 E10.0346
G1 X144.789 Y127.347 E10.06522
G1 X144.226 Y127.642 E10.08636
G1 X143.705 Y127.876 E10.10536
G1 X143.231 Y128.051 E10.12216
G1 X142.28 Y128.377 E10.1556
G1 X141.656 Y128.581 E10.17744
G1 X140.992 Y128.749 E10.20022
G1 X140.648 Y128.816 E10.21187
G1 X139.579 Y128.994 E10.24792
G1 X138.897 Y129.098 E10.27086
G1 X138.317 Y129.145 E10.29022
G1 X137.651 Y129.153 E10.31237
G1 X136.848 Y129.154 E10.33908
G1 X136.172 Y129.144 E10.36157
G1 X135.655 Y129.103 E10.37881
G1 X135.51 Y129.083 E10.38368
G1 X134.965 Y129 E10.40202
G1 X134.138 Y128.861 E10.42991
G1 X133.467 Y128.739 E10.45259
G1 X132.853 Y128.611 E10.47346
G1 X130.117 Y128.074 E10.56619
G1 X127.429 Y127.625 E10.65683
G1 X124.752 Y127.255 E10.74672
G1 X122.011 Y126.956 E10.83842
G1 X119.312 Y126.736 E10.92849
G1 X116.591 Y126.594 E11.01911
G1 X113.871 Y126.528 E11.10961
G1 X110.356 Y126.557 E11.22652
G1 X109.552 Y126.578 E11.25327
G1 X108.939 Y126.548 E11.27369
G1 X108.547 Y126.505 E11.2868
G1 X107.643 Y126.395 E11.31709
G1 X106.887 Y126.292 E11.34247
G1 X106.301 Y126.167 E11.3624
G1 X105.883 Y126.052 E11.37682
G1 X104.996 Y125.795 E11.40753
G1 X104.322 Y125.589 E11.43097
G1 X103.73 Y125.357 E11.45212
G1 X103.373 Y125.193 E11.46519
G1 X102.541 Y124.797 E11.49583
G1 X101.897 Y124.48 E11.51971
G1 X101.35 Y124.158 E11.54082
G1 X101.239 Y124.084 E11.54526
G1 X100.235 Y123.394 E11.58577
G1 X98.842 Y122.402 E11.64265
G1 X98.262 Y121.977 E11.66657
G1 X96.054 Y120.45 E11.75586
G1 X93.737 Y118.945 E11.84775
G1 X91.415 Y117.527 E11.93824
G1 X89.03 Y116.162 E12.02964
G1 X86.643 Y114.884 E12.1197
G1 X84.225 Y113.676 E12.2096
G1 X81.711 Y112.508 E12.3018
G1 X80.281 Y111.882 E12.35372
G1 X79.458 Y111.53 E12.38349
G1 X78.973 Y111.294 E12.40143
G1 X78.596 Y111.075 E12.41593
G1 X77.995 Y110.676 E12.43992
G1 X77.395 Y110.252 E12.46436
G1 X76.905 Y109.842 E12.48561
G1 X76.678 Y109.615 E12.49629
G1 X76.156 Y109.044 E12.52202
G1 X75.72 Y108.536 E12.54429
G1 X75.34 Y108.015 E12.56573
G1 X75.166 Y107.73 E12.57684
G1 X74.864 Y107.179 E12.59774
G1 X74.807 Y107.071 E12.6018
G1 X74.495 Y106.453 E12.62483
G1 X74.261 Y105.886 E12.64523
G1 X74.144 Y105.51 E12.65832
G1 X73.964 Y104.817 E12.68214
G1 X73.838 Y104.274 E12.70068
G1 X73.73 Y103.604 E12.72325
G1 X73.696 Y103.166 E12.73786
G1 X73.685 Y102.481 E12.76065
G1 X73.693 Y101.757 E12.78473
G1 X73.748 Y101.145 E12.80517
G1 X73.811 Y100.791 E12.81713
G1 X73.96 Y100.145 E12.83918
G1 X74.132 Y99.482 E12.86196
G1 X74.322 Y98.909 E12.88204
G1 X74.493 Y98.509 E12.8965
G1 X74.838 Y97.821 E12.9221
G1 X75.142 Y97.26 E12.94333
G1 X75.437 Y96.79 E12.96178
G1 X75.701 Y96.44 E12.97636
G1 X76.285 Y95.758 E13.00623
G1 X76.668 Y95.336 E13.02518
G1 X77.097 Y94.928 E13.04487
G0 F3000 X77.361 Y95.228
G1 F1200 X77.623 Y95.021 E13.05598
G1 X78.257 Y94.571 E13.08184
G1 X78.799 Y94.207 E13.10355
G1 X79.311 Y93.92 E13.12307
G1 X79.587 Y93.795 E13.13315
G1 X80.295 Y93.514 E13.15849
G1 X80.947 Y93.278 E13.18155
G1 X81.496 Y93.128 E13.20048
G1 X81.776 Y93.076 E13.20995
G1 X82.553 Y92.97 E13.23603
G1 X83.075 Y92.914 E13.25349
G1 X83.745 Y92.89 E13.27579
G1 X84.129 Y92.907 E13.28858
G1 X84.77 Y92.974 E13.31001
G1 X86.435 Y93.199 E13.36589
G1 X87.426 Y93.347 E13.39922
G1 X90.172 Y93.679 E13.49122
G1 X92.839 Y93.926 E13.5803
G1 X95.624 Y94.103 E13.67312
G1 X98.34 Y94.2 E13.76351
G1 X101.092 Y94.221 E13.85505
G1 X103.812 Y94.163 E13.94553
G1 X106.552 Y94.028 E14.03678
G1 X108.031 Y93.923 E14.08609
G1 X109.219 Y93.831 E14.12572
G1 X109.75 Y93.823 E14.14339
G1 X110.122 Y93.835 E14.15577
G1 X110.96 Y93.87 E14.18366
G1 X111.719 Y93.911 E14.20894
G1 X112.305 Y93.988 E14.2286
G1 X112.645 Y94.053 E14.24012
G1 X116.259 Y94.787 E14.36277
G1 X118.978 Y95.26 E14.45456
G1 X121.675 Y95.652 E14.54521
G1 X124.404 Y95.968 E14.63658
G1 X127.147 Y96.209 E14.72817
G1 X129.863 Y96.37 E14.81866
G1 X132.577 Y96.453 E14.90897
G1 X135.543 Y96.458 E15.00762
G1 X136.911 Y96.44 E15.05312
G1 X137.665 Y96.439 E15.0782
G1 X138.341 Y96.449 E15.10069
G1 X138.965 Y96.507 E15.12153
G1 X139.485 Y96.587 E15.13903
G1 X140.303 Y96.723 E15.16661
G1 X141.012 Y96.853 E15.19059
G1 X141.423 Y96.957 E15.20469
G1 X142.276 Y97.235 E15.23453
G1 X142.867 Y97.439 E15.25532
G1 X143.502 Y97.666 E15.27775
G1 X143.933 Y97.853 E15.29338
G1 X144.754 Y98.28 E15.32416
G1 X145.269 Y98.559 E15.34364
G1 X145.9 Y98.911 E15.36767
G1 X146.267 Y99.151 E15.38225
G1 X147.007 Y99.709 E15.41308
G1 X147.475 Y100.074 E15.43282
G1 X148.007 Y100.5 E15.45549
G1 X148.498 Y100.957 E15.4778
G1 X148.869 Y101.349 E15.49575
G1 X149.33 Y101.85 E15.51839
G1 X149.855 Y102.438 E15.54461
G1 X150.223 Y102.909 E15.56449
G1 X150.601 Y103.472 E15.58704
G1 X150.925 Y103.968 E15.60675
G1 X151.366 Y104.666 E15.63421
G1 X151.568 Y105.037 E15.64826
G1 X152.001 Y105.979 E15.68274
G1 X152.2 Y106.433 E15.69923
G1 X152.453 Y107.034 E15.72092
G1 X152.647 Y107.581 E15.74022
G1 X152.816 Y108.208 E15.76182
G1 X153.017 Y109.002 E15.78906
G1 X153.139 Y109.507 E15.80634
G1 X153.251 Y110.123 E15.82717
G1 X153.343 Y111.055 E15.85831
G1 X153.389 Y111.62 E15.87717
G1 X153.441 Y112.376 E15.90237
G1 X153.439 Y112.896 E15.91967
G1 X153.407 Y113.357 E15.93504
G1 X153.33 Y114.298 E15.96644
G1 X153.263 Y114.995 E15.98973
G1 X153.12 Y115.765 E16.01578
G1 X153.023 Y116.171 E16.02966
G1 X152.834 Y116.913 E16.05513
G1 X152.645 Y117.616 E16.07934
G1 X152.467 Y118.129 E16.0974
G1 X152.169 Y118.833 E16.12283
G1 X151.913 Y119.418 E16.14407
G1 X151.661 Y119.974 E16.16437
G1 X151.328 Y120.586 E16.18754
G1 X151.076 Y120.994 E16.20349
G1 X150.586 Y121.742 E16.23323
G1 X150.204 Y122.309 E16.25597
G1 X149.81 Y122.808 E16.27712
G1 X149.353 Y123.318 E16.2999
G1 X148.941 Y123.765 E16.32012
G1 X148.421 Y124.315 E16.34529
G1 X148.018 Y124.684 E16.36346
G1 X147.45 Y125.139 E16.38767
G1 X146.93 Y125.544 E16.40959
G1 X146.348 Y125.983 E16.43384
