;FLAVOR:Marlin
;TIME:2647
;Filament used: 1.36912m
;Layer height: 0.2
;MINX:97.2
;MINY:97.2
;MINZ:0.2
;MAXX:122.8
;MAXY:122.8
;MAXZ:22
;Generated with Cura_SteamEngine master
M82 ;absolute extrusion mode
;Sliced at: Fri 15-04-2022 20:49:51
;Basic settings: Layer height: 0.2 Walls: 0.8 Fill: 100
G21 ;metric values
G90 ;absolute positioning
M82 ;set extruder to absolute mode
M107 ;start with the fan off
M117 Start heating ...
M104 S200
M117 Homing X/Y ...
G28 X0 Y0 ;move X/Y to min endstops
M117 Homing Z ...
G28 Z0 ;move Z to min endstops
G1 Z15.0 F100 ;move the platform down 15mm
M117 Heating ...
M109 S200
M117 Start cleaning ...
G92 E0 ;zero the extruded length
G1 F200 E10 ;extrude 10mm of feed stock
G92 E0 ;zero the extruded length again
M117 Intro line ...
G1 Z2.0 F3000 ; Move Z Axis up little to prevent scratching of Heat Bed
G1 X0.1 Y20 Z0.2 F5000.0 ; Move to start position
G1 X0.1 Y200.0 Z0.2 F1500.0 E15 ; Draw the first line
G1 X0.4 Y200.0 Z0.2 F5000.0 ; Move to side a little
G1 X0.4 Y20 Z0.3 F1500.0 E30 ; Draw the second line
G92 E0 ; Reset Extruder
G1 E-1 F500 ; Retract filiment by 1 mm
G1 Z2.0 F3000 ; Move Z Axis up little to prevent scratching of Heat Bed
G1 X5 Y20 Z0.3 F100 ; Move over to prevent blob squish
G1 F100
G92 E0 ; Reset Extruder
M117 Printing...

G92 E0
G92 E0
G1 F1800 E-7
;LAYER_COUNT:109
;LAYER:0
M107
G1 F300 Z0.4
G0 F3000 X102.346 Y102.412 Z0.4
;TYPE:SKIRT
G1 F300 Z0.2
G1 F1800 E0
G1 F1200 X102.801 Y101.997 E0.02048
G1 X103.417 Y101.464 E0.04758
G1 X103.836 Y101.143 E0.06513
G1 X104.364 Y100.811 E0.08588
G1 X104.903 Y100.517 E0.1063
G1 X105.64 Y100.142 E0.1338
G1 X106.278 Y99.874 E0.15682
G1 X106.702 Y99.739 E0.17162
G1 X107.361 Y99.565 E0.19429
G1 X107.49 Y99.533 E0.19871
G1 X108.016 Y99.411 E0.21667
G1 X108.766 Y99.289 E0.24194
G1 X109.295 Y99.249 E0.25958
G1 X110.103 Y99.237 E0.28646
G1 X110.988 Y99.267 E0.31591
G1 X111.381 Y99.308 E0.32905
G1 X111.913 Y99.397 E0.34699
G1 X112.684 Y99.576 E0.37332
G1 X113.192 Y99.709 E0.39079
G1 X113.84 Y99.923 E0.41348
G1 X114.326 Y100.132 E0.43108
G1 X114.992 Y100.466 E0.45586
G1 X115.125 Y100.535 E0.46084
G1 X115.595 Y100.791 E0.47864
G1 X116.118 Y101.118 E0.49916
G1 X116.538 Y101.435 E0.51666
G1 X117.164 Y101.968 E0.54401
G1 X117.279 Y102.069 E0.5491
G1 X117.671 Y102.427 E0.56675
G1 X118.119 Y102.893 E0.58825
G1 X118.428 Y103.28 E0.60473
G1 X118.828 Y103.842 E0.62767
G1 X119.201 Y104.396 E0.64988
G1 X119.579 Y105.051 E0.67504
G1 X119.799 Y105.52 E0.69227
G1 X120.043 Y106.129 E0.71409
G1 X120.094 Y106.262 E0.71882
G1 X120.316 Y106.873 E0.74045
G1 X120.46 Y107.352 E0.75708
G1 X120.585 Y107.966 E0.77792
G1 X120.681 Y108.666 E0.80142
G1 X120.697 Y108.799 E0.80588
G1 X120.761 Y109.401 E0.82601
G1 X120.785 Y109.964 E0.84476
G1 X120.752 Y110.7 E0.86926
G1 X120.689 Y111.277 E0.88856
G1 X120.606 Y111.901 E0.9095
G1 X120.452 Y112.651 E0.93497
G1 X120.306 Y113.144 E0.95207
G1 X120.064 Y113.815 E0.97579
G1 X119.847 Y114.37 E0.99561
G1 X119.503 Y115.091 E1.02218
G1 X119.239 Y115.543 E1.03959
G1 X118.887 Y116.072 E1.06073
G1 X118.812 Y116.181 E1.06513
G1 X118.438 Y116.708 E1.08662
G1 X118.118 Y117.108 E1.10366
G1 X117.685 Y117.558 E1.12443
G1 X117.208 Y117.995 E1.14595
G1 X117.116 Y118.077 E1.15004
G1 X116.594 Y118.529 E1.17301
G1 X116.15 Y118.867 E1.19157
G1 X115.636 Y119.188 E1.21173
G1 X114.975 Y119.546 E1.23673
G1 X114.367 Y119.855 E1.25941
G1 X113.715 Y120.129 E1.28294
G1 X113.298 Y120.261 E1.29748
G1 X112.639 Y120.435 E1.32015
G1 X112.51 Y120.467 E1.32457
G1 X111.984 Y120.589 E1.34253
G1 X111.234 Y120.711 E1.36781
G1 X110.705 Y120.751 E1.38545
G1 X109.897 Y120.763 E1.41233
G1 X109.012 Y120.733 E1.44178
G1 X108.619 Y120.692 E1.45492
G1 X108.087 Y120.603 E1.47286
G1 X107.316 Y120.424 E1.49919
G1 X106.808 Y120.291 E1.51665
G1 X106.16 Y120.077 E1.53935
G1 X105.674 Y119.868 E1.55695
G1 X105.008 Y119.534 E1.58173
G1 X104.876 Y119.465 E1.58668
G1 X104.404 Y119.208 E1.60456
G1 X103.878 Y118.879 E1.62519
G1 X103.462 Y118.565 E1.64253
G1 X102.836 Y118.032 E1.66987
G1 X102.717 Y117.927 E1.67515
G1 X102.315 Y117.559 E1.69328
G1 X101.87 Y117.094 E1.71468
G1 X101.572 Y116.72 E1.73059
G1 X101.172 Y116.158 E1.75353
G1 X100.799 Y115.604 E1.77575
G1 X100.421 Y114.949 E1.8009
G1 X100.201 Y114.48 E1.81813
G1 X99.957 Y113.871 E1.83995
G1 X99.907 Y113.741 E1.84458
G1 X99.687 Y113.137 E1.86596
G1 X99.496 Y112.466 E1.88917
G1 X99.412 Y112.02 E1.90426
G1 X99.303 Y111.207 E1.93154
G1 X99.249 Y110.705 E1.94834
G1 X99.219 Y109.919 E1.9745
G1 X99.242 Y109.39 E1.99211
G1 X99.322 Y108.644 E2.01706
G1 X99.394 Y108.101 E2.03528
G1 X99.548 Y107.349 E2.06081
G1 X99.694 Y106.856 E2.07791
G1 X99.936 Y106.185 E2.10164
G1 X100.153 Y105.63 E2.12146
G1 X100.497 Y104.909 E2.14803
G1 X100.761 Y104.457 E2.16544
G1 X101.113 Y103.928 E2.18657
G1 X101.191 Y103.814 E2.19117
G1 X101.571 Y103.28 E2.21297
G1 X101.922 Y102.847 E2.2315
G1 X102.346 Y102.412 E2.25171
G0 F3000 X102.615 Y102.708
G1 F1200 X103.07 Y102.293 E2.27219
G1 X103.678 Y101.767 E2.29893
G1 X104.239 Y101.354 E2.3221
G1 X104.556 Y101.162 E2.33443
G1 X105.095 Y100.868 E2.35485
G1 X105.821 Y100.499 E2.38194
G1 X106.418 Y100.248 E2.40348
G1 X106.804 Y100.126 E2.41694
G1 X107.58 Y99.922 E2.44363
G1 X108.106 Y99.8 E2.46159
G1 X108.821 Y99.685 E2.48567
G1 X109.301 Y99.649 E2.50168
G1 X110.098 Y99.637 E2.52819
G1 X110.946 Y99.665 E2.55641
G1 X111.823 Y99.786 E2.58586
G1 X112.583 Y99.963 E2.61181
G1 X113.091 Y100.096 E2.62928
G1 X113.705 Y100.3 E2.6508
G1 X114.147 Y100.489 E2.66679
G1 X114.813 Y100.823 E2.69157
G1 X114.933 Y100.886 E2.69608
G1 X115.403 Y101.142 E2.71388
G1 X115.897 Y101.452 E2.73327
G1 X116.279 Y101.739 E2.74917
G1 X116.905 Y102.272 E2.77651
G1 X117.009 Y102.364 E2.78113
G1 X117.401 Y102.722 E2.79879
G1 X117.821 Y103.16 E2.81897
G1 X118.102 Y103.512 E2.83395
G1 X118.567 Y104.167 E2.86067
G1 X118.869 Y104.618 E2.87872
G1 X119.227 Y105.242 E2.90265
G1 X119.428 Y105.668 E2.91831
G1 X119.672 Y106.277 E2.94013
G1 X119.719 Y106.399 E2.94448
G1 X119.941 Y107.01 E2.9661
G1 X120.116 Y107.633 E2.98763
G1 X120.189 Y108.021 E3.00076
G1 X120.3 Y108.841 E3.02828
G1 X120.364 Y109.443 E3.04842
G1 X120.385 Y109.955 E3.06546
G1 X120.355 Y110.657 E3.08883
G1 X120.292 Y111.224 E3.1078
G1 X120.209 Y111.848 E3.12874
G1 X120.062 Y112.56 E3.15292
G1 X119.93 Y113.008 E3.16846
G1 X119.688 Y113.679 E3.19218
G1 X119.475 Y114.223 E3.21161
G1 X119.146 Y114.911 E3.23698
G1 X118.906 Y115.322 E3.25281
G1 X118.554 Y115.851 E3.27394
G1 X118.486 Y115.95 E3.27793
G1 X118.112 Y116.477 E3.29943
G1 X117.684 Y116.992 E3.3217
G1 X117.415 Y117.263 E3.3344
G1 X116.854 Y117.775 E3.35966
G1 X116.332 Y118.227 E3.38263
G1 X115.929 Y118.534 E3.39948
G1 X115.445 Y118.837 E3.41847
G1 X114.894 Y119.137 E3.43934
G1 X114.185 Y119.499 E3.46581
G1 X113.575 Y119.754 E3.4878
G1 X113.196 Y119.874 E3.50103
G1 X112.42 Y120.078 E3.52771
G1 X111.894 Y120.2 E3.54567
G1 X111.179 Y120.315 E3.56976
G1 X110.699 Y120.351 E3.58577
G1 X109.902 Y120.363 E3.61228
G1 X109.054 Y120.335 E3.6405
G1 X108.177 Y120.214 E3.66995
G1 X107.417 Y120.037 E3.6959
G1 X106.909 Y119.904 E3.71337
G1 X106.295 Y119.7 E3.73489
G1 X105.853 Y119.511 E3.75087
G1 X105.187 Y119.177 E3.77565
G1 X105.067 Y119.114 E3.78016
G1 X104.595 Y118.857 E3.79804
G1 X104.099 Y118.546 E3.81751
G1 X103.721 Y118.261 E3.83325
G1 X103.095 Y117.728 E3.8606
G1 X102.987 Y117.632 E3.86541
G1 X102.585 Y117.264 E3.88353
G1 X102.169 Y116.828 E3.90358
G1 X101.898 Y116.488 E3.91804
G1 X101.433 Y115.833 E3.94475
G1 X101.131 Y115.382 E3.96281
G1 X100.773 Y114.758 E3.98673
G1 X100.572 Y114.332 E4.0024
G1 X100.328 Y113.723 E4.02422
G1 X100.063 Y113 E4.04983
G1 X99.885 Y112.372 E4.07154
G1 X99.808 Y111.967 E4.08526
G1 X99.714 Y111.274 E4.10852
G1 X99.647 Y110.662 E4.12899
G1 X99.618 Y109.912 E4.15396
G1 X99.64 Y109.432 E4.16994
G1 X99.719 Y108.696 E4.19456
G1 X99.791 Y108.153 E4.21278
G1 X99.938 Y107.44 E4.23699
G1 X100.07 Y106.992 E4.25252
G1 X100.312 Y106.321 E4.27625
G1 X100.525 Y105.777 E4.29568
G1 X100.854 Y105.089 E4.32104
G1 X101.094 Y104.678 E4.33687
G1 X101.446 Y104.149 E4.35801
G1 X101.517 Y104.046 E4.36217
G1 X101.897 Y103.512 E4.38397
G1 X102.216 Y103.119 E4.4008
G1 X102.615 Y102.708 E4.41985
G0 F3000 X102.885 Y103.003
G1 F1200 X103.414 Y102.522 E4.44364
G1 X103.939 Y102.069 E4.4667
G1 X104.463 Y101.686 E4.48829
G1 X104.747 Y101.514 E4.49933
G1 X105.383 Y101.168 E4.52341
G1 X106.001 Y100.855 E4.54645
G1 X106.559 Y100.623 E4.56655
G1 X106.906 Y100.512 E4.57867
G1 X107.565 Y100.338 E4.60134
G1 X108.197 Y100.19 E4.62293
G1 X108.875 Y100.082 E4.64576
G1 X109.308 Y100.048 E4.66021
G1 X109.99 Y100.037 E4.68289
G1 X110.093 Y100.037 E4.68632
G1 X110.905 Y100.062 E4.71334
G1 X111.733 Y100.176 E4.74114
G1 X112.482 Y100.35 E4.76671
G1 X112.99 Y100.483 E4.78418
G1 X113.569 Y100.676 E4.80448
G1 X113.968 Y100.847 E4.81892
G1 X114.634 Y101.181 E4.8437
G1 X115.212 Y101.494 E4.86556
G1 X115.676 Y101.785 E4.88378
G1 X116.02 Y102.044 E4.8981
G1 X116.646 Y102.577 E4.92544
G1 X116.74 Y102.66 E4.92961
G1 X117.132 Y103.018 E4.94727
G1 X117.523 Y103.428 E4.96612
G1 X117.776 Y103.743 E4.97955
G1 X118.176 Y104.305 E5.0025
G1 X118.536 Y104.841 E5.02397
G1 X118.876 Y105.434 E5.04671
G1 X119.057 Y105.817 E5.0608
G1 X119.301 Y106.426 E5.08262
G1 X119.343 Y106.536 E5.08653
G1 X119.565 Y107.147 E5.10815
G1 X119.727 Y107.726 E5.12815
G1 X119.793 Y108.075 E5.13997
G1 X119.889 Y108.775 E5.16347
G1 X119.966 Y109.485 E5.18722
G1 X119.977 Y110.306 E5.21453
G1 X119.906 Y111.085 E5.24054
G1 X119.813 Y111.796 E5.26439
G1 X119.673 Y112.469 E5.28726
G1 X119.553 Y112.872 E5.30124
G1 X119.273 Y113.646 E5.32862
G1 X118.968 Y114.376 E5.35493
G1 X118.573 Y115.1 E5.38236
G1 X118.16 Y115.718 E5.40709
G1 X117.786 Y116.245 E5.42858
G1 X117.387 Y116.724 E5.44931
G1 X117.145 Y116.968 E5.46074
G1 X116.593 Y117.473 E5.48563
G1 X116.071 Y117.925 E5.50859
G1 X115.525 Y118.322 E5.53105
G1 X115.253 Y118.486 E5.54161
G1 X114.702 Y118.786 E5.56248
G1 X114.004 Y119.142 E5.58854
G1 X113.435 Y119.379 E5.60904
G1 X113.094 Y119.488 E5.62095
G1 X112.435 Y119.662 E5.64362
G1 X111.803 Y119.81 E5.66521
G1 X111.125 Y119.918 E5.68804
G1 X110.692 Y119.952 E5.70249
G1 X110.01 Y119.963 E5.72517
G1 X109.424 Y119.957 E5.74466
G1 X108.702 Y119.897 E5.76876
G1 X108.267 Y119.824 E5.78343
G1 X107.518 Y119.65 E5.80901
G1 X107.01 Y119.517 E5.82647
G1 X106.431 Y119.324 E5.84677
G1 X106.032 Y119.153 E5.86121
G1 X105.258 Y118.763 E5.89004
G1 X104.786 Y118.506 E5.90791
G1 X104.321 Y118.213 E5.92619
G1 X103.98 Y117.956 E5.94039
G1 X103.354 Y117.423 E5.96774
G1 X103.257 Y117.337 E5.97205
G1 X102.855 Y116.969 E5.99018
G1 X102.467 Y116.562 E6.00888
G1 X102.224 Y116.257 E6.02185
G1 X101.824 Y115.695 E6.04479
G1 X101.464 Y115.159 E6.06627
G1 X101.124 Y114.566 E6.089
G1 X100.943 Y114.183 E6.10309
G1 X100.699 Y113.574 E6.12491
G1 X100.658 Y113.467 E6.12873
G1 X100.438 Y112.863 E6.15011
G1 X100.273 Y112.278 E6.17032
G1 X100.205 Y111.913 E6.18267
G1 X100.099 Y111.121 E6.20925
G1 X100.045 Y110.619 E6.22604
G1 X100.018 Y109.906 E6.24977
G1 X100.038 Y109.474 E6.26416
G1 X100.115 Y108.749 E6.2884
G1 X100.187 Y108.206 E6.30662
G1 X100.327 Y107.531 E6.32955
G1 X100.447 Y107.128 E6.34354
G1 X100.727 Y106.354 E6.37091
G1 X101.032 Y105.624 E6.39723
G1 X101.427 Y104.9 E6.42466
G1 X101.779 Y104.371 E6.44579
G1 X101.843 Y104.278 E6.44955
G1 X102.223 Y103.744 E6.47135
G1 X102.665 Y103.222 E6.4941
G1 X102.885 Y103.003 E6.50442
G0 F3000 X103.155 Y103.299
G1 F1200 X103.675 Y102.825 E6.52782
G1 X104.2 Y102.372 E6.55089
G1 X104.686 Y102.018 E6.57088
G1 X104.939 Y101.865 E6.58072
G1 X105.564 Y101.525 E6.60438
G1 X106.182 Y101.212 E6.62742
G1 X106.7 Y100.997 E6.64608
G1 X107.008 Y100.899 E6.65683
G1 X107.667 Y100.725 E6.6795
G1 X108.287 Y100.58 E6.70067
G1 X108.93 Y100.478 E6.72233
G1 X109.314 Y100.448 E6.73514
G1 X110.088 Y100.437 E6.76088
G1 X110.863 Y100.46 E6.78667
G1 X111.643 Y100.566 E6.81285
G1 X112.38 Y100.737 E6.83802
G1 X112.888 Y100.87 E6.85548
G1 X113.434 Y101.053 E6.87464
G1 X113.789 Y101.205 E6.88748
G1 X114.455 Y101.539 E6.91226
G1 X114.551 Y101.589 E6.91586
G1 X115.021 Y101.845 E6.93366
G1 X115.455 Y102.118 E6.95071
G1 X115.761 Y102.349 E6.96347
G1 X116.387 Y102.882 E6.99081
G1 X116.47 Y102.955 E6.99449
G1 X116.862 Y103.313 E7.01215
G1 X117.225 Y103.695 E7.02967
G1 X117.45 Y103.975 E7.04162
G1 X117.85 Y104.537 E7.06456
G1 X118.204 Y105.064 E7.08568
G1 X118.525 Y105.625 E7.10718
G1 X118.685 Y105.966 E7.1197
G1 X118.967 Y106.672 E7.14499
G1 X119.189 Y107.283 E7.16661
G1 X119.338 Y107.819 E7.18512
G1 X119.396 Y108.129 E7.1956
G1 X119.504 Y108.926 E7.22236
G1 X119.568 Y109.528 E7.24249
G1 X119.577 Y110.297 E7.26807
G1 X119.508 Y111.041 E7.29292
G1 X119.416 Y111.743 E7.31647
G1 X119.283 Y112.378 E7.33805
G1 X119.177 Y112.737 E7.3505
G1 X118.901 Y113.499 E7.37745
G1 X118.611 Y114.196 E7.40256
G1 X118.24 Y114.879 E7.42841
G1 X117.834 Y115.487 E7.45273
G1 X117.46 Y116.014 E7.47422
G1 X117.09 Y116.456 E7.4934
G1 X116.875 Y116.674 E7.50358
G1 X116.398 Y117.111 E7.5251
G1 X115.809 Y117.622 E7.55103
G1 X115.304 Y117.989 E7.57179
G1 X115.062 Y118.134 E7.58118
G1 X114.431 Y118.477 E7.60507
G1 X113.823 Y118.786 E7.62775
G1 X113.295 Y119.004 E7.64675
G1 X112.992 Y119.101 E7.65733
G1 X112.333 Y119.275 E7.68
G1 X111.713 Y119.42 E7.70118
G1 X111.07 Y119.522 E7.72283
G1 X110.686 Y119.552 E7.73564
G1 X109.912 Y119.563 E7.76139
G1 X109.137 Y119.54 E7.78718
G1 X108.357 Y119.434 E7.81336
G1 X107.62 Y119.263 E7.83852
G1 X107.112 Y119.13 E7.85599
G1 X106.566 Y118.947 E7.87514
G1 X106.211 Y118.795 E7.88798
G1 X105.545 Y118.461 E7.91276
G1 X104.978 Y118.154 E7.93421
G1 X104.542 Y117.88 E7.95134
G1 X104.239 Y117.651 E7.96397
G1 X103.613 Y117.118 E7.99131
G1 X103.527 Y117.042 E7.99513
G1 X103.125 Y116.674 E8.01326
G1 X102.766 Y116.296 E8.0306
G1 X102.55 Y116.025 E8.04212
G1 X102.15 Y115.463 E8.06507
G1 X101.796 Y114.936 E8.08618
G1 X101.475 Y114.375 E8.10768
G1 X101.315 Y114.034 E8.12021
G1 X101.034 Y113.33 E8.14542
G1 X100.814 Y112.726 E8.1668
G1 X100.662 Y112.183 E8.18555
G1 X100.601 Y111.859 E8.19652
G1 X100.496 Y111.078 E8.22273
G1 X100.442 Y110.576 E8.23952
G1 X100.418 Y109.9 E8.26202
G1 X100.436 Y109.516 E8.27481
G1 X100.512 Y108.801 E8.29872
G1 X100.584 Y108.258 E8.31694
G1 X100.717 Y107.622 E8.33855
G1 X100.823 Y107.263 E8.351
G1 X101.099 Y106.501 E8.37796
G1 X101.389 Y105.804 E8.40307
G1 X101.76 Y105.121 E8.42892
G1 X102.112 Y104.592 E8.45005
G1 X102.549 Y103.976 E8.47517
G1 X102.959 Y103.493 E8.49624
G1 X103.155 Y103.299 E8.50542
G1 F1800 E1.50542
G1 F300 Z0.4
;MESH:watertank_clamp.stl
G0 F3000 X110.685 Y115.66 Z0.4
;TYPE:WALL-OUTER
G1 F300 Z0.2
G1 F1800 E8.50542
G1 F1200 X112.018 Y115.332 E8.55107
G1 X113.236 Y114.694 E8.59681
G1 X114.266 Y113.783 E8.64254
G1 X115.047 Y112.651 E8.68828
G1 X115.535 Y111.365 E8.73403
G1 X115.701 Y110 E8.77977
G1 X115.536 Y108.636 E8.82546
G1 X115.048 Y107.35 E8.87121
G1 X114.267 Y106.218 E8.91695
G1 X113.237 Y105.307 E8.96269
G1 X112.019 Y104.669 E9.00842
G1 X110.68 Y104.34 E9.05428
G1 X109.315 Y104.34 E9.09968
G1 X107.982 Y104.668 E9.14534
G1 X106.764 Y105.306 E9.19107
G1 X105.734 Y106.217 E9.23681
G1 X104.953 Y107.349 E9.28255
G1 X104.465 Y108.635 E9.3283
G1 X104.299 Y110 E9.37403
G1 X104.464 Y111.364 E9.41973
G1 X104.952 Y112.65 E9.46548
G1 X105.733 Y113.782 E9.51122
G1 X106.763 Y114.693 E9.55695
G1 X107.981 Y115.331 E9.60269
G1 X109.32 Y115.66 E9.64855
G1 X110.685 Y115.66 E9.69395
G0 F3000 X110.879 Y115.613
G0 X110.65 Y116.164
G1 F1200 X109.345 Y116.165 E9.73735
G1 X109.162 Y116.142 E9.74349
G1 X107.893 Y115.83 E9.78695
G1 X107.714 Y115.762 E9.79332
G1 X106.562 Y115.158 E9.83658
G1 X106.4 Y115.046 E9.84313
G1 X105.419 Y114.179 E9.88668
G1 X105.302 Y114.045 E9.89259
G1 X104.551 Y112.958 E9.93654
G1 X104.469 Y112.801 E9.94243
G1 X104.002 Y111.574 E9.98609
G1 X103.96 Y111.4 E9.99205
G1 X103.801 Y110.093 E10.03584
G1 X103.802 Y109.909 E10.04196
G1 X103.959 Y108.607 E10.08558
G1 X104.004 Y108.424 E10.09184
G1 X104.465 Y107.208 E10.1351
G1 X104.558 Y107.033 E10.14169
G1 X105.295 Y105.963 E10.1849
G1 X105.423 Y105.82 E10.19129
G1 X106.401 Y104.951 E10.2348
G1 X106.558 Y104.844 E10.24112
G1 X107.71 Y104.238 E10.28441
