;FLAVOR:Marlin
;TIME:5084
;Filament used: 0.792586m
;Layer height: 0.1
;MINX:86.006
;MINY:86.004
;MINZ:0.1
;MAXX:133.996
;MAXY:133.996
;MAXZ:4.7
;Generated with Cura_SteamEngine master
M82 ;absolute extrusion mode
;Sliced at: Wed 04-05-2022 20:55:23
;Basic settings: Layer height: 0.1 Walls: 0.8 Fill: 20
G21 ;metric values
G90 ;absolute positioning
M82 ;set extruder to absolute mode
M107 ;start with the fan off
M117 Start heating ...
M104 S200
M117 Homing X/Y ...
G28 X0 Y0 ;move X/Y to min endstops
M117 Homing Z ...
G28 Z0 ;move Z to min endstops
G1 Z15.0 F50 ;move the platform down 15mm
M117 Heating ...
M109 S200
M117 Start cleaning ...
G92 E0 ;zero the extruded length
G1 F200 E10 ;extrude 10mm of feed stock
G92 E0 ;zero the extruded length again
M117 Intro line ...
G1 Z2.0 F3000 ; Move Z Axis up little to prevent scratching of Heat Bed
G1 X0.1 Y20 Z0.1 F5000.0 ; Move to start position
G1 X0.1 Y200.0 Z0.1 F1500.0 E15 ; Draw the first line
G1 X0.4 Y200.0 Z0.1 F5000.0 ; Move to side a little
G1 X0.4 Y20 Z0.3 F1500.0 E30 ; Draw the second line
G92 E0 ; Reset Extruder
G1 E-1 F500 ; Retract filiment by 1 mm
G1 Z2.0 F3000 ; Move Z Axis up little to prevent scratching of Heat Bed
G1 X5 Y20 Z0.3 F50 ; Move over to prevent blob squish
G1 F50
G92 E0 ; Reset Extruder
M117 Printing...

G92 E0
G92 E0
G1 F1800 E-7
;LAYER_COUNT:45
;LAYER:0
M107
G1 F300 Z0.3
G0 F1500 X92.939 Y93.126 Z0.3
;TYPE:SKIRT
G1 F300 Z0.1
G1 F1800 E0
G1 F900 X93.192 Y92.875 E0.00593
G1 X93.766 Y92.329 E0.0191
G1 X93.868 Y92.235 E0.02141
G1 X94.325 Y91.831 E0.03155
G1 X94.642 Y91.563 E0.03845
G1 X95.178 Y91.129 E0.04992
G1 X95.598 Y90.806 E0.05874
G1 X96.162 Y90.399 E0.0703
G1 X96.659 Y90.056 E0.08034
G1 X97.108 Y89.762 E0.08927
G1 X97.556 Y89.482 E0.09806
G1 X98.24 Y89.084 E0.11122
G1 X98.71 Y88.827 E0.12012
G1 X99.301 Y88.52 E0.1312
G1 X99.883 Y88.239 E0.14195
G1 X100.128 Y88.128 E0.14642
G1 X100.892 Y87.801 E0.16024
G1 X101.46 Y87.574 E0.17041
G1 X101.9 Y87.415 E0.17819
G1 X102.661 Y87.155 E0.19157
G1 X103.332 Y86.948 E0.20324
G1 X103.762 Y86.83 E0.21066
G1 X104.58 Y86.625 E0.22468
G1 X105.187 Y86.492 E0.23502
G1 X105.601 Y86.412 E0.24203
G1 X106.447 Y86.27 E0.2563
G1 X106.973 Y86.196 E0.26513
G1 X107.847 Y86.1 E0.27975
G1 X108.212 Y86.07 E0.28584
G1 X108.859 Y86.032 E0.29662
G1 X109.749 Y86.006 E0.31143
G1 X110.057 Y86.004 E0.31655
G1 X110.597 Y86.013 E0.32553
G1 X111.251 Y86.037 E0.33641
G1 X111.839 Y86.075 E0.34621
G1 X112.623 Y86.149 E0.35931
G1 X112.775 Y86.166 E0.36185
G1 X113.681 Y86.288 E0.37706
G1 X113.888 Y86.322 E0.38054
G1 X114.604 Y86.449 E0.39264
G1 X115.215 Y86.577 E0.40302
G1 X116.104 Y86.794 E0.41824
G1 X116.828 Y86.996 E0.43074
G1 X117.756 Y87.292 E0.44694
G1 X118.482 Y87.554 E0.45977
G1 X119.248 Y87.859 E0.47348
G1 X119.511 Y87.972 E0.47824
G1 X120.247 Y88.306 E0.49168
G1 X120.881 Y88.614 E0.50341
G1 X121.618 Y89.003 E0.51726
G1 X122.181 Y89.325 E0.52805
G1 X122.71 Y89.647 E0.53835
G1 X123.356 Y90.065 E0.55115
G1 X123.91 Y90.446 E0.56233
G1 X124.341 Y90.76 E0.57119
G1 X124.773 Y91.091 E0.58025
G1 X125.236 Y91.464 E0.59013
G1 X125.792 Y91.934 E0.60224
G1 X126.177 Y92.279 E0.61084
G1 X126.579 Y92.652 E0.61996
G1 X127.038 Y93.103 E0.63066
G1 X127.468 Y93.55 E0.64097
G1 X127.87 Y93.987 E0.65085
G1 X128.112 Y94.262 E0.65694
G1 X128.599 Y94.839 E0.6695
G1 X128.691 Y94.952 E0.67192
G1 X129.101 Y95.478 E0.68301
G1 X129.551 Y96.09 E0.69564
G1 X129.612 Y96.176 E0.6974
G1 X130.028 Y96.785 E0.70966
G1 X130.109 Y96.908 E0.71211
G1 X130.505 Y97.538 E0.72449
G1 X130.794 Y98.026 E0.73392
G1 X131.075 Y98.527 E0.74347
G1 X131.245 Y98.846 E0.74948
G1 X131.553 Y99.448 E0.76073
G1 X131.77 Y99.905 E0.76914
G1 X132.039 Y100.511 E0.78017
G1 X132.376 Y101.333 E0.79494
G1 X132.56 Y101.82 E0.8036
G1 X132.697 Y102.213 E0.81052
G1 X132.938 Y102.96 E0.82357
G1 X133.113 Y103.553 E0.83385
G1 X133.275 Y104.158 E0.84427
G1 X133.406 Y104.716 E0.8538
G1 X133.53 Y105.295 E0.86365
G1 X133.671 Y106.077 E0.87686
G1 X133.81 Y107.045 E0.89313
G1 X133.88 Y107.649 E0.90324
G1 X133.933 Y108.271 E0.91362
G1 X133.97 Y108.858 E0.9234
G1 X133.989 Y109.387 E0.9322
G1 X133.996 Y110.032 E0.94293
G1 X133.987 Y110.698 E0.95401
G1 X133.959 Y111.32 E0.96436
G1 X133.917 Y111.946 E0.9748
G1 X133.867 Y112.491 E0.9839
G1 X133.757 Y113.377 E0.99874
G1 X133.711 Y113.684 E1.00391
G1 X133.589 Y114.402 E1.01602
G1 X133.517 Y114.77 E1.02225
G1 X133.383 Y115.38 E1.03264
G1 X133.223 Y116.047 E1.04405
G1 X133.1 Y116.496 E1.05179
G1 X132.91 Y117.13 E1.0628
G1 X132.678 Y117.842 E1.07525
G1 X132.627 Y117.99 E1.07785
G1 X132.361 Y118.707 E1.09057
G1 X132.292 Y118.883 E1.09371
G1 X132.056 Y119.455 E1.104
G1 X131.782 Y120.069 E1.11519
G1 X131.477 Y120.704 E1.1269
G1 X131.234 Y121.179 E1.13577
G1 X131.099 Y121.427 E1.14047
G1 X130.68 Y122.167 E1.15461
G1 X130.43 Y122.585 E1.16271
G1 X130.131 Y123.06 E1.17205
G1 X130.049 Y123.185 E1.17453
G1 X129.563 Y123.894 E1.18883
G1 X129.099 Y124.525 E1.20185
G1 X128.747 Y124.978 E1.21139
G1 X128.424 Y125.373 E1.21988
G1 X128.013 Y125.855 E1.23041
G1 X127.623 Y126.288 E1.2401
G1 X127.174 Y126.759 E1.25092
G1 X126.812 Y127.122 E1.25945
G1 X126.268 Y127.64 E1.27194
G1 X125.805 Y128.055 E1.28228
G1 X125.053 Y128.686 E1.29861
G1 X124.425 Y129.173 E1.31182
G1 X124.347 Y129.232 E1.31345
G1 X123.785 Y129.639 E1.32499
G1 X123.331 Y129.951 E1.33415
G1 X122.719 Y130.346 E1.34626
G1 X122.638 Y130.397 E1.34786
G1 X122.116 Y130.71 E1.35798
G1 X121.5 Y131.059 E1.36975
G1 X121.003 Y131.325 E1.37913
G1 X120.323 Y131.661 E1.39174
G1 X119.574 Y132.002 E1.40543
G1 X119.268 Y132.132 E1.41095
G1 X118.591 Y132.403 E1.42308
G1 X118.009 Y132.617 E1.43339
G1 X117.277 Y132.867 E1.44626
G1 X117.054 Y132.936 E1.45014
G1 X116.473 Y133.106 E1.46021
G1 X115.624 Y133.329 E1.4748
G1 X115.5 Y133.359 E1.47693
G1 X114.825 Y133.506 E1.48841
G1 X114.432 Y133.583 E1.49507
G1 X113.835 Y133.687 E1.50515
G1 X113.492 Y133.739 E1.51092
G1 X112.7 Y133.84 E1.5242
G1 X111.859 Y133.925 E1.53826
G1 X111.244 Y133.966 E1.54851
G1 X110.539 Y133.989 E1.56024
G1 X109.939 Y133.996 E1.57022
G1 X109.587 Y133.993 E1.57607
G1 X108.821 Y133.966 E1.58882
G1 X108.166 Y133.926 E1.59973
G1 X108.009 Y133.913 E1.60235
G1 X107.024 Y133.809 E1.61882
G1 X106.45 Y133.733 E1.62845
G1 X106.302 Y133.71 E1.63094
G1 X105.556 Y133.58 E1.64353
G1 X105.042 Y133.477 E1.65225
G1 X104.446 Y133.345 E1.6624
G1 X103.908 Y133.211 E1.67162
G1 X103.385 Y133.067 E1.68064
G1 X102.889 Y132.919 E1.68925
G1 X102.426 Y132.77 E1.69734
G1 X101.836 Y132.564 E1.70773
G1 X101.383 Y132.395 E1.71577
G1 X100.886 Y132.2 E1.72465
G1 X100.353 Y131.974 E1.73428
G1 X99.671 Y131.659 E1.74677
G1 X99.124 Y131.391 E1.7569
G1 X98.569 Y131.098 E1.76734
G1 X98.026 Y130.793 E1.7777
G1 X97.522 Y130.495 E1.78743
G1 X97.04 Y130.193 E1.79689
G1 X96.55 Y129.871 E1.80664
G1 X95.939 Y129.445 E1.81903
G1 X95.48 Y129.105 E1.82853
G1 X95.246 Y128.923 E1.83346
G1 X94.72 Y128.499 E1.8447
G1 X94.299 Y128.143 E1.85386
G1 X93.739 Y127.646 E1.86632
G1 X93.633 Y127.548 E1.86872
G1 X93.185 Y127.12 E1.87902
G1 X92.567 Y126.491 E1.89368
G1 X92.487 Y126.406 E1.89563
G1 X92.055 Y125.931 E1.9063
G1 X91.853 Y125.699 E1.91142
G1 X91.344 Y125.092 E1.92459
G1 X90.955 Y124.598 E1.93505
G1 X90.526 Y124.023 E1.94698
G1 X90.36 Y123.79 E1.95174
G1 X90.016 Y123.284 E1.96191
G1 X89.583 Y122.609 E1.97525
G1 X89.351 Y122.225 E1.98271
G1 X89.05 Y121.699 E1.99279
G1 X88.751 Y121.146 E2.00324
G1 X88.558 Y120.769 E2.01029
G1 X88.208 Y120.049 E2.0236
G1 X88.028 Y119.644 E2.03097
G1 X87.743 Y118.963 E2.04325
G1 X87.577 Y118.539 E2.05082
G1 X87.291 Y117.754 E2.06471
G1 X87.004 Y116.856 E2.08039
G1 X86.965 Y116.72 E2.08274
G1 X86.728 Y115.841 E2.09788
G1 X86.588 Y115.259 E2.10784
G1 X86.425 Y114.473 E2.12119
G1 X86.315 Y113.845 E2.13179
G1 X86.197 Y113.038 E2.14535
G1 X86.132 Y112.487 E2.15458
G1 X86.102 Y112.179 E2.15973
G1 X86.053 Y111.543 E2.17034
G1 X86.018 Y110.81 E2.18254
G1 X86.006 Y110.226 E2.19225
G1 X86.008 Y109.643 E2.20195
G1 X86.02 Y109.136 E2.21038
G1 X86.043 Y108.626 E2.21887
G1 X86.052 Y108.484 E2.22124
G1 X86.123 Y107.606 E2.23589
G1 X86.181 Y107.092 E2.24449
G1 X86.28 Y106.37 E2.25661
G1 X86.302 Y106.227 E2.25901
G1 X86.435 Y105.465 E2.27188
G1 X86.495 Y105.163 E2.277
G1 X86.643 Y104.497 E2.28834
G1 X86.78 Y103.943 E2.29783
G1 X86.996 Y103.169 E2.3112
G1 X87.246 Y102.374 E2.32506
G1 X87.292 Y102.242 E2.32738
G1 X87.62 Y101.345 E2.34327
G1 X87.777 Y100.952 E2.3503
G1 X88.06 Y100.283 E2.36238
G1 X88.407 Y99.53 E2.37617
G1 X88.687 Y98.974 E2.38652
G1 X89.026 Y98.339 E2.39849
G1 X89.33 Y97.81 E2.40864
G1 X89.835 Y96.991 E2.42464
G1 X90.019 Y96.712 E2.4302
G1 X90.422 Y96.125 E2.44204
G1 X90.715 Y95.717 E2.45039
G1 X91.078 Y95.242 E2.46034
G1 X91.269 Y95.002 E2.46544
G1 X91.734 Y94.438 E2.47759
G1 X91.905 Y94.241 E2.48193
G1 X92.381 Y93.711 E2.49378
G1 X92.939 Y93.126 E2.50722
G0 F1500 X93.225 Y93.405
G1 F900 X93.468 Y93.165 E2.5129
G1 X94.042 Y92.619 E2.52608
G1 X94.134 Y92.534 E2.52816
G1 X94.584 Y92.136 E2.53815
G1 X94.894 Y91.874 E2.5449
G1 X95.423 Y91.445 E2.55623
G1 X95.832 Y91.13 E2.56481
G1 X96.389 Y90.727 E2.57625
G1 X96.802 Y90.441 E2.5846
G1 X97.321 Y90.101 E2.59492
G1 X97.76 Y89.826 E2.60353
G1 X98.44 Y89.43 E2.61662
G1 X98.901 Y89.178 E2.62536
G1 X99.578 Y88.829 E2.63802
G1 X100.141 Y88.559 E2.64841
G1 X100.286 Y88.495 E2.65104
G1 X101.041 Y88.172 E2.6647
G1 X101.597 Y87.95 E2.67465
G1 X102.03 Y87.793 E2.68231
G1 X102.781 Y87.536 E2.69551
G1 X103.447 Y87.332 E2.7071
G1 X103.859 Y87.218 E2.71421
G1 X104.677 Y87.013 E2.72823
G1 X105.272 Y86.883 E2.73836
G1 X105.668 Y86.807 E2.74507
G1 X106.504 Y86.666 E2.75916
G1 X107.021 Y86.593 E2.76785
G1 X107.887 Y86.498 E2.78234
G1 X108.236 Y86.469 E2.78816
G1 X108.757 Y86.437 E2.79684
G1 X109.679 Y86.408 E2.81218
G1 X110.052 Y86.404 E2.81838
G1 X110.583 Y86.412 E2.82722
G1 X111.227 Y86.436 E2.83793
G1 X111.801 Y86.473 E2.8475
G1 X112.585 Y86.547 E2.86059
G1 X112.722 Y86.562 E2.86289
G1 X113.526 Y86.669 E2.87637
G1 X113.818 Y86.715 E2.88129
G1 X114.526 Y86.842 E2.89325
G1 X115.129 Y86.968 E2.9035
G1 X116.009 Y87.183 E2.91856
G1 X116.717 Y87.381 E2.93079
G1 X117.63 Y87.672 E2.94672
G1 X118.343 Y87.929 E2.95933
G1 X119.021 Y88.198 E2.97146
G1 X119.347 Y88.337 E2.97735
G1 X120.072 Y88.666 E2.99059
G1 X120.792 Y89.017 E3.00391
G1 X121.428 Y89.355 E3.01589
G1 X121.979 Y89.67 E3.02644
G1 X122.497 Y89.985 E3.03653
G1 X123.136 Y90.399 E3.04919
G1 X123.683 Y90.775 E3.06023
G1 X124.104 Y91.082 E3.06889
G1 X124.584 Y91.451 E3.07896
G1 X124.978 Y91.769 E3.08738
G1 X125.526 Y92.233 E3.09932
G1 X125.906 Y92.572 E3.10779
G1 X126.301 Y92.94 E3.11677
G1 X126.754 Y93.384 E3.12732
G1 X127.228 Y93.879 E3.13871
G1 X127.57 Y94.252 E3.14713
G1 X127.806 Y94.52 E3.15307
G1 X128.293 Y95.097 E3.16563
G1 X128.376 Y95.199 E3.16781
G1 X128.781 Y95.718 E3.17876
G1 X129.227 Y96.324 E3.19127
G1 X129.282 Y96.401 E3.19285
G1 X129.698 Y97.01 E3.20511
G1 X130.113 Y97.665 E3.21801
G1 X130.398 Y98.141 E3.22723
G1 X130.726 Y98.723 E3.23834
G1 X130.889 Y99.028 E3.24409
G1 X131.246 Y99.729 E3.25718
G1 X131.405 Y100.068 E3.2634
G1 X131.671 Y100.666 E3.27429
G1 X132.004 Y101.481 E3.28893
G1 X132.184 Y101.958 E3.29741
G1 X132.316 Y102.336 E3.30407
G1 X132.554 Y103.074 E3.31696
G1 X132.728 Y103.659 E3.32711
G1 X132.887 Y104.256 E3.33739
G1 X133.015 Y104.8 E3.34668
G1 X133.137 Y105.371 E3.35639
G1 X133.276 Y106.144 E3.36945
G1 X133.291 Y106.238 E3.37103
G1 X133.427 Y107.201 E3.38721
G1 X133.497 Y107.841 E3.39791
G1 X133.539 Y108.368 E3.40671
G1 X133.576 Y108.987 E3.41702
G1 X133.589 Y109.392 E3.42376
G1 X133.596 Y110.028 E3.43433
G1 X133.587 Y110.685 E3.44526
G1 X133.56 Y111.3 E3.4555
G1 X133.519 Y111.91 E3.46567
G1 X133.469 Y112.445 E3.4746
G1 X133.361 Y113.325 E3.48935
G1 X133.317 Y113.617 E3.49426
G1 X133.196 Y114.327 E3.50623
G1 X133.126 Y114.684 E3.51228
G1 X132.994 Y115.287 E3.52255
G1 X132.834 Y115.954 E3.53396
G1 X132.717 Y116.382 E3.54134
G1 X132.53 Y117.006 E3.55217
G1 X132.298 Y117.718 E3.56462
G1 X132.252 Y117.852 E3.56698
G1 X132.012 Y118.501 E3.57849
G1 X131.922 Y118.73 E3.58258
G1 X131.686 Y119.302 E3.59287
G1 X131.417 Y119.905 E3.60385
G1 X131.119 Y120.527 E3.61532
G1 X130.881 Y120.99 E3.62397
G1 X130.751 Y121.231 E3.62853
G1 X130.337 Y121.963 E3.64251
G1 X130.092 Y122.372 E3.65044
G1 X129.793 Y122.847 E3.65978
G1 X129.719 Y122.96 E3.66202
G1 X129.239 Y123.66 E3.67614
G1 X128.779 Y124.285 E3.68904
G1 X128.432 Y124.732 E3.69845
G1 X128.07 Y125.173 E3.70794
G1 X127.663 Y125.648 E3.71834
G1 X127.271 Y126.079 E3.72803
G1 X126.835 Y126.533 E3.7385
G1 X126.29 Y127.072 E3.75125
G1 X125.643 Y127.667 E3.76587
G1 X125.548 Y127.749 E3.76795
G1 X124.803 Y128.374 E3.78412
G1 X124.182 Y128.856 E3.7972
G1 X123.558 Y129.31 E3.81003
G1 X123.112 Y129.617 E3.81904
G1 X122.506 Y130.008 E3.83103
G1 X121.829 Y130.414 E3.84416
G1 X121.231 Y130.751 E3.85557
G1 X120.458 Y131.152 E3.87005
G1 X120.074 Y131.336 E3.87713
G1 X119.416 Y131.634 E3.88915
G1 X119.119 Y131.76 E3.89451
G1 X118.351 Y132.066 E3.90826
G1 X117.88 Y132.239 E3.91661
G1 X117.158 Y132.485 E3.92929
G1 X116.942 Y132.552 E3.93305
G1 X116.367 Y132.72 E3.94301
G1 X115.526 Y132.942 E3.95748
G1 X114.823 Y133.098 E3.96945
G1 X114.364 Y133.189 E3.97724
G1 X113.696 Y133.304 E3.98851
G1 X113.441 Y133.342 E3.99279
G1 X112.66 Y133.442 E4.00589
G1 X111.819 Y133.527 E4.01995
G1 X111.23 Y133.566 E4.02976
G1 X110.534 Y133.589 E4.04134
G1 X109.941 Y133.596 E4.05121
G1 X109.601 Y133.593 E4.05686
G1 X108.84 Y133.567 E4.06952
G1 X108.193 Y133.527 E4.0803
G1 X108.051 Y133.515 E4.08267
G1 X106.963 Y133.399 E4.10087
G1 X106.37 Y133.316 E4.11083
G1 X105.634 Y133.188 E4.12325
G1 X105.128 Y133.086 E4.13183
G1 X104.54 Y132.956 E4.14185
G1 X104.008 Y132.824 E4.15096
G1 X103.499 Y132.683 E4.15975
G1 X103.01 Y132.538 E4.16823
G1 X102.558 Y132.393 E4.17612
G1 X101.976 Y132.188 E4.18639
G1 X101.529 Y132.022 E4.19432
G1 X100.934 Y131.787 E4.20495
G1 X100.441 Y131.576 E4.21387
G1 X99.842 Y131.297 E4.22486
G1 X99.384 Y131.074 E4.23333
G1 X98.758 Y130.746 E4.24509
G1 X98.158 Y130.407 E4.25655
G1 X97.646 Y130.102 E4.26646
G1 X96.86 Y129.598 E4.28198
G1 X96.258 Y129.181 E4.29416
G1 X95.794 Y128.841 E4.30373
G1 X95.496 Y128.611 E4.30999
G1 X94.978 Y128.193 E4.32106
G1 X94.564 Y127.844 E4.33006
G1 X94.004 Y127.347 E4.34252
G1 X93.909 Y127.259 E4.34467
G1 X93.467 Y126.836 E4.35484
G1 X92.855 Y126.213 E4.36937
G1 X92.356 Y125.667 E4.38167
G1 X92.159 Y125.442 E4.38664
G1 X91.733 Y124.936 E4.39764
G1 X91.27 Y124.35 E4.41006
G1 X90.887 Y123.838 E4.42069
G1 X90.691 Y123.564 E4.4263
G1 X90.35 Y123.065 E4.43635
G1 X89.922 Y122.396 E4.44955
G1 X89.698 Y122.026 E4.45675
G1 X89.402 Y121.508 E4.46667
G1 X89.106 Y120.963 E4.47698
G1 X88.917 Y120.594 E4.48388
G1 X88.622 Y119.99 E4.49506
G1 X88.397 Y119.49 E4.50417
G1 X88.114 Y118.815 E4.51635
G1 X87.952 Y118.402 E4.52372
G1 X87.666 Y117.617 E4.53762
G1 X87.386 Y116.738 E4.55296
G1 X87.351 Y116.616 E4.55507
G1 X87.091 Y115.648 E4.57174
G1 X86.979 Y115.177 E4.57979
G1 X86.818 Y114.401 E4.59297
G1 X86.709 Y113.778 E4.60349
G1 X86.592 Y112.98 E4.6169
G1 X86.529 Y112.442 E4.62591
G1 X86.501 Y112.147 E4.63084
G1 X86.452 Y111.52 E4.64129
G1 X86.418 Y110.794 E4.65338
G1 X86.406 Y110.227 E4.66281
G1 X86.408 Y109.652 E4.67238
G1 X86.42 Y109.154 E4.68066
G1 X86.443 Y108.644 E4.68915
G1 X86.451 Y108.516 E4.69128
G1 X86.522 Y107.638 E4.70593
G1 X86.577 Y107.146 E4.71416
G1 X86.676 Y106.424 E4.72628
G1 X86.696 Y106.296 E4.72844
G1 X86.828 Y105.539 E4.74122
G1 X86.885 Y105.25 E4.74612
G1 X87.032 Y104.591 E4.75734
G1 X87.165 Y104.05 E4.76661
G1 X87.378 Y103.285 E4.77981
G1 X87.627 Y102.498 E4.79354
G1 X87.668 Y102.379 E4.79563
G1 X87.993 Y101.492 E4.81134
G1 X88.145 Y101.108 E4.81821
G1 X88.424 Y100.448 E4.83013
G1 X88.768 Y99.701 E4.84381
G1 X89.081 Y99.083 E4.85533
G1 X89.376 Y98.534 E4.86569
G1 X89.676 Y98.011 E4.87572
G1 X90.174 Y97.204 E4.89149
G1 X90.349 Y96.938 E4.89678
G1 X90.747 Y96.357 E4.90849
G1 X91.073 Y95.907 E4.91774
G1 X91.392 Y95.49 E4.92647
G1 X91.578 Y95.256 E4.93144
G1 X92.037 Y94.699 E4.94344
G1 X92.202 Y94.508 E4.94764
G1 X92.674 Y93.983 E4.95938
G1 X93.225 Y93.405 E4.97266
G0 F1500 X93.511 Y93.685
G1 F900 X93.744 Y93.454 E4.97811
