;FLAVOR:Marlin
;TIME:7761
;Filament used: 4.08493m
;Layer height: 0.2
;MINX:88.519
;MINY:88.549
;MINZ:0.2
;MAXX:131.481
;MAXY:131.451
;MAXZ:79.8
;Generated with Cura_SteamEngine master
M82 ;absolute extrusion mode
;Sliced at: Thu 14-04-2022 00:18:25
;Basic settings: Layer height: 0.2 Walls: 0.8 Fill: 100
G21 ;metric values
G90 ;absolute positioning
M82 ;set extruder to absolute mode
M107 ;start with the fan off
M117 Start heating ...
M104 S200
M117 Homing X/Y ...
G28 X0 Y0 ;move X/Y to min endstops
M117 Homing Z ...
G28 Z0 ;move Z to min endstops
G1 Z15.0 F100 ;move the platform down 15mm
M117 Heating ...
M109 S200
M117 Start cleaning ...
G92 E0 ;zero the extruded length
G1 F200 E10 ;extrude 10mm of feed stock
G92 E0 ;zero the extruded length again
M117 Intro line ...
G1 Z2.0 F3000 ; Move Z Axis up little to prevent scratching of Heat Bed
G1 X0.1 Y20 Z0.2 F5000.0 ; Move to start position
G1 X0.1 Y200.0 Z0.2 F1500.0 E15 ; Draw the first line
G1 X0.4 Y200.0 Z0.2 F5000.0 ; Move to side a little
G1 X0.4 Y20 Z0.3 F1500.0 E30 ; Draw the second line
G92 E0 ; Reset Extruder
G1 E-1 F500 ; Retract filiment by 1 mm
G1 Z2.0 F3000 ; Move Z Axis up little to prevent scratching of Heat Bed
G1 X5 Y20 Z0.3 F100 ; Move over to prevent blob squish
G1 F100
G92 E0 ; Reset Extruder
M117 Printing...

G92 E0
G92 E0
G1 F1800 E-7
;LAYER_COUNT:399
;LAYER:0
M107
G1 F300 Z0.4
G0 F3000 X94.372 Y95.262 Z0.4
;TYPE:SKIRT
G1 F300 Z0.2
G1 F1800 E0
G1 F1200 X95.107 Y94.557 E0.03387
G1 X95.883 Y93.837 E0.06908
G1 X96.376 Y93.393 E0.09115
G1 X96.739 Y93.102 E0.10662
G1 X97.596 Y92.495 E0.14155
G1 X98.462 Y91.904 E0.17642
G1 X99.005 Y91.546 E0.19806
G1 X99.403 Y91.316 E0.21335
G1 X100.33 Y90.849 E0.24787
G1 X101.32 Y90.372 E0.28442
G1 X101.876 Y90.114 E0.30481
G1 X102.311 Y89.942 E0.32036
G1 X103.269 Y89.628 E0.35389
G1 X104.358 Y89.293 E0.39179
G1 X104.92 Y89.128 E0.41127
G1 X105.377 Y89.022 E0.42687
G1 X106.404 Y88.849 E0.46151
G1 X107.479 Y88.687 E0.49767
G1 X108.1 Y88.603 E0.51852
G1 X108.561 Y88.568 E0.53389
G1 X109.598 Y88.549 E0.56839
G1 X110.656 Y88.549 E0.60358
G1 X111.308 Y88.558 E0.62527
G1 X111.779 Y88.593 E0.64097
G1 X112.776 Y88.726 E0.67443
G1 X113.885 Y88.893 E0.71173
G1 X114.48 Y88.991 E0.73179
G1 X114.937 Y89.094 E0.74737
G1 X115.954 Y89.388 E0.78258
G1 X116.992 Y89.709 E0.81872
G1 X117.566 Y89.895 E0.83878
G1 X118.004 Y90.066 E0.85442
G1 X118.941 Y90.497 E0.88873
G1 X119.888 Y90.954 E0.9237
G1 X120.479 Y91.248 E0.94565
G1 X120.892 Y91.485 E0.96149
G1 X121.746 Y92.046 E0.99548
G1 X122.637 Y92.654 E1.03135
G1 X123.16 Y93.022 E1.05262
G1 X123.526 Y93.312 E1.06815
G1 X124.302 Y94.008 E1.10282
G1 X125.046 Y94.699 E1.1366
G1 X125.545 Y95.175 E1.15953
G1 X125.865 Y95.517 E1.17511
G1 X126.515 Y96.304 E1.20906
G1 X127.183 Y97.143 E1.24473
G1 X127.578 Y97.652 E1.26616
G1 X127.846 Y98.042 E1.2819
G1 X128.361 Y98.901 E1.31521
G1 X128.94 Y99.904 E1.35373
G1 X129.22 Y100.406 E1.37285
G1 X129.423 Y100.824 E1.3883
G1 X129.827 Y101.802 E1.4235
G1 X130.172 Y102.681 E1.4549
G1 X130.437 Y103.384 E1.47989
G1 X130.577 Y103.834 E1.49557
G1 X130.828 Y104.851 E1.53041
G1 X131.055 Y105.849 E1.56445
G1 X131.195 Y106.502 E1.58666
G1 X131.267 Y106.971 E1.60244
G1 X131.361 Y107.992 E1.63655
G1 X131.442 Y109.08 E1.67283
G1 X131.48 Y109.703 E1.69359
G1 X131.481 Y110.173 E1.70922
G1 X131.424 Y111.162 E1.74217
G1 X131.338 Y112.305 E1.7803
G1 X131.285 Y112.9 E1.80016
G1 X131.217 Y113.362 E1.8157
G1 X131.005 Y114.374 E1.85009
G1 X130.763 Y115.429 E1.88609
G1 X130.613 Y116.045 E1.90717
G1 X130.476 Y116.493 E1.92276
G1 X130.116 Y117.461 E1.95711
G1 X129.734 Y118.433 E1.99184
G1 X129.478 Y119.057 E2.01428
G1 X129.28 Y119.47 E2.02951
G1 X128.789 Y120.359 E2.06329
G1 X128.23 Y121.326 E2.10044
G1 X127.914 Y121.855 E2.12093
G1 X127.652 Y122.24 E2.13642
G1 X127.032 Y123.047 E2.17027
G1 X126.359 Y123.89 E2.20615
G1 X125.946 Y124.393 E2.22779
G1 X125.628 Y124.738 E2.2434
G1 X124.893 Y125.443 E2.27727
G1 X124.117 Y126.163 E2.31248
G1 X123.624 Y126.607 E2.33455
G1 X123.261 Y126.898 E2.35002
G1 X122.404 Y127.505 E2.38495
G1 X121.538 Y128.096 E2.41982
G1 X120.995 Y128.454 E2.44145
G1 X120.597 Y128.684 E2.45674
G1 X119.67 Y129.151 E2.49127
G1 X118.68 Y129.628 E2.52782
G1 X118.124 Y129.886 E2.5482
G1 X117.689 Y130.058 E2.56376
G1 X116.731 Y130.372 E2.59729
G1 X115.642 Y130.707 E2.63519
G1 X115.08 Y130.872 E2.65467
G1 X114.621 Y130.978 E2.67034
G1 X113.601 Y131.15 E2.70474
G1 X112.521 Y131.313 E2.74107
G1 X111.9 Y131.397 E2.76191
G1 X111.439 Y131.432 E2.77729
G1 X110.402 Y131.451 E2.81179
G1 X109.344 Y131.451 E2.84698
G1 X108.692 Y131.442 E2.86866
G1 X108.221 Y131.407 E2.88437
G1 X107.224 Y131.274 E2.91783
G1 X106.115 Y131.107 E2.95513
G1 X105.52 Y131.009 E2.97518
G1 X105.063 Y130.906 E2.99076
G1 X104.046 Y130.612 E3.02598
G1 X103.008 Y130.291 E3.06211
G1 X102.434 Y130.105 E3.08218
G1 X101.996 Y129.934 E3.09782
G1 X101.059 Y129.503 E3.13212
G1 X100.112 Y129.046 E3.1671
G1 X99.521 Y128.752 E3.18905
G1 X99.108 Y128.515 E3.20489
G1 X98.254 Y127.954 E3.23887
G1 X97.363 Y127.346 E3.27475
G1 X96.84 Y126.978 E3.29602
G1 X96.474 Y126.688 E3.31155
G1 X95.698 Y125.992 E3.34622
G1 X94.954 Y125.301 E3.37999
G1 X94.453 Y124.823 E3.40302
G1 X94.133 Y124.48 E3.41863
G1 X93.485 Y123.696 E3.45246
G1 X92.816 Y122.856 E3.48817
G1 X92.419 Y122.344 E3.50972
G1 X92.152 Y121.954 E3.52544
G1 X91.639 Y121.099 E3.55861
G1 X91.059 Y120.096 E3.59714
G1 X90.778 Y119.592 E3.61633
G1 X90.576 Y119.173 E3.6318
G1 X90.172 Y118.195 E3.667
G1 X89.806 Y117.26 E3.70039
G1 X89.562 Y116.612 E3.72342
G1 X89.422 Y116.162 E3.7391
G1 X89.172 Y115.149 E3.7738
G1 X88.945 Y114.151 E3.80784
G1 X88.805 Y113.498 E3.83006
G1 X88.733 Y113.029 E3.84584
G1 X88.639 Y112.008 E3.87994
G1 X88.558 Y110.92 E3.91623
G1 X88.52 Y110.297 E3.93699
G1 X88.519 Y109.827 E3.95262
G1 X88.576 Y108.838 E3.98557
G1 X88.662 Y107.695 E4.02369
G1 X88.715 Y107.1 E4.04356
G1 X88.783 Y106.638 E4.05909
G1 X88.995 Y105.626 E4.09348
G1 X89.237 Y104.571 E4.12948
G1 X89.387 Y103.955 E4.15057
G1 X89.524 Y103.507 E4.16615
G1 X89.884 Y102.539 E4.2005
G1 X90.266 Y101.567 E4.23524
G1 X90.522 Y100.943 E4.25767
G1 X90.72 Y100.53 E4.2729
G1 X91.211 Y99.641 E4.30668
G1 X91.775 Y98.666 E4.34415
G1 X92.087 Y98.144 E4.36437
G1 X92.348 Y97.76 E4.37982
G1 X92.968 Y96.953 E4.41366
G1 X93.641 Y96.11 E4.44954
G1 X94.054 Y95.607 E4.47119
G1 X94.372 Y95.262 E4.48679
G0 F3000 X94.649 Y95.55
G1 F1200 X95.331 Y94.894 E4.51827
G1 X96.151 Y94.134 E4.55545
G1 X96.644 Y93.69 E4.57752
G1 X96.97 Y93.429 E4.59141
G1 X97.821 Y92.826 E4.6261
G1 X98.682 Y92.238 E4.66078
G1 X99.225 Y91.88 E4.68241
G1 X99.584 Y91.673 E4.69619
G1 X100.503 Y91.209 E4.73043
G1 X101.489 Y90.734 E4.76683
G1 X102.045 Y90.476 E4.78722
G1 X102.436 Y90.322 E4.8012
G1 X103.386 Y90.01 E4.83446
G1 X104.471 Y89.677 E4.8722
G1 X105.033 Y89.512 E4.89169
G1 X105.444 Y89.417 E4.90572
G1 X106.464 Y89.244 E4.94013
G1 X107.532 Y89.083 E4.97605
G1 X108.153 Y88.999 E4.99689
G1 X108.569 Y88.968 E5.01077
G1 X109.598 Y88.949 E5.045
G1 X110.651 Y88.949 E5.08002
G1 X111.303 Y88.958 E5.10171
G1 X111.727 Y88.989 E5.11585
G1 X112.717 Y89.121 E5.14907
G1 X113.82 Y89.288 E5.18617
G1 X114.415 Y89.386 E5.20623
G1 X114.827 Y89.479 E5.22027
G1 X115.836 Y89.77 E5.2552
G1 X116.869 Y90.089 E5.29116
G1 X117.443 Y90.275 E5.31123
G1 X117.837 Y90.429 E5.3253
G1 X118.767 Y90.858 E5.35936
G1 X119.709 Y91.312 E5.39414
G1 X120.3 Y91.606 E5.4161
G1 X120.672 Y91.819 E5.43036
G1 X121.521 Y92.377 E5.46415
G1 X122.407 Y92.981 E5.49981
G1 X122.93 Y93.349 E5.52108
G1 X123.259 Y93.611 E5.53507
G1 X124.03 Y94.301 E5.56948
G1 X124.77 Y94.988 E5.60307
G1 X125.269 Y95.464 E5.626
G1 X125.556 Y95.773 E5.64003
G1 X126.202 Y96.553 E5.67371
G1 X126.867 Y97.388 E5.70922
G1 X127.262 Y97.897 E5.73065
G1 X127.503 Y98.248 E5.74481
G1 X128.015 Y99.101 E5.7779
G1 X128.591 Y100.098 E5.81619
G1 X128.871 Y100.6 E5.83531
G1 X129.053 Y100.977 E5.84924
G1 X129.455 Y101.948 E5.88419
G1 X129.798 Y102.822 E5.91542
G1 X130.063 Y103.525 E5.94041
G1 X130.188 Y103.93 E5.9545
G1 X130.438 Y104.94 E5.98911
G1 X130.664 Y105.933 E6.02298
G1 X130.804 Y106.586 E6.04519
G1 X130.869 Y107.008 E6.0594
G1 X130.962 Y108.021 E6.09323
G1 X131.042 Y109.105 E6.12938
G1 X131.08 Y109.728 E6.15014
G1 X131.081 Y110.151 E6.16421
G1 X131.025 Y111.132 E6.19689
G1 X130.94 Y112.269 E6.23481
G1 X130.887 Y112.864 E6.25468
G1 X130.825 Y113.281 E6.2687
G1 X130.615 Y114.285 E6.30282
G1 X130.375 Y115.335 E6.33864
G1 X130.225 Y115.951 E6.35973
G1 X130.101 Y116.354 E6.37375
G1 X129.743 Y117.315 E6.40786
G1 X129.364 Y118.281 E6.44238
G1 X129.108 Y118.905 E6.46481
G1 X128.93 Y119.277 E6.47853
G1 X128.478 Y120.097 E6.50967
G1 X127.887 Y121.121 E6.54899
G1 X127.571 Y121.65 E6.56949
G1 X127.335 Y121.997 E6.58344
G1 X126.719 Y122.798 E6.61705
G1 X126.05 Y123.636 E6.65272
G1 X125.637 Y124.139 E6.67436
G1 X125.351 Y124.45 E6.68842
G1 X124.669 Y125.106 E6.71989
G1 X123.849 Y125.866 E6.75708
G1 X123.356 Y126.31 E6.77914
G1 X123.03 Y126.571 E6.79303
G1 X122.179 Y127.174 E6.82772
G1 X121.318 Y127.762 E6.8624
G1 X120.775 Y128.12 E6.88403
G1 X120.416 Y128.327 E6.89782
G1 X119.497 Y128.791 E6.93206
G1 X118.511 Y129.266 E6.96846
G1 X117.955 Y129.524 E6.98885
G1 X117.564 Y129.678 E7.00282
G1 X116.614 Y129.99 E7.03608
G1 X115.529 Y130.323 E7.07383
G1 X114.967 Y130.488 E7.09331
G1 X114.555 Y130.583 E7.10737
G1 X113.541 Y130.755 E7.14158
G1 X112.468 Y130.917 E7.17767
G1 X111.847 Y131.001 E7.19852
G1 X111.431 Y131.032 E7.21239
G1 X110.402 Y131.051 E7.24662
G1 X109.349 Y131.051 E7.28164
G1 X108.697 Y131.042 E7.30333
G1 X108.273 Y131.011 E7.31747
G1 X107.283 Y130.879 E7.35069
G1 X106.18 Y130.712 E7.38779
G1 X105.585 Y130.614 E7.40785
G1 X105.173 Y130.521 E7.4219
G1 X104.164 Y130.23 E7.45683
G1 X103.131 Y129.911 E7.49278
G1 X102.557 Y129.725 E7.51285
G1 X102.163 Y129.571 E7.52692
G1 X101.233 Y129.142 E7.56099
G1 X100.291 Y128.688 E7.59577
G1 X99.7 Y128.394 E7.61772
G1 X99.328 Y128.181 E7.63198
G1 X98.479 Y127.623 E7.66577
G1 X97.593 Y127.019 E7.70143
G1 X97.07 Y126.651 E7.7227
G1 X96.741 Y126.389 E7.73669
G1 X95.97 Y125.699 E7.77111
G1 X95.23 Y125.012 E7.80469
G1 X94.729 Y124.534 E7.82772
G1 X94.441 Y124.225 E7.84177
G1 X93.798 Y123.447 E7.87534
G1 X93.132 Y122.611 E7.91089
G1 X92.735 Y122.099 E7.93244
G1 X92.495 Y121.748 E7.94658
G1 X91.985 Y120.899 E7.97952
G1 X91.409 Y119.901 E8.01785
G1 X91.128 Y119.397 E8.03704
G1 X90.945 Y119.02 E8.05098
G1 X90.544 Y118.049 E8.08592
G1 X90.18 Y117.119 E8.11914
G1 X89.936 Y116.471 E8.14217
G1 X89.81 Y116.066 E8.15627
G1 X89.562 Y115.06 E8.19074
G1 X89.336 Y114.067 E8.22461
G1 X89.196 Y113.414 E8.24682
G1 X89.131 Y112.992 E8.26102
G1 X89.038 Y111.979 E8.29486
G1 X88.958 Y110.895 E8.33101
G1 X88.92 Y110.272 E8.35177
G1 X88.919 Y109.849 E8.36584
G1 X88.975 Y108.868 E8.39852
G1 X89.06 Y107.731 E8.43644
G1 X89.113 Y107.136 E8.45631
G1 X89.175 Y106.719 E8.47033
G1 X89.385 Y105.715 E8.50445
G1 X89.625 Y104.665 E8.54027
G1 X89.775 Y104.049 E8.56136
G1 X89.899 Y103.646 E8.57538
G1 X90.257 Y102.685 E8.60949
G1 X90.636 Y101.719 E8.644
G1 X90.892 Y101.095 E8.66644
G1 X91.07 Y100.723 E8.68015
G1 X91.557 Y99.841 E8.71366
G1 X92.118 Y98.871 E8.75093
G1 X92.43 Y98.349 E8.77116
G1 X92.665 Y98.003 E8.78507
G1 X93.281 Y97.202 E8.81868
G1 X93.95 Y96.364 E8.85434
G1 X94.363 Y95.861 E8.87599
G1 X94.649 Y95.55 E8.89004
G0 F3000 X94.927 Y95.839
G1 F1200 X95.651 Y95.143 E8.92344
G1 X96.419 Y94.431 E8.95828
G1 X96.912 Y93.987 E8.98034
G1 X97.202 Y93.755 E8.9927
G1 X98.047 Y93.156 E9.02715
G1 X98.903 Y92.572 E9.06161
G1 X99.446 Y92.214 E9.08324
G1 X99.764 Y92.03 E9.09546
G1 X100.677 Y91.569 E9.12948
G1 X101.657 Y91.097 E9.16566
G1 X102.213 Y90.839 E9.18605
G1 X102.56 Y90.702 E9.19845
G1 X103.504 Y90.393 E9.23149
G1 X104.584 Y90.061 E9.26907
G1 X105.146 Y89.896 E9.28855
G1 X105.511 Y89.811 E9.30102
G1 X106.524 Y89.64 E9.33519
G1 X107.586 Y89.48 E9.37091
G1 X108.207 Y89.396 E9.39175
G1 X108.576 Y89.368 E9.40406
G1 X109.598 Y89.349 E9.43806
G1 X110.645 Y89.349 E9.47288
G1 X111.297 Y89.358 E9.49457
G1 X111.674 Y89.386 E9.50714
G1 X112.657 Y89.517 E9.54012
G1 X113.755 Y89.683 E9.57706
G1 X114.35 Y89.781 E9.59712
G1 X114.716 Y89.863 E9.60959
G1 X115.718 Y90.152 E9.64428
G1 X116.745 Y90.47 E9.68003
G1 X117.319 Y90.656 E9.7001
G1 X117.67 Y90.793 E9.71263
G1 X118.594 Y91.218 E9.74646
G1 X119.531 Y91.67 E9.78106
G1 X120.122 Y91.964 E9.80302
G1 X120.453 Y92.154 E9.81571
G1 X121.296 Y92.707 E9.84924
G1 X122.176 Y93.308 E9.88469
G1 X122.699 Y93.676 E9.90596
G1 X122.992 Y93.909 E9.91841
G1 X123.758 Y94.595 E9.95261
G1 X124.494 Y95.278 E9.98601
G1 X124.993 Y95.754 E10.00894
G1 X125.248 Y96.028 E10.02139
G1 X125.889 Y96.803 E10.05484
G1 X126.551 Y97.633 E10.09015
G1 X126.946 Y98.142 E10.11158
G1 X127.16 Y98.455 E10.12419
G1 X127.669 Y99.301 E10.15703
G1 X128.242 Y100.293 E10.19513
G1 X128.522 Y100.795 E10.21425
G1 X128.684 Y101.13 E10.22663
G1 X129.082 Y102.095 E10.26135
G1 X129.423 Y102.963 E10.29237
G1 X129.688 Y103.666 E10.31735
G1 X129.8 Y104.026 E10.32989
G1 X130.048 Y105.029 E10.36426
G1 X130.273 Y106.017 E10.39796
G1 X130.413 Y106.67 E10.42017
G1 X130.47 Y107.045 E10.43279
G1 X130.563 Y108.051 E10.46639
G1 X130.643 Y109.129 E10.50234
G1 X130.681 Y109.752 E10.5231
G1 X130.682 Y110.128 E10.53561
G1 X130.626 Y111.102 E10.56806
G1 X130.541 Y112.234 E10.60581
G1 X130.488 Y112.829 E10.62568
G1 X130.433 Y113.199 E10.63812
G1 X130.225 Y114.196 E10.672
G1 X129.986 Y115.24 E10.70762
G1 X129.836 Y115.856 E10.72871
G1 X129.726 Y116.214 E10.74116
G1 X129.371 Y117.169 E10.77505
G1 X128.994 Y118.13 E10.80939
G1 X128.738 Y118.754 E10.83182
G1 X128.579 Y119.084 E10.844
G1 X128.096 Y119.959 E10.87724
G1 X127.543 Y120.916 E10.91401
G1 X127.227 Y121.445 E10.9345
G1 X127.018 Y121.753 E10.94688
G1 X126.406 Y122.548 E10.98025
G1 X125.741 Y123.383 E11.01575
G1 X125.328 Y123.886 E11.0374
G1 X125.073 Y124.161 E11.04987
G1 X124.349 Y124.857 E11.08328
G1 X123.581 Y125.569 E11.11811
G1 X123.088 Y126.013 E11.14018
G1 X122.798 Y126.245 E11.15253
G1 X121.953 Y126.844 E11.18698
G1 X121.097 Y127.428 E11.22144
G1 X120.554 Y127.786 E11.24308
G1 X120.236 Y127.97 E11.2553
G1 X119.323 Y128.431 E11.28931
G1 X118.343 Y128.903 E11.32549
G1 X117.787 Y129.161 E11.34588
G1 X117.44 Y129.298 E11.35829
G1 X116.496 Y129.607 E11.39132
G1 X115.416 Y129.939 E11.4289
G1 X114.854 Y130.104 E11.44838
G1 X114.488 Y130.189 E11.46088
G1 X113.482 Y130.359 E11.49482
G1 X112.414 Y130.52 E11.53074
G1 X111.793 Y130.604 E11.55158
G1 X111.424 Y130.632 E11.56389
G1 X110.402 Y130.651 E11.59789
G1 X109.355 Y130.651 E11.63271
G1 X108.703 Y130.642 E11.6544
G1 X108.326 Y130.614 E11.66697
G1 X107.343 Y130.483 E11.69996
G1 X106.245 Y130.317 E11.73689
G1 X105.65 Y130.219 E11.75695
G1 X105.284 Y130.137 E11.76942
G1 X104.282 Y129.848 E11.80411
G1 X103.255 Y129.53 E11.83987
G1 X102.681 Y129.344 E11.85993
G1 X102.33 Y129.207 E11.87247
G1 X101.406 Y128.782 E11.90629
G1 X100.469 Y128.33 E11.94089
G1 X99.878 Y128.036 E11.96285
G1 X99.547 Y127.846 E11.97554
G1 X98.704 Y127.293 E12.00908
G1 X97.824 Y126.692 E12.04452
G1 X97.301 Y126.324 E12.06579
G1 X97.008 Y126.091 E12.07824
G1 X96.242 Y125.405 E12.11244
G1 X95.506 Y124.722 E12.14584
G1 X95.005 Y124.244 E12.16887
G1 X94.749 Y123.97 E12.18134
G1 X94.111 Y123.197 E12.21468
G1 X93.448 Y122.366 E12.25003
G1 X93.051 Y121.854 E12.27158
G1 X92.838 Y121.542 E12.28415
G1 X92.331 Y120.699 E12.31687
G1 X91.758 Y119.706 E12.355
G1 X91.477 Y119.202 E12.37419
G1 X91.315 Y118.867 E12.38657
G1 X90.917 Y117.903 E12.42125
G1 X90.554 Y116.978 E12.4543
G1 X90.31 Y116.33 E12.47733
G1 X90.199 Y115.97 E12.48986
G1 X89.952 Y114.971 E12.52409
G1 X89.727 Y113.983 E12.55779
G1 X89.587 Y113.33 E12.58001
G1 X89.53 Y112.955 E12.59262
G1 X89.437 Y111.949 E12.62622
G1 X89.357 Y110.871 E12.66218
G1 X89.319 Y110.248 E12.68294
G1 X89.318 Y109.872 E12.69544
G1 X89.374 Y108.898 E12.72789
G1 X89.459 Y107.766 E12.76565
G1 X89.512 Y107.171 E12.78552
G1 X89.567 Y106.801 E12.79796
G1 X89.775 Y105.804 E12.83183
G1 X90.014 Y104.76 E12.86745
G1 X90.164 Y104.144 E12.88854
G1 X90.274 Y103.786 E12.901
G1 X90.629 Y102.831 E12.93488
G1 X91.006 Y101.87 E12.96922
G1 X91.262 Y101.246 E12.99165
