;FLAVOR:Marlin
;TIME:1611
;Filament used: 0.803756m
;Layer height: 0.2
;MINX:94.5
;MINY:94.201
;MINZ:0.2
;MAXX:125.5
;MAXY:125.799
;MAXZ:8
;Generated with Cura_SteamEngine master
M82 ;absolute extrusion mode
;Sliced at: Thu 14-04-2022 00:20:59
;Basic settings: Layer height: 0.2 Walls: 0.8 Fill: 100
G21 ;metric values
G90 ;absolute positioning
M82 ;set extruder to absolute mode
M107 ;start with the fan off
M117 Start heating ...
M104 S200
M117 Homing X/Y ...
G28 X0 Y0 ;move X/Y to min endstops
M117 Homing Z ...
G28 Z0 ;move Z to min endstops
G1 Z15.0 F100 ;move the platform down 15mm
M117 Heating ...
M109 S200
M117 Start cleaning ...
G92 E0 ;zero the extruded length
G1 F200 E10 ;extrude 10mm of feed stock
G92 E0 ;zero the extruded length again
M117 Intro line ...
G1 Z2.0 F3000 ; Move Z Axis up little to prevent scratching of Heat Bed
G1 X0.1 Y20 Z0.2 F5000.0 ; Move to start position
G1 X0.1 Y200.0 Z0.2 F1500.0 E15 ; Draw the first line
G1 X0.4 Y200.0 Z0.2 F5000.0 ; Move to side a little
G1 X0.4 Y20 Z0.3 F1500.0 E30 ; Draw the second line
G92 E0 ; Reset Extruder
G1 E-1 F500 ; Retract filiment by 1 mm
G1 Z2.0 F3000 ; Move Z Axis up little to prevent scratching of Heat Bed
G1 X5 Y20 Z0.3 F100 ; Move over to prevent blob squish
G1 F100
G92 E0 ; Reset Extruder
M117 Printing...

G92 E0
G92 E0
G1 F1800 E-7
;LAYER_COUNT:40
;LAYER:0
M107
G1 F300 Z0.4
G0 F3000 X98.801 Y98.86 Z0.4
;TYPE:SKIRT
G1 F300 Z0.2
G1 F1800 E0
G1 F1200 X99.287 Y98.404 E0.02217
G1 X99.355 Y98.347 E0.02512
G1 X99.853 Y97.99 E0.0455
G1 X100.929 Y97.34 E0.08731
G1 X103.97 Y95.585 E0.20409
G1 X104.509 Y95.284 E0.22462
G1 X105.036 Y95.038 E0.24396
G1 X105.761 Y94.782 E0.26954
G1 X106.201 Y94.667 E0.28466
G1 X107.019 Y94.487 E0.31252
G1 X107.633 Y94.378 E0.33326
G1 X107.888 Y94.346 E0.34181
G1 X108.413 Y94.294 E0.35936
G1 X109.463 Y94.216 E0.39438
G1 X110.108 Y94.201 E0.41583
G1 X110.762 Y94.231 E0.43761
G1 X111.47 Y94.284 E0.46122
G1 X112.261 Y94.364 E0.48767
G1 X113.016 Y94.491 E0.51313
G1 X113.552 Y94.607 E0.53137
G1 X114.049 Y94.732 E0.54842
G1 X114.719 Y94.936 E0.57171
G1 X114.825 Y94.976 E0.57548
G1 X115.34 Y95.213 E0.59433
G1 X116.37 Y95.78 E0.63344
G1 X119.483 Y97.578 E0.75301
G1 X120.066 Y97.928 E0.77562
G1 X120.599 Y98.311 E0.79745
G1 X121.038 Y98.698 E0.81692
G1 X121.428 Y99.095 E0.83543
G1 X121.99 Y99.714 E0.86324
G1 X122.356 Y100.151 E0.8822
G1 X122.455 Y100.283 E0.88768
G1 X122.867 Y100.858 E0.91121
G1 X123.398 Y101.639 E0.94262
G1 X123.73 Y102.183 E0.96382
G1 X123.989 Y102.679 E0.98243
G1 X124.049 Y102.8 E0.98692
G1 X124.399 Y103.532 E1.01391
G1 X124.649 Y104.088 E1.03418
G1 X124.924 Y104.813 E1.05997
G1 X125.103 Y105.373 E1.07953
G1 X125.244 Y105.86 E1.09639
G1 X125.41 Y106.582 E1.12103
G1 X125.426 Y106.678 E1.12427
G1 X125.479 Y107.259 E1.14367
G1 X125.5 Y108.369 E1.1806
G1 X125.5 Y111.956 E1.2999
G1 X125.491 Y112.611 E1.32169
G1 X125.44 Y113.191 E1.34105
G1 X125.31 Y113.895 E1.36487
G1 X125.163 Y114.428 E1.38326
G1 X124.893 Y115.268 E1.4126
G1 X124.701 Y115.792 E1.43116
G1 X124.612 Y115.999 E1.43866
G1 X124.349 Y116.573 E1.45966
G1 X123.9 Y117.501 E1.49395
G1 X123.647 Y117.959 E1.51135
G1 X123.3 Y118.505 E1.53287
G1 X122.899 Y119.096 E1.55662
G1 X122.425 Y119.759 E1.58373
G1 X121.909 Y120.384 E1.61068
G1 X121.566 Y120.76 E1.62761
G1 X121.199 Y121.14 E1.64518
G1 X120.708 Y121.6 E1.66756
G1 X120.641 Y121.656 E1.67046
G1 X120.149 Y122.008 E1.69059
G1 X119.071 Y122.66 E1.73249
G1 X116.033 Y124.413 E1.84915
G1 X115.493 Y124.715 E1.86973
G1 X114.964 Y124.962 E1.88914
G1 X114.239 Y125.218 E1.91472
G1 X113.799 Y125.333 E1.92984
G1 X112.981 Y125.513 E1.9577
G1 X112.367 Y125.622 E1.97844
G1 X112.112 Y125.654 E1.98699
G1 X111.587 Y125.706 E2.00454
G1 X110.537 Y125.784 E2.03956
G1 X109.892 Y125.799 E2.06101
G1 X109.238 Y125.769 E2.08279
G1 X108.53 Y125.716 E2.1064
G1 X107.739 Y125.636 E2.13285
G1 X106.984 Y125.509 E2.15831
G1 X106.448 Y125.393 E2.17655
G1 X105.951 Y125.268 E2.1936
G1 X105.269 Y125.06 E2.21731
G1 X105.164 Y125.02 E2.22105
G1 X104.663 Y124.788 E2.23941
G1 X103.63 Y124.22 E2.27862
G1 X100.517 Y122.422 E2.39819
G1 X99.934 Y122.072 E2.4208
G1 X99.407 Y121.695 E2.44236
G1 X98.95 Y121.291 E2.46264
G1 X98.572 Y120.906 E2.48059
G1 X98.088 Y120.375 E2.50449
G1 X97.582 Y119.766 E2.53082
G1 X97.118 Y119.121 E2.55725
G1 X96.601 Y118.36 E2.58785
G1 X96.269 Y117.815 E2.60907
G1 X96.009 Y117.317 E2.62776
G1 X95.952 Y117.203 E2.632
G1 X95.658 Y116.591 E2.65458
G1 X95.351 Y115.913 E2.67933
G1 X95.076 Y115.187 E2.70515
G1 X94.897 Y114.629 E2.72465
G1 X94.756 Y114.143 E2.74148
G1 X94.59 Y113.418 E2.76621
G1 X94.574 Y113.322 E2.76945
G1 X94.521 Y112.741 E2.78886
G1 X94.5 Y111.631 E2.82578
G1 X94.5 Y108.044 E2.94508
G1 X94.509 Y107.389 E2.96687
G1 X94.56 Y106.809 E2.98624
G1 X94.69 Y106.105 E3.01005
G1 X94.837 Y105.572 E3.02844
G1 X95.071 Y104.84 E3.054
G1 X95.312 Y104.175 E3.07752
G1 X95.387 Y104.004 E3.08373
G1 X95.652 Y103.424 E3.10494
G1 X96.1 Y102.499 E3.13913
G1 X96.355 Y102.039 E3.15662
G1 X96.778 Y101.377 E3.18275
G1 X97.18 Y100.79 E3.20641
G1 X97.579 Y100.236 E3.22912
G1 X98.091 Y99.617 E3.25584
G1 X98.434 Y99.24 E3.27279
G1 X98.801 Y98.86 E3.29036
G0 F3000 X99.089 Y99.138
G1 F1200 X99.544 Y98.71 E3.31114
G1 X99.612 Y98.653 E3.31409
G1 X100.06 Y98.333 E3.3324
G1 X101.129 Y97.686 E3.37396
G1 X104.165 Y95.934 E3.49055
G1 X104.704 Y95.633 E3.51108
G1 X105.178 Y95.412 E3.52847
G1 X105.866 Y95.168 E3.55275
G1 X106.287 Y95.058 E3.56723
G1 X107.105 Y94.878 E3.59508
G1 X107.685 Y94.774 E3.61468
G1 X107.927 Y94.745 E3.62279
G1 X108.542 Y94.685 E3.64334
G1 X109.594 Y94.609 E3.67842
G1 X110.09 Y94.6 E3.69492
G1 X110.619 Y94.623 E3.71253
G1 X111.44 Y94.683 E3.73991
G1 X112.22 Y94.762 E3.76599
G1 X112.942 Y94.885 E3.79035
G1 X113.454 Y94.995 E3.80777
G1 X114.064 Y95.15 E3.8287
G1 X114.578 Y95.31 E3.8466
G1 X114.684 Y95.35 E3.85037
G1 X115.147 Y95.563 E3.86732
G1 X116.17 Y96.126 E3.90616
G1 X119.277 Y97.92 E4.02549
G1 X119.86 Y98.27 E4.04811
G1 X120.34 Y98.615 E4.06777
G1 X120.767 Y98.992 E4.08671
G1 X121.133 Y99.364 E4.10407
G1 X121.687 Y99.974 E4.13148
G1 X122.038 Y100.393 E4.14966
G1 X122.131 Y100.517 E4.15481
G1 X122.482 Y101.005 E4.1748
G1 X123.067 Y101.864 E4.20937
G1 X123.375 Y102.368 E4.22902
G1 X123.689 Y102.973 E4.25169
G1 X123.997 Y103.615 E4.27537
G1 X124.284 Y104.252 E4.29861
G1 X124.546 Y104.945 E4.32325
G1 X124.719 Y105.484 E4.34208
G1 X124.86 Y105.971 E4.35894
G1 X125.015 Y106.648 E4.38204
G1 X125.031 Y106.744 E4.38528
G1 X125.079 Y107.266 E4.40271
G1 X125.1 Y108.369 E4.43941
G1 X125.1 Y111.95 E4.55851
G1 X125.091 Y112.605 E4.5803
G1 X125.045 Y113.128 E4.59776
G1 X124.922 Y113.795 E4.62032
G1 X124.782 Y114.306 E4.63794
G1 X124.548 Y115.038 E4.6635
G1 X124.332 Y115.636 E4.68465
G1 X124.248 Y115.833 E4.69177
G1 X123.989 Y116.4 E4.7125
G1 X123.582 Y117.244 E4.74367
G1 X123.309 Y117.744 E4.76262
G1 X122.962 Y118.29 E4.78413
G1 X122.898 Y118.387 E4.788
G1 X122.52 Y118.94 E4.81028
G1 X122.1 Y119.526 E4.83426
G1 X121.606 Y120.123 E4.86003
G1 X121.278 Y120.482 E4.8762
G1 X120.911 Y120.862 E4.89377
G1 X120.452 Y121.293 E4.91472
G1 X120.385 Y121.349 E4.91762
G1 X119.942 Y121.666 E4.93574
G1 X118.871 Y122.314 E4.97737
G1 X115.838 Y124.064 E5.09384
G1 X115.298 Y124.366 E5.11442
G1 X114.822 Y124.588 E5.13189
G1 X114.134 Y124.832 E5.15617
G1 X113.713 Y124.942 E5.17064
G1 X112.895 Y125.122 E5.1985
G1 X112.315 Y125.226 E5.21809
G1 X112.073 Y125.255 E5.2262
G1 X111.458 Y125.315 E5.24675
G1 X110.406 Y125.391 E5.28183
G1 X109.91 Y125.4 E5.29833
G1 X109.381 Y125.377 E5.31594
G1 X108.56 Y125.317 E5.34332
G1 X107.78 Y125.238 E5.3694
G1 X107.058 Y125.115 E5.39376
G1 X106.546 Y125.005 E5.41118
G1 X105.936 Y124.85 E5.43211
G1 X105.411 Y124.686 E5.4504
G1 X104.855 Y124.438 E5.47065
G1 X103.83 Y123.874 E5.50957
G1 X100.723 Y122.08 E5.62889
G1 X100.14 Y121.73 E5.65151
G1 X99.666 Y121.39 E5.67091
G1 X99.222 Y120.998 E5.69061
G1 X98.867 Y120.636 E5.70748
G1 X98.312 Y120.025 E5.73493
G1 X97.907 Y119.532 E5.75615
G1 X97.449 Y118.896 E5.78222
G1 X96.88 Y118.057 E5.81593
G1 X96.624 Y117.63 E5.83249
G1 X96.312 Y117.029 E5.85502
G1 X96.023 Y116.426 E5.87726
G1 X95.716 Y115.748 E5.90201
G1 X95.454 Y115.055 E5.92665
G1 X95.282 Y114.517 E5.94544
G1 X95.141 Y114.031 E5.96227
G1 X94.985 Y113.352 E5.98544
G1 X94.969 Y113.256 E5.98868
G1 X94.921 Y112.734 E6.00611
G1 X94.9 Y111.631 E6.04281
G1 X94.9 Y108.05 E6.16191
G1 X94.909 Y107.395 E6.1837
G1 X94.955 Y106.872 E6.20116
G1 X95.078 Y106.205 E6.22372
G1 X95.218 Y105.694 E6.24134
G1 X95.485 Y104.863 E6.27037
G1 X95.68 Y104.333 E6.28916
G1 X95.751 Y104.17 E6.29507
G1 X96.012 Y103.598 E6.31598
G1 X96.456 Y102.681 E6.34987
G1 X96.692 Y102.254 E6.36609
G1 X97.046 Y101.698 E6.38802
G1 X97.452 Y101.1 E6.41206
G1 X97.904 Y100.47 E6.43785
G1 X98.395 Y99.877 E6.46345
G1 X98.722 Y99.518 E6.4796
G1 X99.089 Y99.138 E6.49717
G0 F3000 X99.376 Y99.416
G1 F1200 X99.801 Y99.017 E6.51656
G1 X100.267 Y98.675 E6.53579
G1 X101.329 Y98.033 E6.57706
G1 X104.36 Y96.283 E6.69347
G1 X104.899 Y95.982 E6.71401
G1 X105.673 Y95.651 E6.742
G1 X106.221 Y95.486 E6.76104
G1 X106.373 Y95.449 E6.76624
G1 X107.303 Y95.246 E6.7979
G1 X107.867 Y95.154 E6.81691
G1 X108.492 Y95.091 E6.8378
G1 X109.522 Y95.014 E6.87215
G1 X110.073 Y95 E6.89049
G1 X110.702 Y95.029 E6.91143
G1 X111.498 Y95.09 E6.93798
G1 X112.179 Y95.16 E6.96075
G1 X112.868 Y95.278 E6.984
G1 X113.357 Y95.383 E7.00064
G1 X113.854 Y95.508 E7.01768
G1 X114.437 Y95.684 E7.03794
G1 X114.954 Y95.914 E7.05676
G1 X115.97 Y96.473 E7.09533
G1 X119.071 Y98.263 E7.21442
G1 X119.654 Y98.613 E7.23703
G1 X120.081 Y98.92 E7.25452
G1 X120.495 Y99.286 E7.2729
G1 X120.837 Y99.634 E7.28913
G1 X121.383 Y100.235 E7.31614
G1 X121.72 Y100.635 E7.33354
G1 X121.806 Y100.75 E7.33831
G1 X122.157 Y101.238 E7.3583
G1 X122.781 Y102.156 E7.39522
G1 X123.021 Y102.553 E7.41065
G1 X123.28 Y103.049 E7.42926
G1 X123.636 Y103.788 E7.45655
G1 X123.92 Y104.416 E7.47947
G1 X124.169 Y105.078 E7.50299
G1 X124.335 Y105.595 E7.52105
G1 X124.476 Y106.082 E7.53792
G1 X124.62 Y106.714 E7.55948
G1 X124.679 Y107.274 E7.57821
G1 X124.7 Y108.369 E7.61463
G1 X124.7 Y111.945 E7.73357
G1 X124.691 Y112.6 E7.75536
G1 X124.595 Y113.406 E7.78235
G1 X124.482 Y113.901 E7.79924
G1 X124.401 Y114.184 E7.80903
G1 X124.138 Y115.003 E7.83764
G1 X123.964 Y115.481 E7.85456
G1 X123.884 Y115.667 E7.8613
G1 X123.628 Y116.226 E7.88175
G1 X123.188 Y117.137 E7.91539
G1 X122.972 Y117.529 E7.93028
G1 X122.568 Y118.162 E7.95526
G1 X122.195 Y118.707 E7.97722
G1 X121.775 Y119.293 E8.0012
G1 X121.302 Y119.862 E8.02581
G1 X120.991 Y120.204 E8.04119
G1 X120.624 Y120.584 E8.05876
G1 X120.195 Y120.986 E8.07831
G1 X119.734 Y121.324 E8.09732
G1 X118.671 Y121.967 E8.13865
G1 X115.643 Y123.715 E8.25493
G1 X115.103 Y124.017 E8.27551
G1 X114.327 Y124.349 E8.30358
G1 X113.779 Y124.514 E8.32262
G1 X113.627 Y124.551 E8.32782
G1 X112.697 Y124.754 E8.35948
G1 X112.133 Y124.846 E8.37849
G1 X111.508 Y124.909 E8.39938
G1 X110.478 Y124.986 E8.43374
G1 X109.927 Y125 E8.45207
G1 X109.298 Y124.971 E8.47301
G1 X108.502 Y124.91 E8.49956
G1 X107.821 Y124.84 E8.52233
G1 X107.132 Y124.722 E8.54558
G1 X106.643 Y124.617 E8.56222
G1 X106.146 Y124.492 E8.57926
G1 X105.554 Y124.312 E8.59984
G1 X105.048 Y124.087 E8.61826
G1 X104.03 Y123.527 E8.65691
G1 X100.929 Y121.737 E8.77599
G1 X100.346 Y121.387 E8.79861
G1 X99.924 Y121.084 E8.81589
G1 X99.494 Y120.705 E8.83495
G1 X99.163 Y120.367 E8.85069
G1 X98.679 Y119.836 E8.87459
G1 X98.231 Y119.298 E8.89787
G1 X97.78 Y118.671 E8.92356
G1 X97.217 Y117.841 E8.95692
G1 X96.978 Y117.445 E8.9723
G1 X96.718 Y116.947 E8.99099
G1 X96.419 Y116.33 E9.01379
G1 X96.08 Y115.583 E9.04108
G1 X95.831 Y114.922 E9.06457
G1 X95.666 Y114.406 E9.08259
G1 X95.525 Y113.92 E9.09942
G1 X95.38 Y113.286 E9.12105
G1 X95.321 Y112.726 E9.13978
G1 X95.3 Y111.631 E9.1762
G1 X95.3 Y108.055 E9.29514
G1 X95.309 Y107.4 E9.31693
G1 X95.405 Y106.594 E9.34393
G1 X95.518 Y106.099 E9.36081
G1 X95.599 Y105.816 E9.3706
G1 X95.862 Y104.996 E9.39925
G1 X96.048 Y104.49 E9.41718
G1 X96.115 Y104.335 E9.42279
G1 X96.372 Y103.772 E9.44338
G1 X96.812 Y102.863 E9.47697
G1 X97.03 Y102.468 E9.49197
G1 X97.439 Y101.828 E9.51723
G1 X97.829 Y101.258 E9.54021
G1 X98.228 Y100.704 E9.56291
G1 X98.698 Y100.138 E9.58738
G1 X99.009 Y99.796 E9.60276
G1 X99.376 Y99.416 E9.62033
G1 F1800 E2.62033
G1 F300 Z0.4
;MESH:overflow_nut.stl
G0 F3000 X109.475 Y120.316 Z0.4
;TYPE:WALL-INNER
G1 F300 Z0.2
G1 F1800 E9.62033
G1 F1200 X111.367 Y120.33 E9.68326
G1 X111.636 Y120.303 E9.69225
G1 X113.484 Y119.923 E9.755
G1 X113.637 Y119.873 E9.76036
G1 X114.732 Y119.392 E9.80013
G1 X115.352 Y119.121 E9.82264
G1 X115.508 Y119.044 E9.82843
G1 X116.2 Y118.546 E9.85678
G1 X117.032 Y117.946 E9.8909
G1 X117.19 Y117.829 E9.89744
G1 X118.596 Y116.277 E9.96709
G1 X119.649 Y114.462 E10.03688
G1 X120.3 Y112.467 E10.10668
G1 X120.515 Y110.413 E10.17537
G1 X120.515 Y110.308 E10.17886
G1 X120.308 Y108.355 E10.24418
G1 X120.263 Y108.165 E10.25068
G1 X119.699 Y106.447 E10.31082
G1 X119.502 Y106.04 E10.32586
G1 X118.611 Y104.515 E10.3846
G1 X118.418 Y104.277 E10.39479
G1 X117.259 Y103.006 E10.452
G1 X116.98 Y102.768 E10.4642
G1 X115.625 Y101.799 E10.51961
G1 X115.233 Y101.578 E10.53457
G1 X113.785 Y100.952 E10.58704
G1 X113.273 Y100.783 E10.60497
G1 X111.86 Y100.5 E10.6529
G1 X111.186 Y100.417 E10.67549
G1 X109.982 Y100.433 E10.71554
G1 X109.068 Y100.498 E10.74602
G1 X108.36 Y100.66 E10.77017
G1 X107.802 Y100.811 E10.7894
G1 X107.084 Y100.914 E10.81353
G1 X105.989 Y101.289 E10.85202
G1 X105.322 Y101.53 E10.87561
G1 X104.794 Y101.823 E10.89569
G1 X103.812 Y102.437 E10.93421
G1 X103.47 Y102.722 E10.94902
G1 X102.285 Y104.231 E11.01284
G1 X102.087 Y104.56 E11.02561
G1 X101.588 Y105.513 E11.06139
G1 X101.379 Y106.076 E11.08136
G1 X101.122 Y106.807 E11.10713
G1 X100.979 Y107.532 E11.13171
G1 X100.782 Y108.167 E11.15382
G1 X100.551 Y110.061 E11.21729
G1 X100.542 Y110.349 E11.22687
G1 X100.712 Y112.229 E11.28965
G1 X100.735 Y112.366 E11.29427
G1 X101.334 Y114.301 E11.36165
G1 X101.405 Y114.438 E11.36678
G1 X102.319 Y116.071 E11.42902
G1 X102.405 Y116.2 E11.43418
G1 X103.657 Y117.625 E11.49727
G1 X103.851 Y117.806 E11.50609
G1 X105.365 Y118.933 E11.56887
G1 X105.498 Y119.015 E11.57406
G1 X107.223 Y119.804 E11.63715
G1 X107.476 Y119.888 E11.64602
G1 X109.318 Y120.297 E11.70878
G1 X109.475 Y120.316 E11.71404
G0 F3000 X109.501 Y119.916
;TYPE:WALL-OUTER
G1 F1200 X111.348 Y119.93 E11.77547
G1 X111.575 Y119.907 E11.78306
G1 X113.381 Y119.536 E11.84438
G1 X113.494 Y119.499 E11.84834
G1 X115.183 Y118.758 E11.90968
G1 X115.301 Y118.7 E11.91406
G1 X116.796 Y117.623 E11.97534
G1 X116.92 Y117.531 E11.98047
G1 X118.271 Y116.04 E12.04739
G1 X119.282 Y114.298 E12.11438
G1 X119.907 Y112.383 E12.18138
G1 X120.115 Y110.392 E12.24797
G1 X120.115 Y110.329 E12.25006
G1 X119.913 Y108.422 E12.31384
G1 X119.878 Y108.274 E12.3189
G1 X119.327 Y106.597 E12.37761
G1 X119.149 Y106.228 E12.39124
G1 X118.281 Y104.743 E12.44845
G1 X118.115 Y104.538 E12.45722
G1 X116.98 Y103.294 E12.51323
G1 X116.733 Y103.083 E12.52404
G1 X115.41 Y102.137 E12.57813
G1 X115.055 Y101.937 E12.59168
G1 X113.643 Y101.326 E12.64285
G1 X113.171 Y101.17 E12.65939
G1 X111.796 Y100.895 E12.70603
G1 X111.164 Y100.817 E12.72721
G1 X109.999 Y100.833 E12.76596
G1 X109.127 Y100.895 E12.79503
G1 X108.457 Y101.048 E12.81789
G1 X107.883 Y101.204 E12.83768
G1 X107.178 Y101.305 E12.86136
G1 X106.122 Y101.666 E12.89848
G1 X105.488 Y101.895 E12.9209
G1 X104.997 Y102.168 E12.93959
G1 X104.047 Y102.762 E12.97685
G1 X103.758 Y103.002 E12.98935
G1 X102.615 Y104.459 E13.05094
G1 X102.436 Y104.756 E13.06247
G1 X101.954 Y105.676 E13.09702
G1 X101.755 Y106.212 E13.11603
G1 X101.509 Y106.913 E13.14074
G1 X101.367 Y107.631 E13.16509
G1 X101.175 Y108.251 E13.18667
G1 X100.95 Y110.091 E13.24833
G1 X100.943 Y110.337 E13.25651
G1 X101.109 Y112.178 E13.31799
G1 X101.125 Y112.274 E13.32123
G1 X101.705 Y114.148 E13.38648
G1 X101.757 Y114.248 E13.39023
G1 X102.66 Y115.862 E13.45174
G1 X102.723 Y115.956 E13.4555
G1 X103.945 Y117.346 E13.51706
G1 X104.108 Y117.499 E13.5245
G1 X105.59 Y118.602 E13.58594
G1 X105.687 Y118.662 E13.58973
