;FLAVOR:Marlin
;TIME:1304
;Filament used: 0.652448m
;Layer height: 0.2
;MINX:86.024
;MINY:86.023
;MINZ:0.2
;MAXX:133.96
;MAXY:133.978
;MAXZ:4.8
;Generated with Cura_SteamEngine master
M82 ;absolute extrusion mode
;Sliced at: Fri 15-04-2022 13:03:34
;Basic settings: Layer height: 0.2 Walls: 0.8 Fill: 100
G21 ;metric values
G90 ;absolute positioning
M82 ;set extruder to absolute mode
M107 ;start with the fan off
M117 Start heating ...
M104 S200
M117 Homing X/Y ...
G28 X0 Y0 ;move X/Y to min endstops
M117 Homing Z ...
G28 Z0 ;move Z to min endstops
G1 Z15.0 F100 ;move the platform down 15mm
M117 Heating ...
M109 S200
M117 Start cleaning ...
G92 E0 ;zero the extruded length
G1 F200 E10 ;extrude 10mm of feed stock
G92 E0 ;zero the extruded length again
M117 Intro line ...
G1 Z2.0 F3000 ; Move Z Axis up little to prevent scratching of Heat Bed
G1 X0.1 Y20 Z0.2 F5000.0 ; Move to start position
G1 X0.1 Y200.0 Z0.2 F1500.0 E15 ; Draw the first line
G1 X0.4 Y200.0 Z0.2 F5000.0 ; Move to side a little
G1 X0.4 Y20 Z0.3 F1500.0 E30 ; Draw the second line
G92 E0 ; Reset Extruder
G1 E-1 F500 ; Retract filiment by 1 mm
G1 Z2.0 F3000 ; Move Z Axis up little to prevent scratching of Heat Bed
G1 X5 Y20 Z0.3 F100 ; Move over to prevent blob squish
G1 F100
G92 E0 ; Reset Extruder
M117 Printing...

G92 E0
G92 E0
G1 F1800 E-7
;LAYER_COUNT:23
;LAYER:0
M107
G1 F300 Z0.4
G0 F3000 X92.877 Y93.18 Z0.4
;TYPE:SKIRT
G1 F300 Z0.2
G1 F1800 E0
G1 F1200 X93.395 Y92.698 E0.02353
G1 X94.51 Y91.697 E0.07337
G1 X95.033 Y91.239 E0.09649
G1 X95.381 Y90.966 E0.1112
G1 X95.985 Y90.546 E0.13567
G1 X97.217 Y89.717 E0.18506
G1 X97.787 Y89.344 E0.20772
G1 X98.232 Y89.089 E0.22478
G1 X98.807 Y88.799 E0.2462
G1 X100.136 Y88.15 E0.29539
G1 X100.796 Y87.841 E0.31963
G1 X101.242 Y87.662 E0.33561
G1 X101.862 Y87.452 E0.35738
G1 X103.288 Y86.989 E0.40725
G1 X103.995 Y86.772 E0.43185
G1 X104.426 Y86.666 E0.44661
G1 X105.079 Y86.542 E0.46872
G1 X106.565 Y86.282 E0.51889
G1 X107.269 Y86.169 E0.54261
G1 X107.712 Y86.123 E0.55742
G1 X108.41 Y86.09 E0.58066
G1 X109.839 Y86.039 E0.62822
G1 X110.623 Y86.023 E0.6543
G1 X111.079 Y86.04 E0.66948
G1 X111.753 Y86.103 E0.69199
G1 X113.201 Y86.256 E0.74042
G1 X113.928 Y86.343 E0.76478
G1 X114.439 Y86.435 E0.78204
G1 X115.028 Y86.575 E0.80218
G1 X116.481 Y86.938 E0.85199
G1 X117.172 Y87.121 E0.87577
G1 X117.654 Y87.279 E0.89264
G1 X118.281 Y87.523 E0.91502
G1 X119.63 Y88.068 E0.96341
G1 X120.281 Y88.342 E0.9869
G1 X120.712 Y88.552 E1.00285
G1 X121.339 Y88.903 E1.02675
G1 X122.603 Y89.634 E1.07531
G1 X123.197 Y89.988 E1.09831
G1 X123.561 Y90.233 E1.1129
G1 X124.136 Y90.668 E1.13688
G1 X125.264 Y91.551 E1.18453
G1 X125.864 Y92.035 E1.21017
G1 X126.247 Y92.381 E1.22734
G1 X126.664 Y92.801 E1.24702
G1 X127.748 Y93.925 E1.29896
G1 X128.21 Y94.418 E1.32143
G1 X128.521 Y94.79 E1.33756
G1 X128.921 Y95.328 E1.35985
G1 X129.77 Y96.496 E1.40788
G1 X130.2 Y97.106 E1.4327
G1 X130.469 Y97.541 E1.44972
G1 X130.769 Y98.088 E1.47046
G1 X131.472 Y99.411 E1.52029
G1 X131.793 Y100.035 E1.54363
G1 X131.991 Y100.481 E1.55986
G1 X132.235 Y101.123 E1.58271
G1 X132.734 Y102.5 E1.63142
G1 X132.969 Y103.178 E1.65529
G1 X133.105 Y103.657 E1.67185
G1 X133.25 Y104.293 E1.69355
G1 X133.565 Y105.784 E1.74423
G1 X133.697 Y106.458 E1.76707
G1 X133.758 Y106.889 E1.78155
G1 X133.82 Y107.632 E1.80635
G1 X133.918 Y109.038 E1.85323
G1 X133.96 Y109.798 E1.87854
G1 X133.959 Y110.251 E1.89361
G1 X133.916 Y110.985 E1.91807
G1 X133.817 Y112.41 E1.96557
G1 X133.757 Y113.116 E1.98914
G1 X133.683 Y113.629 E2.00638
G1 X133.561 Y114.238 E2.02704
G1 X133.245 Y115.726 E2.07763
G1 X133.091 Y116.4 E2.10063
G1 X132.957 Y116.862 E2.11663
G1 X132.738 Y117.49 E2.13875
G1 X132.228 Y118.89 E2.18831
G1 X131.967 Y119.573 E2.21262
G1 X131.788 Y119.974 E2.22723
G1 X131.455 Y120.621 E2.25143
G1 X130.777 Y121.896 E2.29946
G1 X130.432 Y122.522 E2.32324
G1 X130.165 Y122.947 E2.33993
G1 X129.818 Y123.437 E2.3599
G1 X128.927 Y124.663 E2.41031
G1 X128.496 Y125.241 E2.43429
G1 X128.205 Y125.588 E2.44935
G1 X127.736 Y126.087 E2.47213
G1 X126.637 Y127.225 E2.52475
G1 X126.185 Y127.678 E2.54603
G1 X125.868 Y127.963 E2.56021
G1 X125.302 Y128.42 E2.5844
G1 X124.135 Y129.331 E2.63365
G1 X123.538 Y129.782 E2.65853
G1 X123.17 Y130.029 E2.67327
G1 X122.569 Y130.385 E2.69651
G1 X121.269 Y131.135 E2.74642
G1 X120.687 Y131.46 E2.76859
G1 X120.289 Y131.655 E2.78333
G1 X119.626 Y131.933 E2.80725
G1 X118.255 Y132.486 E2.85642
G1 X117.631 Y132.729 E2.87869
G1 X117.15 Y132.886 E2.89552
G1 X116.47 Y133.065 E2.9189
G1 X115.077 Y133.413 E2.96666
G1 X114.357 Y133.581 E2.99125
G1 X113.868 Y133.666 E3.00776
G1 X113.242 Y133.74 E3.02872
G1 X111.758 Y133.896 E3.07835
G1 X111.016 Y133.963 E3.10313
G1 X110.567 Y133.978 E3.11808
G1 X109.839 Y133.961 E3.1423
G1 X108.393 Y133.91 E3.19042
G1 X107.681 Y133.874 E3.21413
G1 X107.189 Y133.821 E3.23059
G1 X106.533 Y133.714 E3.2527
G1 X105.06 Y133.454 E3.30245
G1 X104.379 Y133.323 E3.32551
G1 X103.956 Y133.217 E3.34002
G1 X103.299 Y133.014 E3.36289
G1 X101.829 Y132.536 E3.4143
G1 X101.188 Y132.317 E3.43683
G1 X100.78 Y132.152 E3.45147
G1 X100.161 Y131.861 E3.47422
G1 X98.816 Y131.204 E3.524
G1 X98.175 Y130.881 E3.54788
G1 X97.79 Y130.66 E3.56264
G1 X97.21 Y130.281 E3.58569
G1 X95.962 Y129.437 E3.6358
G1 X95.38 Y129.032 E3.65938
G1 X95.033 Y128.761 E3.67402
G1 X94.479 Y128.276 E3.69851
G1 X93.411 Y127.313 E3.74634
G1 X92.869 Y126.81 E3.77094
G1 X92.565 Y126.495 E3.7855
G1 X92.124 Y125.984 E3.80795
G1 X91.107 Y124.774 E3.86052
G1 X90.693 Y124.264 E3.88237
G1 X90.409 Y123.869 E3.89855
G1 X90.052 Y123.314 E3.9205
G1 X89.29 Y122.092 E3.96839
G1 X88.9 Y121.449 E3.99341
G1 X88.689 Y121.053 E4.00833
G1 X88.391 Y120.406 E4.03202
G1 X87.785 Y119.046 E4.08154
G1 X87.515 Y118.416 E4.10434
G1 X87.364 Y118 E4.11906
G1 X87.158 Y117.317 E4.14279
G1 X86.738 Y115.85 E4.19354
G1 X86.558 Y115.182 E4.21655
G1 X86.467 Y114.752 E4.23117
G1 X86.356 Y114.033 E4.25537
G1 X86.155 Y112.606 E4.3033
G1 X86.065 Y111.893 E4.3272
G1 X86.034 Y111.451 E4.34194
G1 X86.024 Y110.775 E4.36442
G1 X86.024 Y109.255 E4.41498
G1 X86.034 Y108.557 E4.4382
G1 X86.068 Y108.075 E4.45427
G1 X86.16 Y107.36 E4.47825
G1 X86.362 Y105.927 E4.52638
G1 X86.473 Y105.217 E4.55028
G1 X86.581 Y104.722 E4.56713
G1 X86.743 Y104.13 E4.58755
G1 X87.164 Y102.663 E4.63831
G1 X87.358 Y102.016 E4.66077
G1 X87.514 Y101.586 E4.67599
G1 X87.794 Y100.934 E4.69959
G1 X88.391 Y99.595 E4.74835
G1 X88.705 Y98.916 E4.77323
G1 X88.919 Y98.515 E4.78835
G1 X89.287 Y97.911 E4.81187
G1 X90.05 Y96.691 E4.85973
G1 X90.455 Y96.064 E4.88456
G1 X90.717 Y95.704 E4.89937
G1 X91.149 Y95.175 E4.92208
G1 X92.121 Y94.019 E4.97232
G1 X92.575 Y93.493 E4.99543
G1 X92.877 Y93.18 E5.00989
G0 F3000 X93.149 Y93.473
G1 F1200 X93.663 Y92.995 E5.03324
G1 X94.773 Y91.998 E5.08286
G1 X95.296 Y91.54 E5.10599
G1 X95.61 Y91.294 E5.11925
G1 X96.208 Y90.878 E5.14348
G1 X97.436 Y90.052 E5.19271
G1 X98.006 Y89.679 E5.21536
G1 X98.412 Y89.446 E5.23093
G1 X98.983 Y89.158 E5.2522
G1 X100.306 Y88.513 E5.30116
G1 X100.966 Y88.204 E5.32539
G1 X101.371 Y88.041 E5.33991
G1 X101.986 Y87.832 E5.36152
G1 X103.406 Y87.371 E5.41117
G1 X104.113 Y87.154 E5.43577
G1 X104.5 Y87.059 E5.44903
G1 X105.148 Y86.936 E5.47096
G1 X106.628 Y86.676 E5.52094
G1 X107.332 Y86.563 E5.54466
G1 X107.732 Y86.522 E5.55803
G1 X108.424 Y86.489 E5.58107
G1 X109.848 Y86.439 E5.62846
G1 X110.632 Y86.423 E5.65455
G1 X111.042 Y86.438 E5.66819
G1 X111.711 Y86.501 E5.69054
G1 X113.154 Y86.654 E5.7388
G1 X113.881 Y86.741 E5.76316
G1 X114.347 Y86.824 E5.7789
G1 X114.931 Y86.963 E5.79887
G1 X116.379 Y87.325 E5.84851
G1 X117.07 Y87.508 E5.87229
G1 X117.509 Y87.652 E5.88765
G1 X118.131 Y87.894 E5.90985
G1 X119.475 Y88.437 E5.95806
G1 X120.126 Y88.711 E5.98155
G1 X120.517 Y88.902 E5.99603
G1 X121.139 Y89.249 E6.01972
G1 X122.398 Y89.978 E6.0681
G1 X122.992 Y90.332 E6.0911
G1 X123.32 Y90.552 E6.10424
G1 X123.89 Y90.983 E6.12801
G1 X125.013 Y91.862 E6.17544
G1 X125.613 Y92.346 E6.20108
G1 X125.963 Y92.663 E6.21679
G1 X126.376 Y93.078 E6.23626
G1 X127.456 Y94.198 E6.28801
G1 X127.918 Y94.691 E6.31048
G1 X128.201 Y95.029 E6.32514
G1 X128.598 Y95.563 E6.34727
G1 X129.443 Y96.727 E6.39511
G1 X129.873 Y97.337 E6.41994
G1 X130.119 Y97.733 E6.43544
G1 X130.416 Y98.276 E6.45603
G1 X131.116 Y99.594 E6.50566
G1 X131.437 Y100.218 E6.529
G1 X131.617 Y100.624 E6.54377
G1 X131.859 Y101.26 E6.56641
G1 X132.356 Y102.631 E6.61491
G1 X132.591 Y103.309 E6.63878
G1 X132.715 Y103.746 E6.65389
G1 X132.859 Y104.376 E6.67538
G1 X133.173 Y105.861 E6.72586
G1 X133.305 Y106.535 E6.74871
G1 X133.359 Y106.922 E6.7617
G1 X133.421 Y107.66 E6.78634
G1 X133.519 Y109.06 E6.83301
G1 X133.561 Y109.82 E6.85833
G1 X133.56 Y110.228 E6.8719
G1 X133.517 Y110.957 E6.89619
G1 X133.418 Y112.376 E6.9435
G1 X133.358 Y113.082 E6.96707
G1 X133.29 Y113.551 E6.98283
G1 X133.17 Y114.155 E7.00331
G1 X132.855 Y115.637 E7.0537
G1 X132.701 Y116.311 E7.0767
G1 X132.58 Y116.73 E7.0912
G1 X132.362 Y117.353 E7.11316
G1 X131.855 Y118.747 E7.16249
G1 X131.594 Y119.43 E7.18681
G1 X131.433 Y119.791 E7.19996
G1 X131.102 Y120.434 E7.22401
G1 X130.427 Y121.703 E7.27182
G1 X130.082 Y122.329 E7.29559
G1 X129.839 Y122.716 E7.31079
G1 X129.495 Y123.202 E7.33059
G1 X128.606 Y124.424 E7.38086
G1 X128.175 Y125.002 E7.40484
G1 X127.913 Y125.314 E7.41839
G1 X127.448 Y125.809 E7.44098
G1 X126.353 Y126.943 E7.49341
G1 X125.901 Y127.396 E7.51469
G1 X125.617 Y127.652 E7.52741
G1 X125.056 Y128.105 E7.55139
G1 X123.894 Y129.011 E7.6004
G1 X123.297 Y129.462 E7.62528
G1 X122.966 Y129.685 E7.63856
G1 X122.37 Y130.039 E7.66161
G1 X121.074 Y130.786 E7.71137
G1 X120.492 Y131.111 E7.73354
G1 X120.134 Y131.286 E7.74679
G1 X119.476 Y131.563 E7.77054
G1 X118.109 Y132.114 E7.81956
G1 X117.485 Y132.357 E7.84183
G1 X117.048 Y132.499 E7.85711
G1 X116.374 Y132.677 E7.8803
G1 X114.926 Y133.038 E7.92993
G1 X114.266 Y133.192 E7.95247
G1 X113.821 Y133.269 E7.9675
G1 X113.201 Y133.342 E7.98826
G1 X111.722 Y133.497 E8.03772
G1 X110.98 Y133.564 E8.0625
G1 X110.576 Y133.578 E8.07594
G1 X109.853 Y133.562 E8.1
G1 X108.413 Y133.51 E8.14792
G1 X107.701 Y133.474 E8.17164
G1 X107.254 Y133.426 E8.18659
G1 X106.602 Y133.32 E8.20856
G1 X105.136 Y133.061 E8.25807
G1 X104.455 Y132.93 E8.28114
G1 X104.074 Y132.835 E8.2942
G1 X103.423 Y132.634 E8.31686
G1 X101.958 Y132.158 E8.36809
G1 X101.317 Y131.939 E8.39062
G1 X100.95 Y131.79 E8.4038
G1 X100.336 Y131.501 E8.42637
G1 X98.996 Y130.847 E8.47596
G1 X98.355 Y130.524 E8.49983
G1 X98.009 Y130.325 E8.51311
G1 X97.434 Y129.949 E8.53596
G1 X96.191 Y129.109 E8.58586
G1 X95.609 Y128.704 E8.60944
G1 X95.296 Y128.46 E8.62264
G1 X94.747 Y127.979 E8.64692
G1 X93.683 Y127.02 E8.69456
G1 X93.141 Y126.517 E8.71915
G1 X92.867 Y126.233 E8.73228
G1 X92.43 Y125.727 E8.75452
G1 X91.418 Y124.522 E8.80685
G1 X91.004 Y124.012 E8.8287
G1 X90.745 Y123.653 E8.84343
G1 X90.391 Y123.102 E8.86521
G1 X89.632 Y121.885 E8.91291
G1 X89.242 Y121.242 E8.93792
G1 X89.052 Y120.885 E8.95138
G1 X88.756 Y120.244 E8.97486
G1 X88.153 Y118.888 E9.02422
G1 X87.883 Y118.258 E9.04701
G1 X87.747 Y117.884 E9.06025
G1 X87.542 Y117.207 E9.08378
G1 X87.124 Y115.746 E9.13432
G1 X86.944 Y115.078 E9.15733
G1 X86.862 Y114.691 E9.17049
G1 X86.752 Y113.977 E9.19452
G1 X86.552 Y112.556 E9.24224
G1 X86.462 Y111.843 E9.26615
G1 X86.434 Y111.445 E9.27942
G1 X86.424 Y110.769 E9.3019
G1 X86.424 Y109.26 E9.35209
G1 X86.434 Y108.562 E9.37531
G1 X86.465 Y108.126 E9.38985
G1 X86.556 Y107.416 E9.41366
G1 X86.757 Y105.989 E9.46159
G1 X86.868 Y105.279 E9.48549
G1 X86.966 Y104.828 E9.50084
G1 X87.127 Y104.24 E9.52112
G1 X87.547 Y102.778 E9.57171
G1 X87.741 Y102.131 E9.59418
G1 X87.881 Y101.744 E9.60786
G1 X88.16 Y101.097 E9.6313
G1 X88.754 Y99.763 E9.67987
G1 X89.068 Y99.084 E9.70475
G1 X89.261 Y98.723 E9.71836
G1 X89.626 Y98.123 E9.74172
G1 X90.386 Y96.908 E9.78939
G1 X90.791 Y96.281 E9.81421
G1 X91.026 Y95.957 E9.82753
G1 X91.455 Y95.433 E9.85005
G1 X92.424 Y94.281 E9.90012
G1 X92.878 Y93.755 E9.92323
G1 X93.149 Y93.473 E9.93624
G0 F3000 X93.422 Y93.765
G1 F1200 X93.93 Y93.293 E9.9593
G1 X95.037 Y92.299 E10.00879
G1 X95.56 Y91.841 E10.03191
G1 X95.838 Y91.623 E10.04366
G1 X96.432 Y91.21 E10.06772
G1 X97.655 Y90.386 E10.11677
G1 X98.225 Y90.013 E10.13943
G1 X98.592 Y89.803 E10.15349
G1 X99.158 Y89.518 E10.17457
G1 X100.475 Y88.875 E10.22331
G1 X101.135 Y88.566 E10.24755
G1 X101.5 Y88.42 E10.26062
G1 X102.11 Y88.212 E10.28206
G1 X103.523 Y87.754 E10.33146
G1 X104.23 Y87.537 E10.35606
G1 X104.575 Y87.452 E10.36788
G1 X105.218 Y87.33 E10.38965
G1 X106.692 Y87.071 E10.43942
G1 X107.396 Y86.958 E10.46314
G1 X107.751 Y86.922 E10.47501
G1 X108.438 Y86.889 E10.49788
G1 X109.856 Y86.839 E10.54508
G1 X110.64 Y86.823 E10.57116
G1 X111.004 Y86.836 E10.58327
G1 X111.669 Y86.899 E10.60549
G1 X113.106 Y87.051 E10.65355
G1 X113.833 Y87.138 E10.6779
G1 X114.254 Y87.213 E10.69213
G1 X114.834 Y87.351 E10.71195
G1 X116.276 Y87.712 E10.7614
G1 X116.967 Y87.895 E10.78517
G1 X117.364 Y88.025 E10.79906
G1 X117.981 Y88.265 E10.82108
G1 X119.319 Y88.806 E10.86909
G1 X119.97 Y89.08 E10.89258
G1 X120.322 Y89.251 E10.90559
G1 X120.938 Y89.595 E10.92906
G1 X122.193 Y90.321 E10.97728
G1 X122.787 Y90.675 E11.00028
G1 X123.078 Y90.871 E11.01195
G1 X123.643 Y91.299 E11.03553
G1 X124.762 Y92.173 E11.08275
G1 X125.362 Y92.657 E11.10839
G1 X125.68 Y92.945 E11.12266
G1 X126.088 Y93.356 E11.14192
G1 X127.164 Y94.472 E11.19348
G1 X127.626 Y94.965 E11.21596
G1 X127.88 Y95.268 E11.22911
G1 X128.274 Y95.798 E11.25107
G1 X129.116 Y96.957 E11.29872
G1 X129.546 Y97.567 E11.32354
G1 X129.768 Y97.926 E11.33758
G1 X130.063 Y98.463 E11.35796
G1 X130.761 Y99.777 E11.40745
G1 X131.082 Y100.401 E11.43079
G1 X131.243 Y100.766 E11.44405
G1 X131.483 Y101.396 E11.46648
G1 X131.979 Y102.762 E11.51481
G1 X132.214 Y103.44 E11.53868
G1 X132.326 Y103.835 E11.55233
G1 X132.468 Y104.459 E11.57362
G1 X132.78 Y105.938 E11.62389
G1 X132.912 Y106.612 E11.64674
G1 X132.961 Y106.956 E11.65829
G1 X133.022 Y107.688 E11.68273
G1 X133.119 Y109.082 E11.7292
G1 X133.161 Y109.842 E11.75452
G1 X133.161 Y110.205 E11.76659
G1 X133.118 Y110.929 E11.79071
G1 X133.02 Y112.342 E11.83782
G1 X132.96 Y113.048 E11.86139
G1 X132.898 Y113.473 E11.87568
G1 X132.779 Y114.072 E11.89599
G1 X132.465 Y115.548 E11.94618
G1 X132.311 Y116.222 E11.96917
G1 X132.202 Y116.598 E11.98219
G1 X131.986 Y117.216 E12.00397
G1 X131.481 Y118.604 E12.05309
G1 X131.22 Y119.287 E12.07741
G1 X131.077 Y119.608 E12.0891
G1 X130.749 Y120.246 E12.11296
G1 X130.077 Y121.51 E12.16057
G1 X129.732 Y122.136 E12.18435
G1 X129.512 Y122.485 E12.19807
G1 X129.171 Y122.967 E12.21771
G1 X128.285 Y124.185 E12.2678
G1 X127.854 Y124.763 E12.29178
G1 X127.622 Y125.04 E12.3038
G1 X127.16 Y125.531 E12.32622
G1 X126.07 Y126.66 E12.37842
G1 X125.618 Y127.113 E12.3997
G1 X125.365 Y127.341 E12.41103
G1 X124.81 Y127.789 E12.43475
G1 X123.653 Y128.692 E12.48357
G1 X123.056 Y129.143 E12.50845
G1 X122.762 Y129.341 E12.52024
G1 X122.17 Y129.693 E12.54315
G1 X120.879 Y130.437 E12.59271
G1 X120.297 Y130.762 E12.61488
G1 X119.979 Y130.917 E12.62665
G1 X119.326 Y131.192 E12.65021
G1 X117.964 Y131.741 E12.69905
G1 X117.34 Y131.984 E12.72133
G1 X116.946 Y132.112 E12.73511
G1 X116.277 Y132.289 E12.75812
G1 X114.835 Y132.648 E12.80755
G1 X114.175 Y132.802 E12.83009
G1 X113.773 Y132.872 E12.84366
G1 X113.159 Y132.944 E12.86422
G1 X111.686 Y133.099 E12.91349
G1 X110.944 Y133.166 E12.93826
G1 X110.585 Y133.178 E12.95021
G1 X109.867 Y133.162 E12.9741
G1 X108.433 Y133.111 E13.02182
G1 X107.721 Y133.075 E13.04554
G1 X107.318 Y133.031 E13.05902
G1 X106.672 Y132.926 E13.08079
G1 X105.212 Y132.668 E13.1301
G1 X104.531 Y132.537 E13.15316
G1 X104.192 Y132.453 E13.16478
G1 X103.546 Y132.253 E13.18727
G1 X102.087 Y131.779 E13.2383
G1 X101.446 Y131.56 E13.26083
G1 X101.12 Y131.428 E13.27252
G1 X100.511 Y131.142 E13.2949
G1 X99.176 Y130.49 E13.34432
G1 X98.535 Y130.167 E13.36819
G1 X98.227 Y129.989 E13.38002
G1 X97.658 Y129.618 E13.40261
G1 X96.419 Y128.781 E13.45235
G1 X95.837 Y128.376 E13.47593
G1 X95.559 Y128.158 E13.48768
G1 X95.014 Y127.682 E13.51175
G1 X93.955 Y126.727 E13.55917
G1 X93.413 Y126.224 E13.58377
