;FLAVOR:Marlin
;TIME:5471
;Filament used: 3.21708m
;Layer height: 0.2
;MINX:86.747
;MINY:68.136
;MINZ:0.2
;MAXX:133.36
;MAXY:150.468
;MAXZ:79.8
;Generated with Cura_SteamEngine master
M82 ;absolute extrusion mode
;Sliced at: Wed 13-04-2022 01:20:49
;Basic settings: Layer height: 0.2 Walls: 0.8 Fill: 20
G21 ;metric values
G90 ;absolute positioning
M82 ;set extruder to absolute mode
M107 ;start with the fan off
M117 Start heating ...
M104 S200
M117 Homing X/Y ...
G28 X0 Y0 ;move X/Y to min endstops
M117 Homing Z ...
G28 Z0 ;move Z to min endstops
G1 Z15.0 F100 ;move the platform down 15mm
M117 Heating ...
M109 S200
M117 Start cleaning ...
G92 E0 ;zero the extruded length
G1 F200 E10 ;extrude 10mm of feed stock
G92 E0 ;zero the extruded length again
M117 Intro line ...
G1 Z2.0 F3000 ; Move Z Axis up little to prevent scratching of Heat Bed
G1 X0.1 Y20 Z0.2 F5000.0 ; Move to start position
G1 X0.1 Y200.0 Z0.2 F1500.0 E15 ; Draw the first line
G1 X0.4 Y200.0 Z0.2 F5000.0 ; Move to side a little
G1 X0.4 Y20 Z0.3 F1500.0 E30 ; Draw the second line
G92 E0 ; Reset Extruder
G1 E-1 F500 ; Retract filiment by 1 mm
G1 Z2.0 F3000 ; Move Z Axis up little to prevent scratching of Heat Bed
G1 X5 Y20 Z0.3 F100 ; Move over to prevent blob squish
G1 F100
G92 E0 ; Reset Extruder
M117 Printing...

G92 E0
G92 E0
G1 F1800 E-7
;LAYER_COUNT:399
;LAYER:0
M107
G1 F300 Z0.4
G0 F3000 X91.996 Y75.474 Z0.4
;TYPE:SKIRT
G1 F300 Z0.2
G1 F1800 E0
G1 F1200 X92.326 Y75.084 E0.01699
G1 X92.732 Y74.661 E0.03649
G1 X93.006 Y74.4 E0.04908
G1 X94.352 Y73.152 E0.11013
G1 X94.971 Y72.639 E0.13687
G1 X95.741 Y72.099 E0.16815
G1 X96.648 Y71.482 E0.20463
G1 X97.193 Y71.122 E0.22636
G1 X97.597 Y70.888 E0.24189
G1 X98.496 Y70.436 E0.27535
G1 X99.475 Y69.964 E0.3115
G1 X100.024 Y69.709 E0.33164
G1 X100.456 Y69.538 E0.34709
G1 X101.61 Y69.158 E0.3875
G1 X102.389 Y68.918 E0.41461
G1 X103.111 Y68.708 E0.43962
G1 X103.562 Y68.605 E0.45501
G1 X104.631 Y68.425 E0.49106
G1 X105.558 Y68.287 E0.52223
G1 X106.299 Y68.186 E0.54711
G1 X107.129 Y68.138 E0.57476
G1 X107.254 Y68.136 E0.57892
G1 X108.757 Y68.136 E0.62891
G1 X109.473 Y68.147 E0.65272
G1 X110.152 Y68.202 E0.67538
G1 X110.657 Y68.271 E0.69233
G1 X111.918 Y68.461 E0.73475
G1 X112.731 Y68.602 E0.76219
G1 X113.322 Y68.748 E0.78244
G1 X113.453 Y68.786 E0.78698
G1 X115.338 Y69.368 E0.85259
G1 X116.03 Y69.613 E0.87701
G1 X116.235 Y69.703 E0.88446
G1 X117.001 Y70.058 E0.91254
G1 X117.987 Y70.534 E0.94895
G1 X118.586 Y70.834 E0.97123
G1 X118.985 Y71.064 E0.98655
G1 X119.838 Y71.623 E1.02047
G1 X120.789 Y72.271 E1.05875
G1 X121.329 Y72.655 E1.08079
G1 X121.648 Y72.915 E1.09447
G1 X122.639 Y73.813 E1.13895
G1 X123.144 Y74.283 E1.1619
G1 X123.59 Y74.71 E1.18244
G1 X123.837 Y74.968 E1.19431
G1 X124.229 Y75.417 E1.21414
G1 X124.581 Y75.845 E1.23257
G1 X125.176 Y76.591 E1.26431
G1 X125.525 Y77.046 E1.28338
G1 X125.844 Y77.487 E1.30148
G1 X126.043 Y77.79 E1.31354
G1 X126.354 Y78.315 E1.33384
G1 X126.927 Y79.31 E1.37202
G1 X127.267 Y79.916 E1.39514
G1 X127.475 Y80.343 E1.41093
G1 X127.922 Y81.424 E1.44984
G1 X128.216 Y82.176 E1.4767
G1 X128.5 Y82.93 E1.50349
G1 X128.684 Y83.539 E1.52465
G1 X128.754 Y83.834 E1.53474
G1 X129.116 Y85.423 E1.58894
G1 X129.255 Y86.073 E1.61105
G1 X129.326 Y86.54 E1.62676
G1 X129.423 Y87.592 E1.6619
G1 X129.49 Y88.489 E1.69182
G1 X129.536 Y89.243 E1.71694
G1 X129.533 Y89.892 E1.73853
G1 X129.496 Y90.466 E1.75766
G1 X129.406 Y91.646 E1.79702
G1 X129.236 Y93.539 E1.86023
G1 X129.029 Y96.273 E1.95143
G1 X128.898 Y99.04 E2.04356
G1 X128.847 Y101.711 E2.13242
G1 X128.874 Y104.458 E2.22379
G1 X128.975 Y107.161 E2.31375
G1 X129.155 Y109.87 E2.40405
G1 X129.408 Y112.554 E2.49372
G1 X129.739 Y115.248 E2.58399
G1 X130.151 Y117.961 E2.67526
G1 X130.631 Y120.612 E2.76487
G1 X131.19 Y123.274 E2.85534
G1 X131.82 Y125.896 E2.94503
G1 X132.601 Y128.774 E3.04421
G1 X133.123 Y130.595 E3.10722
G1 X133.238 Y131.084 E3.12393
G1 X133.275 Y131.287 E3.13079
G1 X133.339 Y131.927 E3.15218
G1 X133.36 Y133.038 E3.18914
G1 X133.36 Y136.608 E3.30788
G1 X133.351 Y137.279 E3.3302
G1 X133.3 Y137.86 E3.3496
G1 X133.17 Y138.564 E3.37341
G1 X133.024 Y139.096 E3.39176
G1 X132.786 Y139.844 E3.41787
G1 X132.522 Y140.551 E3.44297
G1 X132.247 Y141.164 E3.46531
G1 X131.751 Y142.191 E3.50325
G1 X131.51 Y142.623 E3.5197
G1 X131.157 Y143.18 E3.54163
G1 X131.08 Y143.296 E3.54626
G1 X130.685 Y143.873 E3.56952
G1 X130.273 Y144.444 E3.59294
G1 X129.776 Y145.044 E3.61885
G1 X129.425 Y145.43 E3.6362
G1 X129.059 Y145.809 E3.65373
G1 X128.556 Y146.28 E3.67665
G1 X128.486 Y146.338 E3.67967
G1 X128.007 Y146.679 E3.69923
G1 X126.944 Y147.322 E3.74055
G1 X123.895 Y149.082 E3.85764
G1 X123.359 Y149.382 E3.87807
G1 X122.826 Y149.631 E3.89764
G1 X122.099 Y149.887 E3.92327
G1 X121.65 Y150.004 E3.93871
G1 X120.847 Y150.18 E3.96605
G1 X120.214 Y150.293 E3.98743
G1 X119.954 Y150.325 E3.99615
G1 X119.347 Y150.383 E4.01643
G1 X118.284 Y150.46 E4.05188
G1 X117.752 Y150.468 E4.06957
G1 X117.098 Y150.438 E4.09135
G1 X116.39 Y150.385 E4.11496
G1 X115.599 Y150.305 E4.1414
G1 X114.844 Y150.178 E4.16687
G1 X114.308 Y150.062 E4.18511
G1 X113.811 Y149.937 E4.20215
G1 X113.124 Y149.727 E4.22605
G1 X113.022 Y149.688 E4.22968
G1 X112.526 Y149.458 E4.24786
G1 X111.472 Y148.879 E4.28786
G1 X108.405 Y147.106 E4.40569
G1 X107.795 Y146.741 E4.42933
G1 X107.251 Y146.351 E4.45159
G1 X106.811 Y145.96 E4.47117
G1 X106.429 Y145.571 E4.48931
G1 X105.953 Y145.05 E4.51278
G1 X105.449 Y144.444 E4.53899
G1 X105.046 Y143.887 E4.56186
G1 X104.978 Y143.79 E4.5658
G1 X104.461 Y143.029 E4.5964
G1 X104.129 Y142.484 E4.61762
G1 X103.869 Y141.986 E4.63631
G1 X103.812 Y141.872 E4.64055
G1 X103.518 Y141.26 E4.66313
G1 X103.211 Y140.582 E4.68788
G1 X102.936 Y139.856 E4.71371
G1 X102.757 Y139.298 E4.7332
G1 X102.616 Y138.812 E4.75003
G1 X102.452 Y138.095 E4.77449
G1 X102.408 Y137.822 E4.78369
G1 X102.262 Y136.763 E4.81924
G1 X102.188 Y136.157 E4.83955
G1 X101.773 Y133.426 E4.93143
G1 X101.298 Y130.8 E5.02018
G1 X100.732 Y128.103 E5.11184
G1 X100.114 Y125.522 E5.20011
G1 X99.396 Y122.864 E5.29169
G1 X98.61 Y120.253 E5.38238
G1 X97.76 Y117.687 E5.47228
G1 X96.826 Y115.118 E5.5632
G1 X95.836 Y112.616 E5.6527
G1 X94.747 Y110.081 E5.74446
G1 X93.633 Y107.672 E5.83274
G1 X92.406 Y105.203 E5.92444
G1 X91.141 Y102.833 E6.01379
G1 X90.212 Y101.227 E6.0755
G1 X90.091 Y100.978 E6.08471
G1 X89.362 Y99.713 E6.13327
G1 X89.079 Y99.201 E6.15272
G1 X88.808 Y98.672 E6.17249
G1 X88.664 Y98.358 E6.18398
G1 X88.454 Y97.841 E6.20254
G1 X88.014 Y96.718 E6.24266
G1 X87.736 Y95.96 E6.26951
G1 X87.588 Y95.448 E6.28724
G1 X87.482 Y95.004 E6.30242
G1 X87.092 Y93.29 E6.36089
G1 X86.956 Y92.511 E6.38719
G1 X86.862 Y91.463 E6.42218
G1 X86.787 Y90.441 E6.45627
G1 X86.748 Y89.806 E6.47743
G1 X86.747 Y89.333 E6.49316
G1 X86.806 Y88.298 E6.52764
G1 X86.885 Y87.26 E6.56226
G1 X86.932 Y86.713 E6.58052
G1 X87.006 Y86.189 E6.59812
G1 X87.256 Y84.982 E6.63912
G1 X87.447 Y84.146 E6.66764
G1 X87.602 Y83.512 E6.68935
G1 X87.736 Y83.076 E6.70452
G1 X88.169 Y81.905 E6.74605
G1 X88.49 Y81.091 E6.77515
G1 X88.731 Y80.505 E6.79622
G1 X88.926 Y80.097 E6.81126
G1 X89.544 Y78.976 E6.85384
G1 X89.912 Y78.342 E6.87822
G1 X90.305 Y77.683 E6.90374
G1 X90.689 Y77.123 E6.92633
G1 X91.005 Y76.714 E6.94352
G1 X91.996 Y75.474 E6.99631
G0 F3000 X92.307 Y75.725
G1 F1200 X92.631 Y75.343 E7.01297
G1 X93.014 Y74.945 E7.03134
G1 X93.278 Y74.693 E7.04348
G1 X94.617 Y73.452 E7.1042
G1 X95.201 Y72.967 E7.12945
G1 X95.966 Y72.43 E7.16054
G1 X96.869 Y71.816 E7.19686
G1 X97.414 Y71.456 E7.21858
G1 X97.777 Y71.245 E7.23255
G1 X98.669 Y70.796 E7.26576
G1 X99.643 Y70.327 E7.30172
G1 X100.192 Y70.072 E7.32185
G1 X100.581 Y69.918 E7.33577
G1 X101.728 Y69.541 E7.37592
G1 X102.501 Y69.302 E7.40283
G1 X103.223 Y69.092 E7.42784
G1 X103.629 Y68.999 E7.4417
G1 X104.69 Y68.821 E7.47748
G1 X105.612 Y68.683 E7.50849
G1 X106.353 Y68.582 E7.53336
G1 X107.141 Y68.538 E7.55961
G1 X107.254 Y68.536 E7.56337
G1 X108.751 Y68.536 E7.61316
G1 X109.467 Y68.547 E7.63698
G1 X110.111 Y68.6 E7.65847
G1 X110.598 Y68.666 E7.67481
G1 X111.855 Y68.856 E7.7171
G1 X112.659 Y68.995 E7.74423
G1 X113.217 Y69.134 E7.76336
G1 X113.335 Y69.168 E7.76745
G1 X115.213 Y69.748 E7.83282
G1 X115.871 Y69.98 E7.85602
G1 X116.067 Y70.066 E7.86314
G1 X116.827 Y70.418 E7.891
G1 X117.808 Y70.892 E7.92724
G1 X118.407 Y71.192 E7.94952
G1 X118.766 Y71.399 E7.9633
G1 X119.612 Y71.953 E7.99694
G1 X120.561 Y72.6 E8.03514
G1 X121.093 Y72.977 E8.05683
G1 X121.38 Y73.212 E8.06916
G1 X122.367 Y74.107 E8.11348
G1 X122.868 Y74.572 E8.13621
G1 X123.314 Y74.999 E8.15675
G1 X123.536 Y75.231 E8.16743
G1 X123.928 Y75.68 E8.18725
G1 X124.269 Y76.095 E8.20512
G1 X124.859 Y76.836 E8.23662
G1 X125.201 Y77.28 E8.25526
G1 X125.52 Y77.721 E8.27337
G1 X125.699 Y77.994 E8.28422
G1 X126.008 Y78.515 E8.30437
G1 X126.579 Y79.506 E8.34241
G1 X126.919 Y80.112 E8.36552
G1 X127.105 Y80.496 E8.37971
G1 X127.549 Y81.57 E8.41837
G1 X127.842 Y82.317 E8.44506
G1 X128.126 Y83.071 E8.47185
G1 X128.295 Y83.632 E8.49134
G1 X128.364 Y83.923 E8.50129
G1 X128.724 Y85.506 E8.55528
G1 X128.863 Y86.156 E8.57739
G1 X128.928 Y86.576 E8.59153
G1 X129.024 Y87.622 E8.62646
G1 X129.09 Y88.514 E8.65621
G1 X129.136 Y89.268 E8.68134
G1 X129.134 Y89.866 E8.70123
G1 X129.097 Y90.435 E8.72019
G1 X129.008 Y91.61 E8.75938
G1 X128.833 Y93.56 E8.8245
G1 X128.627 Y96.287 E8.91546
G1 X128.499 Y99.013 E9.00623
G1 X128.447 Y101.711 E9.09598
G1 X128.474 Y104.477 E9.18798
G1 X128.575 Y107.169 E9.27758
G1 X128.755 Y109.895 E9.36845
G1 X129.013 Y112.62 E9.45948
G1 X129.345 Y115.32 E9.54996
G1 X129.756 Y118.027 E9.64103
G1 X130.238 Y120.687 E9.73094
G1 X130.796 Y123.344 E9.82124
G1 X131.441 Y126.03 E9.91312
G1 X132.2 Y128.827 E10.00951
G1 X132.71 Y130.602 E10.07094
G1 X132.845 Y131.155 E10.08987
G1 X132.882 Y131.358 E10.09673
G1 X132.939 Y131.934 E10.11599
G1 X132.96 Y133.038 E10.15271
G1 X132.96 Y136.602 E10.27125
G1 X132.951 Y137.273 E10.29357
G1 X132.905 Y137.797 E10.31107
G1 X132.782 Y138.464 E10.33362
G1 X132.643 Y138.975 E10.35124
G1 X132.405 Y139.723 E10.37734
G1 X132.157 Y140.388 E10.40095
G1 X131.887 Y140.991 E10.42293
G1 X131.444 Y141.911 E10.45689
G1 X131.172 Y142.409 E10.47576
G1 X130.819 Y142.966 E10.49769
G1 X130.75 Y143.071 E10.50187
G1 X130.413 Y143.564 E10.52173
G1 X129.948 Y144.209 E10.54818
G1 X129.472 Y144.783 E10.57298
G1 X129.138 Y145.152 E10.58954
G1 X128.772 Y145.531 E10.60706
G1 X128.301 Y145.972 E10.62852
G1 X128.231 Y146.03 E10.63154
G1 X127.8 Y146.337 E10.64914
G1 X126.744 Y146.976 E10.6902
G1 X123.699 Y148.733 E10.80712
G1 X123.163 Y149.033 E10.82755
G1 X122.683 Y149.257 E10.84517
G1 X121.994 Y149.501 E10.86948
G1 X121.565 Y149.614 E10.88424
G1 X120.762 Y149.79 E10.91158
G1 X120.163 Y149.897 E10.93182
G1 X119.915 Y149.927 E10.94013
G1 X119.318 Y149.984 E10.96007
G1 X118.266 Y150.06 E10.99515
G1 X117.77 Y150.069 E11.01165
G1 X117.241 Y150.046 E11.02927
G1 X116.42 Y149.986 E11.05664
G1 X115.64 Y149.907 E11.08272
G1 X114.918 Y149.784 E11.10708
G1 X114.406 Y149.674 E11.1245
G1 X113.796 Y149.519 E11.14543
G1 X113.267 Y149.354 E11.16386
G1 X112.718 Y149.108 E11.18387
G1 X111.672 Y148.532 E11.22359
G1 X108.611 Y146.763 E11.34118
G1 X108.001 Y146.398 E11.36482
G1 X107.511 Y146.046 E11.38489
G1 X107.083 Y145.667 E11.4039
G1 X106.724 Y145.301 E11.42095
G1 X106.248 Y144.78 E11.44442
G1 X105.773 Y144.209 E11.46913
G1 X105.309 Y143.565 E11.49553
G1 X104.74 Y142.726 E11.52924
G1 X104.484 Y142.299 E11.5458
G1 X104.172 Y141.698 E11.56833
G1 X103.883 Y141.095 E11.59057
G1 X103.576 Y140.417 E11.61532
G1 X103.314 Y139.724 E11.63996
G1 X103.142 Y139.186 E11.65875
G1 X103.001 Y138.7 E11.67558
G1 X102.846 Y138.028 E11.69852
G1 X102.804 Y137.768 E11.70728
G1 X102.659 Y136.714 E11.74266
G1 X102.582 Y136.085 E11.76374
G1 X102.174 Y133.402 E11.854
G1 X101.683 Y130.685 E11.94583
G1 X101.126 Y128.034 E12.03593
G1 X100.495 Y125.397 E12.12611
G1 X99.78 Y122.75 E12.21731
G1 X98.998 Y120.149 E12.30764
G1 X98.14 Y117.561 E12.39833
G1 X97.198 Y114.97 E12.49002
G1 X96.204 Y112.459 E12.57985
G1 X95.12 Y109.934 E12.67124
G1 X93.983 Y107.476 E12.76132
G1 X92.774 Y105.044 E12.85165
G1 X91.494 Y102.646 E12.94206
G1 X90.558 Y101.027 E13.00426
G1 X90.443 Y100.788 E13.01308
G1 X89.711 Y99.519 E13.0618
G1 X89.435 Y99.018 E13.08083
G1 X89.164 Y98.489 E13.1006
G1 X89.034 Y98.207 E13.11093
G1 X88.826 Y97.695 E13.12931
G1 X88.388 Y96.576 E13.16927
G1 X88.114 Y95.828 E13.19577
G1 X87.975 Y95.346 E13.21245
G1 X87.872 Y94.915 E13.22719
G1 X87.483 Y93.208 E13.28542
G1 X87.355 Y92.475 E13.31017
G1 X87.261 Y91.433 E13.34497
G1 X87.186 Y90.417 E13.37885
G1 X87.147 Y89.782 E13.40001
G1 X87.146 Y89.356 E13.41418
G1 X87.205 Y88.328 E13.44843
G1 X87.283 Y87.294 E13.48292
G1 X87.33 Y86.747 E13.50118
G1 X87.398 Y86.27 E13.51721
G1 X87.646 Y85.071 E13.55793
G1 X87.836 Y84.241 E13.58625
G1 X87.991 Y83.607 E13.60796
G1 X88.111 Y83.215 E13.62159
G1 X88.541 Y82.052 E13.66283
G1 X88.86 Y81.243 E13.69176
G1 X89.101 Y80.657 E13.71283
G1 X89.277 Y80.289 E13.7264
G1 X89.89 Y79.176 E13.76866
G1 X90.255 Y78.547 E13.79285
G1 X90.648 Y77.888 E13.81837
G1 X91.014 Y77.356 E13.83985
G1 X91.32 Y76.96 E13.85649
G1 X92.307 Y75.725 E13.90907
G0 F3000 X92.618 Y75.977
G1 F1200 X93.126 Y75.397 E13.93472
G1 X93.522 Y75.013 E13.95306
G1 X94.881 Y73.753 E14.0147
G1 X95.431 Y73.294 E14.03853
G1 X96.192 Y72.761 E14.06943
G1 X97.089 Y72.15 E14.10553
G1 X97.634 Y71.79 E14.12725
G1 X97.957 Y71.603 E14.13967
G1 X98.843 Y71.157 E14.17266
G1 X99.812 Y70.69 E14.20844
G1 X100.361 Y70.435 E14.22857
G1 X100.706 Y70.298 E14.24091
G1 X101.846 Y69.923 E14.28083
G1 X102.612 Y69.686 E14.3075
G1 X103.334 Y69.476 E14.33251
G1 X103.695 Y69.394 E14.34482
G1 X104.749 Y69.216 E14.38037
G1 X105.666 Y69.079 E14.41121
G1 X106.407 Y68.978 E14.43608
G1 X107.154 Y68.938 E14.46097
G1 X107.254 Y68.936 E14.46429
G1 X108.745 Y68.936 E14.51388
G1 X109.461 Y68.947 E14.5377
G1 X110.07 Y68.998 E14.55803
G1 X110.538 Y69.062 E14.57374
G1 X111.792 Y69.251 E14.61592
G1 X112.586 Y69.388 E14.64272
G1 X113.112 Y69.52 E14.66075
G1 X113.217 Y69.55 E14.66438
G1 X115.088 Y70.128 E14.72952
G1 X115.712 Y70.347 E14.75151
G1 X115.898 Y70.429 E14.75827
G1 X116.653 Y70.779 E14.78595
G1 X117.629 Y71.25 E14.822
G1 X118.228 Y71.55 E14.84428
G1 X118.547 Y71.733 E14.85651
G1 X119.387 Y72.284 E14.88992
G1 X120.332 Y72.928 E14.92796
G1 X120.856 Y73.3 E14.94933
G1 X121.111 Y73.508 E14.96028
G1 X122.095 Y74.4 E15.00445
G1 X122.591 Y74.861 E15.02697
G1 X123.037 Y75.288 E15.04751
G1 X123.235 Y75.494 E15.05701
G1 X123.627 Y75.943 E15.07684
G1 X123.956 Y76.344 E15.09409
G1 X124.543 Y77.081 E15.12543
G1 X124.877 Y77.514 E15.14361
G1 X125.196 Y77.955 E15.16172
G1 X125.355 Y78.198 E15.17138
G1 X125.661 Y78.715 E15.19136
G1 X126.23 Y79.701 E15.22922
G1 X126.57 Y80.307 E15.25233
G1 X126.736 Y80.649 E15.26498
G1 X127.177 Y81.716 E15.30338
G1 X127.468 Y82.458 E15.32988
G1 X127.752 Y83.212 E15.35668
G1 X127.906 Y83.725 E15.3745
G1 X127.974 Y84.011 E15.38428
G1 X128.333 Y85.59 E15.43813
G1 X128.472 Y86.24 E15.46024
G1 X128.529 Y86.613 E15.47279
G1 X128.625 Y87.652 E15.5075
G1 X128.691 Y88.538 E15.53705
G1 X128.737 Y89.292 E15.56217
G1 X128.734 Y89.84 E15.5804
G1 X128.698 Y90.405 E15.59923
G1 X128.609 Y91.574 E15.63822
G1 X128.438 Y93.479 E15.70184
G1 X128.227 Y96.274 E15.79506
G1 X128.099 Y98.987 E15.8854
G1 X128.047 Y101.706 E15.97585
G1 X128.074 Y104.46 E16.06745
G1 X128.177 Y107.209 E16.15895
G1 X128.357 Y109.926 E16.24951
G1 X128.616 Y112.67 E16.34119
G1 X128.946 Y115.358 E16.43126
G1 X129.361 Y118.087 E16.52307
G1 X129.848 Y120.776 E16.61396
G1 X130.409 Y123.448 E16.70477
G1 X131.05 Y126.114 E16.79597
G1 X131.816 Y128.937 E16.89326
G1 X132.326 Y130.712 E16.95468
G1 X132.451 Y131.227 E16.97231
G1 X132.488 Y131.43 E16.97917
G1 X132.539 Y131.942 E16.99629
G1 X132.56 Y133.038 E17.03275
G1 X132.56 Y136.597 E17.15112
G1 X132.551 Y137.268 E17.17344
G1 X132.455 Y138.075 E17.20047
G1 X132.342 Y138.57 E17.21736
G1 X132.261 Y138.853 E17.22715
G1 X132.023 Y139.601 E17.25325
G1 X131.792 Y140.225 E17.27538
G1 X131.566 Y140.732 E17.29385
G1 X131.083 Y141.737 E17.33093
G1 X130.834 Y142.195 E17.34827
